; GCode generated by CraftWare

G28 X0 Y0
G28 Z0

M190 S65 ;set bed temp (wait)
M109 S240 ;set head temp (wait)
; ------------------------------------
; Layer #0
; ------------------------------------
G21 ; mm
G90 ; abs
G92 E0 ; reset extr
M106 S0
;segType:Skirt
G0 F1200 E-1.0000
G0 F300 Z0.200
G0 X78.500 Y149.889 F5400
G0 F1200 E0.0000
G1 X78.699 Y150.083 E0.0092 F3000
G1 X78.898 Y150.278 E0.0185
G1 X79.363 Y150.342 E0.0341
G1 X180.301 Y150.342 E3.3913
G1 X181.894 Y148.786 E3.4654
G1 X182.093 Y148.462 E3.4780
G1 X182.093 Y66.510 E6.2038
G1 X180.234 Y64.694 E6.2902
G1 X179.769 Y64.630 E6.3058
G1 X79.097 Y64.630 E9.6542
G1 X77.238 Y66.445 E9.7406
G1 X77.172 Y66.899 E9.7559
G1 X77.172 Y148.592 E12.4730
G1 X78.500 Y149.889 E12.5347
G1 X78.500 Y150.278 E12.5477
G1 X78.699 Y150.472 E12.5569
G1 X78.898 Y150.667 E12.5662
G1 X79.363 Y150.731 E12.5818
G1 X180.301 Y150.731 E15.9390
G1 X182.426 Y148.657 E16.0378
G1 X182.492 Y148.203 E16.0530
G1 X182.492 Y66.510 E18.7701
G1 X180.367 Y64.435 E18.8689
G1 X180.035 Y64.241 E18.8817
G1 X79.097 Y64.241 E22.2389
G1 X76.972 Y66.316 E22.3377
G1 X76.773 Y66.639 E22.3503
G1 X76.773 Y148.592 E25.0761
G1 X78.500 Y150.278 E25.1563
G1 X78.500 Y150.667 E25.1693
G0 F1200 E24.1693
G0 X79.399 Y148.691 F5400
G0 X80.299 Y146.715
G0 F1200 E25.1693
;segType:Loop
G1 X80.299 Y67.577 E27.8014 F3000
G1 X179.099 Y67.577 E31.0875
G1 X179.099 Y147.395 E33.7423
G1 X80.299 Y147.395 E37.0284
G1 X80.299 Y146.910 E37.0446
;segType:Perimeter
G0 X80.562 Y147.459 F5400
G1 X79.899 Y147.728 E37.0684 F2100
G1 X79.899 Y67.186 E39.7472
G1 X179.499 Y67.186 E43.0599
G1 X179.499 Y147.786 E45.7406
G1 X79.959 Y147.786 E49.0514
G1 X80.233 Y147.138
;segType:Loop
G0 X80.699 Y145.644 F5400
G1 X80.699 Y67.967 E51.6349 F3000
G1 X178.699 Y67.967 E54.8944
G1 X178.699 Y147.005 E57.5232
G1 X80.699 Y147.005 E60.7827
G1 X80.699 Y145.839 E60.8215
;segType:HShell
G0 X177.938 Y146.810 F5400
G1 X178.499 Y146.262 E60.8476 F3000
G1 X178.499 Y145.711
G1 X177.374 Y146.810 E60.8999
G1 X176.810 Y146.810
G1 X178.499 Y145.160 E60.9784
G1 X178.499 Y144.610
G1 X176.246 Y146.810 E61.0831
G1 X175.682 Y146.810
G1 X178.499 Y144.059 E61.2141
G1 X178.499 Y143.508
G1 X175.118 Y146.810 E61.3713
G1 X174.554 Y146.810
G1 X178.499 Y142.958 E61.5547
G1 X178.499 Y142.407
G1 X173.990 Y146.810 E61.7643
G1 X173.426 Y146.810
G1 X178.499 Y141.856 E62.0001
G1 X178.499 Y141.305
G1 X172.862 Y146.810 E62.2621
G1 X172.297 Y146.810
G1 X178.499 Y140.755 E62.5504
G1 X178.499 Y140.204
G1 X171.733 Y146.810 E62.8649
G1 X171.169 Y146.810
G1 X178.499 Y139.653 E63.2056
G1 X178.499 Y139.103
G1 X170.605 Y146.810 E63.5726
G1 X170.041 Y146.810
G1 X178.499 Y138.552 E63.9657
G1 X178.499 Y138.001
G1 X169.477 Y146.810 E64.3851
G1 X168.913 Y146.810
G1 X178.499 Y137.451 E64.8307
G1 X178.499 Y136.900
G1 X168.349 Y146.810 E65.3025
G1 X167.785 Y146.810
G1 X178.499 Y136.349 E65.8005
G1 X178.499 Y135.798
G1 X167.221 Y146.810 E66.3247
G1 X166.657 Y146.810
G1 X178.499 Y135.248 E66.8752
G1 X178.499 Y134.697
G1 X166.093 Y146.810 E67.4519
G1 X165.529 Y146.810
G1 X178.499 Y134.146 E68.0548
G1 X178.499 Y133.596
G1 X164.965 Y146.810 E68.6839
G1 X164.401 Y146.810
G1 X178.499 Y133.045 E69.3392
G1 X178.499 Y132.494
G1 X163.837 Y146.810 E70.0208
G1 X163.273 Y146.810
G1 X178.499 Y131.944 E70.7285
G1 X178.499 Y131.393
G1 X162.709 Y146.810 E71.4625
G1 X162.145 Y146.810
G1 X178.499 Y130.842 E72.2227
G1 X178.499 Y130.291
G1 X161.581 Y146.810 E73.0092
G1 X161.017 Y146.810
G1 X178.499 Y129.741 E73.8218
G1 X178.499 Y129.190
G1 X160.453 Y146.810 E74.6607
G1 X159.889 Y146.810
G1 X178.499 Y128.639 E75.5258
G1 X178.499 Y128.089
G1 X159.325 Y146.810 E76.4171
G1 X158.761 Y146.810
G1 X178.499 Y127.538 E77.3346
G1 X178.499 Y126.987
G1 X158.196 Y146.810 E78.2783
G1 X157.632 Y146.810
G1 X178.499 Y126.437 E79.2483
G1 X178.499 Y125.886
G1 X157.068 Y146.810 E80.2445
G1 X156.504 Y146.810
G1 X178.499 Y125.335 E81.2669
G1 X178.499 Y124.784
G1 X155.940 Y146.810 E82.3155
G1 X155.376 Y146.810
G1 X178.499 Y124.234 E83.3904
G1 X178.499 Y123.683
G1 X154.812 Y146.810 E84.4914
G1 X154.248 Y146.810
G1 X178.499 Y123.132 E85.6187
G1 X178.499 Y122.582
G1 X153.684 Y146.810 E86.7722
G1 X153.120 Y146.810
G1 X178.499 Y122.031 E87.9519
G1 X178.499 Y121.480
G1 X152.556 Y146.810 E89.1578
G1 X151.992 Y146.810
G1 X178.499 Y120.930 E90.3900
G1 X178.499 Y120.379
G1 X151.428 Y146.810 E91.6483
G1 X150.864 Y146.810
G1 X178.499 Y119.828 E92.9329
G1 X178.499 Y119.277
G1 X150.300 Y146.810 E94.2437
G1 X149.736 Y146.810
G1 X178.499 Y118.727 E95.5808
G1 X178.499 Y118.176
G1 X149.172 Y146.810 E96.9440
G1 X148.608 Y146.810
G1 X178.499 Y117.625 E98.3335
G1 X178.499 Y117.075
G1 X148.044 Y146.810 E99.7492
G1 X147.480 Y146.810
G1 X178.499 Y116.524 E101.1911
G1 X178.499 Y115.973
G1 X146.916 Y146.810 E102.6592
G1 X146.352 Y146.810
G1 X178.499 Y115.422 E104.1535
G1 X178.499 Y114.872
G1 X145.788 Y146.810 E105.6741
G1 X145.224 Y146.810
G1 X178.499 Y114.321 E107.2209
G1 X178.499 Y113.770
G1 X144.660 Y146.810 E108.7939
G1 X144.095 Y146.810
G1 X178.499 Y113.220 E110.3931
G1 X178.499 Y112.669
G1 X143.531 Y146.810 E112.0185
G1 X142.967 Y146.810
G1 X178.499 Y112.118 E113.6702
G1 X178.499 Y111.568
G1 X142.403 Y146.810 E115.3481
G1 X141.839 Y146.810
G1 X178.499 Y111.017 E117.0521
G1 X178.499 Y110.466
G1 X141.275 Y146.810 E118.7825
G1 X140.711 Y146.810
G1 X178.499 Y109.915 E120.5390
G1 X178.499 Y109.365
G1 X140.147 Y146.810 E122.3217
G1 X139.583 Y146.810
G1 X178.499 Y108.814 E124.1307
G1 X178.499 Y108.263
G1 X139.019 Y146.810 E125.9659
G1 X138.455 Y146.810
G1 X178.499 Y107.713 E127.8273
G1 X178.499 Y107.162
G1 X137.891 Y146.810 E129.7149
G1 X137.327 Y146.810
G1 X178.499 Y106.611 E131.6288
G1 X178.499 Y106.061
G1 X136.763 Y146.810 E133.5688
G1 X136.199 Y146.810
G1 X178.499 Y105.510 E135.5351
G1 X178.499 Y104.959
G1 X135.635 Y146.810 E137.5276
G1 X135.071 Y146.810
G1 X178.499 Y104.408 E139.5463
G1 X178.499 Y103.858
G1 X134.507 Y146.810 E141.5913
G1 X133.943 Y146.810
G1 X178.499 Y103.307 E143.6624
G1 X178.499 Y102.756
G1 X133.379 Y146.810 E145.7598
G1 X132.815 Y146.810
G1 X178.499 Y102.206 E147.8834
G1 X178.499 Y101.655
G1 X132.251 Y146.810 E150.0332
G1 X131.687 Y146.810
G1 X178.499 Y101.104 E152.2092
G1 X178.499 Y100.554
G1 X131.123 Y146.810 E154.4115
G1 X130.559 Y146.810
G1 X178.499 Y100.003 E156.6399
G1 X178.499 Y99.452
G1 X129.995 Y146.810 E158.8946
G1 X129.430 Y146.810
G1 X178.499 Y98.901 E161.1755
G1 X178.499 Y98.351
G1 X128.866 Y146.810 E163.4827
G1 X128.302 Y146.810
G1 X178.499 Y97.800 E165.8160
G1 X178.499 Y97.249
G1 X127.738 Y146.810 E168.1756
G1 X127.174 Y146.810
G1 X178.499 Y96.699 E170.5614
G1 X178.499 Y96.148
G1 X126.610 Y146.810 E172.9734
G1 X126.046 Y146.810
G1 X178.499 Y95.597 E175.4116
G1 X178.499 Y95.047
G1 X125.482 Y146.810 E177.8760
G1 X124.918 Y146.810
G1 X178.499 Y94.496 E180.3667
G1 X178.499 Y93.945
G1 X124.354 Y146.810 E182.8836
G1 X123.790 Y146.810
G1 X178.499 Y93.394 E185.4267
G1 X178.499 Y92.844
G1 X123.226 Y146.810 E187.9960
G1 X122.662 Y146.810
G1 X178.499 Y92.293 E190.5915
G1 X178.499 Y91.742
G1 X122.098 Y146.810 E193.2133
G1 X121.534 Y146.810
G1 X178.499 Y91.192 E195.8612
G1 X178.499 Y90.641
G1 X120.970 Y146.810 E198.5354
G1 X120.406 Y146.810
G1 X178.499 Y90.090 E201.2358
G1 X178.499 Y89.540
G1 X119.842 Y146.810 E203.9625
G1 X119.278 Y146.810
G1 X178.499 Y88.989 E206.7153
G1 X178.499 Y88.438
G1 X118.714 Y146.810 E209.4944
G1 X118.150 Y146.810
G1 X178.499 Y87.887 E212.2997
G1 X178.499 Y87.337
G1 X117.586 Y146.810 E215.1312
G1 X117.022 Y146.810
G1 X178.499 Y86.786 E217.9889
G1 X178.499 Y86.235
G1 X116.458 Y146.810 E220.8728
G1 X115.894 Y146.810
G1 X178.499 Y85.685 E223.7830
G1 X178.499 Y85.134
G1 X115.329 Y146.810 E226.7194
G1 X114.765 Y146.810
G1 X178.499 Y84.583 E229.6820
G1 X178.499 Y84.032
G1 X114.201 Y146.810 E232.6708
G1 X113.637 Y146.810
G1 X178.499 Y83.482 E235.6858
G1 X178.499 Y82.931
G1 X113.073 Y146.810 E238.7271
G1 X112.509 Y146.810
G1 X178.499 Y82.380 E241.7946
G1 X178.499 Y81.830
G1 X111.945 Y146.810 E244.8882
G1 X111.381 Y146.810
G1 X178.499 Y81.279 E248.0082
G1 X178.499 Y80.728
G1 X110.817 Y146.810 E251.1543
G1 X110.253 Y146.810
G1 X178.499 Y80.178 E254.3266
G1 X178.499 Y79.627
G1 X109.689 Y146.810 E257.5252
G1 X109.125 Y146.810
G1 X178.499 Y79.076 E260.7500
G1 X178.499 Y78.525
G1 X108.561 Y146.810 E264.0010
G1 X107.997 Y146.810
G1 X178.499 Y77.975 E267.2782
G1 X178.499 Y77.424
G1 X107.433 Y146.810 E270.5817
G1 X106.869 Y146.810
G1 X178.499 Y76.873 E273.9113
G1 X178.499 Y76.323
G1 X106.305 Y146.810 E277.2672
G1 X105.741 Y146.810
G1 X178.499 Y75.772 E280.6493
G1 X178.499 Y75.221
G1 X105.177 Y146.810 E284.0577
G1 X104.613 Y146.810
G1 X178.499 Y74.671 E287.4922
G1 X178.499 Y74.120
G1 X104.049 Y146.810 E290.9530
G1 X103.485 Y146.810
G1 X178.499 Y73.569 E294.4399
G1 X178.499 Y73.018
G1 X102.921 Y146.810 E297.9531
G1 X102.357 Y146.810
G1 X178.499 Y72.468 E301.4925
G1 X178.499 Y71.917
G1 X101.793 Y146.810 E305.0582
G1 X101.228 Y146.810
G1 X178.499 Y71.366 E308.6500
G1 X178.499 Y70.816
G1 X100.664 Y146.810 E312.2681
G1 X100.100 Y146.810
G1 X178.499 Y70.265 E315.9124
G1 X178.499 Y69.714
G1 X99.536 Y146.810 E319.5829
G1 X98.972 Y146.810
G1 X178.499 Y69.164 E323.2796
G1 X178.499 Y68.613
G1 X98.408 Y146.810 E327.0026
G1 X97.844 Y146.810
G1 X178.396 Y68.163 E330.7470
G1 X177.832 Y68.163
G1 X97.280 Y146.810 E334.4913
G1 X96.716 Y146.810
G1 X177.268 Y68.163 E338.2357
G1 X176.704 Y68.163
G1 X96.152 Y146.810 E341.9801
G1 X95.588 Y146.810
G1 X176.140 Y68.163 E345.7245
G1 X175.576 Y68.163
G1 X95.024 Y146.810 E349.4689
G1 X94.460 Y146.810
G1 X175.012 Y68.163 E353.2133
G1 X174.448 Y68.163
G1 X93.896 Y146.810 E356.9577
G1 X93.332 Y146.810
G1 X173.884 Y68.163 E360.7020
G1 X173.320 Y68.163
G1 X92.768 Y146.810 E364.4464
G1 X92.204 Y146.810
G1 X172.756 Y68.163 E368.1908
G1 X172.192 Y68.163
G1 X91.640 Y146.810 E371.9352
G1 X91.076 Y146.810
G1 X171.628 Y68.163 E375.6796
G1 X171.064 Y68.163
G1 X90.512 Y146.810 E379.4240
G1 X89.948 Y146.810
G1 X170.499 Y68.163 E383.1683
G1 X169.935 Y68.163
G1 X89.384 Y146.810 E386.9127
G1 X88.820 Y146.810
G1 X169.371 Y68.163 E390.6571
G1 X168.807 Y68.163
G1 X88.256 Y146.810 E394.4015
G1 X87.692 Y146.810
G1 X168.243 Y68.163 E398.1459
G1 X167.679 Y68.163
G1 X87.127 Y146.810 E401.8903
G1 X86.563 Y146.810
G1 X167.115 Y68.163 E405.6347
G1 X166.551 Y68.163
G1 X85.999 Y146.810 E409.3790
G1 X85.435 Y146.810
G1 X165.987 Y68.163 E413.1234
G1 X165.423 Y68.163
G1 X84.871 Y146.810 E416.8678
G1 X84.307 Y146.810
G1 X164.859 Y68.163 E420.6122
G1 X164.295 Y68.163
G1 X83.743 Y146.810 E424.3566
G1 X83.179 Y146.810
G1 X163.731 Y68.163 E428.1010
G1 X163.167 Y68.163
G1 X82.615 Y146.810 E431.8454
G1 X82.051 Y146.810
G1 X162.603 Y68.163 E435.5897
G1 X162.039 Y68.163
G1 X81.487 Y146.810 E439.3341
G1 X80.923 Y146.810
G1 X161.475 Y68.163 E443.0785
G1 X160.911 Y68.163
G1 X80.899 Y146.282 E446.7978
G1 X80.899 Y145.732
G1 X160.347 Y68.163 E450.4908
G1 X159.783 Y68.163
G1 X80.899 Y145.181 E454.1577
G1 X80.899 Y144.630
G1 X159.219 Y68.163 E457.7983
G1 X158.655 Y68.163
G1 X80.899 Y144.080 E461.4127
G1 X80.899 Y143.529
G1 X158.091 Y68.163 E465.0009
G1 X157.527 Y68.163
G1 X80.899 Y142.978 E468.5629
G1 X80.899 Y142.428
G1 X156.963 Y68.163 E472.0986
G1 X156.399 Y68.163
G1 X80.899 Y141.877 E475.6081
G1 X80.899 Y141.326
G1 X155.834 Y68.163 E479.0915
G1 X155.270 Y68.163
G1 X80.899 Y140.775 E482.5485
G1 X80.899 Y140.225
G1 X154.706 Y68.163 E485.9794
G1 X154.142 Y68.163
G1 X80.899 Y139.674 E489.3841
G1 X80.899 Y139.123
G1 X153.578 Y68.163 E492.7625
G1 X153.014 Y68.163
G1 X80.899 Y138.573 E496.1147
G1 X80.899 Y138.022
G1 X152.450 Y68.163 E499.4407
G1 X151.886 Y68.163
G1 X80.899 Y137.471 E502.7405
G1 X80.899 Y136.921
G1 X151.322 Y68.163 E506.0141
G1 X150.758 Y68.163
G1 X80.899 Y136.370 E509.2614
G1 X80.899 Y135.819
G1 X150.194 Y68.163 E512.4825
G1 X149.630 Y68.163
G1 X80.899 Y135.268 E515.6774
G1 X80.899 Y134.718
G1 X149.066 Y68.163 E518.8461
G1 X148.502 Y68.163
G1 X80.899 Y134.167 E521.9886
G1 X80.899 Y133.616
G1 X147.938 Y68.163 E525.1048
G1 X147.374 Y68.163
G1 X80.899 Y133.066 E528.1948
G1 X80.899 Y132.515
G1 X146.810 Y68.163 E531.2586
G1 X146.246 Y68.163
G1 X80.899 Y131.964 E534.2962
G1 X80.899 Y131.414
G1 X145.682 Y68.163 E537.3076
G1 X145.118 Y68.163
G1 X80.899 Y130.863 E540.2927
G1 X80.899 Y130.312
G1 X144.554 Y68.163 E543.2517
G1 X143.990 Y68.163
G1 X80.899 Y129.761 E546.1844
G1 X80.899 Y129.211
G1 X143.426 Y68.163 E549.0909
G1 X142.862 Y68.163
G1 X80.899 Y128.660 E551.9712
G1 X80.899 Y128.109
G1 X142.298 Y68.163 E554.8252
G1 X141.733 Y68.163
G1 X80.899 Y127.559 E557.6530
G1 X80.899 Y127.008
G1 X141.169 Y68.163 E560.4547
G1 X140.605 Y68.163
G1 X80.899 Y126.457 E563.2301
G1 X80.899 Y125.907
G1 X140.041 Y68.163 E565.9793
G1 X139.477 Y68.163
G1 X80.899 Y125.356 E568.7022
G1 X80.899 Y124.805
G1 X138.913 Y68.163 E571.3990
G1 X138.349 Y68.163
G1 X80.899 Y124.254 E574.0695
G1 X80.899 Y123.704
G1 X137.785 Y68.163 E576.7138
G1 X137.221 Y68.163
G1 X80.899 Y123.153 E579.3319
G1 X80.899 Y122.602
G1 X136.657 Y68.163 E581.9237
G1 X136.093 Y68.163
G1 X80.899 Y122.052 E584.4894
G1 X80.899 Y121.501
G1 X135.529 Y68.163 E587.0288
G1 X134.965 Y68.163
G1 X80.899 Y120.950 E589.5420
G1 X80.899 Y120.399
G1 X134.401 Y68.163 E592.0290
G1 X133.837 Y68.163
G1 X80.899 Y119.849 E594.4898
G1 X80.899 Y119.298
G1 X133.273 Y68.163 E596.9243
G1 X132.709 Y68.163
G1 X80.899 Y118.747 E599.3327
G1 X80.899 Y118.197
G1 X132.145 Y68.163 E601.7148
G1 X131.581 Y68.163
G1 X80.899 Y117.646 E604.0707
G1 X80.899 Y117.095
G1 X131.017 Y68.163 E606.4004
G1 X130.453 Y68.163
G1 X80.899 Y116.545 E608.7039
G1 X80.899 Y115.994
G1 X129.889 Y68.163 E610.9811
G1 X129.325 Y68.163
G1 X80.899 Y115.443 E613.2321
G1 X80.899 Y114.892
G1 X128.761 Y68.163 E615.4569
G1 X128.197 Y68.163
G1 X80.899 Y114.342 E617.6555
G1 X80.899 Y113.791
G1 X127.632 Y68.163 E619.8279
G1 X127.068 Y68.163
G1 X80.899 Y113.240 E621.9741
G1 X80.899 Y112.690
G1 X126.504 Y68.163 E624.0940
G1 X125.940 Y68.163
G1 X80.899 Y112.139 E626.1877
G1 X80.899 Y111.588
G1 X125.376 Y68.163 E628.2552
G1 X124.812 Y68.163
G1 X80.899 Y111.038 E630.2965
G1 X80.899 Y110.487
G1 X124.248 Y68.163 E632.3115
G1 X123.684 Y68.163
G1 X80.899 Y109.936 E634.3004
G1 X80.899 Y109.385
G1 X123.120 Y68.163 E636.2630
G1 X122.556 Y68.163
G1 X80.899 Y108.835 E638.1994
G1 X80.899 Y108.284
G1 X121.992 Y68.163 E640.1096
G1 X121.428 Y68.163
G1 X80.899 Y107.733 E641.9936
G1 X80.899 Y107.183
G1 X120.864 Y68.163 E643.8513
G1 X120.300 Y68.163
G1 X80.899 Y106.632 E645.6828
G1 X80.899 Y106.081
G1 X119.736 Y68.163 E647.4881
G1 X119.172 Y68.163
G1 X80.899 Y105.531 E649.2672
G1 X80.899 Y104.980
G1 X118.608 Y68.163 E651.0201
G1 X118.044 Y68.163
G1 X80.899 Y104.429 E652.7467
G1 X80.899 Y103.878
G1 X117.480 Y68.163 E654.4472
G1 X116.916 Y68.163
G1 X80.899 Y103.328 E656.1214
G1 X80.899 Y102.777
G1 X116.352 Y68.163 E657.7694
G1 X115.788 Y68.163
G1 X80.899 Y102.226 E659.3911
G1 X80.899 Y101.676
G1 X115.224 Y68.163 E660.9867
G1 X114.660 Y68.163
G1 X80.899 Y101.125 E662.5561
G1 X80.899 Y100.574
G1 X114.096 Y68.163 E664.0991
G1 X113.531 Y68.163
G1 X80.899 Y100.024 E665.6161
G1 X80.899 Y99.473
G1 X112.967 Y68.163 E667.1067
G1 X112.403 Y68.163
G1 X80.899 Y98.922 E668.5712
G1 X80.899 Y98.371
G1 X111.839 Y68.163 E670.0094
G1 X111.275 Y68.163
G1 X80.899 Y97.821 E671.4215
G1 X80.899 Y97.270
G1 X110.711 Y68.163 E672.8073
G1 X110.147 Y68.163
G1 X80.899 Y96.719 E674.1668
G1 X80.899 Y96.169
G1 X109.583 Y68.163 E675.5002
G1 X109.019 Y68.163
G1 X80.899 Y95.618 E676.8073
G1 X80.899 Y95.067
G1 X108.455 Y68.163 E678.0883
G1 X107.891 Y68.163
G1 X80.899 Y94.517 E679.3430
G1 X80.899 Y93.966
G1 X107.327 Y68.163 E680.5715
G1 X106.763 Y68.163
G1 X80.899 Y93.415 E681.7738
G1 X80.899 Y92.864
G1 X106.199 Y68.163 E682.9498
G1 X105.635 Y68.163
G1 X80.899 Y92.314 E684.0996
G1 X80.899 Y91.763
G1 X105.071 Y68.163 E685.2232
G1 X104.507 Y68.163
G1 X80.899 Y91.212 E686.3206
G1 X80.899 Y90.662
G1 X103.943 Y68.163 E687.3918
G1 X103.379 Y68.163
G1 X80.899 Y90.111 E688.4368
G1 X80.899 Y89.560
G1 X102.815 Y68.163 E689.4555
G1 X102.251 Y68.163
G1 X80.899 Y89.009 E690.4480
G1 X80.899 Y88.459
G1 X101.687 Y68.163 E691.4143
G1 X101.123 Y68.163
G1 X80.899 Y87.908 E692.3544
G1 X80.899 Y87.357
G1 X100.559 Y68.163 E693.2683
G1 X99.995 Y68.163
G1 X80.899 Y86.807 E694.1559
G1 X80.899 Y86.256
G1 X99.430 Y68.163 E695.0174
G1 X98.866 Y68.163
G1 X80.899 Y85.705 E695.8526
G1 X80.899 Y85.155
G1 X98.302 Y68.163 E696.6615
G1 X97.738 Y68.163
G1 X80.899 Y84.604 E697.4443
G1 X80.899 Y84.053
G1 X97.174 Y68.163 E698.2008
G1 X96.610 Y68.163
G1 X80.899 Y83.502 E698.9312
G1 X80.899 Y82.952
G1 X96.046 Y68.163 E699.6353
G1 X95.482 Y68.163
G1 X80.899 Y82.401 E700.3132
G1 X80.899 Y81.850
G1 X94.918 Y68.163 E700.9649
G1 X94.354 Y68.163
G1 X80.899 Y81.300 E701.5903
G1 X80.899 Y80.749
G1 X93.790 Y68.163 E702.1895
G1 X93.226 Y68.163
G1 X80.899 Y80.198 E702.7625
G1 X80.899 Y79.648
G1 X92.662 Y68.163 E703.3094
G1 X92.098 Y68.163
G1 X80.899 Y79.097 E703.8299
G1 X80.899 Y78.546
G1 X91.534 Y68.163 E704.3243
G1 X90.970 Y68.163
G1 X80.899 Y77.995 E704.7924
G1 X80.899 Y77.445
G1 X90.406 Y68.163 E705.2343
G1 X89.842 Y68.163
G1 X80.899 Y76.894 E705.6500
G1 X80.899 Y76.343
G1 X89.278 Y68.163 E706.0395
G1 X88.714 Y68.163
G1 X80.899 Y75.793 E706.4028
G1 X80.899 Y75.242
G1 X88.150 Y68.163 E706.7398
G1 X87.586 Y68.163
G1 X80.899 Y74.691 E707.0507
G1 X80.899 Y74.141
G1 X87.022 Y68.163 E707.3353
G1 X86.458 Y68.163
G1 X80.899 Y73.590 E707.5937
G1 X80.899 Y73.039
G1 X85.894 Y68.163 E707.8258
G1 X85.329 Y68.163
G1 X80.899 Y72.488 E708.0318
G1 X80.899 Y71.938
G1 X84.765 Y68.163 E708.2115
G1 X84.201 Y68.163
G1 X80.899 Y71.387 E708.3650
G1 X80.899 Y70.836
G1 X83.637 Y68.163 E708.4923
G1 X83.073 Y68.163
G1 X80.899 Y70.286 E708.5934
G1 X80.899 Y69.735
G1 X82.509 Y68.163 E708.6682
G1 X81.945 Y68.163
G1 X80.899 Y69.184 E708.7169
G1 X80.899 Y68.634
G1 X81.381 Y68.163 E708.7393
; ------------------------------------
; Layer #1
; ------------------------------------
G21 ; mm
G90 ; abs
G92 E0 ; reset extr
M106 S0
G0 F1200 E-1.0000
G0 F300 Z0.400
G0 X96.154 Y87.115 F5400
G0 X98.543 Y87.889
G0 X112.921 Y100.952
G0 X122.644 Y110.383
G0 F1200 E0.0000
;segType:HShell
G1 X110.528 Y98.554 E0.5632 F3000
;segType:Perimeter
G0 X110.131 Y98.588 F5400
G1 X109.468 Y98.320 E0.5870 F2100
G1 X88.528 Y98.320 E1.2835
G1 X88.528 Y70.710 E2.2017
G1 X128.325 Y70.710 E3.5254
G1 X130.526 Y70.764 E3.5986
G1 X132.719 Y70.926 E3.6718
G1 X134.901 Y71.195 E3.7449
G1 X137.067 Y71.571 E3.8180
G1 X139.212 Y72.053 E3.8911
G1 X141.331 Y72.640 E3.9643
G1 X143.419 Y73.329 E4.0374
G1 X145.471 Y74.120 E4.1105
G1 X147.481 Y75.011 E4.1837
G1 X149.445 Y76.000 E4.2568
G1 X151.358 Y77.084 E4.3299
G1 X153.216 Y78.260 E4.4031
G1 X155.014 Y79.526 E4.4762
G1 X156.747 Y80.879 E4.5493
G1 X158.412 Y82.315 E4.6225
G1 X160.005 Y83.832 E4.6956
G1 X161.521 Y85.424 E4.7688
G1 X162.957 Y87.090 E4.8419
G1 X164.310 Y88.823 E4.9150
G1 X165.577 Y90.621 E4.9882
G1 X166.753 Y92.479 E5.0613
G1 X167.837 Y94.393 E5.1345
G1 X168.826 Y96.357 E5.2076
G1 X169.717 Y98.368 E5.2808
G1 X170.509 Y100.420 E5.3539
G1 X171.199 Y102.508 E5.4271
G1 X171.785 Y104.628 E5.5002
G1 X172.267 Y106.773 E5.5734
G1 X172.643 Y108.940 E5.6465
G1 X172.912 Y111.123 E5.7197
G1 X173.074 Y113.317 E5.7928
G1 X173.128 Y115.517 E5.8660
G1 X173.128 Y140.320 E6.6910
G1 X109.528 Y140.320 E8.8063
G1 X109.528 Y98.378 E10.2013
G1 X109.253 Y97.731
;segType:Loop
G0 X108.431 Y97.929 F5400
G1 X88.928 Y97.929 E10.8500 F3000
G1 X88.928 Y71.101 E11.7423
G1 X128.320 Y71.101 E13.0525
G1 X130.506 Y71.155 E13.1252
G1 X132.678 Y71.315 E13.1977
G1 X134.841 Y71.581 E13.2701
G1 X136.988 Y71.954 E13.3426
G1 X139.113 Y72.431 E13.4150
G1 X141.213 Y73.013 E13.4875
G1 X143.282 Y73.696 E13.5600
G1 X145.314 Y74.480 E13.6324
G1 X147.307 Y75.363 E13.7049
G1 X149.253 Y76.343 E13.7774
G1 X151.149 Y77.416 E13.8499
G1 X152.990 Y78.582 E13.9223
G1 X154.772 Y79.837 E13.9948
G1 X156.490 Y81.178 E14.0673
G1 X158.140 Y82.602 E14.1398
G1 X159.718 Y84.105 E14.2123
G1 X161.221 Y85.683 E14.2848
G1 X162.645 Y87.334 E14.3573
G1 X163.986 Y89.052 E14.4298
G1 X165.242 Y90.835 E14.5023
G1 X166.408 Y92.677 E14.5748
G1 X167.483 Y94.574 E14.6473
G1 X168.463 Y96.521 E14.7198
G1 X169.346 Y98.514 E14.7923
G1 X170.131 Y100.549 E14.8649
G1 X170.815 Y102.619 E14.9374
G1 X171.397 Y104.720 E15.0099
G1 X171.874 Y106.848 E15.0824
G1 X172.247 Y108.996 E15.1550
G1 X172.514 Y111.161 E15.2275
G1 X172.674 Y113.335 E15.3000
G1 X172.728 Y115.522 E15.3728
G1 X172.728 Y139.929 E16.1846
G1 X109.928 Y139.929 E18.2733
G1 X109.928 Y97.929 E19.6702
G1 X108.631 Y97.929 E19.7134
G0 X107.334 Y97.539 F5400
G1 X89.328 Y97.539 E20.3123 F3000
G1 X89.328 Y71.492 E21.1786
G1 X128.315 Y71.492 E22.4753
G1 X130.486 Y71.545 E22.5475
G1 X132.638 Y71.704 E22.6193
G1 X134.781 Y71.968 E22.6911
G1 X136.908 Y72.337 E22.7629
G1 X139.013 Y72.810 E22.8347
G1 X141.094 Y73.386 E22.9065
G1 X143.144 Y74.062 E22.9783
G1 X145.158 Y74.840 E23.0501
G1 X147.132 Y75.714 E23.1220
G1 X149.061 Y76.686 E23.1938
G1 X150.939 Y77.749 E23.2656
G1 X152.764 Y78.905 E23.3374
G1 X154.530 Y80.148 E23.4092
G1 X156.232 Y81.477 E23.4811
G1 X157.868 Y82.888 E23.5529
G1 X159.432 Y84.378 E23.6247
G1 X160.922 Y85.942 E23.6966
G1 X162.333 Y87.578 E23.7685
G1 X163.662 Y89.282 E23.8403
G1 X164.906 Y91.048 E23.9122
G1 X166.063 Y92.874 E23.9841
G1 X167.128 Y94.754 E24.0560
G1 X168.100 Y96.685 E24.1278
G1 X168.975 Y98.660 E24.1997
G1 X169.753 Y100.678 E24.2716
G1 X170.431 Y102.730 E24.3435
G1 X171.008 Y104.813 E24.4154
G1 X171.482 Y106.922 E24.4873
G1 X171.851 Y109.052 E24.5592
G1 X172.116 Y111.198 E24.6311
G1 X172.275 Y113.354 E24.7030
G1 X172.328 Y115.527 E24.7753
G1 X172.328 Y139.539 E25.5739
G1 X110.328 Y139.539 E27.6361
G1 X110.328 Y97.539 E29.0330
G1 X107.534 Y97.539 E29.1259
G0 X119.933 Y92.461 F5400
G0 X120.980 Y92.527
G0 X123.135 Y93.790
;segType:HShell
G1 X128.527 Y99.055 E29.3766 F3000
G1 X128.858 Y98.828
G1 X122.525 Y92.644 E29.6710
;segType:Perimeter
G0 X122.183 Y92.977 F5400
G1 X122.017 Y93.659 E29.6944 F2100
G1 X122.173 Y94.067 E29.7089
G1 X122.230 Y94.515 E29.7239
G1 X122.170 Y94.986 E29.7397
G1 X121.995 Y95.427 E29.7555
G1 X121.716 Y95.812 E29.7713
G1 X121.349 Y96.116 E29.7872
G1 X120.917 Y96.319 E29.8030
G1 X120.448 Y96.408 E29.8189
G1 X119.971 Y96.378 E29.8348
G1 X119.517 Y96.231 E29.8507
G1 X119.114 Y95.975 E29.8665
G1 X118.788 Y95.628 E29.8824
G1 X118.559 Y95.212 E29.8982
G1 X118.442 Y94.752 E29.9140
G1 X118.442 Y94.278 E29.9297
G1 X118.559 Y93.818 E29.9455
G1 X118.788 Y93.402 E29.9613
G1 X119.114 Y93.055 E29.9772
G1 X119.517 Y92.800 E29.9930
G1 X119.971 Y92.652 E30.0089
G1 X120.448 Y92.622 E30.0248
G1 X120.917 Y92.711 E30.0407
G1 X121.349 Y92.915 E30.0565
G1 X121.716 Y93.218 E30.0724
G1 X121.961 Y93.556 E30.0863
G1 X122.633 Y93.805
;segType:Loop
G0 X122.620 Y94.612 F5400
G1 X122.561 Y95.081 E30.1020 F3000
G1 X122.350 Y95.614 E30.1211
G1 X122.013 Y96.078 E30.1402
G1 X121.568 Y96.446 E30.1594
G1 X121.044 Y96.692 E30.1786
G1 X120.474 Y96.801 E30.1979
G1 X119.894 Y96.765 E30.2173
G1 X119.342 Y96.586 E30.2366
G1 X118.854 Y96.276 E30.2558
G1 X118.460 Y95.856 E30.2749
G1 X118.183 Y95.354 E30.2940
G1 X118.042 Y94.800 E30.3130
G1 X118.042 Y94.230 E30.3320
G1 X118.183 Y93.677 E30.3510
G1 X118.460 Y93.174 E30.3701
G1 X118.854 Y92.755 E30.3892
G1 X119.342 Y92.445 E30.4084
G1 X119.894 Y92.266 E30.4277
G1 X120.474 Y92.229 E30.4471
G1 X121.044 Y92.338 E30.4664
G1 X121.568 Y92.585 E30.4856
G1 X122.013 Y92.952 E30.5048
G1 X122.352 Y93.420 E30.5240
G1 X122.564 Y93.973 E30.5438
G1 X122.620 Y94.419 E30.5587
G0 X122.714 Y95.780 F5400
G1 X122.706 Y95.800 E30.5594 F3000
G1 X122.310 Y96.344 E30.5818
G1 X121.788 Y96.776 E30.6043
G1 X121.172 Y97.066 E30.6270
G1 X120.500 Y97.194 E30.6497
G1 X119.816 Y97.151 E30.6725
G1 X119.167 Y96.940 E30.6952
G1 X118.593 Y96.576 E30.7178
G1 X118.131 Y96.084 E30.7403
G1 X117.808 Y95.496 E30.7626
G1 X117.642 Y94.848 E30.7848
G1 X117.642 Y94.182 E30.8070
G1 X117.808 Y93.535 E30.8292
G1 X118.131 Y92.946 E30.8516
G1 X118.593 Y92.454 E30.8740
G1 X119.167 Y92.090 E30.8966
G1 X119.816 Y91.879 E30.9193
G1 X120.500 Y91.836 E30.9421
G1 X121.172 Y91.964 E30.9648
G1 X121.788 Y92.254 E30.9875
G1 X122.310 Y92.686 E31.0100
G1 X122.709 Y93.235 E31.0326
G1 X122.955 Y93.880 E31.0556
G1 X123.036 Y94.515 E31.0769
G1 X122.952 Y95.177 E31.0991
G1 X122.786 Y95.598 E31.1141
G0 X119.933 Y96.570 F5400
G0 X118.985 Y96.124
G0 X101.486 Y84.145
G1 X101.533 Y84.515 E31.1265 F3000
G1 X101.433 Y85.305 E31.1530
G1 X101.139 Y86.047 E31.1796
G1 X100.669 Y86.694 E31.2062
G1 X100.051 Y87.206 E31.2329
G1 X99.322 Y87.548 E31.2596
G1 X98.530 Y87.700 E31.2864
G1 X97.725 Y87.649 E31.3133
G1 X96.959 Y87.400 E31.3401
G1 X96.280 Y86.969 E31.3668
G1 X95.732 Y86.385 E31.3935
G1 X95.347 Y85.685 E31.4200
G1 X95.149 Y84.913 E31.4465
G1 X95.149 Y84.117 E31.4730
G1 X95.347 Y83.345 E31.4995
G1 X95.732 Y82.645 E31.5261
G1 X96.280 Y82.061 E31.5527
G1 X96.959 Y81.631 E31.5795
G1 X97.725 Y81.382 E31.6063
G1 X98.530 Y81.331 E31.6331
G1 X99.322 Y81.482 E31.6599
G1 X100.051 Y81.825 E31.6867
G1 X100.669 Y82.336 E31.7134
G1 X101.141 Y82.986 E31.7401
G1 X101.437 Y83.760 E31.7677
G1 X101.462 Y83.951 E31.7741
;segType:Perimeter
G0 X100.972 Y82.543 F5400
G1 X100.806 Y83.225 E31.7974 F2100
G1 X101.046 Y83.854 E31.8198
G1 X101.130 Y84.515 E31.8420
G1 X101.042 Y85.210 E31.8653
G1 X100.784 Y85.861 E31.8886
G1 X100.372 Y86.428 E31.9119
G1 X99.831 Y86.876 E31.9353
G1 X99.195 Y87.175 E31.9586
G1 X98.504 Y87.306 E31.9820
G1 X97.802 Y87.262 E32.0054
G1 X97.134 Y87.045 E32.0288
G1 X96.541 Y86.669 E32.0522
G1 X96.060 Y86.157 E32.0755
G1 X95.723 Y85.543 E32.0988
G1 X95.548 Y84.865 E32.1221
G1 X95.548 Y84.165 E32.1454
G1 X95.723 Y83.487 E32.1686
G1 X96.060 Y82.873 E32.1920
G1 X96.541 Y82.362 E32.2153
G1 X97.134 Y81.985 E32.2387
G1 X97.802 Y81.768 E32.2620
G1 X98.504 Y81.724 E32.2854
G1 X99.195 Y81.855 E32.3088
G1 X99.831 Y82.155 E32.3322
G1 X100.372 Y82.602 E32.3556
G1 X100.750 Y83.123 E32.3769
G1 X101.421 Y83.372
;segType:Loop
G0 X101.842 Y85.255 F5400
G1 X101.824 Y85.401 E32.3818 F3000
G1 X101.494 Y86.234 E32.4116
G1 X100.966 Y86.960 E32.4415
G1 X100.270 Y87.536 E32.4715
G1 X99.449 Y87.922 E32.5017
G1 X98.556 Y88.093 E32.5319
G1 X97.648 Y88.035 E32.5622
G1 X96.783 Y87.755 E32.5924
G1 X96.020 Y87.269 E32.6225
G1 X95.403 Y86.613 E32.6525
G1 X94.971 Y85.827 E32.6823
G1 X94.749 Y84.961 E32.7121
G1 X94.749 Y84.069 E32.7417
G1 X94.971 Y83.203 E32.7715
G1 X95.403 Y82.417 E32.8013
G1 X96.020 Y81.761 E32.8313
G1 X96.783 Y81.276 E32.8614
G1 X97.648 Y80.995 E32.8916
G1 X98.556 Y80.938 E32.9219
G1 X99.450 Y81.108 E32.9521
G1 X100.270 Y81.494 E32.9823
G1 X100.966 Y82.070 E33.0123
G1 X101.498 Y82.802 E33.0424
G1 X101.829 Y83.667 E33.0732
G1 X101.936 Y84.515 E33.1016
G1 X101.867 Y85.062 E33.1200
;segType:HShell
G0 X137.077 Y139.344 F5400
G1 X123.197 Y125.792 E33.7652 F3000
;segType:Perimeter
G0 X122.736 Y125.634 F5400
G1 X122.149 Y126.039 E33.7889 F2100
G1 X121.995 Y126.427 E33.8028
G1 X121.716 Y126.812 E33.8186
G1 X121.349 Y127.116 E33.8344
G1 X120.917 Y127.319 E33.8503
G1 X120.448 Y127.408 E33.8662
G1 X119.971 Y127.378 E33.8821
G1 X119.517 Y127.231 E33.8980
G1 X119.114 Y126.975 E33.9138
G1 X118.788 Y126.628 E33.9296
G1 X118.559 Y126.212 E33.9455
G1 X118.442 Y125.752 E33.9612
G1 X118.442 Y125.278 E33.9770
G1 X118.559 Y124.818 E33.9928
G1 X118.788 Y124.402 E34.0086
G1 X119.114 Y124.055 E34.0244
G1 X119.517 Y123.800 E34.0403
G1 X119.971 Y123.652 E34.0562
G1 X120.448 Y123.622 E34.0720
G1 X120.917 Y123.712 E34.0879
G1 X121.349 Y123.915 E34.1038
G1 X121.716 Y124.218 E34.1197
G1 X121.995 Y124.603 E34.1355
G1 X122.170 Y125.045 E34.1513
G1 X122.225 Y125.480 E34.1658
G1 X122.177 Y125.926 E34.1808
G1 X122.510 Y126.547
;segType:Loop
G0 X121.937 Y127.141 F5400
G1 X121.568 Y127.446 E34.1967 F3000
G1 X121.044 Y127.692 E34.2160
G1 X120.474 Y127.801 E34.2353
G1 X119.894 Y127.765 E34.2546
G1 X119.342 Y127.586 E34.2739
G1 X118.854 Y127.276 E34.2931
G1 X118.460 Y126.856 E34.3123
G1 X118.183 Y126.354 E34.3313
G1 X118.042 Y125.801 E34.3503
G1 X118.042 Y125.230 E34.3693
G1 X118.183 Y124.677 E34.3883
G1 X118.460 Y124.174 E34.4074
G1 X118.854 Y123.755 E34.4265
G1 X119.342 Y123.445 E34.4458
G1 X119.894 Y123.266 E34.4651
G1 X120.474 Y123.229 E34.4844
G1 X121.044 Y123.338 E34.5037
G1 X121.568 Y123.584 E34.5230
G1 X122.013 Y123.952 E34.5422
G1 X122.350 Y124.417 E34.5613
G1 X122.561 Y124.949 E34.5803
G1 X122.628 Y125.476 E34.5980
G1 X122.563 Y126.077 E34.6181
G1 X122.350 Y126.614 E34.6373
G1 X122.071 Y126.999 E34.6531
G0 X121.189 Y128.058 F5400
G1 X121.171 Y128.066 E34.6538 F3000
G1 X120.500 Y128.194 E34.6765
G1 X119.816 Y128.151 E34.6993
G1 X119.167 Y127.940 E34.7220
G1 X118.593 Y127.576 E34.7446
G1 X118.131 Y127.084 E34.7670
G1 X117.808 Y126.495 E34.7894
G1 X117.642 Y125.849 E34.8116
G1 X117.642 Y125.182 E34.8338
G1 X117.808 Y124.535 E34.8560
G1 X118.131 Y123.946 E34.8783
G1 X118.593 Y123.454 E34.9008
G1 X119.167 Y123.090 E34.9234
G1 X119.816 Y122.879 E34.9461
G1 X120.500 Y122.836 E34.9689
G1 X121.172 Y122.964 E34.9916
G1 X121.788 Y123.254 E35.0143
G1 X122.310 Y123.686 E35.0368
G1 X122.706 Y124.230 E35.0592
G1 X122.952 Y124.853 E35.0815
G1 X123.030 Y125.473 E35.1022
G1 X122.955 Y126.169 E35.1255
G1 X122.706 Y126.800 E35.1481
G1 X122.310 Y127.344 E35.1705
G1 X121.788 Y127.776 E35.1930
G1 X121.369 Y127.973 E35.2084
G0 X115.621 Y130.612 F5400
G1 X115.561 Y131.082 E35.2242 F3000
G1 X115.350 Y131.613 E35.2432
G1 X115.013 Y132.078 E35.2623
G1 X114.568 Y132.446 E35.2815
G1 X114.044 Y132.692 E35.3008
G1 X113.474 Y132.802 E35.3201
G1 X112.893 Y132.765 E35.3394
G1 X112.342 Y132.585 E35.3587
G1 X111.854 Y132.276 E35.3779
G1 X111.460 Y131.856 E35.3971
G1 X111.184 Y131.354 E35.4162
G1 X111.041 Y130.800 E35.4352
G1 X111.041 Y130.230 E35.4541
G1 X111.184 Y129.677 E35.4731
G1 X111.460 Y129.174 E35.4922
G1 X111.854 Y128.755 E35.5113
G1 X112.342 Y128.445 E35.5306
G1 X112.893 Y128.266 E35.5499
G1 X113.474 Y128.229 E35.5692
G1 X114.044 Y128.338 E35.5885
G1 X114.568 Y128.584 E35.6078
G1 X115.013 Y128.952 E35.6270
G1 X115.352 Y129.420 E35.6462
G1 X115.564 Y129.973 E35.6659
G1 X115.620 Y130.418 E35.6808
;segType:Perimeter
G0 X115.183 Y128.977 F5400
G1 X115.017 Y129.659 E35.7042 F2100
G1 X115.173 Y130.067 E35.7187
G1 X115.230 Y130.515 E35.7337
G1 X115.170 Y130.986 E35.7495
G1 X114.995 Y131.427 E35.7653
G1 X114.716 Y131.812 E35.7811
G1 X114.349 Y132.116 E35.7970
G1 X113.917 Y132.319 E35.8128
G1 X113.448 Y132.408 E35.8287
G1 X112.971 Y132.378 E35.8446
G1 X112.517 Y132.231 E35.8605
G1 X112.114 Y131.975 E35.8764
G1 X111.788 Y131.628 E35.8922
G1 X111.559 Y131.212 E35.9080
G1 X111.441 Y130.752 E35.9238
G1 X111.441 Y130.278 E35.9396
G1 X111.559 Y129.819 E35.9553
G1 X111.788 Y129.402 E35.9711
G1 X112.114 Y129.055 E35.9870
G1 X112.517 Y128.800 E36.0028
G1 X112.971 Y128.652 E36.0187
G1 X113.448 Y128.622 E36.0346
G1 X113.917 Y128.712 E36.0505
G1 X114.349 Y128.915 E36.0664
G1 X114.716 Y129.219 E36.0822
G1 X114.961 Y129.556 E36.0961
G1 X115.632 Y129.805
;segType:Loop
G0 X115.713 Y131.780 F5400
G1 X115.705 Y131.800 E36.0968 F3000
G1 X115.310 Y132.344 E36.1192
G1 X114.788 Y132.776 E36.1417
G1 X114.172 Y133.066 E36.1644
G1 X113.500 Y133.195 E36.1871
G1 X112.816 Y133.151 E36.2099
G1 X112.167 Y132.940 E36.2326
G1 X111.593 Y132.576 E36.2552
G1 X111.131 Y132.084 E36.2777
G1 X110.808 Y131.495 E36.3000
G1 X110.641 Y130.849 E36.3222
G1 X110.641 Y130.182 E36.3444
G1 X110.808 Y129.535 E36.3666
G1 X111.131 Y128.946 E36.3890
G1 X111.593 Y128.454 E36.4114
G1 X112.167 Y128.090 E36.4340
G1 X112.816 Y127.879 E36.4567
G1 X113.500 Y127.836 E36.4795
G1 X114.172 Y127.964 E36.5023
G1 X114.788 Y128.254 E36.5249
G1 X115.310 Y128.686 E36.5475
G1 X115.709 Y129.235 E36.5700
G1 X115.955 Y129.880 E36.5930
G1 X116.036 Y130.515 E36.6143
G1 X115.952 Y131.177 E36.6365
G1 X115.785 Y131.598 E36.6515
;segType:HShell
G0 X152.870 Y139.344 F5400
G1 X136.301 Y123.166 E37.4217 F3000
;segType:Perimeter
G0 X136.288 Y122.692 F5400
G1 X135.768 Y122.208 E37.4454 F2100
G1 X134.702 Y122.159 E37.4809
G1 X133.586 Y122.003 E37.5184
G1 X132.488 Y121.745 E37.5558
G1 X131.419 Y121.386 E37.5933
G1 X130.388 Y120.931 E37.6308
G1 X129.404 Y120.383 E37.6683
G1 X128.474 Y119.746 E37.7058
G1 X127.607 Y119.026 E37.7433
G1 X126.810 Y118.229 E37.7807
G1 X126.091 Y117.363 E37.8182
G1 X125.454 Y116.433 E37.8557
G1 X124.906 Y115.449 E37.8931
G1 X124.451 Y114.419 E37.9306
G1 X124.093 Y113.352 E37.9681
G1 X123.835 Y112.255 E38.0055
G1 X123.680 Y111.140 E38.0430
G1 X123.628 Y110.015 E38.0804
G1 X123.680 Y108.890 E38.1179
G1 X123.835 Y107.775 E38.1553
G1 X124.093 Y106.679 E38.1928
G1 X124.451 Y105.611 E38.2302
G1 X124.906 Y104.581 E38.2677
G1 X125.454 Y103.597 E38.3051
G1 X126.091 Y102.667 E38.3426
G1 X126.811 Y101.801 E38.3801
G1 X127.607 Y101.004 E38.4176
G1 X128.474 Y100.285 E38.4550
G1 X129.404 Y99.647 E38.4925
G1 X130.388 Y99.099 E38.5300
G1 X131.419 Y98.644 E38.5675
G1 X132.488 Y98.286 E38.6050
G1 X133.586 Y98.027 E38.6425
G1 X134.702 Y97.872 E38.6800
G1 X135.828 Y97.820 E38.7175
G1 X136.954 Y97.872 E38.7550
G1 X138.071 Y98.027 E38.7925
G1 X139.168 Y98.286 E38.8299
G1 X140.237 Y98.644 E38.8674
G1 X141.268 Y99.099 E38.9049
G1 X142.252 Y99.647 E38.9424
G1 X143.182 Y100.284 E38.9799
G1 X144.049 Y101.004 E39.0174
G1 X144.846 Y101.801 E39.0548
G1 X145.565 Y102.667 E39.0923
G1 X146.202 Y103.597 E39.1298
G1 X146.750 Y104.581 E39.1672
G1 X147.205 Y105.611 E39.2047
G1 X147.563 Y106.679 E39.2421
G1 X147.808 Y107.721 E39.2777
G1 X147.968 Y108.835 E39.3152
G1 X148.026 Y109.959 E39.3526
G1 X147.976 Y111.139 E39.3919
G1 X147.821 Y112.255 E39.4294
G1 X147.563 Y113.352 E39.4668
G1 X147.205 Y114.419 E39.5043
G1 X146.750 Y115.449 E39.5418
G1 X146.202 Y116.433 E39.5792
G1 X145.565 Y117.363 E39.6167
G1 X144.846 Y118.229 E39.6542
G1 X144.049 Y119.026 E39.6916
G1 X143.182 Y119.746 E39.7291
G1 X142.252 Y120.383 E39.7666
G1 X141.268 Y120.931 E39.8041
G1 X140.237 Y121.386 E39.8416
G1 X139.168 Y121.745 E39.8791
G1 X138.071 Y122.003 E39.9165
G1 X136.954 Y122.159 E39.9540
G1 X135.888 Y122.208 E39.9895
G1 X135.368 Y122.692
;segType:Loop
G0 X134.714 Y122.550 F5400
G1 X134.664 Y122.548 E39.9912 F3000
G1 X133.510 Y122.387 E40.0299
G1 X132.376 Y122.120 E40.0687
G1 X131.272 Y121.750 E40.1074
G1 X130.206 Y121.280 E40.1462
G1 X129.189 Y120.713 E40.1849
G1 X128.229 Y120.055 E40.2236
G1 X127.334 Y119.312 E40.2623
G1 X126.511 Y118.489 E40.3010
G1 X125.769 Y117.595 E40.3397
G1 X125.112 Y116.636 E40.3783
G1 X124.546 Y115.620 E40.4170
G1 X124.076 Y114.558 E40.4556
G1 X123.707 Y113.456 E40.4943
G1 X123.441 Y112.326 E40.5329
G1 X123.281 Y111.175 E40.5715
G1 X123.227 Y110.015 E40.6102
G1 X123.281 Y108.855 E40.6488
G1 X123.441 Y107.705 E40.6874
G1 X123.707 Y106.574 E40.7260
G1 X124.076 Y105.473 E40.7647
G1 X124.546 Y104.410 E40.8033
G1 X125.111 Y103.395 E40.8420
G1 X125.769 Y102.436 E40.8806
G1 X126.511 Y101.541 E40.9193
G1 X127.334 Y100.719 E40.9580
G1 X128.229 Y99.975 E40.9967
G1 X129.189 Y99.317 E41.0354
G1 X130.206 Y98.751 E41.0741
G1 X131.272 Y98.280 E41.1129
G1 X132.376 Y97.910 E41.1516
G1 X133.510 Y97.643 E41.1904
G1 X134.664 Y97.483 E41.2291
G1 X135.828 Y97.429 E41.2679
G1 X136.992 Y97.483 E41.3066
G1 X138.146 Y97.643 E41.3454
G1 X139.280 Y97.910 E41.3841
G1 X140.385 Y98.280 E41.4229
G1 X141.450 Y98.751 E41.4616
G1 X142.467 Y99.317 E41.5003
G1 X143.427 Y99.975 E41.5390
G1 X144.323 Y100.719 E41.5777
G1 X145.145 Y101.541 E41.6164
G1 X145.888 Y102.436 E41.6551
G1 X146.545 Y103.395 E41.6938
G1 X147.110 Y104.410 E41.7324
G1 X147.580 Y105.473 E41.7711
G1 X147.949 Y106.574 E41.8097
G1 X148.202 Y107.649 E41.8464
G1 X148.367 Y108.798 E41.8850
G1 X148.426 Y109.957 E41.9236
G1 X148.375 Y111.174 E41.9641
G1 X148.215 Y112.326 E42.0028
G1 X147.949 Y113.456 E42.0414
G1 X147.580 Y114.558 E42.0801
G1 X147.110 Y115.620 E42.1187
G1 X146.545 Y116.636 E42.1574
G1 X145.888 Y117.595 E42.1960
G1 X145.145 Y118.489 E42.2347
G1 X144.323 Y119.312 E42.2734
G1 X143.427 Y120.055 E42.3121
G1 X142.467 Y120.713 E42.3508
G1 X141.450 Y121.280 E42.3895
G1 X140.385 Y121.750 E42.4283
G1 X139.280 Y122.120 E42.4670
G1 X138.146 Y122.387 E42.5058
G1 X136.992 Y122.548 E42.5445
G1 X135.828 Y122.602 E42.5833
G1 X134.913 Y122.559 E42.6137
G0 X133.571 Y122.790 F5400
G1 X133.435 Y122.771 E42.6183 F3000
G1 X132.264 Y122.495 E42.6583
G1 X131.124 Y122.113 E42.6983
G1 X130.024 Y121.628 E42.7383
G1 X128.975 Y121.043 E42.7782
G1 X127.984 Y120.365 E42.8182
G1 X127.061 Y119.598 E42.8581
G1 X126.212 Y118.749 E42.8980
G1 X125.446 Y117.827 E42.9379
G1 X124.769 Y116.838 E42.9778
G1 X124.186 Y115.791 E43.0176
G1 X123.702 Y114.696 E43.0574
G1 X123.322 Y113.561 E43.0973
G1 X123.047 Y112.396 E43.1371
G1 X122.882 Y111.210 E43.1769
G1 X122.827 Y110.015 E43.2167
G1 X122.882 Y108.820 E43.2565
G1 X123.047 Y107.635 E43.2963
G1 X123.322 Y106.470 E43.3361
G1 X123.702 Y105.335 E43.3759
G1 X124.186 Y104.239 E43.4157
G1 X124.769 Y103.192 E43.4556
G1 X125.446 Y102.204 E43.4954
G1 X126.212 Y101.281 E43.5353
G1 X127.061 Y100.433 E43.5752
G1 X127.984 Y99.666 E43.6151
G1 X128.975 Y98.987 E43.6551
G1 X130.024 Y98.403 E43.6950
G1 X131.124 Y97.917 E43.7350
G1 X132.264 Y97.535 E43.7750
G1 X133.435 Y97.260 E43.8150
G1 X134.626 Y97.093 E43.8550
G1 X135.828 Y97.038 E43.8950
G1 X137.030 Y97.093 E43.9351
G1 X138.221 Y97.260 E43.9751
G1 X139.392 Y97.535 E44.0151
G1 X140.532 Y97.917 E44.0551
G1 X141.632 Y98.403 E44.0950
G1 X142.681 Y98.987 E44.1350
G1 X143.672 Y99.666 E44.1749
G1 X144.596 Y100.433 E44.2149
G1 X145.444 Y101.281 E44.2548
G1 X146.210 Y102.204 E44.2947
G1 X146.887 Y103.192 E44.3345
G1 X147.470 Y104.239 E44.3744
G1 X147.954 Y105.335 E44.4142
G1 X148.334 Y106.470 E44.4540
G1 X148.595 Y107.578 E44.4919
G1 X148.766 Y108.761 E44.5316
G1 X148.827 Y109.955 E44.5714
G1 X148.774 Y111.208 E44.6131
G1 X148.608 Y112.396 E44.6530
G1 X148.334 Y113.561 E44.6928
G1 X147.954 Y114.696 E44.7326
G1 X147.470 Y115.791 E44.7725
G1 X146.887 Y116.838 E44.8123
G1 X146.210 Y117.827 E44.8522
G1 X145.444 Y118.749 E44.8921
G1 X144.596 Y119.598 E44.9320
G1 X143.672 Y120.365 E44.9719
G1 X142.681 Y121.043 E45.0118
G1 X141.632 Y121.628 E45.0518
G1 X140.532 Y122.113 E45.0918
G1 X139.392 Y122.495 E45.1318
G1 X138.221 Y122.771 E45.1718
G1 X137.030 Y122.937 E45.2118
G1 X135.828 Y122.993 E45.2518
G1 X134.626 Y122.937 E45.2918
G1 X133.768 Y122.817 E45.3206
;segType:HShell
G0 X160.086 Y131.520 F5400
G1 X154.199 Y125.772 E45.5943 F3000
G0 X164.658 Y127.671 F5400
G0 X165.919 Y128.471
G0 X166.886 Y130.145
;segType:Loop
G1 X166.933 Y130.515 E45.6067 F3000
G1 X166.833 Y131.305 E45.6332
G1 X166.539 Y132.047 E45.6597
G1 X166.069 Y132.694 E45.6863
G1 X165.451 Y133.206 E45.7130
G1 X164.723 Y133.548 E45.7398
G1 X163.930 Y133.700 E45.7666
G1 X163.125 Y133.649 E45.7934
G1 X162.359 Y133.400 E45.8202
G1 X161.680 Y132.969 E45.8470
G1 X161.131 Y132.385 E45.8736
G1 X160.747 Y131.685 E45.9002
G1 X160.549 Y130.913 E45.9267
G1 X160.549 Y130.117 E45.9532
G1 X160.747 Y129.345 E45.9797
G1 X161.131 Y128.645 E46.0063
G1 X161.680 Y128.061 E46.0329
G1 X162.359 Y127.631 E46.0596
G1 X163.125 Y127.381 E46.0864
G1 X163.930 Y127.331 E46.1133
G1 X164.723 Y127.482 E46.1401
G1 X165.451 Y127.825 E46.1669
G1 X166.069 Y128.336 E46.1936
G1 X166.541 Y128.986 E46.2203
G1 X166.837 Y129.761 E46.2479
G1 X166.861 Y129.951 E46.2543
;segType:Perimeter
G0 X166.372 Y128.543 F5400
G1 X166.206 Y129.225 E46.2776 F2100
G1 X166.446 Y129.854 E46.3000
G1 X166.530 Y130.515 E46.3222
G1 X166.442 Y131.210 E46.3454
G1 X166.184 Y131.861 E46.3687
G1 X165.772 Y132.428 E46.3920
G1 X165.231 Y132.875 E46.4154
G1 X164.595 Y133.175 E46.4388
G1 X163.904 Y133.307 E46.4622
G1 X163.202 Y133.262 E46.4856
G1 X162.534 Y133.045 E46.5089
G1 X161.940 Y132.669 E46.5323
G1 X161.460 Y132.157 E46.5556
G1 X161.123 Y131.543 E46.5789
G1 X160.949 Y130.865 E46.6022
G1 X160.949 Y130.165 E46.6255
G1 X161.123 Y129.487 E46.6488
G1 X161.460 Y128.873 E46.6721
G1 X161.940 Y128.362 E46.6954
G1 X162.534 Y127.985 E46.7188
G1 X163.202 Y127.768 E46.7422
G1 X163.904 Y127.724 E46.7656
G1 X164.595 Y127.856 E46.7890
G1 X165.231 Y128.155 E46.8123
G1 X165.772 Y128.602 E46.8357
G1 X166.150 Y129.123 E46.8571
G1 X166.821 Y129.372
;segType:Loop
G0 X167.242 Y131.255 F5400
G1 X167.224 Y131.401 E46.8620 F3000
G1 X166.894 Y132.233 E46.8917
G1 X166.366 Y132.960 E46.9216
G1 X165.670 Y133.536 E46.9517
G1 X164.850 Y133.922 E46.9818
G1 X163.956 Y134.093 E47.0121
G1 X163.048 Y134.035 E47.0424
G1 X162.184 Y133.755 E47.0726
G1 X161.420 Y133.270 E47.1027
G1 X160.803 Y132.613 E47.1326
G1 X160.371 Y131.827 E47.1625
G1 X160.149 Y130.961 E47.1922
G1 X160.149 Y130.069 E47.2219
G1 X160.371 Y129.203 E47.2516
G1 X160.803 Y128.417 E47.2815
G1 X161.420 Y127.760 E47.3114
G1 X162.184 Y127.276 E47.3415
G1 X163.048 Y126.995 E47.3717
G1 X163.956 Y126.938 E47.4020
G1 X164.850 Y127.108 E47.4323
G1 X165.670 Y127.494 E47.4624
G1 X166.366 Y128.070 E47.4925
G1 X166.898 Y128.802 E47.5225
G1 X167.228 Y129.667 E47.5534
G1 X167.336 Y130.515 E47.5818
G1 X167.267 Y131.062 E47.6001
G0 X164.658 Y133.360 F5400
G0 X163.164 Y133.454
G0 X161.812 Y132.817
G0 X152.937 Y127.141
G1 X152.568 Y127.446 E47.6160 F3000
G1 X152.044 Y127.692 E47.6353
G1 X151.474 Y127.801 E47.6546
G1 X150.894 Y127.765 E47.6740
G1 X150.342 Y127.586 E47.6933
G1 X149.854 Y127.276 E47.7125
G1 X149.460 Y126.856 E47.7316
G1 X149.183 Y126.354 E47.7507
G1 X149.042 Y125.801 E47.7697
G1 X149.042 Y125.230 E47.7887
G1 X149.183 Y124.677 E47.8077
G1 X149.460 Y124.174 E47.8267
G1 X149.854 Y123.755 E47.8459
G1 X150.342 Y123.445 E47.8651
G1 X150.894 Y123.266 E47.8844
G1 X151.474 Y123.229 E47.9037
G1 X152.044 Y123.338 E47.9231
G1 X152.568 Y123.584 E47.9423
G1 X153.013 Y123.952 E47.9615
G1 X153.351 Y124.417 E47.9806
G1 X153.561 Y124.949 E47.9996
G1 X153.628 Y125.476 E48.0173
G1 X153.563 Y126.077 E48.0374
G1 X153.351 Y126.613 E48.0566
G1 X153.071 Y126.999 E48.0725
;segType:Perimeter
G0 X153.736 Y125.634 F5400
G1 X153.149 Y126.039 E48.0961 F2100
G1 X152.996 Y126.427 E48.1100
G1 X152.716 Y126.812 E48.1259
G1 X152.349 Y127.116 E48.1417
G1 X151.917 Y127.319 E48.1576
G1 X151.448 Y127.408 E48.1735
G1 X150.971 Y127.378 E48.1894
G1 X150.517 Y127.231 E48.2052
G1 X150.114 Y126.975 E48.2211
G1 X149.788 Y126.628 E48.2369
G1 X149.559 Y126.212 E48.2527
G1 X149.442 Y125.752 E48.2685
G1 X149.442 Y125.278 E48.2843
G1 X149.559 Y124.818 E48.3001
G1 X149.788 Y124.402 E48.3159
G1 X150.114 Y124.055 E48.3317
G1 X150.517 Y123.800 E48.3476
G1 X150.971 Y123.652 E48.3634
G1 X151.448 Y123.622 E48.3793
G1 X151.917 Y123.712 E48.3952
G1 X152.349 Y123.915 E48.4111
G1 X152.716 Y124.218 E48.4269
G1 X152.996 Y124.603 E48.4428
G1 X153.170 Y125.045 E48.4585
G1 X153.225 Y125.480 E48.4731
G1 X153.177 Y125.926 E48.4881
G1 X153.510 Y126.547
;segType:Loop
G0 X152.189 Y128.058 F5400
G1 X152.171 Y128.066 E48.4887 F3000
G1 X151.500 Y128.194 E48.5115
G1 X150.816 Y128.151 E48.5342
G1 X150.167 Y127.940 E48.5570
G1 X149.593 Y127.576 E48.5795
G1 X149.131 Y127.084 E48.6020
G1 X148.808 Y126.495 E48.6243
G1 X148.642 Y125.849 E48.6465
G1 X148.642 Y125.182 E48.6687
G1 X148.808 Y124.535 E48.6909
G1 X149.131 Y123.946 E48.7133
G1 X149.593 Y123.454 E48.7357
G1 X150.167 Y123.090 E48.7583
G1 X150.816 Y122.879 E48.7810
G1 X151.500 Y122.836 E48.8038
G1 X152.172 Y122.964 E48.8266
G1 X152.788 Y123.254 E48.8492
G1 X153.310 Y123.686 E48.8718
G1 X153.706 Y124.231 E48.8942
G1 X153.952 Y124.853 E48.9164
G1 X154.030 Y125.473 E48.9372
G1 X153.955 Y126.169 E48.9605
G1 X153.706 Y126.800 E48.9830
G1 X153.310 Y127.344 E49.0054
G1 X152.788 Y127.776 E49.0280
G1 X152.369 Y127.973 E49.0434
;segType:HShell
G0 X171.827 Y110.492 F5400
G1 X153.471 Y92.570 E49.8967 F3000
;segType:Perimeter
G0 X153.183 Y92.977 F5400
G1 X153.017 Y93.659 E49.9200 F2100
G1 X153.173 Y94.067 E49.9346
G1 X153.230 Y94.515 E49.9496
G1 X153.170 Y94.986 E49.9654
G1 X152.996 Y95.427 E49.9811
G1 X152.716 Y95.812 E49.9970
G1 X152.349 Y96.116 E50.0128
G1 X151.917 Y96.319 E50.0287
G1 X151.448 Y96.408 E50.0446
G1 X150.971 Y96.378 E50.0605
G1 X150.517 Y96.231 E50.0763
G1 X150.114 Y95.975 E50.0922
G1 X149.788 Y95.628 E50.1080
G1 X149.559 Y95.212 E50.1238
G1 X149.442 Y94.752 E50.1396
G1 X149.442 Y94.278 E50.1554
G1 X149.559 Y93.818 E50.1712
G1 X149.788 Y93.402 E50.1870
G1 X150.114 Y93.055 E50.2028
G1 X150.517 Y92.800 E50.2187
G1 X150.971 Y92.652 E50.2345
G1 X151.448 Y92.622 E50.2504
G1 X151.917 Y92.711 E50.2663
G1 X152.349 Y92.915 E50.2822
G1 X152.716 Y93.218 E50.2980
G1 X152.961 Y93.556 E50.3119
G1 X153.633 Y93.805
;segType:Loop
G0 X153.620 Y94.612 F5400
G1 X153.561 Y95.081 E50.3277 F3000
G1 X153.351 Y95.614 E50.3467
G1 X153.013 Y96.078 E50.3658
G1 X152.568 Y96.446 E50.3850
G1 X152.044 Y96.692 E50.4043
G1 X151.474 Y96.801 E50.4236
G1 X150.894 Y96.765 E50.4429
G1 X150.342 Y96.586 E50.4622
G1 X149.854 Y96.276 E50.4814
G1 X149.460 Y95.856 E50.5006
G1 X149.183 Y95.354 E50.5197
G1 X149.042 Y94.800 E50.5387
G1 X149.042 Y94.230 E50.5576
G1 X149.183 Y93.677 E50.5766
G1 X149.460 Y93.174 E50.5957
G1 X149.854 Y92.755 E50.6148
G1 X150.342 Y92.445 E50.6341
G1 X150.894 Y92.266 E50.6534
G1 X151.474 Y92.229 E50.6727
G1 X152.044 Y92.338 E50.6920
G1 X152.568 Y92.585 E50.7113
G1 X153.013 Y92.952 E50.7305
G1 X153.353 Y93.420 E50.7497
G1 X153.564 Y93.973 E50.7694
G1 X153.620 Y94.419 E50.7843
G0 X153.714 Y95.780 F5400
G1 X153.706 Y95.800 E50.7850 F3000
G1 X153.310 Y96.344 E50.8075
G1 X152.788 Y96.776 E50.8300
G1 X152.172 Y97.066 E50.8526
G1 X151.500 Y97.194 E50.8754
G1 X150.816 Y97.151 E50.8982
G1 X150.167 Y96.940 E50.9209
G1 X149.593 Y96.576 E50.9435
G1 X149.131 Y96.084 E50.9659
G1 X148.808 Y95.496 E50.9883
G1 X148.642 Y94.848 E51.0105
G1 X148.642 Y94.182 E51.0327
G1 X148.808 Y93.535 E51.0549
G1 X149.131 Y92.946 E51.0772
G1 X149.593 Y92.454 E51.0997
G1 X150.167 Y92.090 E51.1223
G1 X150.816 Y91.879 E51.1450
G1 X151.500 Y91.836 E51.1677
G1 X152.172 Y91.964 E51.1905
G1 X152.788 Y92.254 E51.2132
G1 X153.310 Y92.686 E51.2357
G1 X153.709 Y93.235 E51.2583
G1 X153.955 Y93.880 E51.2812
G1 X154.036 Y94.515 E51.3025
G1 X153.952 Y95.177 E51.3247
G1 X153.786 Y95.598 E51.3398
;segType:HShell
G0 X148.278 Y105.673 F5400
G1 X172.128 Y128.959 E52.4484 F3000
G1 X172.128 Y129.510
G1 X148.543 Y106.482 E53.5448
G0 X136.211 Y72.414 F5400
G1 X171.199 Y106.575 E55.1711 F3000
G0 X153.425 Y92.525 F5400
G1 X132.272 Y71.872 E56.1544 F3000
G1 X131.662 Y71.827
G1 X152.061 Y91.744 E57.1027
G1 X151.397 Y91.647
G1 X131.052 Y71.782 E58.0484
G1 X130.443 Y71.739
G1 X150.867 Y91.680 E58.9978
G1 X150.426 Y91.800
G1 X129.865 Y71.725 E59.9536
G1 X129.286 Y71.711
G1 X150.018 Y91.952 E60.9172
G1 X149.676 Y92.169
G1 X128.708 Y71.697 E61.8919
G1 X128.134 Y71.687
G1 X149.361 Y92.412 E62.8787
G1 X149.091 Y92.700
G1 X127.570 Y71.687 E63.8791
G1 X127.006 Y71.687
G1 X148.861 Y93.025 E64.8950
G1 X148.664 Y93.383
G1 X126.442 Y71.687 E65.9280
G1 X125.877 Y71.687
G1 X148.532 Y93.806 E66.9811
G1 X148.442 Y94.268
G1 X125.313 Y71.687 E68.0561
G1 X124.749 Y71.687
G1 X148.442 Y94.819 E69.1575
G0 X140.681 Y73.474 F5400
G1 X170.019 Y102.119 E70.5212 F3000
G0 X170.695 Y104.431 F5400
G1 X138.364 Y72.864 E72.0241 F3000
G0 X136.899 Y72.535 F5400
G1 X171.041 Y105.869 E73.6111 F3000
G0 X138.108 Y97.836 F5400
G0 X135.828 Y97.625
G0 X119.275 Y97.181
G1 X124.890 Y102.664 E73.8721 F3000
G1 X124.664 Y102.994
G1 X92.599 Y71.687 E75.3626
G1 X92.035 Y71.687
G1 X124.457 Y103.342 E76.8698
G1 X124.259 Y103.699
G1 X91.471 Y71.687 E78.3939
G1 X90.907 Y71.687
G1 X124.060 Y104.056 E79.9350
G1 X123.882 Y104.433
G1 X101.702 Y82.777 E80.9660
G0 X101.235 Y85.257 F5400
G0 X100.519 Y86.559
G0 X99.258 Y87.360
G0 X96.895 Y87.997
G1 X106.468 Y97.344 E81.4110 F3000
G1 X107.033 Y97.344
G1 X97.703 Y88.235 E81.8447
G1 X98.306 Y88.273
G1 X107.597 Y97.344 E82.2766
G1 X108.161 Y97.344
G1 X98.835 Y88.238 E82.7101
G1 X99.307 Y88.148
G1 X108.725 Y97.344 E83.1479
G1 X109.289 Y97.344
G1 X99.727 Y88.008 E83.5923
G1 X100.108 Y87.829
G1 X109.853 Y97.344 E84.0453
G1 X110.417 Y97.344
G1 X100.467 Y87.629 E84.5078
G1 X100.772 Y87.377
G1 X122.687 Y108.773 E85.5265
G1 X122.755 Y108.288
G1 X101.078 Y87.124 E86.5341
G1 X101.320 Y86.810
G1 X122.822 Y107.804 E87.5336
G1 X122.912 Y107.340
G1 X101.554 Y86.488 E88.5264
G1 X101.750 Y86.128
G1 X123.017 Y106.892 E89.5150
G1 X123.122 Y106.444
G1 X101.908 Y85.731 E90.5011
G1 X102.037 Y85.307
G1 X123.259 Y106.027 E91.4876
G1 X123.398 Y105.613
G1 X102.099 Y84.817 E92.4776
G1 X102.107 Y84.274
G1 X123.542 Y105.203 E93.4741
G1 X123.712 Y104.818
G1 X102.027 Y83.646 E94.4821
G0 X139.894 Y73.257 F5400
G1 X170.277 Y102.921 E95.8944 F3000
G0 X153.434 Y139.344 F5400
G1 X136.839 Y123.141 E96.6658 F3000
G1 X137.350 Y123.090
G1 X153.998 Y139.344 E97.4397
G1 X154.562 Y139.344
G1 X137.844 Y123.021 E98.2168
G1 X138.331 Y122.946
G1 X155.126 Y139.344 E98.9975
G1 X155.690 Y139.344
G1 X138.786 Y122.839 E99.7833
G1 X139.240 Y122.732
G1 X156.254 Y139.344 E100.5742
G1 X156.818 Y139.344
G1 X139.676 Y122.607 E101.3710
G1 X140.096 Y122.466
G1 X157.382 Y139.344 E102.1745
G1 X157.946 Y139.344
G1 X140.516 Y122.325 E102.9848
G1 X140.911 Y122.160
G1 X158.510 Y139.344 E103.8029
G1 X159.074 Y139.344
G1 X141.299 Y121.989 E104.6291
G1 X141.688 Y121.818
G1 X159.638 Y139.344 E105.4636
G1 X160.202 Y139.344
G1 X142.050 Y121.620 E106.3074
G1 X142.409 Y121.420
G1 X160.767 Y139.344 E107.1607
G1 X161.331 Y139.344
G1 X142.768 Y121.220 E108.0236
G1 X143.101 Y120.994
G1 X148.557 Y126.321 E108.2772
G1 X148.442 Y125.658
G1 X143.432 Y120.767 E108.5100
G1 X143.764 Y120.540
G1 X148.452 Y125.117 E108.7279
G1 X148.565 Y124.677
G1 X144.071 Y120.290 E108.9368
G1 X144.376 Y120.037
G1 X148.721 Y124.279 E109.1388
G1 X148.918 Y123.920
G1 X144.681 Y119.783 E109.3358
G1 X144.964 Y119.509
G1 X149.170 Y123.616 E109.5313
G1 X149.440 Y123.329
G1 X145.242 Y119.230 E109.7264
G1 X145.521 Y118.952
G1 X149.776 Y123.106 E109.9242
G1 X150.126 Y122.897
G1 X145.780 Y118.654 E110.1262
G1 X146.033 Y118.350
G1 X150.550 Y122.760 E110.3362
G1 X151.022 Y122.670
G1 X146.285 Y118.046 E110.5563
G1 X146.520 Y117.725
G1 X151.564 Y122.649 E110.7908
G1 X152.283 Y122.800
G1 X146.746 Y117.395 E111.0481
G1 X146.973 Y117.065
G1 X160.012 Y129.796 E111.6543
G1 X160.125 Y129.356
G1 X147.182 Y116.718 E112.2560
G1 X147.380 Y116.361
G1 X160.280 Y128.956 E112.8556
G1 X160.477 Y128.597
G1 X147.579 Y116.005 E113.4551
G1 X147.759 Y115.630
G1 X160.687 Y128.252 E114.0560
G1 X160.956 Y127.964
G1 X147.929 Y115.245 E114.6616
G1 X148.099 Y114.860
G1 X161.226 Y127.677 E115.2718
G1 X161.552 Y127.444
G1 X148.246 Y114.453 E115.8903
G1 X148.385 Y114.038
G1 X161.894 Y127.227 E116.5182
G1 X162.268 Y127.043
G1 X148.524 Y113.623 E117.1571
G1 X148.630 Y113.176
G1 X162.692 Y126.905 E117.8108
G1 X163.141 Y126.793
G1 X148.735 Y112.728 E118.4804
G1 X148.828 Y112.268
G1 X163.671 Y126.760 E119.1704
G1 X164.276 Y126.800
G1 X148.896 Y111.783 E119.8853
G1 X148.964 Y111.299
G1 X165.012 Y126.968 E120.6313
G0 X167.461 Y129.909 F5400
G1 X172.128 Y134.466 E120.8483 F3000
G1 X172.128 Y135.017
G1 X167.535 Y130.533 E121.0618
G1 X167.473 Y131.023
G1 X172.128 Y135.568 E121.2781
G1 X172.128 Y136.118
G1 X167.399 Y131.501 E121.4980
G1 X167.242 Y131.898
G1 X172.128 Y136.669 E121.7251
G1 X172.128 Y137.220
G1 X167.084 Y132.295 E121.9596
G1 X166.856 Y132.623
G1 X172.128 Y137.770 E122.2046
G1 X172.128 Y138.321
G1 X166.622 Y132.945 E122.4606
G1 X166.350 Y133.230
G1 X172.128 Y138.872 E122.7292
G1 X172.047 Y139.344
G1 X166.044 Y133.483 E123.0082
G1 X165.729 Y133.725
G1 X171.483 Y139.344 E123.2757
G1 X170.919 Y139.344
G1 X165.348 Y133.904 E123.5347
G1 X164.968 Y134.083
G1 X170.355 Y139.344 E123.7851
G1 X169.791 Y139.344
G1 X164.509 Y134.186 E124.0307
G1 X164.037 Y134.276
G1 X169.227 Y139.344 E124.2719
G1 X168.663 Y139.344
G1 X163.453 Y134.257 E124.5141
G1 X162.786 Y134.156
G1 X168.099 Y139.344 E124.7611
G1 X167.535 Y139.344
G1 X161.799 Y133.743 E125.0277
G0 X164.658 Y133.360 F5400
G0 X165.919 Y132.560
G0 X166.636 Y131.257
G0 X167.242 Y129.145
G1 X172.128 Y133.916 E125.2548 F3000
G1 X172.128 Y133.365
G1 X148.993 Y110.776 E126.3303
G1 X149.015 Y110.247
G1 X172.128 Y132.814 E127.4047
G1 X172.128 Y132.263
G1 X149.014 Y109.696 E128.4791
G1 X148.984 Y109.116
G1 X172.128 Y131.713 E129.5549
G1 X172.128 Y131.162
G1 X148.932 Y108.515 E130.6332
G1 X148.840 Y107.874
G1 X172.128 Y130.611 E131.7157
G1 X172.128 Y130.061
G1 X148.711 Y107.197 E132.8042
G0 X154.200 Y125.223 F5400
G1 X159.949 Y130.835 E133.0714 F3000
G1 X159.949 Y130.284
G1 X154.029 Y124.505 E133.3466
G0 X152.863 Y126.943 F5400
G0 X150.555 Y128.272
G1 X161.895 Y139.344 E133.8737 F3000
G1 X162.459 Y139.344
G1 X151.222 Y128.373 E134.3960
G1 X151.757 Y128.344
G1 X163.023 Y139.344 E134.9197
G1 X163.587 Y139.344
G1 X152.229 Y128.254 E135.4477
G1 X152.611 Y128.076
G1 X164.151 Y139.344 E135.9841
G1 X164.715 Y139.344
G1 X152.973 Y127.879 E136.5300
G1 X153.278 Y127.627
G1 X165.279 Y139.344 E137.0878
G1 X165.843 Y139.344
G1 X153.554 Y127.346 E137.6590
G1 X153.788 Y127.024
G1 X166.407 Y139.344 E138.2456
G1 X166.971 Y139.344
G1 X153.977 Y126.657 E138.8496
G1 X154.134 Y126.259
G1 X160.499 Y132.474 E139.1455
G0 X112.933 Y132.569 F5400
G0 X110.528 Y131.596
G1 X110.760 Y131.822 E139.1563 F3000
G0 X112.090 Y133.121 F5400
G1 X118.464 Y139.344 E139.4526 F3000
G1 X117.899 Y139.344
G1 X110.528 Y132.146 E139.7952
G1 X110.528 Y132.697
G1 X117.335 Y139.344 E140.1116
G1 X116.771 Y139.344
G1 X110.528 Y133.248 E140.4019
G1 X110.528 Y133.799
G1 X116.207 Y139.344 E140.6659
G1 X115.643 Y139.344
G1 X110.528 Y134.349 E140.9036
G1 X110.528 Y134.900
G1 X115.079 Y139.344 E141.1152
G1 X114.515 Y139.344
G1 X110.528 Y135.451 E141.3005
G1 X110.528 Y136.001
G1 X113.951 Y139.344 E141.4597
G1 X113.387 Y139.344
G1 X110.528 Y136.552 E141.5926
G1 X110.528 Y137.103
G1 X112.823 Y139.344 E141.6993
G1 X112.259 Y139.344
G1 X110.528 Y137.654 E141.7797
G1 X110.528 Y138.204
G1 X111.695 Y139.344 E141.8340
G1 X111.131 Y139.344
G1 X110.528 Y138.755 E141.8620
G0 X137.641 Y139.344 F5400
G1 X123.204 Y125.248 E142.5331 F3000
G0 X121.457 Y127.279 F5400
G0 X120.461 Y127.603
G0 X114.773 Y128.030
G1 X110.528 Y123.886 E142.7304 F3000
G1 X110.528 Y123.335
G1 X126.924 Y139.344 E143.4926
G1 X127.488 Y139.344
G1 X110.528 Y122.785 E144.2809
G1 X110.528 Y122.234
G1 X128.052 Y139.344 E145.0955
G1 X128.616 Y139.344
G1 X110.528 Y121.683 E145.9363
G1 X110.528 Y121.132
G1 X129.180 Y139.344 E146.8034
G1 X129.744 Y139.344
G1 X110.528 Y120.582 E147.6966
G1 X110.528 Y120.031
G1 X130.308 Y139.344 E148.6161
G1 X130.872 Y139.344
G1 X119.522 Y128.261 E149.1437
G1 X120.198 Y128.371
G1 X131.436 Y139.344 E149.6661
G1 X132.000 Y139.344
G1 X120.738 Y128.348 E150.1896
G1 X121.210 Y128.258
G1 X132.565 Y139.344 E150.7174
G1 X133.129 Y139.344
G1 X121.596 Y128.083 E151.2535
G1 X121.961 Y127.889
G1 X133.693 Y139.344 E151.7989
G1 X134.257 Y139.344
G1 X122.266 Y127.637 E152.3563
G1 X122.545 Y127.358
G1 X134.821 Y139.344 E152.9269
G1 X135.385 Y139.344
G1 X122.779 Y127.036 E153.5128
G1 X122.970 Y126.672
G1 X135.949 Y139.344 E154.1161
G1 X136.513 Y139.344
G1 X123.128 Y126.275 E154.7383
G0 X120.980 Y127.504 F5400
G0 X115.825 Y129.057
G1 X126.360 Y139.344 E155.2280 F3000
G1 X125.796 Y139.344
G1 X116.164 Y129.940 E155.6758
G1 X116.232 Y130.557
G1 X125.232 Y139.344 E156.0941
G1 X124.668 Y139.344
G1 X116.170 Y131.047 E156.4891
G1 X116.047 Y131.478
G1 X124.104 Y139.344 E156.8636
G1 X123.540 Y139.344
G1 X115.890 Y131.875 E157.2192
G1 X115.660 Y132.200
G1 X122.976 Y139.344 E157.5593
G1 X122.412 Y139.344
G1 X115.416 Y132.513 E157.8845
G1 X115.110 Y132.765
G1 X121.848 Y139.344 E158.1977
G1 X121.284 Y139.344
G1 X114.782 Y132.996 E158.4999
G1 X114.401 Y133.175
G1 X120.720 Y139.344 E158.7936
G1 X120.156 Y139.344
G1 X113.969 Y133.304 E159.0812
G1 X113.494 Y133.390
G1 X119.592 Y139.344 E159.3646
G1 X119.028 Y139.344
G1 X112.890 Y133.352 E159.6499
G0 X114.863 Y131.943 F5400
G0 X118.626 Y124.289
G0 X119.430 Y123.624
G0 X121.240 Y122.780
G1 X110.528 Y112.321 E160.1478 F3000
G1 X110.528 Y112.872
G1 X120.537 Y122.644 E160.6131
G1 X120.001 Y122.672
G1 X110.528 Y113.423 E161.0534
G1 X110.528 Y113.973
G1 X119.533 Y122.765 E161.4720
G1 X119.110 Y122.903
G1 X110.528 Y114.524 E161.8709
G1 X110.528 Y115.075
G1 X118.762 Y123.114 E162.2537
G1 X118.429 Y123.340
G1 X110.528 Y115.625 E162.6210
G1 X110.528 Y116.176
G1 X118.159 Y123.627 E162.9757
G1 X117.910 Y123.935
G1 X110.528 Y116.727 E163.3189
G1 X110.528 Y117.278
G1 X117.713 Y124.293 E163.6529
G1 X117.560 Y124.694
G1 X110.528 Y117.828 E163.9798
G1 X110.528 Y118.379
G1 X117.447 Y125.135 E164.3014
G1 X117.442 Y125.680
G1 X110.528 Y118.930 E164.6228
G1 X110.528 Y119.480
G1 X117.564 Y126.350 E164.9498
G0 X118.626 Y124.289 F5400
G0 X119.430 Y123.624
G0 X129.686 Y121.664
G1 X147.794 Y139.344 E165.7915 F3000
G1 X147.230 Y139.344
G1 X128.155 Y120.720 E166.6782
G0 X131.674 Y122.504 F5400
G1 X148.922 Y139.344 E167.4799 F3000
G1 X148.358 Y139.344
G1 X130.769 Y122.171 E168.2975
G0 X126.661 Y118.359 F5400
G0 X125.284 Y116.534
G0 X122.960 Y112.894
G1 X110.528 Y100.756 E168.8754 F3000
G1 X110.528 Y100.206
G1 X122.819 Y112.206 E169.4467
G1 X122.730 Y111.569
G1 X110.528 Y99.655 E170.0139
G1 X110.528 Y99.104
G1 X122.671 Y110.960 E170.5784
G0 X113.880 Y127.710 F5400
G1 X110.528 Y124.437 E170.7342 F3000
G1 X110.528 Y124.987
G1 X113.260 Y127.655 E170.8612
G1 X112.740 Y127.698
G1 X110.528 Y125.538 E170.9640
G1 X110.528 Y126.089
G1 X112.317 Y127.835 E171.0472
G1 X111.930 Y128.008
G1 X110.528 Y126.639 E171.1124
G1 X110.528 Y127.190
G1 X111.588 Y128.225 E171.1616
G1 X111.292 Y128.486
G1 X110.528 Y127.741 E171.1971
G1 X110.528 Y128.292
G1 X111.022 Y128.773 E171.2201
G1 X110.810 Y129.117
G1 X110.528 Y128.842 E171.2331
G1 X110.528 Y129.393
G1 X110.616 Y129.479 E171.2372
G0 X113.222 Y128.451 F5400
G0 X120.980 Y127.504
G0 X121.863 Y126.943
G0 X123.043 Y124.540
G1 X138.205 Y139.344 E171.9420 F3000
G1 X138.769 Y139.344
G1 X110.528 Y111.771 E173.2548
G1 X110.528 Y111.220
G1 X139.333 Y139.344 E174.5938
G1 X139.897 Y139.344
G1 X110.528 Y110.669 E175.9589
G1 X110.528 Y110.118
G1 X140.461 Y139.344 E177.3503
G1 X141.025 Y139.344
G1 X110.528 Y109.568 E178.7680
G1 X110.528 Y109.017
G1 X141.589 Y139.344 E180.2118
G1 X142.153 Y139.344
G1 X110.528 Y108.466 E181.6819
G1 X110.528 Y107.916
G1 X142.717 Y139.344 E183.1782
G1 X143.281 Y139.344
G1 X110.528 Y107.365 E184.7007
G1 X110.528 Y106.814
G1 X143.845 Y139.344 E186.2494
G1 X144.409 Y139.344
G1 X110.528 Y106.264 E187.8243
G1 X110.528 Y105.713
G1 X144.973 Y139.344 E189.4255
G1 X145.537 Y139.344
G1 X110.528 Y105.162 E191.0529
G1 X110.528 Y104.611
G1 X146.101 Y139.344 E192.7065
G1 X146.666 Y139.344
G1 X110.528 Y104.061 E194.3863
G1 X110.528 Y103.510
G1 X125.235 Y117.869 E195.0699
G0 X124.301 Y116.407 F5400
G1 X110.528 Y102.959 E195.7102 F3000
G1 X110.528 Y102.409
G1 X123.766 Y115.333 E196.3255
G0 X123.401 Y114.427 F5400
G1 X110.528 Y101.858 E196.9239 F3000
G1 X110.528 Y101.307
G1 X123.128 Y113.609 E197.5096
G0 X126.661 Y118.359 F5400
G0 X128.352 Y119.900
G0 X132.489 Y122.749
G1 X149.486 Y139.344 E198.2996 F3000
G1 X150.050 Y139.344
G1 X133.232 Y122.924 E199.0814
G1 X133.909 Y123.034
G1 X150.614 Y139.344 E199.8579
G1 X151.178 Y139.344
G1 X134.567 Y123.126 E200.6300
G1 X135.164 Y123.157
G1 X151.742 Y139.344 E201.4006
G1 X152.306 Y139.344
G1 X135.756 Y123.185 E202.1699
G0 X130.298 Y121.105 F5400
G0 X128.352 Y119.900
G0 X126.661 Y118.359
G0 X125.284 Y116.534
G0 X124.265 Y114.488
G0 X120.022 Y97.360
G1 X125.116 Y102.334 E202.4067 F3000
G1 X125.349 Y102.010
G1 X120.601 Y97.374 E202.6275
G1 X121.072 Y97.284
G1 X125.602 Y101.706 E202.8380
G1 X125.854 Y101.402
G1 X121.485 Y97.136 E203.0411
G1 X121.865 Y96.957
G1 X126.112 Y101.103 E203.2385
G1 X126.390 Y100.824
G1 X122.177 Y96.710 E203.4344
G1 X122.477 Y96.452
G1 X126.669 Y100.545 E203.6292
G1 X126.950 Y100.269
G1 X122.711 Y96.130 E203.8263
G1 X122.925 Y95.788
G1 X127.255 Y100.016 E204.0276
G1 X127.559 Y99.763
G1 X123.082 Y95.391 E204.2357
G1 X123.184 Y94.940
G1 X127.864 Y99.510 E204.4533
G1 X128.196 Y99.282
G1 X123.227 Y94.431 E204.6843
G0 X122.280 Y92.406 F5400
G1 X101.060 Y71.687 E205.6707 F3000
G1 X101.624 Y71.687
G1 X129.217 Y98.627 E206.9533
G1 X129.576 Y98.427
G1 X102.188 Y71.687 E208.2264
G1 X102.752 Y71.687
G1 X129.935 Y98.227 E209.4900
G1 X130.324 Y98.056
G1 X103.316 Y71.687 E210.7455
G1 X103.880 Y71.687
G1 X130.712 Y97.885 E211.9927
G1 X131.105 Y97.717
G1 X104.444 Y71.687 E213.2320
G1 X105.008 Y71.687
G1 X131.525 Y97.576 E214.4646
G1 X131.944 Y97.436
G1 X105.572 Y71.687 E215.6905
G1 X106.136 Y71.687
G1 X132.377 Y97.307 E216.9103
G1 X132.832 Y97.201
G1 X106.700 Y71.687 E218.1250
G1 X107.264 Y71.687
G1 X133.286 Y97.094 E219.3347
G1 X133.770 Y97.016
G1 X107.828 Y71.687 E220.5406
G1 X108.392 Y71.687
G1 X134.264 Y96.947 E221.7432
G1 X134.771 Y96.891
G1 X108.956 Y71.687 E222.9432
G1 X109.520 Y71.687
G1 X135.310 Y96.866 E224.1419
G1 X135.850 Y96.843
G1 X110.084 Y71.687 E225.3396
G1 X110.648 Y71.687
G1 X136.442 Y96.871 E226.5386
G1 X137.034 Y96.898
G1 X111.212 Y71.687 E227.7390
G1 X111.776 Y71.687
G1 X137.691 Y96.988 E228.9436
G1 X138.360 Y97.091
G1 X112.341 Y71.687 E230.1531
G1 X112.905 Y71.687
G1 X139.103 Y97.266 E231.3709
G1 X139.909 Y97.501
G1 X113.469 Y71.687 E232.6000
G1 X114.033 Y71.687
G1 X140.800 Y97.821 E233.8442
G0 X143.340 Y99.199 F5400
G1 X115.161 Y71.687 E235.1541 F3000
G1 X114.597 Y71.687
G1 X141.858 Y98.304 E236.4213
G0 X167.914 Y96.759 F5400
G1 X146.120 Y75.480 E237.4344 F3000
G0 X149.373 Y95.282 F5400
G0 X150.308 Y97.192
G1 X172.128 Y118.496 E238.4487 F3000
G1 X172.128 Y117.945
G1 X151.046 Y97.362 E239.4286
G1 X151.619 Y97.371
G1 X172.128 Y117.394 E240.3820
G1 X172.128 Y116.844
G1 X152.091 Y97.280 E241.3134
G1 X152.500 Y97.129
G1 X172.128 Y116.293 E242.2258
G1 X172.128 Y115.742
G1 X152.880 Y96.949 E243.1205
G1 X153.189 Y96.700
G1 X172.120 Y115.183 E244.0005
G1 X172.106 Y114.619
G1 X153.486 Y96.439 E244.8661
G1 X153.720 Y96.117
G1 X172.092 Y114.055 E245.7201
G1 X172.078 Y113.491
G1 X153.931 Y95.773 E246.5636
G1 X154.088 Y95.375
G1 X172.041 Y112.904 E247.3981
G1 X171.997 Y112.310
G1 X154.186 Y94.920 E248.2261
G1 X154.224 Y94.406
G1 X171.954 Y111.717 E249.0502
G1 X171.905 Y111.118
G1 X154.121 Y93.756 E249.8769
G0 X152.863 Y95.944 F5400
G0 X146.519 Y102.303
G1 X172.128 Y127.307 E251.0673 F3000
G1 X172.128 Y126.756
G1 X115.725 Y71.687 E253.6892
G1 X116.289 Y71.687
G1 X172.128 Y126.206 E256.2848
G1 X172.128 Y125.655
G1 X116.853 Y71.687 E258.8542
G1 X117.417 Y71.687
G1 X172.128 Y125.104 E261.3974
G1 X172.128 Y124.554
G1 X117.981 Y71.687 E263.9144
G1 X118.545 Y71.687
G1 X172.128 Y124.003 E266.4052
G1 X172.128 Y123.452
G1 X119.109 Y71.687 E268.8697
G1 X119.673 Y71.687
G1 X172.128 Y122.901 E271.3081
G1 X172.128 Y122.351
G1 X120.237 Y71.687 E273.7202
G1 X120.801 Y71.687
G1 X172.128 Y121.800 E276.1061
G1 X172.128 Y121.249
G1 X121.365 Y71.687 E278.4657
G1 X121.929 Y71.687
G1 X172.128 Y120.699 E280.7992
G1 X172.128 Y120.148
G1 X122.493 Y71.687 E283.1064
G1 X123.057 Y71.687
G1 X172.128 Y119.597 E285.3874
G1 X172.128 Y119.047
G1 X123.621 Y71.687 E287.6422
G1 X124.185 Y71.687
G1 X148.612 Y95.535 E288.7777
G0 X148.331 Y76.538 F5400
G1 X166.788 Y94.558 E289.6356 F3000
G0 X166.090 Y93.326 F5400
G1 X149.577 Y77.203 E290.4032 F3000
G0 X162.677 Y88.341 F5400
G1 X154.589 Y80.445 E290.7792 F3000
G0 X152.543 Y78.998 F5400
G1 X164.176 Y90.356 E291.3200 F3000
G0 X165.238 Y91.944 F5400
G1 X150.937 Y77.980 E291.9848 F3000
G0 X168.776 Y98.702 F5400
G1 X144.154 Y74.662 E293.1293 F3000
G0 X100.069 Y81.183 F5400
G1 X90.343 Y71.687 E293.5814 F3000
G1 X89.779 Y71.687
G1 X99.170 Y80.856 E294.0179
G1 X98.493 Y80.746
G1 X89.528 Y71.993 E294.4346
G1 X89.528 Y72.543
G1 X97.964 Y80.779 E294.8268
G1 X97.469 Y80.847
G1 X89.528 Y73.094 E295.1959
G1 X89.528 Y73.645
G1 X97.046 Y80.985 E295.5454
G1 X96.637 Y81.136
G1 X89.528 Y74.195 E295.8758
G1 X89.528 Y74.746
G1 X96.295 Y81.353 E296.1904
G1 X95.953 Y81.570
G1 X89.528 Y75.297 E296.4891
G1 X89.528 Y75.848
G1 X95.670 Y81.844 E296.7745
G1 X95.400 Y82.131
G1 X89.528 Y76.398 E297.0475
G1 X89.528 Y76.949
G1 X95.159 Y82.447 E297.3093
G1 X94.962 Y82.805
G1 X89.528 Y77.500 E297.5619
G1 X89.528 Y78.050
G1 X94.773 Y83.171 E297.8057
G1 X94.660 Y83.611
G1 X89.528 Y78.601 E298.0442
G1 X89.528 Y79.152
G1 X94.549 Y84.053 E298.2776
G1 X94.549 Y84.604
G1 X89.528 Y79.702 E298.5110
G1 X89.528 Y80.253
G1 X94.607 Y85.211 E298.7470
G0 X96.597 Y86.742 F5400
G0 X98.587 Y88.272
G0 X110.528 Y97.452
G1 X122.660 Y109.297 E299.3110 F3000
G1 X122.636 Y109.824
G1 X110.528 Y98.003 E299.8738
G0 X90.111 Y97.344 F5400
G1 X89.528 Y96.774 E299.9009 F3000
G1 X89.528 Y96.223
G1 X90.675 Y97.344 E299.9542
G1 X91.239 Y97.344
G1 X89.528 Y95.673 E300.0337
G1 X89.528 Y95.122
G1 X91.803 Y97.344 E300.1395
G1 X92.367 Y97.344
G1 X89.528 Y94.571 E300.2715
G1 X89.528 Y94.021
G1 X92.932 Y97.344 E300.4297
G1 X93.496 Y97.344
G1 X89.528 Y93.470 E300.6141
G1 X89.528 Y92.919
G1 X94.060 Y97.344 E300.8248
G1 X94.624 Y97.344
G1 X89.528 Y92.369 E301.0616
G1 X89.528 Y91.818
G1 X95.188 Y97.344 E301.3247
G1 X95.752 Y97.344
G1 X89.528 Y91.267 E301.6140
G1 X89.528 Y90.716
G1 X96.316 Y97.344 E301.9295
G1 X96.880 Y97.344
G1 X89.528 Y90.166 E302.2713
G1 X89.528 Y89.615
G1 X97.444 Y97.344 E302.6392
G1 X98.008 Y97.344
G1 X89.528 Y89.064 E303.0334
G1 X89.528 Y88.514
G1 X98.572 Y97.344 E303.4537
G1 X99.136 Y97.344
G1 X89.528 Y87.963 E303.9004
G1 X89.528 Y87.412
G1 X99.700 Y97.344 E304.3732
G1 X100.264 Y97.344
G1 X89.528 Y86.862 E304.8723
G1 X89.528 Y86.311
G1 X100.828 Y97.344 E305.3975
G1 X101.392 Y97.344
G1 X89.528 Y85.760 E305.9490
G1 X89.528 Y85.209
G1 X101.956 Y97.344 E306.5267
G1 X102.520 Y97.344
G1 X89.528 Y84.659 E307.1306
G1 X89.528 Y84.108
G1 X103.084 Y97.344 E307.7608
G1 X103.648 Y97.344
G1 X89.528 Y83.557 E308.4172
G1 X89.528 Y83.007
G1 X104.212 Y97.344 E309.0997
G1 X104.776 Y97.344
G1 X89.528 Y82.456 E309.8085
G1 X89.528 Y81.905
G1 X105.340 Y97.344 E310.5436
G1 X105.904 Y97.344
G1 X89.528 Y81.355 E311.3048
G1 X89.528 Y80.804
G1 X94.825 Y85.976 E311.5510
G0 X97.047 Y87.220 F5400
G0 X117.619 Y95.564
G1 X93.163 Y71.687 E312.6878 F3000
G1 X93.727 Y71.687
G1 X117.442 Y94.840 E313.7902
G1 X117.442 Y94.290
G1 X94.291 Y71.687 E314.8663
G1 X94.855 Y71.687
G1 X117.527 Y93.823 E315.9202
G1 X117.656 Y93.398
G1 X95.419 Y71.687 E316.9538
G1 X95.983 Y71.687
G1 X117.853 Y93.039 E317.9704
G1 X118.081 Y92.711
G1 X96.547 Y71.687 E318.9714
G1 X97.111 Y71.687
G1 X118.351 Y92.424 E319.9586
G1 X118.662 Y92.178
G1 X97.675 Y71.687 E320.9342
G1 X98.240 Y71.687
G1 X119.004 Y91.961 E321.8994
G1 X119.410 Y91.806
G1 X98.804 Y71.687 E322.8573
G1 X99.368 Y71.687
G1 X119.847 Y91.682 E323.8092
G1 X120.376 Y91.648
G1 X99.932 Y71.687 E324.7596
G1 X100.496 Y71.687
G1 X121.033 Y91.739 E325.7142
G0 X139.107 Y73.039 F5400
G1 X170.486 Y103.676 E327.1729 F3000
G0 X147.927 Y104.779 F5400
G1 X172.128 Y128.408 E328.2979 F3000
G1 X172.128 Y127.858
G1 X147.413 Y103.727 E329.4467
G0 X141.504 Y73.727 F5400
G1 X169.751 Y101.306 E330.7597 F3000
G0 X171.750 Y109.866 F5400
G1 X132.897 Y71.932 E332.5658 F3000
G1 X133.543 Y72.012
G1 X171.673 Y109.240 E334.3382
G1 X171.568 Y108.587
G1 X134.188 Y72.091 E336.0758
G1 X134.839 Y72.176
G1 X171.453 Y107.924 E337.7777
G1 X171.338 Y107.261
G1 X135.525 Y72.295 E339.4424
G0 X145.087 Y75.023 F5400
G1 X168.346 Y97.731 E340.5235 F3000
G0 X167.369 Y95.676 F5400
G1 X147.166 Y75.951 E341.4626 F3000
G0 X142.356 Y74.009 F5400
G1 X169.460 Y100.471 E342.7225 F3000
G1 X169.119 Y99.588
G1 X143.221 Y74.302 E343.9264
G0 X137.632 Y72.700 F5400
G1 X170.882 Y105.164 E345.4720 F3000
; ------------------------------------
; Layer #2
; ------------------------------------
G21 ; mm
G90 ; abs
G92 E0 ; reset extr
M106 S0
;segType:HShell
G0 F1200 E-1.0000
G0 F300 Z0.600
G0 X137.188 Y72.600 F5400
G0 F1200 E0.0000
G1 X110.528 Y98.630 E1.2393 F3000
;segType:Perimeter
G0 X110.131 Y98.588 F5400
G1 X109.468 Y98.320 E1.2631 F2100
G1 X88.528 Y98.320 E1.9596
G1 X88.528 Y70.710 E2.8778
G1 X128.325 Y70.710 E4.2015
G1 X130.526 Y70.764 E4.2747
G1 X132.719 Y70.926 E4.3478
G1 X134.901 Y71.195 E4.4210
G1 X137.067 Y71.571 E4.4941
G1 X139.212 Y72.053 E4.5672
G1 X141.331 Y72.640 E4.6404
G1 X143.419 Y73.329 E4.7135
G1 X145.471 Y74.120 E4.7866
G1 X147.481 Y75.011 E4.8598
G1 X149.445 Y76.000 E4.9329
G1 X151.358 Y77.084 E5.0060
G1 X153.216 Y78.260 E5.0792
G1 X155.014 Y79.526 E5.1523
G1 X156.747 Y80.879 E5.2254
G1 X158.412 Y82.315 E5.2986
G1 X160.005 Y83.832 E5.3717
G1 X161.521 Y85.424 E5.4448
G1 X162.957 Y87.090 E5.5180
G1 X164.310 Y88.823 E5.5911
G1 X165.577 Y90.621 E5.6643
G1 X166.753 Y92.479 E5.7374
G1 X167.837 Y94.393 E5.8106
G1 X168.826 Y96.357 E5.8837
G1 X169.717 Y98.368 E5.9569
G1 X170.509 Y100.420 E6.0300
G1 X171.199 Y102.508 E6.1032
G1 X171.785 Y104.628 E6.1763
G1 X172.267 Y106.773 E6.2495
G1 X172.643 Y108.940 E6.3226
G1 X172.912 Y111.123 E6.3958
G1 X173.074 Y113.317 E6.4689
G1 X173.128 Y115.517 E6.5421
G1 X173.128 Y140.320 E7.3671
G1 X109.528 Y140.320 E9.4824
G1 X109.528 Y98.378 E10.8774
G1 X109.253 Y97.731
;segType:Loop
G0 X108.431 Y97.929 F5400
G1 X88.928 Y97.929 E11.5261 F3000
G1 X88.928 Y71.101 E12.4184
G1 X128.320 Y71.101 E13.7286
G1 X130.506 Y71.155 E13.8013
G1 X132.678 Y71.315 E13.8738
G1 X134.841 Y71.581 E13.9462
G1 X136.988 Y71.954 E14.0187
G1 X139.113 Y72.431 E14.0911
G1 X141.213 Y73.013 E14.1636
G1 X143.282 Y73.696 E14.2361
G1 X145.314 Y74.480 E14.3085
G1 X147.307 Y75.363 E14.3810
G1 X149.253 Y76.343 E14.4535
G1 X151.149 Y77.416 E14.5260
G1 X152.990 Y78.582 E14.5984
G1 X154.772 Y79.837 E14.6709
G1 X156.490 Y81.178 E14.7434
G1 X158.140 Y82.602 E14.8159
G1 X159.718 Y84.105 E14.8884
G1 X161.221 Y85.683 E14.9609
G1 X162.645 Y87.334 E15.0334
G1 X163.986 Y89.052 E15.1059
G1 X165.242 Y90.835 E15.1784
G1 X166.408 Y92.677 E15.2509
G1 X167.483 Y94.574 E15.3234
G1 X168.463 Y96.521 E15.3959
G1 X169.346 Y98.514 E15.4684
G1 X170.131 Y100.549 E15.5410
G1 X170.815 Y102.619 E15.6135
G1 X171.397 Y104.720 E15.6860
G1 X171.874 Y106.848 E15.7585
G1 X172.247 Y108.996 E15.8311
G1 X172.514 Y111.161 E15.9036
G1 X172.674 Y113.335 E15.9761
G1 X172.728 Y115.522 E16.0489
G1 X172.728 Y139.929 E16.8607
G1 X109.928 Y139.929 E18.9494
G1 X109.928 Y97.929 E20.3463
G1 X108.631 Y97.929 E20.3895
G0 X107.334 Y97.539 F5400
G1 X89.328 Y97.539 E20.9884 F3000
G1 X89.328 Y71.492 E21.8547
G1 X128.315 Y71.492 E23.1514
G1 X130.486 Y71.545 E23.2236
G1 X132.638 Y71.704 E23.2954
G1 X134.781 Y71.968 E23.3672
G1 X136.908 Y72.337 E23.4390
G1 X139.013 Y72.810 E23.5108
G1 X141.094 Y73.386 E23.5826
G1 X143.144 Y74.062 E23.6544
G1 X145.158 Y74.840 E23.7262
G1 X147.132 Y75.714 E23.7980
G1 X149.061 Y76.686 E23.8699
G1 X150.939 Y77.749 E23.9417
G1 X152.764 Y78.905 E24.0135
G1 X154.530 Y80.148 E24.0853
G1 X156.232 Y81.477 E24.1572
G1 X157.868 Y82.888 E24.2290
G1 X159.432 Y84.378 E24.3008
G1 X160.922 Y85.942 E24.3727
G1 X162.333 Y87.578 E24.4446
G1 X163.662 Y89.282 E24.5164
G1 X164.906 Y91.048 E24.5883
G1 X166.063 Y92.874 E24.6602
G1 X167.128 Y94.754 E24.7321
G1 X168.100 Y96.685 E24.8039
G1 X168.975 Y98.660 E24.8758
G1 X169.753 Y100.678 E24.9477
G1 X170.431 Y102.730 E25.0196
G1 X171.008 Y104.813 E25.0915
G1 X171.482 Y106.922 E25.1634
G1 X171.851 Y109.052 E25.2353
G1 X172.116 Y111.198 E25.3072
G1 X172.275 Y113.354 E25.3791
G1 X172.328 Y115.527 E25.4514
G1 X172.328 Y139.539 E26.2500
G1 X110.328 Y139.539 E28.3122
G1 X110.328 Y97.539 E29.7091
G1 X107.534 Y97.539 E29.8020
;segType:HShell
G0 X142.053 Y73.908 F5400
G1 X122.665 Y92.838 E30.7033 F3000
;segType:Perimeter
G0 X122.184 Y92.978 F5400
G1 X122.017 Y93.659 E30.7266 F2100
G1 X122.174 Y94.078 E30.7415
G1 X122.230 Y94.515 E30.7561
G1 X122.170 Y94.986 E30.7719
G1 X121.995 Y95.427 E30.7877
G1 X121.716 Y95.812 E30.8035
G1 X121.349 Y96.116 E30.8194
G1 X120.917 Y96.319 E30.8352
G1 X120.448 Y96.408 E30.8511
G1 X119.971 Y96.378 E30.8670
G1 X119.517 Y96.231 E30.8829
G1 X119.114 Y95.975 E30.8988
G1 X118.788 Y95.628 E30.9146
G1 X118.559 Y95.212 E30.9304
G1 X118.442 Y94.752 E30.9462
G1 X118.442 Y94.278 E30.9620
G1 X118.559 Y93.818 E30.9777
G1 X118.788 Y93.402 E30.9935
G1 X119.114 Y93.055 E31.0094
G1 X119.517 Y92.800 E31.0252
G1 X119.971 Y92.652 E31.0411
G1 X120.448 Y92.622 E31.0570
G1 X120.917 Y92.711 E31.0729
G1 X121.349 Y92.915 E31.0888
G1 X121.716 Y93.218 E31.1046
G1 X121.962 Y93.557 E31.1185
G1 X122.632 Y93.809
;segType:Loop
G0 X122.620 Y94.612 F5400
G1 X122.561 Y95.081 E31.1343 F3000
G1 X122.350 Y95.614 E31.1533
G1 X122.013 Y96.078 E31.1724
G1 X121.568 Y96.446 E31.1916
G1 X121.044 Y96.692 E31.2109
G1 X120.474 Y96.801 E31.2302
G1 X119.894 Y96.765 E31.2495
G1 X119.342 Y96.586 E31.2688
G1 X118.854 Y96.276 E31.2880
G1 X118.460 Y95.856 E31.3072
G1 X118.183 Y95.354 E31.3263
G1 X118.042 Y94.800 E31.3453
G1 X118.042 Y94.230 E31.3642
G1 X118.183 Y93.677 E31.3832
G1 X118.460 Y93.174 E31.4023
G1 X118.854 Y92.755 E31.4214
G1 X119.342 Y92.445 E31.4407
G1 X119.894 Y92.266 E31.4600
G1 X120.474 Y92.229 E31.4793
G1 X121.044 Y92.338 E31.4986
G1 X121.568 Y92.585 E31.5179
G1 X122.013 Y92.952 E31.5371
G1 X122.354 Y93.421 E31.5563
G1 X122.566 Y93.986 E31.5764
G1 X122.620 Y94.418 E31.5909
G0 X122.714 Y95.779 F5400
G1 X122.706 Y95.800 E31.5917 F3000
G1 X122.310 Y96.344 E31.6140
G1 X121.788 Y96.776 E31.6366
G1 X121.172 Y97.066 E31.6592
G1 X120.500 Y97.194 E31.6820
G1 X119.816 Y97.151 E31.7047
G1 X119.167 Y96.940 E31.7275
G1 X118.593 Y96.576 E31.7501
G1 X118.131 Y96.084 E31.7725
G1 X117.808 Y95.496 E31.7949
G1 X117.642 Y94.848 E31.8171
G1 X117.642 Y94.182 E31.8392
G1 X117.808 Y93.535 E31.8615
G1 X118.131 Y92.946 E31.8838
G1 X118.593 Y92.454 E31.9062
G1 X119.167 Y92.090 E31.9288
G1 X119.816 Y91.879 E31.9516
G1 X120.500 Y91.836 E31.9743
G1 X121.172 Y91.964 E31.9971
G1 X121.788 Y92.254 E32.0197
G1 X122.310 Y92.686 E32.0423
G1 X122.711 Y93.238 E32.0650
G1 X122.957 Y93.893 E32.0882
G1 X123.036 Y94.515 E32.1091
G1 X122.952 Y95.177 E32.1313
G1 X122.786 Y95.598 E32.1463
G0 X122.173 Y93.514 F5400
G0 X112.178 Y71.687
;segType:HShell
G1 X101.349 Y82.260 E32.6497 F3000
;segType:Perimeter
G0 X100.973 Y82.544 F5400
G1 X100.806 Y83.226 E32.6731 F2100
G1 X101.048 Y83.871 E32.6960
G1 X101.130 Y84.515 E32.7176
G1 X101.042 Y85.210 E32.7409
G1 X100.784 Y85.861 E32.7642
G1 X100.372 Y86.428 E32.7875
G1 X99.831 Y86.876 E32.8108
G1 X99.195 Y87.175 E32.8342
G1 X98.504 Y87.306 E32.8576
G1 X97.802 Y87.262 E32.8810
G1 X97.134 Y87.045 E32.9044
G1 X96.541 Y86.669 E32.9277
G1 X96.060 Y86.157 E32.9511
G1 X95.723 Y85.543 E32.9744
G1 X95.548 Y84.865 E32.9977
G1 X95.548 Y84.165 E33.0209
G1 X95.723 Y83.487 E33.0442
G1 X96.060 Y82.873 E33.0675
G1 X96.541 Y82.362 E33.0909
G1 X97.134 Y81.985 E33.1142
G1 X97.802 Y81.768 E33.1376
G1 X98.504 Y81.724 E33.1610
G1 X99.195 Y81.855 E33.1844
G1 X99.831 Y82.155 E33.2078
G1 X100.372 Y82.602 E33.2311
G1 X100.750 Y83.123 E33.2525
G1 X101.420 Y83.375
;segType:Loop
G0 X101.486 Y84.146 F5400
G1 X101.533 Y84.515 E33.2649 F3000
G1 X101.433 Y85.305 E33.2914
G1 X101.139 Y86.047 E33.3180
G1 X100.669 Y86.694 E33.3445
G1 X100.051 Y87.206 E33.3712
G1 X99.322 Y87.548 E33.3980
G1 X98.530 Y87.700 E33.4248
G1 X97.725 Y87.649 E33.4517
G1 X96.959 Y87.400 E33.4785
G1 X96.280 Y86.969 E33.5052
G1 X95.732 Y86.385 E33.5318
G1 X95.347 Y85.685 E33.5584
G1 X95.149 Y84.913 E33.5849
G1 X95.149 Y84.117 E33.6114
G1 X95.347 Y83.345 E33.6379
G1 X95.732 Y82.645 E33.6645
G1 X96.280 Y82.061 E33.6911
G1 X96.959 Y81.631 E33.7179
G1 X97.725 Y81.382 E33.7447
G1 X98.530 Y81.331 E33.7715
G1 X99.322 Y81.482 E33.7983
G1 X100.051 Y81.825 E33.8251
G1 X100.669 Y82.336 E33.8518
G1 X101.142 Y82.988 E33.8786
G1 X101.439 Y83.778 E33.9067
G1 X101.462 Y83.952 E33.9125
G0 X101.842 Y85.256 F5400
G1 X101.824 Y85.401 E33.9174 F3000
G1 X101.494 Y86.234 E33.9471
G1 X100.966 Y86.960 E33.9770
G1 X100.270 Y87.536 E34.0071
G1 X99.449 Y87.922 E34.0372
G1 X98.556 Y88.093 E34.0675
G1 X97.648 Y88.035 E34.0977
G1 X96.783 Y87.755 E34.1280
G1 X96.020 Y87.269 E34.1581
G1 X95.403 Y86.613 E34.1880
G1 X94.971 Y85.827 E34.2178
G1 X94.749 Y84.961 E34.2476
G1 X94.749 Y84.069 E34.2773
G1 X94.971 Y83.203 E34.3070
G1 X95.403 Y82.417 E34.3368
G1 X96.020 Y81.761 E34.3668
G1 X96.783 Y81.276 E34.3969
G1 X97.648 Y80.995 E34.4271
G1 X98.556 Y80.938 E34.4574
G1 X99.450 Y81.108 E34.4876
G1 X100.270 Y81.494 E34.5178
G1 X100.966 Y82.070 E34.5478
G1 X101.499 Y82.804 E34.5780
G1 X101.831 Y83.686 E34.6093
G1 X101.936 Y84.515 E34.6371
G1 X101.867 Y85.063 E34.6555
G0 X109.669 Y98.182 F5400
G0 X122.364 Y124.997
G0 X122.365 Y126.029
G0 X121.937 Y127.141
G1 X121.568 Y127.446 E34.6714 F3000
G1 X121.044 Y127.692 E34.6907
G1 X120.474 Y127.801 E34.7100
G1 X119.894 Y127.765 E34.7293
G1 X119.342 Y127.586 E34.7486
G1 X118.854 Y127.276 E34.7679
G1 X118.460 Y126.856 E34.7870
G1 X118.183 Y126.354 E34.8061
G1 X118.042 Y125.801 E34.8251
G1 X118.042 Y125.230 E34.8440
G1 X118.183 Y124.677 E34.8630
G1 X118.460 Y124.174 E34.8821
G1 X118.854 Y123.755 E34.9013
G1 X119.342 Y123.445 E34.9205
G1 X119.894 Y123.266 E34.9398
G1 X120.474 Y123.229 E34.9591
G1 X121.044 Y123.338 E34.9784
G1 X121.568 Y123.584 E34.9977
G1 X122.013 Y123.952 E35.0169
G1 X122.350 Y124.417 E35.0360
G1 X122.561 Y124.949 E35.0550
G1 X122.625 Y125.457 E35.0721
G1 X122.564 Y126.075 E35.0927
G1 X122.350 Y126.614 E35.1120
G1 X122.071 Y126.999 E35.1278
;segType:Perimeter
G0 X122.734 Y125.631 F5400
G1 X122.150 Y126.038 E35.1515 F2100
G1 X121.995 Y126.427 E35.1654
G1 X121.716 Y126.812 E35.1812
G1 X121.349 Y127.116 E35.1971
G1 X120.917 Y127.319 E35.2130
G1 X120.448 Y127.408 E35.2288
G1 X119.971 Y127.378 E35.2447
G1 X119.517 Y127.231 E35.2606
G1 X119.114 Y126.975 E35.2765
G1 X118.788 Y126.628 E35.2923
G1 X118.559 Y126.212 E35.3081
G1 X118.442 Y125.752 E35.3239
G1 X118.442 Y125.278 E35.3397
G1 X118.559 Y124.818 E35.3555
G1 X118.788 Y124.402 E35.3713
G1 X119.114 Y124.055 E35.3871
G1 X119.517 Y123.800 E35.4029
G1 X119.971 Y123.652 E35.4188
G1 X120.448 Y123.622 E35.4347
G1 X120.917 Y123.712 E35.4506
G1 X121.349 Y123.915 E35.4665
G1 X121.716 Y124.218 E35.4823
G1 X121.995 Y124.603 E35.4981
G1 X122.170 Y125.045 E35.5139
G1 X122.223 Y125.462 E35.5279
G1 X122.177 Y125.925 E35.5434
G1 X122.511 Y126.546
;segType:Loop
G0 X121.189 Y128.058 F5400
G1 X121.171 Y128.066 E35.5441 F3000
G1 X120.500 Y128.194 E35.5668
G1 X119.816 Y128.151 E35.5896
G1 X119.167 Y127.940 E35.6123
G1 X118.593 Y127.576 E35.6349
G1 X118.131 Y127.084 E35.6573
G1 X117.808 Y126.495 E35.6797
G1 X117.642 Y125.849 E35.7019
G1 X117.642 Y125.182 E35.7241
G1 X117.808 Y124.535 E35.7463
G1 X118.131 Y123.946 E35.7686
G1 X118.593 Y123.454 E35.7911
G1 X119.167 Y123.090 E35.8137
G1 X119.816 Y122.879 E35.8364
G1 X120.500 Y122.836 E35.8592
G1 X121.172 Y122.964 E35.8819
G1 X121.788 Y123.254 E35.9046
G1 X122.310 Y123.686 E35.9271
G1 X122.706 Y124.230 E35.9495
G1 X122.952 Y124.853 E35.9718
G1 X123.028 Y125.452 E35.9918
G1 X122.957 Y126.165 E36.0157
G1 X122.706 Y126.800 E36.0384
G1 X122.310 Y127.344 E36.0608
G1 X121.788 Y127.776 E36.0833
G1 X121.369 Y127.973 E36.0987
;segType:HShell
G0 X114.806 Y128.046 F5400
G1 X117.442 Y125.473 E36.2212 F3000
G1 X117.473 Y125.993
G1 X115.130 Y128.281 E36.3301
G1 X115.435 Y128.534
G1 X117.585 Y126.434 E36.4301
G1 X117.757 Y126.817
G1 X115.675 Y128.850 E36.5269
;segType:Perimeter
G0 X115.184 Y128.978 F5400
G1 X115.017 Y129.659 E36.5502 F2100
G1 X115.174 Y130.078 E36.5651
G1 X115.230 Y130.515 E36.5798
G1 X115.170 Y130.986 E36.5956
G1 X114.995 Y131.427 E36.6114
G1 X114.716 Y131.812 E36.6272
G1 X114.349 Y132.116 E36.6430
G1 X113.917 Y132.319 E36.6589
G1 X113.448 Y132.408 E36.6748
G1 X112.971 Y132.378 E36.6907
G1 X112.517 Y132.231 E36.7065
G1 X112.114 Y131.975 E36.7224
G1 X111.788 Y131.628 E36.7382
G1 X111.559 Y131.212 E36.7540
G1 X111.441 Y130.752 E36.7698
G1 X111.441 Y130.278 E36.7856
G1 X111.559 Y129.819 E36.8014
G1 X111.788 Y129.402 E36.8172
G1 X112.114 Y129.055 E36.8330
G1 X112.517 Y128.800 E36.8489
G1 X112.971 Y128.652 E36.8648
G1 X113.448 Y128.622 E36.8807
G1 X113.917 Y128.712 E36.8965
G1 X114.349 Y128.915 E36.9124
G1 X114.716 Y129.219 E36.9283
G1 X114.962 Y129.557 E36.9422
G1 X115.632 Y129.808
;segType:Loop
G0 X115.621 Y130.612 F5400
G1 X115.561 Y131.082 E36.9579 F3000
G1 X115.350 Y131.613 E36.9770
G1 X115.013 Y132.078 E36.9960
G1 X114.568 Y132.446 E37.0152
G1 X114.044 Y132.692 E37.0345
G1 X113.474 Y132.802 E37.0538
G1 X112.893 Y132.765 E37.0732
G1 X112.342 Y132.585 E37.0925
G1 X111.854 Y132.276 E37.1117
G1 X111.460 Y131.856 E37.1308
G1 X111.184 Y131.354 E37.1499
G1 X111.041 Y130.800 E37.1689
G1 X111.041 Y130.230 E37.1879
G1 X111.184 Y129.677 E37.2069
G1 X111.460 Y129.174 E37.2259
G1 X111.854 Y128.755 E37.2451
G1 X112.342 Y128.445 E37.2643
G1 X112.893 Y128.266 E37.2836
G1 X113.474 Y128.229 E37.3029
G1 X114.044 Y128.338 E37.3223
G1 X114.568 Y128.584 E37.3415
G1 X115.013 Y128.953 E37.3607
G1 X115.353 Y129.421 E37.3800
G1 X115.566 Y129.985 E37.4000
G1 X115.621 Y130.418 E37.4146
G0 X115.713 Y131.780 F5400
G1 X115.705 Y131.800 E37.4153 F3000
G1 X115.310 Y132.344 E37.4376
G1 X114.788 Y132.776 E37.4602
G1 X114.172 Y133.066 E37.4828
G1 X113.500 Y133.195 E37.5056
G1 X112.816 Y133.151 E37.5284
G1 X112.167 Y132.940 E37.5511
G1 X111.593 Y132.576 E37.5737
G1 X111.131 Y132.084 E37.5961
G1 X110.808 Y131.495 E37.6185
G1 X110.641 Y130.849 E37.6407
G1 X110.641 Y130.182 E37.6629
G1 X110.808 Y129.535 E37.6851
G1 X111.131 Y128.946 E37.7074
G1 X111.593 Y128.454 E37.7299
G1 X112.167 Y128.090 E37.7525
G1 X112.816 Y127.879 E37.7752
G1 X113.500 Y127.836 E37.7980
G1 X114.172 Y127.964 E37.8207
G1 X114.788 Y128.254 E37.8434
G1 X115.311 Y128.687 E37.8660
G1 X115.711 Y129.237 E37.8886
G1 X115.957 Y129.893 E37.9119
G1 X116.036 Y130.515 E37.9327
G1 X115.952 Y131.177 E37.9549
G1 X115.785 Y131.598 E37.9700
;segType:HShell
G0 X119.592 Y139.344 F5400
G1 X136.154 Y123.173 E38.7399 F3000
;segType:Perimeter
G0 X136.288 Y122.692 F5400
G1 X135.768 Y122.208 E38.7635 F2100
G1 X134.702 Y122.159 E38.7990
G1 X133.586 Y122.003 E38.8365
G1 X132.488 Y121.745 E38.8740
G1 X131.419 Y121.386 E38.9115
G1 X130.388 Y120.931 E38.9490
G1 X129.404 Y120.383 E38.9864
G1 X128.474 Y119.746 E39.0239
G1 X127.607 Y119.026 E39.0614
G1 X126.810 Y118.229 E39.0989
G1 X126.091 Y117.363 E39.1363
G1 X125.454 Y116.433 E39.1738
G1 X124.906 Y115.449 E39.2113
G1 X124.451 Y114.419 E39.2487
G1 X124.093 Y113.352 E39.2862
G1 X123.835 Y112.255 E39.3236
G1 X123.680 Y111.140 E39.3611
G1 X123.628 Y110.015 E39.3985
G1 X123.680 Y108.890 E39.4360
G1 X123.835 Y107.775 E39.4735
G1 X124.093 Y106.679 E39.5109
G1 X124.451 Y105.611 E39.5484
G1 X124.906 Y104.581 E39.5858
G1 X125.454 Y103.597 E39.6233
G1 X126.091 Y102.667 E39.6607
G1 X126.811 Y101.801 E39.6982
G1 X127.607 Y101.004 E39.7357
G1 X128.474 Y100.285 E39.7732
G1 X129.404 Y99.647 E39.8106
G1 X130.388 Y99.099 E39.8481
G1 X131.419 Y98.644 E39.8856
G1 X132.488 Y98.286 E39.9231
G1 X133.586 Y98.027 E39.9606
G1 X134.702 Y97.872 E39.9981
G1 X135.828 Y97.820 E40.0356
G1 X136.954 Y97.872 E40.0731
G1 X138.071 Y98.027 E40.1106
G1 X139.168 Y98.286 E40.1481
G1 X140.237 Y98.644 E40.1856
G1 X141.268 Y99.099 E40.2231
G1 X142.252 Y99.647 E40.2605
G1 X143.182 Y100.284 E40.2980
G1 X144.049 Y101.004 E40.3355
G1 X144.846 Y101.801 E40.3730
G1 X145.565 Y102.667 E40.4104
G1 X146.202 Y103.597 E40.4479
G1 X146.750 Y104.581 E40.4854
G1 X147.205 Y105.611 E40.5228
G1 X147.563 Y106.679 E40.5603
G1 X147.821 Y107.775 E40.5977
G1 X147.976 Y108.890 E40.6352
G1 X148.028 Y110.015 E40.6726
G1 X147.976 Y111.140 E40.7101
G1 X147.821 Y112.255 E40.7475
G1 X147.563 Y113.352 E40.7850
G1 X147.205 Y114.419 E40.8225
G1 X146.750 Y115.449 E40.8599
G1 X146.202 Y116.433 E40.8974
G1 X145.565 Y117.363 E40.9348
G1 X144.846 Y118.229 E40.9723
G1 X144.049 Y119.026 E41.0098
G1 X143.182 Y119.746 E41.0473
G1 X142.252 Y120.383 E41.0847
G1 X141.268 Y120.931 E41.1222
G1 X140.237 Y121.386 E41.1597
G1 X139.168 Y121.745 E41.1972
G1 X138.071 Y122.003 E41.2347
G1 X136.954 Y122.159 E41.2722
G1 X135.888 Y122.208 E41.3077
G1 X135.368 Y122.692
;segType:Loop
G0 X134.714 Y122.550 F5400
G1 X134.664 Y122.548 E41.3093 F3000
G1 X133.510 Y122.387 E41.3481
G1 X132.376 Y122.120 E41.3869
G1 X131.272 Y121.750 E41.4256
G1 X130.206 Y121.280 E41.4643
G1 X129.189 Y120.713 E41.5030
G1 X128.229 Y120.055 E41.5418
G1 X127.334 Y119.312 E41.5805
G1 X126.511 Y118.489 E41.6192
G1 X125.769 Y117.595 E41.6578
G1 X125.112 Y116.636 E41.6965
G1 X124.546 Y115.620 E41.7352
G1 X124.076 Y114.558 E41.7738
G1 X123.707 Y113.456 E41.8124
G1 X123.441 Y112.326 E41.8511
G1 X123.281 Y111.175 E41.8897
G1 X123.227 Y110.015 E41.9283
G1 X123.281 Y108.855 E41.9669
G1 X123.441 Y107.705 E42.0056
G1 X123.707 Y106.574 E42.0442
G1 X124.076 Y105.473 E42.0828
G1 X124.546 Y104.410 E42.1215
G1 X125.111 Y103.395 E42.1601
G1 X125.769 Y102.436 E42.1988
G1 X126.511 Y101.541 E42.2375
G1 X127.334 Y100.719 E42.2762
G1 X128.229 Y99.975 E42.3149
G1 X129.189 Y99.317 E42.3536
G1 X130.206 Y98.751 E42.3923
G1 X131.272 Y98.280 E42.4310
G1 X132.376 Y97.910 E42.4698
G1 X133.510 Y97.643 E42.5085
G1 X134.664 Y97.483 E42.5473
G1 X135.828 Y97.429 E42.5860
G1 X136.992 Y97.483 E42.6248
G1 X138.146 Y97.643 E42.6635
G1 X139.280 Y97.910 E42.7023
G1 X140.385 Y98.280 E42.7410
G1 X141.450 Y98.751 E42.7797
G1 X142.467 Y99.317 E42.8185
G1 X143.427 Y99.975 E42.8572
G1 X144.323 Y100.719 E42.8959
G1 X145.145 Y101.541 E42.9346
G1 X145.888 Y102.436 E42.9732
G1 X146.545 Y103.395 E43.0119
G1 X147.110 Y104.410 E43.0506
G1 X147.580 Y105.473 E43.0892
G1 X147.949 Y106.574 E43.1279
G1 X148.215 Y107.705 E43.1665
G1 X148.375 Y108.855 E43.2051
G1 X148.429 Y110.015 E43.2437
G1 X148.375 Y111.175 E43.2824
G1 X148.215 Y112.326 E43.3210
G1 X147.949 Y113.456 E43.3596
G1 X147.580 Y114.558 E43.3983
G1 X147.110 Y115.620 E43.4369
G1 X146.545 Y116.636 E43.4756
G1 X145.888 Y117.595 E43.5142
G1 X145.145 Y118.489 E43.5529
G1 X144.323 Y119.312 E43.5916
G1 X143.427 Y120.055 E43.6303
G1 X142.467 Y120.713 E43.6690
G1 X141.450 Y121.280 E43.7077
G1 X140.385 Y121.750 E43.7464
G1 X139.280 Y122.120 E43.7852
G1 X138.146 Y122.387 E43.8239
G1 X136.992 Y122.548 E43.8627
G1 X135.828 Y122.602 E43.9014
G1 X134.913 Y122.559 E43.9319
G0 X133.571 Y122.790 F5400
G1 X133.435 Y122.771 E43.9365 F3000
G1 X132.264 Y122.495 E43.9765
G1 X131.124 Y122.113 E44.0165
G1 X130.024 Y121.628 E44.0565
G1 X128.975 Y121.043 E44.0964
G1 X127.984 Y120.365 E44.1364
G1 X127.061 Y119.598 E44.1763
G1 X126.212 Y118.749 E44.2162
G1 X125.446 Y117.827 E44.2561
G1 X124.769 Y116.838 E44.2959
G1 X124.186 Y115.791 E44.3358
G1 X123.702 Y114.696 E44.3756
G1 X123.322 Y113.561 E44.4154
G1 X123.047 Y112.396 E44.4552
G1 X122.882 Y111.210 E44.4951
G1 X122.827 Y110.015 E44.5348
G1 X122.882 Y108.820 E44.5746
G1 X123.047 Y107.635 E44.6144
G1 X123.322 Y106.470 E44.6542
G1 X123.702 Y105.335 E44.6941
G1 X124.186 Y104.239 E44.7339
G1 X124.769 Y103.192 E44.7737
G1 X125.446 Y102.204 E44.8136
G1 X126.212 Y101.281 E44.8535
G1 X127.061 Y100.433 E44.8934
G1 X127.984 Y99.666 E44.9333
G1 X128.975 Y98.987 E44.9733
G1 X130.024 Y98.403 E45.0132
G1 X131.124 Y97.917 E45.0532
G1 X132.264 Y97.535 E45.0932
G1 X133.435 Y97.260 E45.1332
G1 X134.626 Y97.093 E45.1732
G1 X135.828 Y97.038 E45.2132
G1 X137.030 Y97.093 E45.2532
G1 X138.221 Y97.260 E45.2932
G1 X139.392 Y97.535 E45.3333
G1 X140.532 Y97.917 E45.3732
G1 X141.632 Y98.403 E45.4132
G1 X142.681 Y98.987 E45.4532
G1 X143.672 Y99.666 E45.4931
G1 X144.596 Y100.433 E45.5331
G1 X145.444 Y101.281 E45.5730
G1 X146.210 Y102.204 E45.6128
G1 X146.887 Y103.192 E45.6527
G1 X147.470 Y104.239 E45.6925
G1 X147.954 Y105.335 E45.7324
G1 X148.334 Y106.470 E45.7722
G1 X148.609 Y107.635 E45.8120
G1 X148.774 Y108.820 E45.8518
G1 X148.829 Y110.015 E45.8916
G1 X148.774 Y111.210 E45.9314
G1 X148.609 Y112.396 E45.9712
G1 X148.334 Y113.561 E46.0110
G1 X147.954 Y114.696 E46.0508
G1 X147.470 Y115.791 E46.0907
G1 X146.887 Y116.838 E46.1305
G1 X146.210 Y117.827 E46.1704
G1 X145.444 Y118.749 E46.2102
G1 X144.596 Y119.598 E46.2501
G1 X143.672 Y120.365 E46.2901
G1 X142.681 Y121.043 E46.3300
G1 X141.632 Y121.628 E46.3700
G1 X140.532 Y122.113 E46.4100
G1 X139.392 Y122.495 E46.4500
G1 X138.221 Y122.771 E46.4900
G1 X137.030 Y122.937 E46.5300
G1 X135.828 Y122.993 E46.5700
G1 X134.626 Y122.937 E46.6100
G1 X133.768 Y122.817 E46.6388
G0 X151.461 Y127.603 F5400
G0 X152.937 Y127.141
G1 X152.568 Y127.446 E46.6547 F3000
G1 X152.044 Y127.692 E46.6740
G1 X151.474 Y127.801 E46.6933
G1 X150.894 Y127.765 E46.7126
G1 X150.342 Y127.586 E46.7320
G1 X149.854 Y127.276 E46.7512
G1 X149.460 Y126.856 E46.7703
G1 X149.183 Y126.354 E46.7894
G1 X149.042 Y125.801 E46.8084
G1 X149.042 Y125.230 E46.8274
G1 X149.183 Y124.677 E46.8464
G1 X149.460 Y124.174 E46.8654
G1 X149.854 Y123.755 E46.8846
G1 X150.342 Y123.445 E46.9038
G1 X150.894 Y123.266 E46.9231
G1 X151.474 Y123.229 E46.9424
G1 X152.044 Y123.338 E46.9618
G1 X152.568 Y123.584 E46.9810
G1 X153.013 Y123.952 E47.0002
G1 X153.351 Y124.417 E47.0193
G1 X153.561 Y124.949 E47.0383
G1 X153.625 Y125.457 E47.0554
G1 X153.564 Y126.075 E47.0760
G1 X153.351 Y126.613 E47.0953
G1 X153.071 Y126.999 E47.1111
;segType:Perimeter
G0 X153.734 Y125.631 F5400
G1 X153.149 Y126.038 E47.1348 F2100
G1 X152.996 Y126.427 E47.1487
G1 X152.716 Y126.812 E47.1646
G1 X152.349 Y127.116 E47.1804
G1 X151.917 Y127.319 E47.1963
G1 X151.448 Y127.408 E47.2122
G1 X150.971 Y127.378 E47.2281
G1 X150.517 Y127.231 E47.2439
G1 X150.114 Y126.975 E47.2598
G1 X149.788 Y126.628 E47.2756
G1 X149.559 Y126.212 E47.2914
G1 X149.442 Y125.752 E47.3072
G1 X149.442 Y125.278 E47.3230
G1 X149.559 Y124.818 E47.3388
G1 X149.788 Y124.402 E47.3546
G1 X150.114 Y124.055 E47.3704
G1 X150.517 Y123.800 E47.3863
G1 X150.971 Y123.652 E47.4021
G1 X151.448 Y123.622 E47.4180
G1 X151.917 Y123.712 E47.4339
G1 X152.349 Y123.915 E47.4498
G1 X152.716 Y124.218 E47.4656
G1 X152.996 Y124.603 E47.4815
G1 X153.170 Y125.045 E47.4972
G1 X153.223 Y125.462 E47.5112
G1 X153.177 Y125.925 E47.5267
G1 X153.511 Y126.546
;segType:Loop
G0 X152.189 Y128.058 F5400
G1 X152.171 Y128.066 E47.5274 F3000
G1 X151.500 Y128.194 E47.5501
G1 X150.816 Y128.151 E47.5729
G1 X150.167 Y127.940 E47.5956
G1 X149.593 Y127.576 E47.6182
G1 X149.131 Y127.084 E47.6406
G1 X148.808 Y126.495 E47.6630
G1 X148.642 Y125.849 E47.6852
G1 X148.642 Y125.182 E47.7074
G1 X148.808 Y124.535 E47.7296
G1 X149.131 Y123.946 E47.7519
G1 X149.593 Y123.454 E47.7744
G1 X150.167 Y123.090 E47.7970
G1 X150.816 Y122.879 E47.8197
G1 X151.500 Y122.836 E47.8425
G1 X152.172 Y122.964 E47.8652
G1 X152.788 Y123.254 E47.8879
G1 X153.310 Y123.686 E47.9104
G1 X153.706 Y124.231 E47.9328
G1 X153.952 Y124.853 E47.9551
G1 X154.028 Y125.452 E47.9751
G1 X153.956 Y126.165 E47.9990
G1 X153.706 Y126.800 E48.0217
G1 X153.310 Y127.344 E48.0441
G1 X152.788 Y127.776 E48.0666
G1 X152.369 Y127.973 E48.0820
G0 X163.917 Y127.530 F5400
G0 X166.871 Y128.428
;segType:HShell
G1 X172.128 Y123.295 E48.3264 F3000
G1 X172.128 Y122.744
G1 X166.637 Y128.105 E48.5817
;segType:Perimeter
G0 X166.373 Y128.544 F5400
G1 X166.206 Y129.226 E48.6050 F2100
G1 X166.448 Y129.871 E48.6279
G1 X166.530 Y130.515 E48.6495
G1 X166.442 Y131.210 E48.6728
G1 X166.184 Y131.861 E48.6961
G1 X165.772 Y132.428 E48.7194
G1 X165.231 Y132.875 E48.7428
G1 X164.595 Y133.175 E48.7661
G1 X163.904 Y133.307 E48.7895
G1 X163.202 Y133.262 E48.8129
G1 X162.534 Y133.045 E48.8363
G1 X161.940 Y132.669 E48.8597
G1 X161.460 Y132.157 E48.8830
G1 X161.123 Y131.543 E48.9063
G1 X160.949 Y130.865 E48.9296
G1 X160.949 Y130.165 E48.9529
G1 X161.123 Y129.487 E48.9762
G1 X161.460 Y128.873 E48.9995
G1 X161.940 Y128.362 E49.0228
G1 X162.534 Y127.985 E49.0462
G1 X163.202 Y127.768 E49.0695
G1 X163.904 Y127.724 E49.0929
G1 X164.595 Y127.856 E49.1163
G1 X165.231 Y128.155 E49.1397
G1 X165.772 Y128.602 E49.1631
G1 X166.150 Y129.123 E49.1845
G1 X166.820 Y129.375
;segType:Loop
G0 X166.886 Y130.146 F5400
G1 X166.933 Y130.515 E49.1969 F3000
G1 X166.833 Y131.305 E49.2234
G1 X166.539 Y132.047 E49.2499
G1 X166.069 Y132.694 E49.2765
G1 X165.451 Y133.206 E49.3032
G1 X164.723 Y133.548 E49.3299
G1 X163.930 Y133.700 E49.3568
G1 X163.125 Y133.649 E49.3836
G1 X162.359 Y133.400 E49.4104
G1 X161.680 Y132.969 E49.4371
G1 X161.131 Y132.385 E49.4638
G1 X160.747 Y131.685 E49.4904
G1 X160.549 Y130.913 E49.5169
G1 X160.549 Y130.117 E49.5433
G1 X160.747 Y129.345 E49.5699
G1 X161.131 Y128.645 E49.5964
G1 X161.680 Y128.061 E49.6231
G1 X162.359 Y127.631 E49.6498
G1 X163.125 Y127.381 E49.6766
G1 X163.930 Y127.331 E49.7034
G1 X164.723 Y127.482 E49.7303
G1 X165.451 Y127.825 E49.7570
G1 X166.069 Y128.336 E49.7837
G1 X166.542 Y128.988 E49.8105
G1 X166.840 Y129.779 E49.8386
G1 X166.862 Y129.953 E49.8444
G0 X167.242 Y131.256 F5400
G1 X167.224 Y131.401 E49.8493 F3000
G1 X166.894 Y132.233 E49.8791
G1 X166.366 Y132.960 E49.9090
G1 X165.670 Y133.536 E49.9390
G1 X164.850 Y133.922 E49.9691
G1 X163.956 Y134.093 E49.9994
G1 X163.048 Y134.035 E50.0297
G1 X162.184 Y133.755 E50.0599
G1 X161.420 Y133.270 E50.0900
G1 X160.803 Y132.613 E50.1200
G1 X160.371 Y131.827 E50.1498
G1 X160.149 Y130.961 E50.1795
G1 X160.149 Y130.069 E50.2092
G1 X160.371 Y129.203 E50.2389
G1 X160.803 Y128.417 E50.2688
G1 X161.420 Y127.760 E50.2987
G1 X162.184 Y127.276 E50.3288
G1 X163.048 Y126.995 E50.3591
G1 X163.956 Y126.938 E50.3893
G1 X164.850 Y127.108 E50.4196
G1 X165.670 Y127.494 E50.4498
G1 X166.366 Y128.070 E50.4798
G1 X166.899 Y128.804 E50.5100
G1 X167.231 Y129.686 E50.5413
G1 X167.336 Y130.515 E50.5691
G1 X167.267 Y131.063 E50.5875
;segType:HShell
G0 X153.674 Y92.850 F5400
G1 X160.697 Y85.993 E50.9139 F3000
G1 X160.426 Y85.708
G1 X153.435 Y92.533 E51.2389
;segType:Perimeter
G0 X153.184 Y92.978 F5400
G1 X153.017 Y93.659 E51.2622 F2100
G1 X153.174 Y94.078 E51.2771
G1 X153.230 Y94.515 E51.2918
G1 X153.170 Y94.986 E51.3075
G1 X152.996 Y95.427 E51.3233
G1 X152.716 Y95.812 E51.3392
G1 X152.349 Y96.116 E51.3550
G1 X151.917 Y96.319 E51.3709
G1 X151.448 Y96.408 E51.3867
G1 X150.971 Y96.378 E51.4026
G1 X150.517 Y96.231 E51.4185
G1 X150.114 Y95.975 E51.4344
G1 X149.788 Y95.628 E51.4502
G1 X149.559 Y95.212 E51.4660
G1 X149.442 Y94.752 E51.4818
G1 X149.442 Y94.278 E51.4976
G1 X149.559 Y93.818 E51.5133
G1 X149.788 Y93.402 E51.5292
G1 X150.114 Y93.055 E51.5450
G1 X150.517 Y92.800 E51.5608
G1 X150.971 Y92.652 E51.5767
G1 X151.448 Y92.622 E51.5926
G1 X151.917 Y92.711 E51.6085
G1 X152.349 Y92.915 E51.6244
G1 X152.716 Y93.218 E51.6402
G1 X152.962 Y93.557 E51.6541
G1 X153.632 Y93.809
;segType:Loop
G0 X153.620 Y94.612 F5400
G1 X153.561 Y95.081 E51.6699 F3000
G1 X153.351 Y95.614 E51.6889
G1 X153.013 Y96.078 E51.7080
G1 X152.568 Y96.446 E51.7272
G1 X152.044 Y96.692 E51.7465
G1 X151.474 Y96.801 E51.7658
G1 X150.894 Y96.765 E51.7851
G1 X150.342 Y96.586 E51.8044
G1 X149.854 Y96.276 E51.8236
G1 X149.460 Y95.856 E51.8428
G1 X149.183 Y95.354 E51.8619
G1 X149.042 Y94.800 E51.8809
G1 X149.042 Y94.230 E51.8998
G1 X149.183 Y93.677 E51.9188
G1 X149.460 Y93.174 E51.9379
G1 X149.854 Y92.755 E51.9570
G1 X150.342 Y92.445 E51.9763
G1 X150.894 Y92.266 E51.9956
G1 X151.474 Y92.229 E52.0149
G1 X152.044 Y92.338 E52.0342
G1 X152.568 Y92.585 E52.0535
G1 X153.013 Y92.952 E52.0727
G1 X153.354 Y93.421 E52.0919
G1 X153.566 Y93.986 E52.1120
G1 X153.620 Y94.419 E52.1265
G0 X153.714 Y95.780 F5400
G1 X153.706 Y95.800 E52.1272 F3000
G1 X153.310 Y96.344 E52.1496
G1 X152.788 Y96.776 E52.1722
G1 X152.172 Y97.066 E52.1948
G1 X151.500 Y97.194 E52.2176
G1 X150.816 Y97.151 E52.2403
G1 X150.167 Y96.940 E52.2631
G1 X149.593 Y96.576 E52.2857
G1 X149.131 Y96.084 E52.3081
G1 X148.808 Y95.496 E52.3304
G1 X148.642 Y94.848 E52.3527
G1 X148.642 Y94.182 E52.3748
G1 X148.808 Y93.535 E52.3971
G1 X149.131 Y92.946 E52.4194
G1 X149.593 Y92.454 E52.4418
G1 X150.167 Y92.090 E52.4644
G1 X150.816 Y91.879 E52.4872
G1 X151.500 Y91.836 E52.5099
G1 X152.172 Y91.964 E52.5327
G1 X152.788 Y92.254 E52.5553
G1 X153.310 Y92.686 E52.5779
G1 X153.711 Y93.238 E52.6006
G1 X153.957 Y93.893 E52.6238
G1 X154.036 Y94.515 E52.6447
G1 X153.952 Y95.177 E52.6669
G1 X153.786 Y95.598 E52.6819
;segType:HShell
G0 X153.739 Y96.092 F5400
G1 X162.244 Y87.787 E53.0773 F3000
G1 X161.990 Y87.485
G1 X154.160 Y95.130 E53.4413
G1 X154.236 Y94.505
G1 X161.733 Y87.186 E53.7898
G1 X161.475 Y86.887
G1 X154.174 Y94.015 E54.1291
G1 X154.053 Y93.582
G1 X161.217 Y86.588 E54.4621
G1 X160.959 Y86.289
G1 X153.902 Y93.179 E54.7902
G0 X152.842 Y96.968 F5400
G1 X146.863 Y102.805 E55.0681 F3000
G1 X147.085 Y103.139
G1 X162.488 Y88.100 E55.7841
G1 X162.732 Y88.412
G1 X147.284 Y103.495 E56.5022
G1 X147.483 Y103.852
G1 X162.976 Y88.725 E57.2224
G1 X163.220 Y89.037
G1 X147.677 Y104.213 E57.9450
G1 X147.847 Y104.598
G1 X163.464 Y89.350 E58.6709
G1 X163.696 Y89.674
G1 X148.017 Y104.983 E59.3998
G1 X148.178 Y105.376
G1 X163.926 Y90.000 E60.1318
G1 X164.156 Y90.327
G1 X148.317 Y105.791 E60.8680
G1 X148.456 Y106.205
G1 X164.385 Y90.653 E61.6085
G1 X164.615 Y90.979
G1 X148.579 Y106.637 E62.3539
G1 X148.684 Y107.084
G1 X164.838 Y91.312 E63.1048
G1 X165.054 Y91.653
G1 X148.790 Y107.532 E63.8608
G1 X148.863 Y108.011
G1 X165.269 Y91.993 E64.6235
G1 X165.485 Y92.333
G1 X148.931 Y108.496 E65.3930
G1 X148.982 Y108.996
G1 X165.700 Y92.674 E66.1701
G1 X165.914 Y93.016
G1 X149.007 Y109.523 E66.9560
G1 X149.028 Y110.053
G1 X166.115 Y93.370 E67.7503
G1 X166.316 Y93.725
G1 X149.001 Y110.630 E68.5551
G1 X148.974 Y111.207
G1 X166.517 Y94.079 E69.3706
G1 X166.718 Y94.434
G1 X148.888 Y111.842 E70.1994
G1 X148.793 Y112.486
G1 X166.919 Y94.788 E71.0420
G1 X167.107 Y95.155
G1 X148.625 Y113.201 E71.9011
G0 X144.995 Y118.359 F5400
G0 X141.358 Y121.105
G0 X138.108 Y122.194
G0 X123.181 Y125.927
G1 X128.366 Y120.865 E72.1421 F3000
G1 X128.034 Y120.638
G1 X123.216 Y125.342 E72.3661
G1 X123.154 Y124.852
G1 X127.716 Y120.398 E72.5782
G1 X127.411 Y120.145
G1 X123.005 Y124.446 E72.7829
G1 X122.831 Y124.066
G1 X127.106 Y119.892 E72.9817
