; GCode generated by CraftWare

G28 X0 Y0
G28 Z0

M190 S65 ;set bed temp (wait)
M109 S240 ;set head temp (wait)
; ------------------------------------
; Layer #0
; ------------------------------------
G21 ; mm
G90 ; abs
G92 E0 ; reset extr
M106 S0
;segType:Skirt
G0 F1200 E-1.0000
G0 F300 Z0.200
G0 X78.500 Y149.889 F5400
G0 F1200 E0.0000
G1 X78.699 Y150.083 E0.0092 F3000
G1 X78.898 Y150.278 E0.0185
G1 X79.363 Y150.342 E0.0341
G1 X180.301 Y150.342 E3.3913
G1 X181.894 Y148.786 E3.4654
G1 X182.093 Y148.462 E3.4780
G1 X182.093 Y66.510 E6.2038
G1 X180.234 Y64.694 E6.2902
G1 X179.769 Y64.630 E6.3058
G1 X79.097 Y64.630 E9.6542
G1 X77.238 Y66.445 E9.7406
G1 X77.172 Y66.899 E9.7559
G1 X77.172 Y148.592 E12.4730
G1 X78.500 Y149.889 E12.5347
G1 X78.500 Y150.278 E12.5477
G1 X78.699 Y150.472 E12.5569
G1 X78.898 Y150.667 E12.5662
G1 X79.363 Y150.731 E12.5818
G1 X180.301 Y150.731 E15.9390
G1 X182.426 Y148.657 E16.0378
G1 X182.492 Y148.203 E16.0530
G1 X182.492 Y66.510 E18.7701
G1 X180.367 Y64.435 E18.8689
G1 X180.035 Y64.241 E18.8817
G1 X79.097 Y64.241 E22.2389
G1 X76.972 Y66.316 E22.3377
G1 X76.773 Y66.639 E22.3503
G1 X76.773 Y148.592 E25.0761
G1 X78.500 Y150.278 E25.1563
G1 X78.500 Y150.667 E25.1693
G0 F1200 E24.1693
G0 X79.399 Y148.691 F5400
G0 X80.299 Y146.715
G0 F1200 E25.1693
;segType:Loop
G1 X80.299 Y67.577 E27.8014 F3000
G1 X179.099 Y67.577 E31.0875
G1 X179.099 Y147.395 E33.7423
G1 X80.299 Y147.395 E37.0284
G1 X80.299 Y146.910 E37.0446
;segType:Perimeter
G0 X80.562 Y147.459 F5400
G1 X79.899 Y147.728 E37.0684 F2100
G1 X79.899 Y67.186 E39.7472
G1 X179.499 Y67.186 E43.0599
G1 X179.499 Y147.786 E45.7406
G1 X79.959 Y147.786 E49.0514
G1 X80.233 Y147.138
;segType:Loop
G0 X80.699 Y145.644 F5400
G1 X80.699 Y67.967 E51.6349 F3000
G1 X178.699 Y67.967 E54.8944
G1 X178.699 Y147.005 E57.5232
G1 X80.699 Y147.005 E60.7827
G1 X80.699 Y145.839 E60.8215
;segType:HShell
G0 X177.938 Y146.810 F5400
G1 X178.499 Y146.262 E60.8476 F3000
G1 X178.499 Y145.711
G1 X177.374 Y146.810 E60.8999
G1 X176.810 Y146.810
G1 X178.499 Y145.160 E60.9784
G1 X178.499 Y144.610
G1 X176.246 Y146.810 E61.0831
G1 X175.682 Y146.810
G1 X178.499 Y144.059 E61.2141
G1 X178.499 Y143.508
G1 X175.118 Y146.810 E61.3713
G1 X174.554 Y146.810
G1 X178.499 Y142.958 E61.5547
G1 X178.499 Y142.407
G1 X173.990 Y146.810 E61.7643
G1 X173.426 Y146.810
G1 X178.499 Y141.856 E62.0001
G1 X178.499 Y141.305
G1 X172.862 Y146.810 E62.2621
G1 X172.297 Y146.810
G1 X178.499 Y140.755 E62.5504
G1 X178.499 Y140.204
G1 X171.733 Y146.810 E62.8649
G1 X171.169 Y146.810
G1 X178.499 Y139.653 E63.2056
G1 X178.499 Y139.103
G1 X170.605 Y146.810 E63.5726
G1 X170.041 Y146.810
G1 X178.499 Y138.552 E63.9657
G1 X178.499 Y138.001
G1 X169.477 Y146.810 E64.3851
G1 X168.913 Y146.810
G1 X178.499 Y137.451 E64.8307
G1 X178.499 Y136.900
G1 X168.349 Y146.810 E65.3025
G1 X167.785 Y146.810
G1 X178.499 Y136.349 E65.8005
G1 X178.499 Y135.798
G1 X167.221 Y146.810 E66.3247
G1 X166.657 Y146.810
G1 X178.499 Y135.248 E66.8752
G1 X178.499 Y134.697
G1 X166.093 Y146.810 E67.4519
G1 X165.529 Y146.810
G1 X178.499 Y134.146 E68.0548
G1 X178.499 Y133.596
G1 X164.965 Y146.810 E68.6839
G1 X164.401 Y146.810
G1 X178.499 Y133.045 E69.3392
G1 X178.499 Y132.494
G1 X163.837 Y146.810 E70.0208
G1 X163.273 Y146.810
G1 X178.499 Y131.944 E70.7285
G1 X178.499 Y131.393
G1 X162.709 Y146.810 E71.4625
G1 X162.145 Y146.810
G1 X178.499 Y130.842 E72.2227
G1 X178.499 Y130.291
G1 X161.581 Y146.810 E73.0092
G1 X161.017 Y146.810
G1 X178.499 Y129.741 E73.8218
G1 X178.499 Y129.190
G1 X160.453 Y146.810 E74.6607
G1 X159.889 Y146.810
G1 X178.499 Y128.639 E75.5258
G1 X178.499 Y128.089
G1 X159.325 Y146.810 E76.4171
G1 X158.761 Y146.810
G1 X178.499 Y127.538 E77.3346
G1 X178.499 Y126.987
G1 X158.196 Y146.810 E78.2783
G1 X157.632 Y146.810
G1 X178.499 Y126.437 E79.2483
G1 X178.499 Y125.886
G1 X157.068 Y146.810 E80.2445
G1 X156.504 Y146.810
G1 X178.499 Y125.335 E81.2669
G1 X178.499 Y124.784
G1 X155.940 Y146.810 E82.3155
G1 X155.376 Y146.810
G1 X178.499 Y124.234 E83.3904
G1 X178.499 Y123.683
G1 X154.812 Y146.810 E84.4914
G1 X154.248 Y146.810
G1 X178.499 Y123.132 E85.6187
G1 X178.499 Y122.582
G1 X153.684 Y146.810 E86.7722
G1 X153.120 Y146.810
G1 X178.499 Y122.031 E87.9519
G1 X178.499 Y121.480
G1 X152.556 Y146.810 E89.1578
G1 X151.992 Y146.810
G1 X178.499 Y120.930 E90.3900
G1 X178.499 Y120.379
G1 X151.428 Y146.810 E91.6483
G1 X150.864 Y146.810
G1 X178.499 Y119.828 E92.9329
G1 X178.499 Y119.277
G1 X150.300 Y146.810 E94.2437
G1 X149.736 Y146.810
G1 X178.499 Y118.727 E95.5808
G1 X178.499 Y118.176
G1 X149.172 Y146.810 E96.9440
G1 X148.608 Y146.810
G1 X178.499 Y117.625 E98.3335
G1 X178.499 Y117.075
G1 X148.044 Y146.810 E99.7492
G1 X147.480 Y146.810
G1 X178.499 Y116.524 E101.1911
G1 X178.499 Y115.973
G1 X146.916 Y146.810 E102.6592
G1 X146.352 Y146.810
G1 X178.499 Y115.422 E104.1535
G1 X178.499 Y114.872
G1 X145.788 Y146.810 E105.6741
G1 X145.224 Y146.810
G1 X178.499 Y114.321 E107.2209
G1 X178.499 Y113.770
G1 X144.660 Y146.810 E108.7939
G1 X144.095 Y146.810
G1 X178.499 Y113.220 E110.3931
G1 X178.499 Y112.669
G1 X143.531 Y146.810 E112.0185
G1 X142.967 Y146.810
G1 X178.499 Y112.118 E113.6702
G1 X178.499 Y111.568
G1 X142.403 Y146.810 E115.3481
G1 X141.839 Y146.810
G1 X178.499 Y111.017 E117.0521
G1 X178.499 Y110.466
G1 X141.275 Y146.810 E118.7825
G1 X140.711 Y146.810
G1 X178.499 Y109.915 E120.5390
G1 X178.499 Y109.365
G1 X140.147 Y146.810 E122.3217
G1 X139.583 Y146.810
G1 X178.499 Y108.814 E124.1307
G1 X178.499 Y108.263
G1 X139.019 Y146.810 E125.9659
G1 X138.455 Y146.810
G1 X178.499 Y107.713 E127.8273
G1 X178.499 Y107.162
G1 X137.891 Y146.810 E129.7149
G1 X137.327 Y146.810
G1 X178.499 Y106.611 E131.6288
G1 X178.499 Y106.061
G1 X136.763 Y146.810 E133.5688
G1 X136.199 Y146.810
G1 X178.499 Y105.510 E135.5351
G1 X178.499 Y104.959
G1 X135.635 Y146.810 E137.5276
G1 X135.071 Y146.810
G1 X178.499 Y104.408 E139.5463
G1 X178.499 Y103.858
G1 X134.507 Y146.810 E141.5913
G1 X133.943 Y146.810
G1 X178.499 Y103.307 E143.6624
G1 X178.499 Y102.756
G1 X133.379 Y146.810 E145.7598
G1 X132.815 Y146.810
G1 X178.499 Y102.206 E147.8834
G1 X178.499 Y101.655
G1 X132.251 Y146.810 E150.0332
G1 X131.687 Y146.810
G1 X178.499 Y101.104 E152.2092
G1 X178.499 Y100.554
G1 X131.123 Y146.810 E154.4115
G1 X130.559 Y146.810
G1 X178.499 Y100.003 E156.6399
G1 X178.499 Y99.452
G1 X129.995 Y146.810 E158.8946
G1 X129.430 Y146.810
G1 X178.499 Y98.901 E161.1755
G1 X178.499 Y98.351
G1 X128.866 Y146.810 E163.4827
G1 X128.302 Y146.810
G1 X178.499 Y97.800 E165.8160
G1 X178.499 Y97.249
G1 X127.738 Y146.810 E168.1756
G1 X127.174 Y146.810
G1 X178.499 Y96.699 E170.5614
G1 X178.499 Y96.148
G1 X126.610 Y146.810 E172.9734
G1 X126.046 Y146.810
G1 X178.499 Y95.597 E175.4116
G1 X178.499 Y95.047
G1 X125.482 Y146.810 E177.8760
G1 X124.918 Y146.810
G1 X178.499 Y94.496 E180.3667
G1 X178.499 Y93.945
G1 X124.354 Y146.810 E182.8836
G1 X123.790 Y146.810
G1 X178.499 Y93.394 E185.4267
G1 X178.499 Y92.844
G1 X123.226 Y146.810 E187.9960
G1 X122.662 Y146.810
G1 X178.499 Y92.293 E190.5915
G1 X178.499 Y91.742
G1 X122.098 Y146.810 E193.2133
G1 X121.534 Y146.810
G1 X178.499 Y91.192 E195.8612
G1 X178.499 Y90.641
G1 X120.970 Y146.810 E198.5354
G1 X120.406 Y146.810
G1 X178.499 Y90.090 E201.2358
G1 X178.499 Y89.540
G1 X119.842 Y146.810 E203.9625
G1 X119.278 Y146.810
G1 X178.499 Y88.989 E206.7153
G1 X178.499 Y88.438
G1 X118.714 Y146.810 E209.4944
G1 X118.150 Y146.810
G1 X178.499 Y87.887 E212.2997
G1 X178.499 Y87.337
G1 X117.586 Y146.810 E215.1312
G1 X117.022 Y146.810
G1 X178.499 Y86.786 E217.9889
G1 X178.499 Y86.235
G1 X116.458 Y146.810 E220.8728
G1 X115.894 Y146.810
G1 X178.499 Y85.685 E223.7830
G1 X178.499 Y85.134
G1 X115.329 Y146.810 E226.7194
G1 X114.765 Y146.810
G1 X178.499 Y84.583 E229.6820
G1 X178.499 Y84.032
G1 X114.201 Y146.810 E232.6708
G1 X113.637 Y146.810
G1 X178.499 Y83.482 E235.6858
G1 X178.499 Y82.931
G1 X113.073 Y146.810 E238.7271
G1 X112.509 Y146.810
G1 X178.499 Y82.380 E241.7946
G1 X178.499 Y81.830
G1 X111.945 Y146.810 E244.8882
G1 X111.381 Y146.810
G1 X178.499 Y81.279 E248.0082
G1 X178.499 Y80.728
G1 X110.817 Y146.810 E251.1543
G1 X110.253 Y146.810
G1 X178.499 Y80.178 E254.3266
G1 X178.499 Y79.627
G1 X109.689 Y146.810 E257.5252
G1 X109.125 Y146.810
G1 X178.499 Y79.076 E260.7500
G1 X178.499 Y78.525
G1 X108.561 Y146.810 E264.0010
G1 X107.997 Y146.810
G1 X178.499 Y77.975 E267.2782
G1 X178.499 Y77.424
G1 X107.433 Y146.810 E270.5817
G1 X106.869 Y146.810
G1 X178.499 Y76.873 E273.9113
G1 X178.499 Y76.323
G1 X106.305 Y146.810 E277.2672
G1 X105.741 Y146.810
G1 X178.499 Y75.772 E280.6493
G1 X178.499 Y75.221
G1 X105.177 Y146.810 E284.0577
G1 X104.613 Y146.810
G1 X178.499 Y74.671 E287.4922
G1 X178.499 Y74.120
G1 X104.049 Y146.810 E290.9530
G1 X103.485 Y146.810
G1 X178.499 Y73.569 E294.4399
G1 X178.499 Y73.018
G1 X102.921 Y146.810 E297.9531
G1 X102.357 Y146.810
G1 X178.499 Y72.468 E301.4925
G1 X178.499 Y71.917
G1 X101.793 Y146.810 E305.0582
G1 X101.228 Y146.810
G1 X178.499 Y71.366 E308.6500
G1 X178.499 Y70.816
G1 X100.664 Y146.810 E312.2681
G1 X100.100 Y146.810
G1 X178.499 Y70.265 E315.9124
G1 X178.499 Y69.714
G1 X99.536 Y146.810 E319.5829
G1 X98.972 Y146.810
G1 X178.499 Y69.164 E323.2796
G1 X178.499 Y68.613
G1 X98.408 Y146.810 E327.0026
G1 X97.844 Y146.810
G1 X178.396 Y68.163 E330.7470
G1 X177.832 Y68.163
G1 X97.280 Y146.810 E334.4913
G1 X96.716 Y146.810
G1 X177.268 Y68.163 E338.2357
G1 X176.704 Y68.163
G1 X96.152 Y146.810 E341.9801
G1 X95.588 Y146.810
G1 X176.140 Y68.163 E345.7245
G1 X175.576 Y68.163
G1 X95.024 Y146.810 E349.4689
G1 X94.460 Y146.810
G1 X175.012 Y68.163 E353.2133
G1 X174.448 Y68.163
G1 X93.896 Y146.810 E356.9577
G1 X93.332 Y146.810
G1 X173.884 Y68.163 E360.7020
G1 X173.320 Y68.163
G1 X92.768 Y146.810 E364.4464
G1 X92.204 Y146.810
G1 X172.756 Y68.163 E368.1908
G1 X172.192 Y68.163
G1 X91.640 Y146.810 E371.9352
G1 X91.076 Y146.810
G1 X171.628 Y68.163 E375.6796
G1 X171.064 Y68.163
G1 X90.512 Y146.810 E379.4240
G1 X89.948 Y146.810
G1 X170.499 Y68.163 E383.1683
G1 X169.935 Y68.163
G1 X89.384 Y146.810 E386.9127
G1 X88.820 Y146.810
G1 X169.371 Y68.163 E390.6571
G1 X168.807 Y68.163
G1 X88.256 Y146.810 E394.4015
G1 X87.692 Y146.810
G1 X168.243 Y68.163 E398.1459
G1 X167.679 Y68.163
G1 X87.127 Y146.810 E401.8903
G1 X86.563 Y146.810
G1 X167.115 Y68.163 E405.6347
G1 X166.551 Y68.163
G1 X85.999 Y146.810 E409.3790
G1 X85.435 Y146.810
G1 X165.987 Y68.163 E413.1234
G1 X165.423 Y68.163
G1 X84.871 Y146.810 E416.8678
G1 X84.307 Y146.810
G1 X164.859 Y68.163 E420.6122
G1 X164.295 Y68.163
G1 X83.743 Y146.810 E424.3566
G1 X83.179 Y146.810
G1 X163.731 Y68.163 E428.1010
G1 X163.167 Y68.163
G1 X82.615 Y146.810 E431.8454
G1 X82.051 Y146.810
G1 X162.603 Y68.163 E435.5897
G1 X162.039 Y68.163
G1 X81.487 Y146.810 E439.3341
G1 X80.923 Y146.810
G1 X161.475 Y68.163 E443.0785
G1 X160.911 Y68.163
G1 X80.899 Y146.282 E446.7978
G1 X80.899 Y145.732
G1 X160.347 Y68.163 E450.4908
G1 X159.783 Y68.163
G1 X80.899 Y145.181 E454.1577
G1 X80.899 Y144.630
G1 X159.219 Y68.163 E457.7983
G1 X158.655 Y68.163
G1 X80.899 Y144.080 E461.4127
G1 X80.899 Y143.529
G1 X158.091 Y68.163 E465.0009
G1 X157.527 Y68.163
G1 X80.899 Y142.978 E468.5629
G1 X80.899 Y142.428
G1 X156.963 Y68.163 E472.0986
G1 X156.399 Y68.163
G1 X80.899 Y141.877 E475.6081
G1 X80.899 Y141.326
G1 X155.834 Y68.163 E479.0915
G1 X155.270 Y68.163
G1 X80.899 Y140.775 E482.5485
G1 X80.899 Y140.225
G1 X154.706 Y68.163 E485.9794
G1 X154.142 Y68.163
G1 X80.899 Y139.674 E489.3841
G1 X80.899 Y139.123
G1 X153.578 Y68.163 E492.7625
G1 X153.014 Y68.163
G1 X80.899 Y138.573 E496.1147
G1 X80.899 Y138.022
G1 X152.450 Y68.163 E499.4407
G1 X151.886 Y68.163
G1 X80.899 Y137.471 E502.7405
G1 X80.899 Y136.921
G1 X151.322 Y68.163 E506.0141
G1 X150.758 Y68.163
G1 X80.899 Y136.370 E509.2614
G1 X80.899 Y135.819
G1 X150.194 Y68.163 E512.4825
G1 X149.630 Y68.163
G1 X80.899 Y135.268 E515.6774
G1 X80.899 Y134.718
G1 X149.066 Y68.163 E518.8461
G1 X148.502 Y68.163
G1 X80.899 Y134.167 E521.9886
G1 X80.899 Y133.616
G1 X147.938 Y68.163 E525.1048
G1 X147.374 Y68.163
G1 X80.899 Y133.066 E528.1948
G1 X80.899 Y132.515
G1 X146.810 Y68.163 E531.2586
G1 X146.246 Y68.163
G1 X80.899 Y131.964 E534.2962
G1 X80.899 Y131.414
G1 X145.682 Y68.163 E537.3076
G1 X145.118 Y68.163
G1 X80.899 Y130.863 E540.2927
G1 X80.899 Y130.312
G1 X144.554 Y68.163 E543.2517
G1 X143.990 Y68.163
G1 X80.899 Y129.761 E546.1844
G1 X80.899 Y129.211
G1 X143.426 Y68.163 E549.0909
G1 X142.862 Y68.163
G1 X80.899 Y128.660 E551.9712
G1 X80.899 Y128.109
G1 X142.298 Y68.163 E554.8252
G1 X141.733 Y68.163
G1 X80.899 Y127.559 E557.6530
G1 X80.899 Y127.008
G1 X141.169 Y68.163 E560.4547
G1 X140.605 Y68.163
G1 X80.899 Y126.457 E563.2301
G1 X80.899 Y125.907
G1 X140.041 Y68.163 E565.9793
G1 X139.477 Y68.163
G1 X80.899 Y125.356 E568.7022
G1 X80.899 Y124.805
G1 X138.913 Y68.163 E571.3990
G1 X138.349 Y68.163
G1 X80.899 Y124.254 E574.0695
G1 X80.899 Y123.704
G1 X137.785 Y68.163 E576.7138
G1 X137.221 Y68.163
G1 X80.899 Y123.153 E579.3319
G1 X80.899 Y122.602
G1 X136.657 Y68.163 E581.9237
G1 X136.093 Y68.163
G1 X80.899 Y122.052 E584.4894
G1 X80.899 Y121.501
G1 X135.529 Y68.163 E587.0288
G1 X134.965 Y68.163
G1 X80.899 Y120.950 E589.5420
G1 X80.899 Y120.399
G1 X134.401 Y68.163 E592.0290
G1 X133.837 Y68.163
G1 X80.899 Y119.849 E594.4898
G1 X80.899 Y119.298
G1 X133.273 Y68.163 E596.9243
G1 X132.709 Y68.163
G1 X80.899 Y118.747 E599.3327
G1 X80.899 Y118.197
G1 X132.145 Y68.163 E601.7148
G1 X131.581 Y68.163
G1 X80.899 Y117.646 E604.0707
G1 X80.899 Y117.095
G1 X131.017 Y68.163 E606.4004
G1 X130.453 Y68.163
G1 X80.899 Y116.545 E608.7039
G1 X80.899 Y115.994
G1 X129.889 Y68.163 E610.9811
G1 X129.325 Y68.163
G1 X80.899 Y115.443 E613.2321
G1 X80.899 Y114.892
G1 X128.761 Y68.163 E615.4569
G1 X128.197 Y68.163
G1 X80.899 Y114.342 E617.6555
G1 X80.899 Y113.791
G1 X127.632 Y68.163 E619.8279
G1 X127.068 Y68.163
G1 X80.899 Y113.240 E621.9741
G1 X80.899 Y112.690
G1 X126.504 Y68.163 E624.0940
G1 X125.940 Y68.163
G1 X80.899 Y112.139 E626.1877
G1 X80.899 Y111.588
G1 X125.376 Y68.163 E628.2552
G1 X124.812 Y68.163
G1 X80.899 Y111.038 E630.2965
G1 X80.899 Y110.487
G1 X124.248 Y68.163 E632.3115
G1 X123.684 Y68.163
G1 X80.899 Y109.936 E634.3004
G1 X80.899 Y109.385
G1 X123.120 Y68.163 E636.2630
G1 X122.556 Y68.163
G1 X80.899 Y108.835 E638.1994
G1 X80.899 Y108.284
G1 X121.992 Y68.163 E640.1096
G1 X121.428 Y68.163
G1 X80.899 Y107.733 E641.9936
G1 X80.899 Y107.183
G1 X120.864 Y68.163 E643.8513
G1 X120.300 Y68.163
G1 X80.899 Y106.632 E645.6828
G1 X80.899 Y106.081
G1 X119.736 Y68.163 E647.4881
G1 X119.172 Y68.163
G1 X80.899 Y105.531 E649.2672
G1 X80.899 Y104.980
G1 X118.608 Y68.163 E651.0201
G1 X118.044 Y68.163
G1 X80.899 Y104.429 E652.7467
G1 X80.899 Y103.878
G1 X117.480 Y68.163 E654.4472
G1 X116.916 Y68.163
G1 X80.899 Y103.328 E656.1214
G1 X80.899 Y102.777
G1 X116.352 Y68.163 E657.7694
G1 X115.788 Y68.163
G1 X80.899 Y102.226 E659.3911
G1 X80.899 Y101.676
G1 X115.224 Y68.163 E660.9867
G1 X114.660 Y68.163
G1 X80.899 Y101.125 E662.5561
G1 X80.899 Y100.574
G1 X114.096 Y68.163 E664.0991
G1 X113.531 Y68.163
G1 X80.899 Y100.024 E665.6161
G1 X80.899 Y99.473
G1 X112.967 Y68.163 E667.1067
G1 X112.403 Y68.163
G1 X80.899 Y98.922 E668.5712
G1 X80.899 Y98.371
G1 X111.839 Y68.163 E670.0094
G1 X111.275 Y68.163
G1 X80.899 Y97.821 E671.4215
G1 X80.899 Y97.270
G1 X110.711 Y68.163 E672.8073
G1 X110.147 Y68.163
G1 X80.899 Y96.719 E674.1668
G1 X80.899 Y96.169
G1 X109.583 Y68.163 E675.5002
G1 X109.019 Y68.163
G1 X80.899 Y95.618 E676.8073
G1 X80.899 Y95.067
G1 X108.455 Y68.163 E678.0883
G1 X107.891 Y68.163
G1 X80.899 Y94.517 E679.3430
G1 X80.899 Y93.966
G1 X107.327 Y68.163 E680.5715
G1 X106.763 Y68.163
G1 X80.899 Y93.415 E681.7738
G1 X80.899 Y92.864
G1 X106.199 Y68.163 E682.9498
G1 X105.635 Y68.163
G1 X80.899 Y92.314 E684.0996
G1 X80.899 Y91.763
G1 X105.071 Y68.163 E685.2232
G1 X104.507 Y68.163
G1 X80.899 Y91.212 E686.3206
G1 X80.899 Y90.662
G1 X103.943 Y68.163 E687.3918
G1 X103.379 Y68.163
G1 X80.899 Y90.111 E688.4368
G1 X80.899 Y89.560
G1 X102.815 Y68.163 E689.4555
G1 X102.251 Y68.163
G1 X80.899 Y89.009 E690.4480
G1 X80.899 Y88.459
G1 X101.687 Y68.163 E691.4143
G1 X101.123 Y68.163
G1 X80.899 Y87.908 E692.3544
G1 X80.899 Y87.357
G1 X100.559 Y68.163 E693.2683
G1 X99.995 Y68.163
G1 X80.899 Y86.807 E694.1559
G1 X80.899 Y86.256
G1 X99.430 Y68.163 E695.0174
G1 X98.866 Y68.163
G1 X80.899 Y85.705 E695.8526
G1 X80.899 Y85.155
G1 X98.302 Y68.163 E696.6615
G1 X97.738 Y68.163
G1 X80.899 Y84.604 E697.4443
G1 X80.899 Y84.053
G1 X97.174 Y68.163 E698.2008
G1 X96.610 Y68.163
G1 X80.899 Y83.502 E698.9312
G1 X80.899 Y82.952
G1 X96.046 Y68.163 E699.6353
G1 X95.482 Y68.163
G1 X80.899 Y82.401 E700.3132
G1 X80.899 Y81.850
G1 X94.918 Y68.163 E700.9649
G1 X94.354 Y68.163
G1 X80.899 Y81.300 E701.5903
G1 X80.899 Y80.749
G1 X93.790 Y68.163 E702.1895
G1 X93.226 Y68.163
G1 X80.899 Y80.198 E702.7625
G1 X80.899 Y79.648
G1 X92.662 Y68.163 E703.3094
G1 X92.098 Y68.163
G1 X80.899 Y79.097 E703.8299
G1 X80.899 Y78.546
G1 X91.534 Y68.163 E704.3243
G1 X90.970 Y68.163
G1 X80.899 Y77.995 E704.7924
G1 X80.899 Y77.445
G1 X90.406 Y68.163 E705.2343
G1 X89.842 Y68.163
G1 X80.899 Y76.894 E705.6500
G1 X80.899 Y76.343
G1 X89.278 Y68.163 E706.0395
G1 X88.714 Y68.163
G1 X80.899 Y75.793 E706.4028
G1 X80.899 Y75.242
G1 X88.150 Y68.163 E706.7398
G1 X87.586 Y68.163
G1 X80.899 Y74.691 E707.0507
G1 X80.899 Y74.141
G1 X87.022 Y68.163 E707.3353
G1 X86.458 Y68.163
G1 X80.899 Y73.590 E707.5937
G1 X80.899 Y73.039
G1 X85.894 Y68.163 E707.8258
G1 X85.329 Y68.163
G1 X80.899 Y72.488 E708.0318
G1 X80.899 Y71.938
G1 X84.765 Y68.163 E708.2115
G1 X84.201 Y68.163
G1 X80.899 Y71.387 E708.3650
G1 X80.899 Y70.836
G1 X83.637 Y68.163 E708.4923
G1 X83.073 Y68.163
G1 X80.899 Y70.286 E708.5934
G1 X80.899 Y69.735
G1 X82.509 Y68.163 E708.6682
G1 X81.945 Y68.163
G1 X80.899 Y69.184 E708.7169
G1 X80.899 Y68.634
G1 X81.381 Y68.163 E708.7393
; ------------------------------------
; Layer #1
; ------------------------------------
G21 ; mm
G90 ; abs
G92 E0 ; reset extr
M106 S0
;segType:HShell
G0 F1200 E-1.0000
G0 F300 Z0.400
G0 X127.799 Y71.910 F5400
G0 F1200 E0.0000
G1 X153.567 Y97.070 E1.1978 F3000
;segType:Perimeter
G0 X153.431 Y97.457 F5400
G1 X153.156 Y98.105 E1.2212 F2100
G1 X153.156 Y140.046 E2.6162
G1 X89.556 Y140.046 E4.7316
G1 X89.556 Y115.244 E5.5565
G1 X89.610 Y113.043 E5.6297
G1 X89.772 Y110.849 E5.7029
G1 X90.041 Y108.667 E5.7760
G1 X90.417 Y106.500 E5.8492
G1 X90.899 Y104.354 E5.9223
G1 X91.486 Y102.234 E5.9955
G1 X92.176 Y100.146 E6.0686
G1 X92.967 Y98.094 E6.1418
G1 X93.859 Y96.083 E6.2149
G1 X94.847 Y94.119 E6.2881
G1 X95.931 Y92.206 E6.3612
G1 X97.108 Y90.347 E6.4344
G1 X98.374 Y88.549 E6.5075
G1 X99.727 Y86.816 E6.5806
G1 X101.163 Y85.151 E6.6538
G1 X102.680 Y83.558 E6.7269
G1 X104.272 Y82.042 E6.8001
G1 X105.937 Y80.606 E6.8732
G1 X107.671 Y79.253 E6.9463
G1 X109.469 Y77.987 E7.0195
G1 X111.326 Y76.810 E7.0926
G1 X113.240 Y75.726 E7.1657
G1 X115.204 Y74.738 E7.2389
G1 X117.214 Y73.847 E7.3120
G1 X119.265 Y73.055 E7.3851
G1 X121.353 Y72.366 E7.4583
G1 X123.472 Y71.779 E7.5314
G1 X125.617 Y71.298 E7.6045
G1 X127.784 Y70.921 E7.6776
G1 X129.966 Y70.652 E7.7508
G1 X132.158 Y70.491 E7.8239
G1 X134.359 Y70.437 E7.8971
G1 X174.156 Y70.437 E9.2208
G1 X174.156 Y98.046 E10.1391
G1 X153.216 Y98.046 E10.8356
G1 X152.553 Y98.314
;segType:Loop
G0 X152.756 Y99.117 F5400
G1 X152.756 Y139.656 E12.1839 F3000
G1 X89.956 Y139.656 E14.2726
G1 X89.956 Y115.248 E15.0844
G1 X90.010 Y113.062 E15.1572
G1 X90.171 Y110.887 E15.2297
G1 X90.438 Y108.723 E15.3022
G1 X90.810 Y106.574 E15.3747
G1 X91.288 Y104.446 E15.4473
G1 X91.869 Y102.345 E15.5198
G1 X92.553 Y100.275 E15.5923
G1 X93.338 Y98.240 E15.6648
G1 X94.222 Y96.247 E15.7373
G1 X95.202 Y94.300 E15.8099
G1 X96.277 Y92.403 E15.8824
G1 X97.443 Y90.561 E15.9549
G1 X98.698 Y88.779 E16.0274
G1 X100.039 Y87.060 E16.0999
G1 X101.463 Y85.409 E16.1724
G1 X102.966 Y83.831 E16.2449
G1 X104.545 Y82.328 E16.3174
G1 X106.195 Y80.905 E16.3899
G1 X107.913 Y79.564 E16.4624
G1 X109.695 Y78.309 E16.5348
G1 X111.536 Y77.143 E16.6073
G1 X113.432 Y76.069 E16.6798
G1 X115.378 Y75.089 E16.7523
G1 X117.370 Y74.206 E16.8247
G1 X119.403 Y73.422 E16.8972
G1 X121.472 Y72.739 E16.9697
G1 X123.572 Y72.158 E17.0421
G1 X125.697 Y71.680 E17.1146
G1 X127.844 Y71.308 E17.1871
G1 X130.006 Y71.041 E17.2595
G1 X132.178 Y70.881 E17.3320
G1 X134.364 Y70.827 E17.4047
G1 X173.756 Y70.827 E18.7149
G1 X173.756 Y97.656 E19.6072
G1 X152.756 Y97.656 E20.3057
G1 X152.756 Y98.922 E20.3478
G0 X152.356 Y100.188 F5400
G1 X152.356 Y139.265 E21.6475 F3000
G1 X90.356 Y139.265 E23.7096
G1 X90.356 Y115.253 E24.5083
G1 X90.410 Y113.080 E24.5806
G1 X90.569 Y110.924 E24.6525
G1 X90.834 Y108.779 E24.7244
G1 X91.203 Y106.649 E24.7963
G1 X91.676 Y104.539 E24.8682
G1 X92.253 Y102.456 E24.9401
G1 X92.931 Y100.404 E25.0120
G1 X93.709 Y98.387 E25.0839
G1 X94.585 Y96.411 E25.1557
G1 X95.557 Y94.481 E25.2276
G1 X96.622 Y92.600 E25.2995
G1 X97.778 Y90.774 E25.3714
G1 X99.022 Y89.008 E25.4432
G1 X100.352 Y87.304 E25.5151
G1 X101.763 Y85.668 E25.5870
G1 X103.253 Y84.104 E25.6588
G1 X104.817 Y82.614 E25.7307
G1 X106.453 Y81.204 E25.8025
G1 X108.155 Y79.875 E25.8743
G1 X109.921 Y78.632 E25.9462
G1 X111.745 Y77.476 E26.0180
G1 X113.624 Y76.412 E26.0898
G1 X115.553 Y75.441 E26.1616
G1 X117.526 Y74.566 E26.2334
G1 X119.540 Y73.789 E26.3052
G1 X121.591 Y73.112 E26.3771
G1 X123.671 Y72.536 E26.4489
G1 X125.777 Y72.063 E26.5206
G1 X127.904 Y71.694 E26.5924
G1 X130.046 Y71.430 E26.6642
G1 X132.198 Y71.271 E26.7360
G1 X134.369 Y71.218 E26.8082
G1 X173.356 Y71.218 E28.1050
G1 X173.356 Y97.265 E28.9713
G1 X152.356 Y97.265 E29.6698
G1 X152.356 Y99.993 E29.7605
;segType:HShell
G0 X152.156 Y106.156 F5400
G1 X142.855 Y97.074 E30.1929 F3000
;segType:Perimeter
G0 X142.686 Y96.619 F5400
G1 X142.178 Y96.124 E30.2165 F2100
G1 X141.768 Y96.045 E30.2304
G1 X141.336 Y95.842 E30.2462
G1 X140.969 Y95.538 E30.2621
G1 X140.689 Y95.154 E30.2779
G1 X140.514 Y94.712 E30.2937
G1 X140.455 Y94.242 E30.3095
G1 X140.514 Y93.771 E30.3252
G1 X140.689 Y93.329 E30.3410
G1 X140.969 Y92.945 E30.3568
G1 X141.336 Y92.641 E30.3727
G1 X141.768 Y92.438 E30.3886
G1 X142.237 Y92.348 E30.4044
G1 X142.714 Y92.378 E30.4203
G1 X143.168 Y92.526 E30.4362
G1 X143.570 Y92.782 E30.4521
G1 X143.896 Y93.128 E30.4679
G1 X144.125 Y93.545 E30.4837
G1 X144.243 Y94.004 E30.4995
G1 X144.243 Y94.479 E30.5153
G1 X144.125 Y94.938 E30.5311
G1 X143.896 Y95.355 E30.5469
G1 X143.570 Y95.702 E30.5627
G1 X143.168 Y95.957 E30.5785
G1 X142.714 Y96.105 E30.5944
G1 X142.296 Y96.131 E30.6083
G1 X141.728 Y96.559
;segType:Loop
G0 X140.971 Y96.052 F5400
G1 X140.672 Y95.804 E30.6212 F3000
G1 X140.334 Y95.340 E30.6404
G1 X140.123 Y94.808 E30.6594
G1 X140.052 Y94.242 E30.6784
G1 X140.123 Y93.675 E30.6974
G1 X140.334 Y93.143 E30.7164
G1 X140.672 Y92.679 E30.7355
G1 X141.116 Y92.311 E30.7547
G1 X141.640 Y92.064 E30.7739
G1 X142.211 Y91.955 E30.7933
G1 X142.791 Y91.992 E30.8126
G1 X143.343 Y92.171 E30.8319
G1 X143.831 Y92.481 E30.8511
G1 X144.225 Y92.900 E30.8703
G1 X144.501 Y93.403 E30.8893
G1 X144.643 Y93.956 E30.9083
G1 X144.643 Y94.527 E30.9273
G1 X144.501 Y95.080 E30.9463
G1 X144.225 Y95.583 E30.9654
G1 X143.831 Y96.002 E30.9845
G1 X143.343 Y96.312 E31.0037
G1 X142.791 Y96.491 E31.0230
G1 X142.211 Y96.528 E31.0424
G1 X141.640 Y96.419 E31.0617
G1 X141.124 Y96.176 E31.0807
G0 X139.943 Y95.435 F5400
G1 X139.733 Y94.904 E31.0997 F3000
G1 X139.649 Y94.242 E31.1219
G1 X139.733 Y93.579 E31.1441
G1 X139.979 Y92.957 E31.1663
G1 X140.375 Y92.413 E31.1887
G1 X140.896 Y91.980 E31.2113
G1 X141.513 Y91.691 E31.2339
G1 X142.185 Y91.562 E31.2567
G1 X142.868 Y91.605 E31.2794
G1 X143.518 Y91.816 E31.3022
G1 X144.091 Y92.181 E31.3248
G1 X144.553 Y92.672 E31.3472
G1 X144.877 Y93.261 E31.3695
G1 X145.043 Y93.908 E31.3918
G1 X145.043 Y94.575 E31.4139
G1 X144.877 Y95.222 E31.4362
G1 X144.553 Y95.811 E31.4585
G1 X144.091 Y96.302 E31.4809
G1 X143.518 Y96.667 E31.5035
G1 X142.868 Y96.878 E31.5263
G1 X142.185 Y96.921 E31.5490
G1 X141.513 Y96.792 E31.5718
G1 X140.896 Y96.503 E31.5944
G1 X140.375 Y96.070 E31.6170
G1 X140.036 Y95.605 E31.6361
;segType:HShell
G0 X111.834 Y97.075 F5400
G1 X116.481 Y101.612 E31.8521 F3000
G1 X116.237 Y101.925
G1 X111.305 Y97.109 E32.0814
;segType:Perimeter
G0 X111.686 Y96.619 F5400
G1 X111.178 Y96.124 E32.1050 F2100
G1 X110.767 Y96.045 E32.1189
G1 X110.336 Y95.842 E32.1348
G1 X109.969 Y95.538 E32.1506
G1 X109.689 Y95.154 E32.1664
G1 X109.514 Y94.712 E32.1822
G1 X109.455 Y94.242 E32.1980
G1 X109.514 Y93.771 E32.2138
G1 X109.689 Y93.329 E32.2296
G1 X109.969 Y92.945 E32.2454
G1 X110.336 Y92.641 E32.2612
G1 X110.767 Y92.438 E32.2771
G1 X111.237 Y92.348 E32.2930
G1 X111.713 Y92.378 E32.3089
G1 X112.168 Y92.526 E32.3248
G1 X112.570 Y92.782 E32.3406
G1 X112.896 Y93.128 E32.3565
G1 X113.125 Y93.545 E32.3723
G1 X113.237 Y93.983 E32.3873
G1 X113.243 Y94.478 E32.4038
G1 X113.125 Y94.938 E32.4196
G1 X112.896 Y95.355 E32.4354
G1 X112.570 Y95.702 E32.4512
G1 X112.168 Y95.957 E32.4671
G1 X111.713 Y96.105 E32.4829
G1 X111.296 Y96.131 E32.4969
G1 X110.728 Y96.559
;segType:Loop
G0 X109.971 Y96.052 F5400
G1 X109.671 Y95.804 E32.5098 F3000
G1 X109.334 Y95.340 E32.5289
G1 X109.123 Y94.808 E32.5479
G1 X109.052 Y94.242 E32.5669
G1 X109.123 Y93.675 E32.5859
G1 X109.334 Y93.143 E32.6049
G1 X109.671 Y92.679 E32.6240
G1 X110.116 Y92.311 E32.6432
G1 X110.640 Y92.064 E32.6625
G1 X111.211 Y91.955 E32.6818
G1 X111.791 Y91.992 E32.7011
G1 X112.343 Y92.171 E32.7204
G1 X112.831 Y92.481 E32.7396
G1 X113.225 Y92.900 E32.7588
G1 X113.501 Y93.403 E32.7778
G1 X113.637 Y93.932 E32.7960
G1 X113.644 Y94.524 E32.8157
G1 X113.501 Y95.080 E32.8348
G1 X113.225 Y95.583 E32.8539
G1 X112.831 Y96.002 E32.8730
G1 X112.343 Y96.312 E32.8922
G1 X111.791 Y96.491 E32.9115
G1 X111.211 Y96.528 E32.9309
G1 X110.640 Y96.419 E32.9502
G1 X110.124 Y96.176 E32.9692
G0 X108.943 Y95.435 F5400
G1 X108.732 Y94.904 E32.9882 F3000
G1 X108.649 Y94.242 E33.0104
G1 X108.732 Y93.579 E33.0326
G1 X108.979 Y92.957 E33.0548
G1 X109.374 Y92.413 E33.0772
G1 X109.896 Y91.980 E33.0997
G1 X110.513 Y91.691 E33.1224
G1 X111.185 Y91.562 E33.1452
G1 X111.868 Y91.605 E33.1679
G1 X112.518 Y91.816 E33.1906
G1 X113.091 Y92.181 E33.2132
G1 X113.553 Y92.672 E33.2357
G1 X113.877 Y93.261 E33.2580
G1 X114.036 Y93.882 E33.2793
G1 X114.044 Y94.570 E33.3022
G1 X113.877 Y95.222 E33.3246
G1 X113.553 Y95.811 E33.3470
G1 X113.091 Y96.302 E33.3694
G1 X112.518 Y96.667 E33.3920
G1 X111.868 Y96.878 E33.4147
G1 X111.185 Y96.921 E33.4375
G1 X110.513 Y96.792 E33.4603
G1 X109.896 Y96.503 E33.4829
G1 X109.374 Y96.070 E33.5054
G1 X109.036 Y95.605 E33.5246
G0 X109.321 Y125.759 F5400
G0 X109.971 Y127.052
G1 X109.672 Y126.805 E33.5375 F3000
G1 X109.334 Y126.340 E33.5566
G1 X109.123 Y125.808 E33.5756
G1 X109.052 Y125.242 E33.5946
G1 X109.123 Y124.675 E33.6136
G1 X109.334 Y124.143 E33.6326
G1 X109.671 Y123.679 E33.6517
G1 X110.116 Y123.311 E33.6709
G1 X110.640 Y123.064 E33.6902
G1 X111.211 Y122.955 E33.7095
G1 X111.791 Y122.992 E33.7288
G1 X112.343 Y123.171 E33.7481
G1 X112.831 Y123.481 E33.7674
G1 X113.225 Y123.900 E33.7865
G1 X113.501 Y124.403 E33.8056
G1 X113.643 Y124.956 E33.8246
G1 X113.643 Y125.527 E33.8435
G1 X113.501 Y126.080 E33.8625
G1 X113.225 Y126.583 E33.8816
G1 X112.831 Y127.002 E33.9008
G1 X112.343 Y127.312 E33.9200
G1 X111.791 Y127.491 E33.9393
G1 X111.211 Y127.528 E33.9586
G1 X110.640 Y127.419 E33.9779
G1 X110.124 Y127.176 E33.9969
;segType:Perimeter
G0 X111.686 Y127.619 F5400
G1 X111.178 Y127.124 E34.0205 F2100
G1 X110.767 Y127.045 E34.0344
G1 X110.336 Y126.842 E34.0503
G1 X109.969 Y126.539 E34.0661
G1 X109.689 Y126.154 E34.0819
G1 X109.514 Y125.712 E34.0977
G1 X109.455 Y125.242 E34.1135
G1 X109.514 Y124.771 E34.1293
G1 X109.689 Y124.329 E34.1451
G1 X109.969 Y123.945 E34.1609
G1 X110.336 Y123.641 E34.1767
G1 X110.767 Y123.438 E34.1926
G1 X111.237 Y123.348 E34.2085
G1 X111.713 Y123.378 E34.2244
G1 X112.168 Y123.526 E34.2403
G1 X112.570 Y123.781 E34.2561
G1 X112.896 Y124.128 E34.2720
G1 X113.125 Y124.545 E34.2878
G1 X113.243 Y125.004 E34.3035
G1 X113.243 Y125.479 E34.3193
G1 X113.125 Y125.938 E34.3351
G1 X112.896 Y126.355 E34.3509
G1 X112.570 Y126.702 E34.3667
G1 X112.168 Y126.957 E34.3826
G1 X111.713 Y127.105 E34.3985
G1 X111.296 Y127.131 E34.4124
G1 X110.728 Y127.559
;segType:Loop
G0 X108.943 Y126.435 F5400
G1 X108.732 Y125.904 E34.4314 F3000
G1 X108.649 Y125.242 E34.4536
G1 X108.732 Y124.580 E34.4758
G1 X108.979 Y123.957 E34.4980
G1 X109.374 Y123.412 E34.5204
G1 X109.896 Y122.980 E34.5430
G1 X110.513 Y122.691 E34.5656
G1 X111.185 Y122.562 E34.5884
G1 X111.868 Y122.605 E34.6112
G1 X112.518 Y122.816 E34.6339
G1 X113.091 Y123.181 E34.6565
G1 X113.553 Y123.672 E34.6789
G1 X113.877 Y124.261 E34.7013
G1 X114.043 Y124.908 E34.7235
G1 X114.043 Y125.575 E34.7456
G1 X113.877 Y126.222 E34.7679
G1 X113.553 Y126.811 E34.7902
G1 X113.091 Y127.302 E34.8127
G1 X112.518 Y127.667 E34.8353
G1 X111.868 Y127.878 E34.8580
G1 X111.185 Y127.921 E34.8807
G1 X110.513 Y127.792 E34.9035
G1 X109.896 Y127.502 E34.9262
G1 X109.375 Y127.071 E34.9487
G1 X109.036 Y126.605 E34.9678
;segType:HShell
G0 X113.107 Y139.070 F5400
G1 X102.332 Y128.550 E35.4687 F3000
;segType:Perimeter
G0 X101.828 Y128.615 F5400
G1 X101.576 Y129.271 E35.4920 F2100
G1 X101.736 Y129.925 E35.5144
G1 X101.736 Y130.592 E35.5366
G1 X101.562 Y131.270 E35.5599
G1 X101.224 Y131.884 E35.5832
G1 X100.744 Y132.395 E35.6065
G1 X100.151 Y132.771 E35.6299
G1 X99.482 Y132.989 E35.6533
G1 X98.780 Y133.033 E35.6767
G1 X98.089 Y132.901 E35.7000
G1 X97.454 Y132.602 E35.7234
G1 X96.912 Y132.154 E35.7468
G1 X96.500 Y131.587 E35.7701
G1 X96.242 Y130.936 E35.7934
G1 X96.155 Y130.242 E35.8167
G1 X96.242 Y129.547 E35.8399
G1 X96.500 Y128.896 E35.8633
G1 X96.912 Y128.329 E35.8866
G1 X97.454 Y127.881 E35.9099
G1 X98.089 Y127.582 E35.9333
G1 X98.780 Y127.450 E35.9567
G1 X99.482 Y127.494 E35.9801
G1 X100.151 Y127.712 E36.0035
G1 X100.744 Y128.088 E36.0268
G1 X101.224 Y128.599 E36.0502
G1 X101.534 Y129.163 E36.0716
G1 X102.169 Y129.491
;segType:Loop
G0 X102.136 Y130.265 F5400
G1 X102.136 Y130.640 E36.0840 F3000
G1 X101.938 Y131.411 E36.1105
G1 X101.553 Y132.112 E36.1371
G1 X101.004 Y132.695 E36.1637
G1 X100.326 Y133.126 E36.1905
G1 X99.560 Y133.375 E36.2173
G1 X98.754 Y133.426 E36.2441
G1 X97.962 Y133.275 E36.2709
G1 X97.234 Y132.932 E36.2977
G1 X96.615 Y132.420 E36.3244
G1 X96.145 Y131.774 E36.3510
G1 X95.851 Y131.032 E36.3775
G1 X95.752 Y130.242 E36.4040
G1 X95.851 Y129.451 E36.4305
G1 X96.145 Y128.710 E36.4570
G1 X96.615 Y128.062 E36.4836
G1 X97.234 Y127.551 E36.5103
G1 X97.962 Y127.208 E36.5371
G1 X98.754 Y127.057 E36.5639
G1 X99.560 Y127.108 E36.5908
G1 X100.326 Y127.357 E36.6176
G1 X101.004 Y127.788 E36.6443
G1 X101.553 Y128.371 E36.6709
G1 X101.940 Y129.075 E36.6976
G1 X102.136 Y129.879 E36.7252
G1 X102.136 Y130.071 E36.7315
G0 X102.350 Y131.410 F5400
G1 X102.314 Y131.553 E36.7364 F3000
G1 X101.882 Y132.340 E36.7663
G1 X101.265 Y132.996 E36.7962
G1 X100.501 Y133.481 E36.8263
G1 X99.637 Y133.762 E36.8566
G1 X98.728 Y133.819 E36.8868
G1 X97.835 Y133.648 E36.9171
G1 X97.014 Y133.262 E36.9473
G1 X96.318 Y132.687 E36.9773
G1 X95.790 Y131.960 E37.0072
G1 X95.461 Y131.127 E37.0370
G1 X95.349 Y130.242 E37.0667
G1 X95.461 Y129.356 E37.0964
G1 X95.790 Y128.523 E37.1261
G1 X96.318 Y127.796 E37.1560
G1 X97.014 Y127.221 E37.1861
G1 X97.835 Y126.835 E37.2162
G1 X98.728 Y126.664 E37.2465
G1 X99.637 Y126.721 E37.2768
G1 X100.501 Y127.002 E37.3070
G1 X101.265 Y127.487 E37.3371
G1 X101.882 Y128.143 E37.3670
G1 X102.317 Y128.935 E37.3971
G1 X102.536 Y129.834 E37.4278
G1 X102.536 Y130.688 E37.4562
G1 X102.399 Y131.222 E37.4746
G0 X125.742 Y122.276 F5400
G1 X125.692 Y122.274 E37.4762 F3000
G1 X124.538 Y122.113 E37.5150
G1 X123.404 Y121.847 E37.5537
G1 X122.300 Y121.476 E37.5925
G1 X121.235 Y121.006 E37.6312
G1 X120.218 Y120.439 E37.6699
G1 X119.258 Y119.782 E37.7086
G1 X118.362 Y119.038 E37.7473
G1 X117.540 Y118.216 E37.7860
G1 X116.797 Y117.321 E37.8247
G1 X116.140 Y116.362 E37.8634
G1 X115.574 Y115.347 E37.9020
G1 X115.105 Y114.284 E37.9407
G1 X114.736 Y113.183 E37.9793
G1 X114.470 Y112.051 E38.0179
G1 X114.310 Y110.902 E38.0566
G1 X114.256 Y109.741 E38.0952
G1 X114.310 Y108.581 E38.1338
G1 X114.470 Y107.431 E38.1724
G1 X114.736 Y106.301 E38.2111
G1 X115.105 Y105.199 E38.2497
G1 X115.574 Y104.136 E38.2883
G1 X116.140 Y103.121 E38.3270
G1 X116.797 Y102.162 E38.3657
G1 X117.540 Y101.267 E38.4043
G1 X118.362 Y100.445 E38.4430
G1 X119.258 Y99.701 E38.4817
G1 X120.218 Y99.044 E38.5204
G1 X121.235 Y98.477 E38.5592
G1 X122.300 Y98.007 E38.5979
G1 X123.404 Y97.637 E38.6366
G1 X124.538 Y97.370 E38.6754
G1 X125.692 Y97.209 E38.7141
G1 X126.856 Y97.155 E38.7529
G1 X128.020 Y97.209 E38.7917
G1 X129.174 Y97.370 E38.8304
G1 X130.309 Y97.637 E38.8692
G1 X131.413 Y98.007 E38.9079
G1 X132.478 Y98.477 E38.9466
G1 X133.495 Y99.044 E38.9853
G1 X134.455 Y99.701 E39.0241
G1 X135.351 Y100.445 E39.0628
G1 X136.173 Y101.267 E39.1015
G1 X136.916 Y102.162 E39.1401
G1 X137.573 Y103.121 E39.1788
G1 X138.139 Y104.136 E39.2175
G1 X138.608 Y105.199 E39.2561
G1 X138.977 Y106.301 E39.2947
G1 X139.230 Y107.377 E39.3315
G1 X139.406 Y108.637 E39.3738
G1 X139.457 Y109.741 E39.4106
G1 X139.403 Y110.902 E39.4492
G1 X139.243 Y112.051 E39.4878
G1 X138.977 Y113.183 E39.5265
G1 X138.608 Y114.284 E39.5651
G1 X138.139 Y115.347 E39.6038
G1 X137.573 Y116.362 E39.6424
G1 X136.916 Y117.321 E39.6811
G1 X136.173 Y118.216 E39.7198
G1 X135.351 Y119.038 E39.7584
G1 X134.455 Y119.782 E39.7972
G1 X133.495 Y120.439 E39.8359
G1 X132.478 Y121.006 E39.8746
G1 X131.413 Y121.476 E39.9133
G1 X130.309 Y121.847 E39.9521
G1 X129.174 Y122.113 E39.9908
G1 X128.020 Y122.274 E40.0296
G1 X126.856 Y122.328 E40.0683
G1 X125.941 Y122.286 E40.0988
;segType:Perimeter
G0 X127.316 Y122.418 F5400
G1 X126.797 Y121.934 E40.1224 F2100
G1 X125.730 Y121.885 E40.1579
G1 X124.614 Y121.729 E40.1954
G1 X123.516 Y121.471 E40.2329
G1 X122.448 Y121.113 E40.2704
G1 X121.417 Y120.658 E40.3079
G1 X120.432 Y120.109 E40.3453
G1 X119.502 Y119.472 E40.3828
G1 X118.635 Y118.752 E40.4203
G1 X117.839 Y117.956 E40.4578
G1 X117.119 Y117.089 E40.4953
G1 X116.483 Y116.160 E40.5327
G1 X115.934 Y115.176 E40.5702
G1 X115.479 Y114.145 E40.6076
G1 X115.121 Y113.078 E40.6451
G1 X114.864 Y111.981 E40.6826
G1 X114.708 Y110.866 E40.7200
G1 X114.656 Y109.741 E40.7575
G1 X114.708 Y108.616 E40.7949
G1 X114.864 Y107.501 E40.8324
G1 X115.121 Y106.405 E40.8698
G1 X115.479 Y105.337 E40.9073
G1 X115.934 Y104.307 E40.9447
G1 X116.483 Y103.323 E40.9822
G1 X117.119 Y102.394 E41.0197
G1 X117.839 Y101.527 E41.0571
G1 X118.635 Y100.731 E41.0946
G1 X119.502 Y100.010 E41.1321
G1 X120.432 Y99.374 E41.1696
G1 X121.417 Y98.825 E41.2070
G1 X122.448 Y98.370 E41.2445
G1 X123.516 Y98.012 E41.2820
G1 X124.614 Y97.754 E41.3195
G1 X125.730 Y97.598 E41.3570
G1 X126.856 Y97.546 E41.3945
G1 X127.983 Y97.598 E41.4320
G1 X129.099 Y97.754 E41.4695
G1 X130.196 Y98.012 E41.5070
G1 X131.265 Y98.370 E41.5445
G1 X132.296 Y98.825 E41.5820
G1 X133.281 Y99.374 E41.6195
G1 X134.210 Y100.010 E41.6569
G1 X135.078 Y100.731 E41.6944
G1 X135.874 Y101.527 E41.7319
G1 X136.594 Y102.394 E41.7694
G1 X137.230 Y103.323 E41.8068
G1 X137.778 Y104.307 E41.8443
G1 X138.233 Y105.337 E41.8817
G1 X138.591 Y106.405 E41.9192
G1 X138.836 Y107.448 E41.9548
G1 X139.007 Y108.672 E41.9959
G1 X139.057 Y109.741 E42.0315
G1 X139.005 Y110.866 E42.0690
G1 X138.849 Y111.981 E42.1064
G1 X138.591 Y113.078 E42.1439
G1 X138.233 Y114.145 E42.1814
G1 X137.778 Y115.176 E42.2188
G1 X137.230 Y116.160 E42.2563
G1 X136.594 Y117.089 E42.2937
G1 X135.874 Y117.956 E42.3312
G1 X135.078 Y118.752 E42.3687
G1 X134.210 Y119.472 E42.4062
G1 X133.281 Y120.109 E42.4437
G1 X132.296 Y120.658 E42.4811
G1 X131.265 Y121.113 E42.5186
G1 X130.196 Y121.471 E42.5561
G1 X129.099 Y121.729 E42.5936
G1 X127.983 Y121.885 E42.6311
G1 X126.916 Y121.934 E42.6666
G1 X126.397 Y122.418
;segType:Loop
G0 X124.599 Y122.516 F5400
G1 X124.463 Y122.497 E42.6712 F3000
G1 X123.292 Y122.222 E42.7112
G1 X122.153 Y121.840 E42.7512
G1 X121.053 Y121.354 E42.7911
G1 X120.003 Y120.770 E42.8311
G1 X119.013 Y120.091 E42.8710
G1 X118.089 Y119.324 E42.9110
G1 X117.241 Y118.476 E42.9509
G1 X116.475 Y117.553 E42.9907
G1 X115.797 Y116.564 E43.0306
G1 X115.214 Y115.518 E43.0705
G1 X114.730 Y114.422 E43.1103
G1 X114.350 Y113.287 E43.1501
G1 X114.076 Y112.122 E43.1899
G1 X113.911 Y110.937 E43.2297
G1 X113.855 Y109.741 E43.2695
G1 X113.911 Y108.546 E43.3093
G1 X114.076 Y107.361 E43.3491
G1 X114.350 Y106.196 E43.3889
G1 X114.730 Y105.061 E43.4287
G1 X115.214 Y103.965 E43.4686
G1 X115.797 Y102.918 E43.5084
G1 X116.475 Y101.930 E43.5483
G1 X117.241 Y101.008 E43.5882
G1 X118.088 Y100.159 E43.6281
G1 X119.013 Y99.392 E43.6680
G1 X120.003 Y98.713 E43.7079
G1 X121.053 Y98.129 E43.7479
G1 X122.153 Y97.643 E43.7879
G1 X123.292 Y97.261 E43.8279
G1 X124.463 Y96.986 E43.8679
G1 X125.654 Y96.820 E43.9079
G1 X126.856 Y96.764 E43.9479
G1 X128.058 Y96.820 E43.9879
G1 X129.249 Y96.986 E44.0279
G1 X130.421 Y97.261 E44.0679
G1 X131.560 Y97.643 E44.1079
G1 X132.660 Y98.129 E44.1479
G1 X133.710 Y98.713 E44.1879
G1 X134.700 Y99.392 E44.2278
G1 X135.624 Y100.159 E44.2677
G1 X136.472 Y101.008 E44.3076
G1 X137.238 Y101.930 E44.3475
G1 X137.916 Y102.918 E44.3874
G1 X138.499 Y103.965 E44.4272
G1 X138.983 Y105.061 E44.4671
G1 X139.363 Y106.196 E44.5069
G1 X139.624 Y107.307 E44.5448
G1 X139.805 Y108.602 E44.5883
G1 X139.858 Y109.741 E44.6263
G1 X139.802 Y110.937 E44.6661
G1 X139.637 Y112.122 E44.7059
G1 X139.363 Y113.287 E44.7457
G1 X138.983 Y114.422 E44.7855
G1 X138.499 Y115.518 E44.8253
G1 X137.916 Y116.564 E44.8652
G1 X137.238 Y117.553 E44.9050
G1 X136.472 Y118.476 E44.9449
G1 X135.624 Y119.324 E44.9848
G1 X134.700 Y120.091 E45.0248
G1 X133.710 Y120.770 E45.0647
G1 X132.660 Y121.354 E45.1047
G1 X131.560 Y121.840 E45.1446
G1 X130.421 Y122.222 E45.1846
G1 X129.249 Y122.497 E45.2246
G1 X128.058 Y122.663 E45.2646
G1 X126.856 Y122.719 E45.3046
G1 X125.654 Y122.663 E45.3447
G1 X124.797 Y122.544 E45.3735
G0 X140.971 Y127.052 F5400
G1 X140.672 Y126.805 E45.3864 F3000
G1 X140.334 Y126.340 E45.4055
G1 X140.123 Y125.808 E45.4245
G1 X140.052 Y125.242 E45.4435
G1 X140.123 Y124.675 E45.4625
G1 X140.334 Y124.143 E45.4815
G1 X140.672 Y123.679 E45.5006
G1 X141.116 Y123.311 E45.5198
G1 X141.640 Y123.064 E45.5391
G1 X142.211 Y122.955 E45.5584
G1 X142.791 Y122.992 E45.5777
G1 X143.343 Y123.171 E45.5970
G1 X143.831 Y123.481 E45.6163
G1 X144.225 Y123.900 E45.6354
G1 X144.501 Y124.403 E45.6545
G1 X144.643 Y124.956 E45.6735
G1 X144.643 Y125.527 E45.6925
G1 X144.501 Y126.080 E45.7115
G1 X144.225 Y126.583 E45.7305
G1 X143.831 Y127.002 E45.7497
G1 X143.343 Y127.312 E45.7689
G1 X142.791 Y127.491 E45.7882
G1 X142.211 Y127.528 E45.8075
G1 X141.640 Y127.419 E45.8268
G1 X141.124 Y127.176 E45.8458
;segType:Perimeter
G0 X142.686 Y127.619 F5400
G1 X142.178 Y127.124 E45.8694 F2100
G1 X141.768 Y127.045 E45.8833
G1 X141.336 Y126.842 E45.8992
G1 X140.969 Y126.539 E45.9150
G1 X140.689 Y126.154 E45.9308
G1 X140.514 Y125.712 E45.9466
G1 X140.455 Y125.242 E45.9624
G1 X140.514 Y124.771 E45.9782
G1 X140.689 Y124.329 E45.9940
G1 X140.969 Y123.945 E46.0098
G1 X141.336 Y123.641 E46.0257
G1 X141.768 Y123.438 E46.0415
G1 X142.237 Y123.348 E46.0574
G1 X142.714 Y123.378 E46.0733
G1 X143.168 Y123.526 E46.0892
G1 X143.570 Y123.781 E46.1050
G1 X143.896 Y124.128 E46.1209
G1 X144.125 Y124.545 E46.1367
G1 X144.243 Y125.004 E46.1525
G1 X144.243 Y125.479 E46.1682
G1 X144.125 Y125.938 E46.1840
G1 X143.896 Y126.355 E46.1998
G1 X143.570 Y126.702 E46.2156
G1 X143.168 Y126.957 E46.2315
G1 X142.714 Y127.105 E46.2474
G1 X142.296 Y127.131 E46.2613
G1 X141.728 Y127.559
;segType:Loop
G0 X139.943 Y126.435 F5400
G1 X139.733 Y125.904 E46.2803 F3000
G1 X139.649 Y125.242 E46.3025
G1 X139.733 Y124.580 E46.3247
G1 X139.979 Y123.957 E46.3470
G1 X140.375 Y123.412 E46.3693
G1 X140.896 Y122.980 E46.3919
G1 X141.513 Y122.691 E46.4145
G1 X142.185 Y122.562 E46.4373
G1 X142.868 Y122.605 E46.4601
G1 X143.518 Y122.816 E46.4828
G1 X144.091 Y123.181 E46.5054
G1 X144.553 Y123.672 E46.5278
G1 X144.877 Y124.261 E46.5502
G1 X145.043 Y124.908 E46.5724
G1 X145.043 Y125.575 E46.5946
G1 X144.877 Y126.222 E46.6168
G1 X144.553 Y126.811 E46.6391
G1 X144.091 Y127.302 E46.6616
G1 X143.518 Y127.667 E46.6842
G1 X142.868 Y127.878 E46.7069
G1 X142.185 Y127.921 E46.7296
G1 X141.513 Y127.792 E46.7524
G1 X140.896 Y127.502 E46.7751
G1 X140.375 Y127.071 E46.7976
G1 X140.036 Y126.605 E46.8167
G0 X141.963 Y127.281 F5400
G0 X149.752 Y128.187
G0 X150.699 Y128.633
G0 X151.312 Y129.477
G0 X151.619 Y130.621
G1 X151.501 Y131.080 E46.8325 F3000
G1 X151.225 Y131.583 E46.8515
G1 X150.831 Y132.002 E46.8707
G1 X150.342 Y132.312 E46.8899
G1 X149.791 Y132.491 E46.9092
G1 X149.211 Y132.528 E46.9286
G1 X148.640 Y132.419 E46.9479
G1 X148.116 Y132.172 E46.9671
G1 X147.671 Y131.804 E46.9863
G1 X147.334 Y131.340 E47.0054
G1 X147.123 Y130.808 E47.0245
G1 X147.052 Y130.242 E47.0435
G1 X147.123 Y129.675 E47.0624
G1 X147.334 Y129.143 E47.0815
G1 X147.671 Y128.679 E47.1006
G1 X148.116 Y128.311 E47.1198
G1 X148.640 Y128.064 E47.1390
G1 X149.211 Y127.955 E47.1583
G1 X149.791 Y127.992 E47.1777
G1 X150.342 Y128.171 E47.1970
G1 X150.831 Y128.481 E47.2162
G1 X151.225 Y128.900 E47.2354
G1 X151.503 Y129.406 E47.2545
G1 X151.643 Y129.981 E47.2742
G1 X151.643 Y130.429 E47.2891
;segType:Perimeter
G0 X151.391 Y128.946 F5400
G1 X151.139 Y129.603 E47.3125 F2100
G1 X151.243 Y130.027 E47.3270
G1 X151.243 Y130.479 E47.3421
G1 X151.125 Y130.938 E47.3579
G1 X150.896 Y131.355 E47.3737
G1 X150.570 Y131.702 E47.3895
G1 X150.168 Y131.957 E47.4053
G1 X149.714 Y132.105 E47.4212
G1 X149.237 Y132.135 E47.4371
G1 X148.768 Y132.045 E47.4530
G1 X148.336 Y131.842 E47.4689
G1 X147.968 Y131.538 E47.4847
G1 X147.689 Y131.154 E47.5005
G1 X147.514 Y130.712 E47.5163
G1 X147.455 Y130.242 E47.5321
G1 X147.514 Y129.771 E47.5479
G1 X147.689 Y129.329 E47.5637
G1 X147.968 Y128.945 E47.5795
G1 X148.336 Y128.641 E47.5953
G1 X148.768 Y128.438 E47.6112
G1 X149.237 Y128.348 E47.6271
G1 X149.714 Y128.378 E47.6430
G1 X150.168 Y128.526 E47.6589
G1 X150.570 Y128.781 E47.6747
G1 X150.896 Y129.128 E47.6906
G1 X151.097 Y129.494 E47.7045
G1 X151.732 Y129.822
;segType:Loop
G0 X151.564 Y131.791 F5400
G1 X151.554 Y131.810 E47.7052 F3000
G1 X151.091 Y132.303 E47.7277
G1 X150.517 Y132.667 E47.7502
G1 X149.868 Y132.878 E47.7729
G1 X149.185 Y132.921 E47.7957
G1 X148.513 Y132.792 E47.8185
G1 X147.896 Y132.502 E47.8411
G1 X147.374 Y132.071 E47.8637
G1 X146.979 Y131.526 E47.8861
G1 X146.732 Y130.904 E47.9083
G1 X146.649 Y130.242 E47.9305
G1 X146.732 Y129.579 E47.9527
G1 X146.979 Y128.957 E47.9750
G1 X147.374 Y128.412 E47.9974
G1 X147.896 Y127.981 E48.0199
G1 X148.513 Y127.691 E48.0426
G1 X149.185 Y127.562 E48.0653
G1 X149.868 Y127.606 E48.0881
G1 X150.517 Y127.817 E48.1108
G1 X151.091 Y128.180 E48.1334
G1 X151.554 Y128.673 E48.1559
G1 X151.880 Y129.266 E48.1784
G1 X152.043 Y129.935 E48.2013
G1 X152.043 Y130.575 E48.2226
G1 X151.877 Y131.222 E48.2448
G1 X151.658 Y131.620 E48.2599
G0 X153.015 Y97.908 F5400
G0 X166.673 Y87.783
G0 X167.536 Y85.266
G1 X167.536 Y85.639 E48.2723 F3000
G1 X167.338 Y86.412 E48.2988
G1 X166.953 Y87.112 E48.3254
G1 X166.404 Y87.695 E48.3520
G1 X165.726 Y88.126 E48.3788
G1 X164.960 Y88.375 E48.4056
G1 X164.154 Y88.426 E48.4324
G1 X163.362 Y88.275 E48.4592
G1 X162.634 Y87.932 E48.4860
G1 X162.015 Y87.420 E48.5127
G1 X161.545 Y86.773 E48.5393
G1 X161.252 Y86.032 E48.5658
G1 X161.152 Y85.242 E48.5923
G1 X161.252 Y84.451 E48.6188
G1 X161.545 Y83.710 E48.6453
G1 X162.015 Y83.062 E48.6719
G1 X162.634 Y82.551 E48.6986
G1 X163.362 Y82.208 E48.7254
G1 X164.154 Y82.057 E48.7522
G1 X164.960 Y82.108 E48.7791
G1 X165.726 Y82.357 E48.8059
G1 X166.404 Y82.788 E48.8326
G1 X166.953 Y83.371 E48.8592
G1 X167.339 Y84.075 E48.8859
G1 X167.536 Y84.879 E48.9135
G1 X167.536 Y85.071 E48.9199
;segType:Perimeter
G0 X167.227 Y83.615 F5400
G1 X166.976 Y84.271 E48.9432 F2100
G1 X167.136 Y84.925 E48.9656
G1 X167.136 Y85.591 E48.9878
G1 X166.962 Y86.270 E49.0111
G1 X166.624 Y86.884 E49.0344
G1 X166.144 Y87.395 E49.0577
G1 X165.551 Y87.771 E49.0811
G1 X164.882 Y87.989 E49.1045
G1 X164.180 Y88.033 E49.1279
G1 X163.489 Y87.901 E49.1512
G1 X162.854 Y87.602 E49.1746
G1 X162.312 Y87.154 E49.1980
G1 X161.901 Y86.587 E49.2213
G1 X161.642 Y85.936 E49.2446
G1 X161.555 Y85.242 E49.2679
G1 X161.642 Y84.547 E49.2911
G1 X161.901 Y83.896 E49.3144
G1 X162.312 Y83.329 E49.3378
G1 X162.854 Y82.881 E49.3611
G1 X163.489 Y82.582 E49.3845
G1 X164.180 Y82.450 E49.4079
G1 X164.882 Y82.494 E49.4313
G1 X165.551 Y82.712 E49.4547
G1 X166.144 Y83.088 E49.4780
G1 X166.624 Y83.599 E49.5014
G1 X166.934 Y84.163 E49.5227
G1 X167.569 Y84.491
;segType:Loop
G0 X167.750 Y86.410 F5400
G1 X167.714 Y86.554 E49.5277 F3000
G1 X167.282 Y87.340 E49.5575
G1 X166.665 Y87.996 E49.5874
G1 X165.901 Y88.481 E49.6176
G1 X165.037 Y88.762 E49.6478
G1 X164.128 Y88.819 E49.6780
G1 X163.235 Y88.648 E49.7083
G1 X162.414 Y88.263 E49.7385
G1 X161.718 Y87.687 E49.7685
G1 X161.190 Y86.959 E49.7984
G1 X160.861 Y86.128 E49.8282
G1 X160.749 Y85.242 E49.8579
G1 X160.861 Y84.356 E49.8876
G1 X161.190 Y83.523 E49.9173
G1 X161.718 Y82.796 E49.9472
G1 X162.414 Y82.221 E49.9773
G1 X163.235 Y81.835 E50.0074
G1 X164.128 Y81.664 E50.0377
G1 X165.037 Y81.721 E50.0680
G1 X165.901 Y82.002 E50.0982
G1 X166.665 Y82.487 E50.1283
G1 X167.282 Y83.144 E50.1582
G1 X167.716 Y83.934 E50.1882
G1 X167.936 Y84.834 E50.2190
G1 X167.936 Y85.688 E50.2474
G1 X167.799 Y86.222 E50.2658
;segType:HShell
G0 X138.780 Y104.109 F5400
G1 X152.156 Y117.170 E50.8876 F3000
G1 X152.156 Y116.619
G1 X138.166 Y102.959 E51.5379
G0 X140.523 Y96.449 F5400
G1 X152.156 Y107.808 E52.0787 F3000
G1 X152.156 Y108.358
G1 X117.694 Y74.711 E53.6806
G1 X117.303 Y74.880
G1 X152.156 Y108.909 E55.3008
G1 X152.156 Y109.460
G1 X116.915 Y75.051 E56.9390
G1 X116.527 Y75.223
G1 X152.156 Y110.011 E58.5952
G1 X152.156 Y110.561
G1 X116.139 Y75.395 E60.2694
G1 X115.751 Y75.567
G1 X152.156 Y111.112 E61.9617
G1 X152.156 Y111.663
G1 X115.374 Y75.750 E63.6715
G1 X115.002 Y75.938
G1 X152.156 Y112.213 E65.3986
G1 X152.156 Y112.764
G1 X114.630 Y76.125 E67.1430
G1 X114.258 Y76.312
G1 X152.156 Y113.315 E68.9047
G1 X152.156 Y113.865
G1 X113.886 Y76.500 E70.6836
G1 X113.522 Y76.695
G1 X152.156 Y114.416 E72.4795
G1 X152.156 Y114.967
G1 X113.165 Y76.897 E74.2920
G1 X112.808 Y77.100
G1 X152.156 Y115.518 E76.1211
G1 X152.156 Y116.068
G1 X136.725 Y101.002 E76.8384
G0 X152.156 Y105.605 F5400
G1 X143.289 Y96.947 E77.2506 F3000
G1 X143.691 Y96.789
G1 X152.156 Y105.054 E77.6441
G1 X152.156 Y104.503
G1 X144.033 Y96.572 E78.0217
G1 X144.343 Y96.324
G1 X152.156 Y103.953 E78.3849
G1 X152.156 Y103.402
G1 X144.613 Y96.037 E78.7356
G1 X144.838 Y95.706
G1 X152.156 Y102.851 E79.0758
G1 X152.156 Y102.301
G1 X145.035 Y95.348 E79.4068
G1 X145.161 Y94.920
G1 X152.156 Y101.750 E79.7320
G1 X152.156 Y101.199
G1 X145.243 Y94.449 E80.0534
G1 X145.243 Y93.899
G1 X152.156 Y100.649 E80.3748
G1 X152.156 Y100.098
G1 X145.046 Y93.155 E80.7053
G0 X173.156 Y71.589 F5400
G1 X172.976 Y71.413 E80.7137 F3000
G1 X172.412 Y71.413
G1 X173.156 Y72.139 E80.7483
G1 X173.156 Y72.690
G1 X171.848 Y71.413 E80.8091
G1 X171.284 Y71.413
G1 X173.156 Y73.241 E80.8961
G1 X173.156 Y73.792
G1 X170.720 Y71.413 E81.0093
G1 X170.156 Y71.413
G1 X173.156 Y74.342 E81.1488
G1 X173.156 Y74.893
G1 X169.592 Y71.413 E81.3145
G1 X169.028 Y71.413
G1 X173.156 Y75.444 E81.5064
G1 X173.156 Y75.994
G1 X168.464 Y71.413 E81.7245
G1 X167.900 Y71.413
G1 X173.156 Y76.545 E81.9688
G1 X173.156 Y77.096
G1 X167.336 Y71.413 E82.2394
G1 X166.772 Y71.413
G1 X173.156 Y77.646 E82.5362
G1 X173.156 Y78.197
G1 X166.208 Y71.413 E82.8591
G1 X165.644 Y71.413
G1 X173.156 Y78.748 E83.2084
G1 X173.156 Y79.299
G1 X165.080 Y71.413 E83.5838
G1 X164.516 Y71.413
G1 X173.156 Y79.849 E83.9854
G1 X173.156 Y80.400
G1 X163.952 Y71.413 E84.4133
G1 X163.388 Y71.413
G1 X173.156 Y80.951 E84.8674
G1 X173.156 Y81.501
G1 X162.824 Y71.413 E85.3477
G1 X162.260 Y71.413
G1 X173.156 Y82.052 E85.8542
G1 X173.156 Y82.603
G1 X161.696 Y71.413 E86.3870
G1 X161.132 Y71.413
G1 X173.156 Y83.153 E86.9459
G1 X173.156 Y83.704
G1 X160.568 Y71.413 E87.5311
G1 X160.004 Y71.413
G1 X173.156 Y84.255 E88.1425
G1 X173.156 Y84.806
G1 X159.439 Y71.413 E88.7801
G1 X158.875 Y71.413
G1 X173.156 Y85.356 E89.4440
G1 X173.156 Y85.907
G1 X158.311 Y71.413 E90.1340
G1 X157.747 Y71.413
G1 X173.156 Y86.458 E90.8503
G1 X173.156 Y87.008
G1 X157.183 Y71.413 E91.5928
G1 X156.619 Y71.413
G1 X173.156 Y87.559 E92.3615
G1 X173.156 Y88.110
G1 X156.055 Y71.413 E93.1564
G1 X155.491 Y71.413
G1 X166.466 Y82.128 E93.6666
G0 X163.426 Y82.397 F5400
G0 X162.166 Y83.197
G0 X161.449 Y84.500
G0 X161.449 Y85.983
G0 X161.626 Y87.866
G1 X171.053 Y97.070 E94.1048 F3000
G1 X171.617 Y97.070
G1 X163.185 Y88.838 E94.4967
G0 X142.325 Y97.108 F5400
G1 X152.156 Y106.706 E94.9537 F3000
G1 X152.156 Y107.257
G1 X141.674 Y97.022 E95.4410
G0 X140.321 Y94.760 F5400
G0 X140.321 Y93.723
G0 X140.822 Y92.813
G0 X142.682 Y91.398
G1 X123.593 Y72.761 E96.3283 F3000
G1 X123.154 Y72.882
G1 X142.099 Y91.380 E97.2089
G1 X141.627 Y91.470
G1 X122.714 Y73.004 E98.0881
G1 X122.275 Y73.126
G1 X141.212 Y91.615 E98.9684
G1 X140.832 Y91.794
G1 X121.835 Y73.247 E99.8514
G1 X121.406 Y73.379
G1 X140.517 Y92.038 E100.7398
G1 X140.215 Y92.294
G1 X120.985 Y73.518 E101.6337
G1 X120.563 Y73.657
G1 X139.981 Y92.616 E102.5363
G1 X139.765 Y92.956
G1 X120.142 Y73.796 E103.4485
G1 X119.720 Y73.936
G1 X139.608 Y93.353 E104.3730
G1 X139.503 Y93.801
G1 X119.311 Y74.087 E105.3115
G1 X118.907 Y74.243
G1 X139.455 Y94.305 E106.2667
G1 X139.535 Y94.934
G1 X118.503 Y74.399 E107.2443
G1 X118.099 Y74.555
G1 X140.115 Y96.051 E108.2678
G0 X142.693 Y96.255 F5400
G0 X153.003 Y97.070
G1 X127.320 Y71.994 E109.4617 F3000
G1 X126.841 Y72.077
G1 X152.439 Y97.070 E110.6516
G1 X152.156 Y97.344
G1 X126.362 Y72.160 E111.8506
G1 X125.883 Y72.243
G1 X152.156 Y97.895 E113.0719
G1 X152.156 Y98.446
G1 X125.422 Y72.343 E114.3147
G1 X124.963 Y72.446
G1 X152.156 Y98.996 E115.5787
G1 X152.156 Y99.547
G1 X124.505 Y72.549 E116.8641
G1 X124.046 Y72.652
G1 X143.437 Y91.584 E117.7654
G0 X128.293 Y71.843 F5400
G1 X154.131 Y97.070 E118.9665 F3000
G1 X154.695 Y97.070
G1 X128.794 Y71.781 E120.1705
G1 X129.295 Y71.719
G1 X155.260 Y97.070 E121.3774
G1 X155.824 Y97.070
G1 X129.796 Y71.658 E122.5873
G1 X130.307 Y71.606
G1 X156.388 Y97.070 E123.7996
G1 X156.952 Y97.070
G1 X130.832 Y71.568 E125.0138
G1 X131.356 Y71.529
G1 X157.516 Y97.070 E126.2298
G1 X158.080 Y97.070
G1 X131.881 Y71.490 E127.4476
G1 X132.415 Y71.461
G1 X158.644 Y97.070 E128.6668
G1 X159.208 Y97.070
G1 X132.965 Y71.448 E129.8867
G1 X133.515 Y71.434
G1 X159.772 Y97.070 E131.1072
G1 X160.336 Y97.070
G1 X134.065 Y71.421 E132.3284
G1 X134.622 Y71.413
G1 X160.900 Y97.070 E133.5499
G1 X161.464 Y97.070
G1 X135.186 Y71.413 E134.7714
G1 X135.750 Y71.413
G1 X162.028 Y97.070 E135.9929
G1 X162.592 Y97.070
G1 X136.314 Y71.413 E137.2145
G1 X136.878 Y71.413
G1 X163.156 Y97.070 E138.4360
G1 X163.720 Y97.070
G1 X137.442 Y71.413 E139.6575
G1 X138.006 Y71.413
G1 X164.284 Y97.070 E140.8790
G1 X164.848 Y97.070
G1 X138.570 Y71.413 E142.1005
G1 X139.134 Y71.413
G1 X165.412 Y97.070 E143.3221
G1 X165.976 Y97.070
G1 X139.698 Y71.413 E144.5436
G1 X140.262 Y71.413
G1 X166.540 Y97.070 E145.7651
G1 X167.104 Y97.070
G1 X140.826 Y71.413 E146.9866
G1 X141.390 Y71.413
G1 X167.668 Y97.070 E148.2081
G1 X168.232 Y97.070
G1 X141.954 Y71.413 E149.4296
G1 X142.518 Y71.413
G1 X168.796 Y97.070 E150.6511
G1 X169.361 Y97.070
G1 X143.082 Y71.413 E151.8726
G1 X143.646 Y71.413
G1 X169.925 Y97.070 E153.0942
G1 X170.489 Y97.070
G1 X144.210 Y71.413 E154.3157
G1 X144.774 Y71.413
G1 X161.549 Y87.791 E155.0954
G0 X160.796 Y86.505 F5400
G1 X145.338 Y71.413 E155.8139 F3000
G1 X145.903 Y71.413
G1 X160.615 Y85.778 E156.4978
G1 X160.556 Y85.169
G1 X146.467 Y71.413 E157.1528
G1 X147.031 Y71.413
G1 X160.618 Y84.679 E157.7844
G1 X160.703 Y84.212
G1 X147.595 Y71.413 E158.3937
G1 X148.159 Y71.413
G1 X160.861 Y83.815 E158.9842
G1 X161.020 Y83.420
G1 X148.723 Y71.413 E159.5558
G1 X149.287 Y71.413
G1 X161.254 Y83.098 E160.1121
G1 X161.488 Y82.775
G1 X149.851 Y71.413 E160.6531
G1 X150.415 Y71.413
G1 X161.769 Y82.499 E161.1809
G1 X162.074 Y82.246
G1 X150.979 Y71.413 E161.6966
G1 X151.543 Y71.413
G1 X162.398 Y82.011 E162.2012
G1 X162.779 Y81.832
G1 X152.107 Y71.413 E162.6973
G1 X152.671 Y71.413
G1 X163.159 Y81.653 E163.1848
G1 X163.628 Y81.560
G1 X153.235 Y71.413 E163.6679
G1 X153.799 Y71.413
G1 X164.100 Y81.470 E164.1468
G1 X164.699 Y81.504
G1 X154.363 Y71.413 E164.6272
G1 X154.927 Y71.413
G1 X165.393 Y81.631 E165.1137
G0 X167.512 Y83.149 F5400
G1 X173.156 Y88.661 E165.3761 F3000
G1 X173.156 Y89.211
G1 X167.975 Y84.153 E165.6169
G1 X168.136 Y84.860
G1 X173.156 Y89.762 E165.8503
G1 X173.156 Y90.313
G1 X168.136 Y85.411 E166.0837
G1 X168.085 Y85.912
G1 X173.156 Y90.863 E166.3194
G1 X173.156 Y91.414
G1 X167.972 Y86.352 E166.5604
G1 X167.827 Y86.761
G1 X173.156 Y91.965 E166.8082
G1 X173.156 Y92.515
G1 X167.630 Y87.119 E167.0651
G1 X167.428 Y87.473
G1 X173.156 Y93.066 E167.3314
G1 X173.156 Y93.617
G1 X167.158 Y87.760 E167.6102
G1 X166.888 Y88.047
G1 X173.156 Y94.168 E167.9016
G1 X173.156 Y94.718
G1 X166.571 Y88.288 E168.2077
G1 X166.229 Y88.505
G1 X173.156 Y95.269 E168.5297
G1 X173.156 Y95.820
G1 X165.863 Y88.699 E168.8687
G1 X165.440 Y88.837
G1 X173.156 Y96.370 E169.2274
G1 X173.156 Y96.921
G1 X165.002 Y88.960 E169.6065
G1 X164.472 Y88.993
G1 X172.745 Y97.070 E169.9910
G1 X172.181 Y97.070
G1 X163.887 Y88.972 E170.3765
G0 X139.194 Y105.065 F5400
G1 X152.156 Y117.720 E170.9791 F3000
G1 X152.156 Y118.271
G1 X139.469 Y105.883 E171.5689
G0 X136.023 Y101.398 F5400
G0 X134.332 Y99.856
G0 X132.387 Y98.652
G0 X130.252 Y97.825
G0 X128.001 Y97.404
G0 X112.272 Y96.952
G1 X116.734 Y101.308 E171.7763 F3000
G1 X116.986 Y101.004
G1 X112.678 Y96.798 E171.9765
G1 X113.020 Y96.581
G1 X117.254 Y100.715 E172.1733
G1 X117.532 Y100.436
G1 X113.332 Y96.335 E172.3686
G1 X113.602 Y96.048
G1 X117.811 Y100.157 E172.5642
G1 X118.102 Y99.891
G1 X113.830 Y95.720 E172.7628
G1 X114.027 Y95.362
G1 X118.407 Y99.638 E172.9664
G1 X118.712 Y99.385
G1 X114.156 Y94.937 E173.1782
G1 X114.243 Y94.471
G1 X119.028 Y99.143 E173.4006
G1 X119.359 Y98.916
G1 X114.237 Y93.914 E173.6388
G0 X131.339 Y98.189 F5400
G0 X133.388 Y99.209
G0 X135.214 Y100.588
G0 X136.754 Y102.278
G0 X137.958 Y104.222
G0 X144.856 Y123.809
G1 X148.609 Y127.473 E173.8132 F3000
G1 X148.197 Y127.622
G1 X145.193 Y124.689 E173.9529
G1 X145.243 Y125.289
G1 X147.817 Y127.801 E174.0725
G1 X147.505 Y128.048
G1 X145.194 Y125.791 E174.1800
G1 X145.081 Y126.232
G1 X147.206 Y128.307 E174.2788
G1 X146.972 Y128.629
G1 X144.895 Y126.601 E174.3753
G1 X144.691 Y126.953
G1 X146.759 Y128.971 E174.4714
G1 X146.602 Y129.369
G1 X144.421 Y127.240 E174.5727
G1 X144.133 Y127.509
G1 X146.500 Y129.821 E174.6828
G1 X146.458 Y130.330
G1 X143.791 Y127.726 E174.8068
G1 X143.412 Y127.907
G1 X146.541 Y130.962 E174.9522
G0 X138.420 Y105.269 F5400
G0 X137.401 Y103.222
G0 X133.424 Y98.329
G1 X112.094 Y77.504 E175.9437 F3000
G1 X112.451 Y77.302
G1 X135.458 Y99.765 E177.0132
G0 X130.252 Y97.825 F5400
G0 X128.001 Y97.404
G0 X125.711 Y97.404
G0 X123.461 Y97.825
G0 X121.326 Y98.652
G0 X119.380 Y99.856
G0 X117.690 Y101.398
G0 X116.312 Y103.222
G0 X115.293 Y105.269
G0 X109.513 Y124.237
G0 X108.515 Y125.775
G1 X91.047 Y108.720 E177.8252 F3000
G1 X91.128 Y108.249
G1 X108.456 Y125.168 E178.6307
G1 X108.518 Y124.677
G1 X91.210 Y107.778 E179.4353
G1 X91.291 Y107.307
G1 X108.647 Y124.252 E180.2420
G1 X108.806 Y123.857
G1 X91.373 Y106.836 E181.0524
G1 X91.468 Y106.378
G1 X109.040 Y123.535 E181.8692
G1 X109.289 Y123.227
G1 X91.570 Y105.927 E182.6929
G1 X91.671 Y105.475
G1 X109.594 Y122.974 E183.5260
G1 X109.928 Y122.749
G1 X91.772 Y105.023 E184.3700
G1 X91.874 Y104.572
G1 X110.308 Y122.570 E185.2268
G1 X110.746 Y122.447
G1 X91.994 Y104.139 E186.0985
G1 X92.114 Y103.705
G1 X111.231 Y122.369 E186.9871
G1 X111.834 Y122.407
G1 X92.234 Y103.271 E187.8982
G1 X92.354 Y102.838
G1 X112.690 Y122.693 E188.8435
G0 X110.227 Y123.478 F5400
G0 X100.873 Y132.544
G0 X99.521 Y133.180
G0 X97.427 Y133.673
G1 X102.954 Y139.070 E189.1004 F3000
G1 X102.390 Y139.070
G1 X90.556 Y127.516 E189.6505
G1 X90.556 Y128.067
G1 X101.826 Y139.070 E190.1744
G1 X101.262 Y139.070
G1 X90.556 Y128.617 E190.6720
G1 X90.556 Y129.168
G1 X100.698 Y139.070 E191.1434
G1 X100.134 Y139.070
G1 X90.556 Y129.719 E191.5886
G1 X90.556 Y130.270
G1 X99.570 Y139.070 E192.0076
G1 X99.006 Y139.070
G1 X90.556 Y130.820 E192.4004
G1 X90.556 Y131.371
G1 X98.442 Y139.070 E192.7669
G1 X97.878 Y139.070
G1 X90.556 Y131.922 E193.1072
G1 X90.556 Y132.472
G1 X97.314 Y139.070 E193.4213
G1 X96.750 Y139.070
G1 X90.556 Y133.023 E193.7092
G1 X90.556 Y133.574
G1 X96.186 Y139.070 E193.9709
G1 X95.622 Y139.070
G1 X90.556 Y134.124 E194.2064
G1 X90.556 Y134.675
G1 X95.057 Y139.070 E194.4156
G1 X94.493 Y139.070
G1 X90.556 Y135.226 E194.5986
G1 X90.556 Y135.777
G1 X93.929 Y139.070 E194.7554
G1 X93.365 Y139.070
G1 X90.556 Y136.327 E194.8860
G1 X90.556 Y136.878
G1 X92.801 Y139.070 E194.9903
G1 X92.237 Y139.070
G1 X90.556 Y137.429 E195.0685
G1 X90.556 Y137.979
G1 X91.673 Y139.070 E195.1204
G1 X91.109 Y139.070
G1 X90.556 Y138.530 E195.1461
G0 X112.699 Y126.850 F5400
G0 X114.200 Y124.718
G1 X128.900 Y139.070 E195.8294 F3000
G1 X128.336 Y139.070
G1 X114.243 Y125.310 E196.4845
G1 X114.189 Y125.808
G1 X127.772 Y139.070 E197.1158
G1 X127.208 Y139.070
G1 X114.076 Y126.249 E197.7262
G1 X113.888 Y126.615
G1 X126.644 Y139.070 E198.3192
G1 X126.080 Y139.070
G1 X113.681 Y126.964 E198.8956
G1 X113.411 Y127.251
G1 X125.516 Y139.070 E199.4582
G1 X124.952 Y139.070
G1 X113.119 Y127.517 E200.0083
G1 X112.778 Y127.734
G1 X124.388 Y139.070 E200.5479
G1 X123.824 Y139.070
G1 X112.395 Y127.912 E201.0792
G1 X111.972 Y128.050
G1 X123.259 Y139.070 E201.6038
G1 X122.695 Y139.070
G1 X111.459 Y128.099 E202.1262
G1 X110.851 Y128.056
G1 X122.131 Y139.070 E202.6505
G1 X121.567 Y139.070
G1 X109.984 Y127.760 E203.1890
G0 X109.255 Y125.242 F5400
G0 X109.513 Y124.237
G0 X114.619 Y114.663
G1 X95.176 Y95.680 E204.0928 F3000
G1 X94.990 Y96.049
G1 X115.054 Y115.639 E205.0254
G0 X113.881 Y123.856 F5400
G1 X129.464 Y139.070 E205.7498 F3000
G1 X130.028 Y139.070
G1 X92.479 Y102.409 E207.4952
G1 X92.616 Y101.992
G1 X130.592 Y139.070 E209.2605
G1 X131.156 Y139.070
G1 X92.754 Y101.576 E211.0456
G1 X92.891 Y101.159
G1 X131.720 Y139.070 E212.8505
G1 X132.284 Y139.070
G1 X93.029 Y100.743 E214.6752
G1 X93.172 Y100.332
G1 X132.848 Y139.070 E216.5195
G1 X133.412 Y139.070
G1 X93.327 Y99.932 E218.3829
G1 X93.481 Y99.532
G1 X133.976 Y139.070 E220.2653
G1 X134.540 Y139.070
G1 X93.635 Y99.132 E222.1667
G1 X93.790 Y98.732
G1 X135.104 Y139.070 E224.0872
G1 X135.668 Y139.070
G1 X93.949 Y98.337 E226.0265
G1 X94.119 Y97.953
G1 X136.232 Y139.070 E227.9840
G1 X136.796 Y139.070
G1 X94.290 Y97.568 E229.9599
G1 X94.460 Y97.184
G1 X137.360 Y139.070 E231.9541
G1 X137.925 Y139.070
G1 X94.630 Y96.800 E233.9666
G1 X94.804 Y96.418
G1 X115.797 Y116.915 E234.9424
G0 X114.317 Y113.818 F5400
G1 X95.362 Y95.311 E235.8236 F3000
G1 X95.548 Y94.941
G1 X114.087 Y113.043 E236.6854
G0 X109.169 Y96.126 F5400
G1 X100.400 Y87.564 E237.0930 F3000
G1 X100.156 Y87.877
G1 X115.567 Y102.923 E237.8094
G1 X115.369 Y103.280
G1 X99.913 Y88.189 E238.5278
G1 X99.669 Y88.502
G1 X115.170 Y103.637 E239.2484
G1 X114.980 Y104.002
G1 X99.425 Y88.814 E239.9715
G1 X99.181 Y89.127
G1 X114.810 Y104.387 E240.6980
G1 X114.640 Y104.772
G1 X98.951 Y89.453 E241.4273
G1 X98.721 Y89.780
G1 X114.484 Y105.169 E242.1600
G1 X114.345 Y105.584
G1 X98.491 Y90.106 E242.8969
G1 X98.262 Y90.432
G1 X114.205 Y105.999 E243.6380
G1 X114.088 Y106.435
G1 X98.032 Y90.759 E244.3844
G1 X97.811 Y91.094
G1 X113.983 Y106.883 E245.1361
G1 X113.878 Y107.332
G1 X97.596 Y91.434 E245.8930
G1 X97.380 Y91.774
G1 X113.811 Y107.816 E246.6568
G1 X113.743 Y108.301
G1 X97.165 Y92.115 E247.4274
G1 X96.949 Y92.455
G1 X113.698 Y108.808 E248.2060
G1 X113.674 Y109.335
G1 X96.738 Y92.799 E248.9933
G1 X96.537 Y93.154
G1 X113.661 Y109.873 E249.7892
G1 X113.688 Y110.450
G1 X96.336 Y93.508 E250.5958
G1 X96.135 Y93.863
G1 X113.723 Y111.035 E251.4134
G1 X113.811 Y111.672
G1 X95.934 Y94.218 E252.2444
G1 X95.733 Y94.572
G1 X113.919 Y112.328 E253.0897
G0 X114.929 Y106.353 F5400
G0 X115.755 Y104.222
G0 X116.959 Y102.278
G0 X118.499 Y100.588
G0 X120.325 Y99.209
G0 X122.374 Y98.189
G0 X124.576 Y97.563
G0 X126.856 Y97.351
G0 X132.249 Y97.733
G1 X111.742 Y77.711 E254.0430 F3000
G1 X111.400 Y77.927
G1 X131.289 Y97.346 E254.9675
G1 X130.436 Y97.064
G1 X111.058 Y78.144 E255.8683
G1 X110.716 Y78.361
G1 X129.693 Y96.889 E256.7504
G1 X128.989 Y96.752
G1 X110.373 Y78.578 E257.6157
G1 X110.031 Y78.794
G1 X128.330 Y96.660 E258.4663
G1 X127.713 Y96.608
G1 X109.704 Y79.025 E259.3034
G1 X109.376 Y79.256
G1 X127.121 Y96.581 E260.1283
G1 X126.558 Y96.582
G1 X109.048 Y79.487 E260.9422
G1 X108.721 Y79.717
G1 X126.020 Y96.607 E261.7464
G1 X125.494 Y96.645
G1 X108.393 Y79.948 E262.5413
G1 X108.074 Y80.188
G1 X125.001 Y96.714 E263.3281
G1 X124.507 Y96.783
G1 X107.761 Y80.432 E264.1065
G1 X107.448 Y80.677
G1 X124.046 Y96.883 E264.8781
G1 X123.592 Y96.990
G1 X107.134 Y80.922 E265.6431
G1 X106.821 Y81.166
G1 X123.145 Y97.104 E266.4019
G1 X122.725 Y97.245
G1 X106.510 Y81.414 E267.1557
G1 X106.211 Y81.673
G1 X122.305 Y97.386 E267.9038
G1 X121.900 Y97.541
G1 X105.912 Y81.931 E268.6470
G1 X105.612 Y82.189
G1 X121.511 Y97.712 E269.3860
G1 X121.123 Y97.884
G1 X105.313 Y82.447 E270.1209
G1 X105.013 Y82.706
G1 X120.751 Y98.072 E270.8525
G1 X120.392 Y98.272
G1 X104.725 Y82.975 E271.5808
G1 X104.439 Y83.247
G1 X120.033 Y98.472 E272.3056
G1 X119.691 Y98.689
G1 X114.067 Y93.198 E272.5671
G0 X113.441 Y125.502 F5400
G0 X112.543 Y139.070
G1 X102.635 Y129.396 E273.0276 F3000
G1 X102.736 Y130.046
G1 X111.979 Y139.070 E273.4572
G1 X111.415 Y139.070
G1 X102.736 Y130.596 E273.8606
G1 X102.647 Y131.060
G1 X110.851 Y139.070 E274.2420
G1 X110.287 Y139.070
G1 X102.534 Y131.500 E274.6024
G1 X102.360 Y131.882
G1 X109.723 Y139.070 E274.9446
G1 X109.158 Y139.070
G1 X102.163 Y132.240 E275.2698
G1 X101.937 Y132.570
G1 X108.594 Y139.070 E275.5792
G1 X108.030 Y139.070
G1 X101.667 Y132.857 E275.8750
G1 X101.397 Y133.144
G1 X107.466 Y139.070 E276.1572
G1 X106.902 Y139.070
G1 X101.056 Y133.362 E276.4289
G1 X100.714 Y133.579
G1 X106.338 Y139.070 E276.6904
G1 X105.774 Y139.070
G1 X100.321 Y133.745 E276.9439
G1 X99.898 Y133.883
G1 X105.210 Y139.070 E277.1908
G1 X104.646 Y139.070
G1 X99.424 Y133.971 E277.4336
G1 X98.894 Y134.004
G1 X104.082 Y139.070 E277.6748
G1 X103.518 Y139.070
G1 X98.250 Y133.927 E277.9197
G0 X100.873 Y132.544 F5400
G0 X108.792 Y126.597
G1 X90.982 Y109.208 E278.7475 F3000
G1 X90.921 Y109.699
G1 X121.003 Y139.070 E280.1459
G1 X120.439 Y139.070
G1 X90.861 Y110.191 E281.5208
G1 X90.800 Y110.682
G1 X119.875 Y139.070 E282.8723
G1 X119.311 Y139.070
G1 X90.750 Y111.184 E284.2000
G1 X90.712 Y111.698
G1 X118.747 Y139.070 E285.5031
G1 X118.183 Y139.070
G1 X90.674 Y112.212 E286.7818
G1 X90.636 Y112.725
G1 X117.619 Y139.070 E288.0361
G1 X117.055 Y139.070
G1 X90.606 Y113.246 E289.2656
G1 X90.592 Y113.784
G1 X116.491 Y139.070 E290.4694
G1 X115.927 Y139.070
G1 X90.579 Y114.322 E291.6477
G1 X90.566 Y114.859
G1 X115.363 Y139.070 E292.8003
G1 X114.799 Y139.070
G1 X90.556 Y115.401 E293.9272
G1 X90.556 Y115.951
G1 X114.235 Y139.070 E295.0279
G1 X113.671 Y139.070
G1 X90.556 Y116.502 E296.1024
G1 X90.556 Y117.053
G1 X100.553 Y126.813 E296.5671
G0 X98.026 Y127.397 F5400
G0 X96.765 Y128.197
G0 X96.049 Y129.500
G0 X95.515 Y131.807
G1 X90.556 Y126.965 E296.7976 F3000
G1 X90.556 Y126.415
G1 X95.241 Y130.989 E297.0153
G1 X95.162 Y130.361
G1 X90.556 Y125.864 E297.2294
G1 X90.556 Y125.313
G1 X95.197 Y129.844 E297.4452
G1 X95.259 Y129.354
G1 X90.556 Y124.763 E297.6638
G1 X90.556 Y124.212
G1 X95.407 Y128.948 E297.8893
G1 X95.565 Y128.551
G1 X90.556 Y123.661 E298.1221
G1 X90.556 Y123.110
G1 X95.776 Y128.206 E298.3647
G1 X96.010 Y127.884
G1 X90.556 Y122.560 E298.6182
G1 X90.556 Y122.009
G1 X96.266 Y127.584 E298.8836
G1 X96.571 Y127.331
G1 X90.556 Y121.458 E299.1632
G1 X90.556 Y120.908
G1 X96.877 Y127.078 E299.4570
G1 X97.250 Y126.893
G1 X90.556 Y120.357 E299.7681
G1 X90.556 Y119.806
G1 X97.631 Y126.714 E300.0970
G1 X98.069 Y126.591
G1 X90.556 Y119.256 E300.4462
G1 X90.556 Y118.705
G1 X98.541 Y126.501 E300.8174
G1 X99.096 Y126.491
G1 X90.556 Y118.154 E301.2143
G1 X90.556 Y117.603
G1 X99.708 Y126.539 E301.6398
G0 X147.169 Y132.125 F5400
G1 X142.989 Y128.044 E301.8341 F3000
G1 X142.480 Y128.098
G1 X152.156 Y137.546 E302.2839
G1 X152.156 Y138.096
G1 X141.878 Y128.061 E302.7616
G0 X121.326 Y120.831 F5400
G0 X119.380 Y119.626
G0 X117.690 Y118.085
G0 X116.312 Y116.260
G0 X115.293 Y114.214
G0 X109.378 Y96.329
G1 X115.785 Y102.585 E303.0595 F3000
G1 X116.011 Y102.255
G1 X110.646 Y97.017 E303.3089
G0 X108.541 Y94.961 F5400
G1 X100.652 Y87.259 E303.6755 F3000
G1 X100.910 Y86.960
G1 X108.458 Y94.330 E304.0264
G1 X108.500 Y93.820
G1 X101.168 Y86.661 E304.3673
G1 X101.426 Y86.362
G1 X108.601 Y93.368 E304.7008
G1 X108.759 Y92.971
G1 X101.683 Y86.063 E305.0297
G1 X101.943 Y85.766
G1 X108.972 Y92.629 E305.3565
G1 X109.206 Y92.307
G1 X102.215 Y85.481 E305.6815
G1 X102.486 Y85.195
G1 X109.505 Y92.048 E306.0077
G1 X109.817 Y91.801
G1 X102.758 Y84.910 E306.3358
G1 X103.030 Y84.625
G1 X110.197 Y91.622 E306.6690
G1 X110.609 Y91.473
G1 X103.302 Y84.339 E307.0086
G1 X103.583 Y84.063
G1 X111.081 Y91.383 E307.3572
G1 X111.658 Y91.396
G1 X103.868 Y83.791 E307.7193
G1 X104.154 Y83.519
G1 X112.403 Y91.573 E308.1028
G0 X113.219 Y93.854 F5400
G0 X114.034 Y96.134
G0 X114.510 Y110.884
G0 X114.929 Y113.130
G0 X115.755 Y115.261
G0 X116.959 Y117.205
G0 X118.499 Y118.895
G0 X120.325 Y120.274
G0 X123.822 Y122.547
G1 X140.745 Y139.070 E308.8894 F3000
G1 X141.309 Y139.070
G1 X124.549 Y122.706 E309.6685
G1 X125.207 Y122.798
G1 X141.873 Y139.070 E310.4432
G1 X142.437 Y139.070
G1 X125.842 Y122.867 E311.2146
G1 X126.434 Y122.895
G1 X143.001 Y139.070 E311.9846
G1 X143.565 Y139.070
G1 X127.011 Y122.907 E312.7541
G1 X127.549 Y122.882
G1 X144.129 Y139.070 E313.5248
G1 X144.693 Y139.070
G1 X128.087 Y122.856 E314.2967
G1 X128.580 Y122.788
G1 X145.257 Y139.070 E315.0719
G1 X145.821 Y139.070
G1 X129.074 Y122.719 E315.8504
G1 X129.545 Y122.628
G1 X146.385 Y139.070 E316.6332
G1 X146.949 Y139.070
G1 X130.000 Y122.522 E317.4211
G1 X130.455 Y122.415
G1 X147.513 Y139.070 E318.2140
G1 X148.077 Y139.070
G1 X130.876 Y122.276 E319.0136
G1 X131.296 Y122.135
G1 X148.641 Y139.070 E319.8198
G1 X149.205 Y139.070
G1 X131.710 Y121.988 E320.6331
G1 X132.098 Y121.817
G1 X149.769 Y139.070 E321.4545
G1 X150.333 Y139.070
G1 X132.487 Y121.645 E322.2841
G1 X132.866 Y121.465
G1 X150.897 Y139.070 E323.1223
G1 X151.461 Y139.070
G1 X133.225 Y121.265 E323.9700
G1 X133.584 Y121.064
G1 X152.025 Y139.070 E324.8273
G1 X152.156 Y138.647
G1 X141.027 Y127.781 E325.3446
G0 X122.195 Y122.060 F5400
G1 X139.617 Y139.070 E326.1545 F3000
G1 X140.181 Y139.070
G1 X123.054 Y122.349 E326.9506
G0 X119.939 Y120.958 F5400
G1 X138.489 Y139.070 E327.8128 F3000
G1 X139.053 Y139.070
G1 X121.189 Y121.629 E328.6432
G0 X147.378 Y132.330 F5400
G1 X152.156 Y136.995 E328.8653 F3000
G1 X152.156 Y136.444
G1 X148.646 Y133.017 E329.0285
G1 X149.304 Y133.109
G1 X152.156 Y135.894 E329.1611
G1 X152.156 Y135.343
G1 X149.834 Y133.075 E329.2690
G1 X150.272 Y132.952
G1 X152.156 Y134.792 E329.3566
G1 X152.156 Y134.241
G1 X150.678 Y132.798 E329.4254
G1 X151.020 Y132.581
G1 X152.156 Y133.691 E329.4782
G1 X152.156 Y133.140
G1 X151.332 Y132.335 E329.5165
G1 X151.602 Y132.048
G1 X152.156 Y132.589 E329.5423
G1 X152.156 Y132.039
G1 X151.830 Y131.720 E329.5575
G1 X152.027 Y131.362
G1 X152.156 Y131.488 E329.5635
G0 X152.070 Y129.200 F5400
G1 X152.156 Y129.285 E329.5675 F3000
G1 X152.156 Y128.734
G1 X138.687 Y115.584 E330.1936
G1 X138.857 Y115.199
G1 X152.156 Y128.184 E330.8118
G1 X152.156 Y127.633
G1 X139.027 Y114.814 E331.4221
G1 X139.192 Y114.425
G1 X152.156 Y127.082 E332.0247
G1 X152.156 Y126.532
G1 X139.331 Y114.010 E332.6209
G1 X139.470 Y113.595
G1 X152.156 Y125.981 E333.2106
G1 X152.156 Y125.430
G1 X139.596 Y113.167 E333.7944
G1 X139.702 Y112.719
G1 X152.156 Y124.879 E334.3734
G1 X152.156 Y124.329
G1 X139.807 Y112.271 E334.9474
G1 X139.884 Y111.796
G1 X152.156 Y123.778 E335.5179
G1 X152.156 Y123.227
G1 X139.952 Y111.311 E336.0852
G1 X140.008 Y110.815
G1 X152.156 Y122.677 E336.6499
G1 X152.156 Y122.126
G1 X140.033 Y110.289 E337.2135
G1 X140.057 Y109.762
G1 X152.156 Y121.575 E337.7759
G1 X152.156 Y121.025
G1 X140.032 Y109.187 E338.3395
G1 X140.005 Y108.610
G1 X152.156 Y120.474 E338.9043
G1 X152.156 Y119.923
G1 X139.919 Y107.975 E339.4732
G1 X139.830 Y107.338
G1 X152.156 Y119.372 E340.0462
G1 X152.156 Y118.822
G1 X139.670 Y106.631 E340.6266
G0 X142.858 Y122.409 F5400
G1 X137.641 Y117.316 E340.8690 F3000
G1 X137.415 Y117.646
G1 X142.255 Y122.371 E341.0940
G1 X141.765 Y122.444
G1 X137.165 Y117.952 E341.3078
G1 X136.912 Y118.256
G1 X141.323 Y122.563 E341.5129
G1 X140.943 Y122.742
G1 X136.660 Y118.560 E341.7120
G1 X136.385 Y118.843
G1 X140.606 Y122.964 E341.9082
G1 X140.301 Y123.217
G1 X136.106 Y119.121 E342.1032
G1 X135.827 Y119.400
G1 X140.049 Y123.522 E342.2995
G1 X139.815 Y123.844
G1 X135.529 Y119.659 E342.4987
G1 X135.224 Y119.912
G1 X139.653 Y124.237 E342.7046
G1 X139.521 Y124.658
G1 X134.919 Y120.165 E342.9185
G1 X134.596 Y120.401
G1 X139.459 Y125.148 E343.1445
G1 X139.512 Y125.750
G1 X134.265 Y120.628 E343.3884
G1 X133.933 Y120.855
G1 X139.778 Y126.561 E343.6601
G0 X142.224 Y127.329 F5400
G0 X150.404 Y127.574
G1 X138.490 Y115.942 E344.2139 F3000
G1 X138.291 Y116.299
G1 X149.658 Y127.397 E344.7423
G1 X149.080 Y127.383
G1 X138.093 Y116.655 E345.2530
G1 X137.867 Y116.986
G1 X143.754 Y122.733 E345.5267
; ------------------------------------
; Layer #2
; ------------------------------------
G21 ; mm
G90 ; abs
G92 E0 ; reset extr
M106 S0
G0 F1200 E-1.0000
G0 F300 Z0.600
G0 X152.733 Y97.633 F5400
G0 X162.222 Y88.360
G0 F1200 E0.0000
;segType:HShell
G1 X153.301 Y97.070 E0.4147 F3000
;segType:Perimeter
G0 X153.431 Y97.457 F5400
G1 X153.156 Y98.105 E0.4381 F2100
G1 X153.156 Y140.046 E1.8331
G1 X89.556 Y140.046 E3.9484
G1 X89.556 Y115.244 E4.7733
G1 X89.610 Y113.043 E4.8466
G1 X89.772 Y110.849 E4.9197
G1 X90.041 Y108.667 E4.9929
G1 X90.417 Y106.500 E5.0660
G1 X90.899 Y104.354 E5.1392
G1 X91.486 Y102.234 E5.2123
G1 X92.176 Y100.146 E5.2855
G1 X92.967 Y98.094 E5.3586
G1 X93.859 Y96.083 E5.4318
G1 X94.847 Y94.119 E5.5049
G1 X95.931 Y92.206 E5.5781
G1 X97.108 Y90.347 E5.6512
G1 X98.374 Y88.549 E5.7244
G1 X99.727 Y86.816 E5.7975
G1 X101.163 Y85.151 E5.8706
G1 X102.680 Y83.558 E5.9438
G1 X104.272 Y82.042 E6.0169
G1 X105.937 Y80.606 E6.0901
G1 X107.671 Y79.253 E6.1632
G1 X109.469 Y77.987 E6.2363
G1 X111.326 Y76.810 E6.3095
G1 X113.240 Y75.726 E6.3826
G1 X115.204 Y74.738 E6.4557
G1 X117.214 Y73.847 E6.5289
G1 X119.265 Y73.055 E6.6020
G1 X121.353 Y72.366 E6.6751
G1 X123.472 Y71.779 E6.7482
G1 X125.617 Y71.298 E6.8214
G1 X127.784 Y70.921 E6.8945
G1 X129.966 Y70.652 E6.9676
G1 X132.158 Y70.491 E7.0408
G1 X134.359 Y70.437 E7.1140
G1 X174.156 Y70.437 E8.4376
G1 X174.156 Y98.046 E9.3559
G1 X153.216 Y98.046 E10.0524
G1 X152.553 Y98.314
;segType:Loop
G0 X152.756 Y99.117 F5400
G1 X152.756 Y139.656 E11.4007 F3000
G1 X89.956 Y139.656 E13.4895
G1 X89.956 Y115.248 E14.3012
G1 X90.010 Y113.062 E14.3740
G1 X90.171 Y110.887 E14.4465
G1 X90.438 Y108.723 E14.5191
G1 X90.810 Y106.574 E14.5916
G1 X91.288 Y104.446 E14.6641
G1 X91.869 Y102.345 E14.7366
G1 X92.553 Y100.275 E14.8092
G1 X93.338 Y98.240 E14.8817
G1 X94.222 Y96.247 E14.9542
G1 X95.202 Y94.300 E15.0267
G1 X96.277 Y92.403 E15.0992
G1 X97.443 Y90.561 E15.1717
G1 X98.698 Y88.779 E15.2442
G1 X100.039 Y87.060 E15.3167
G1 X101.463 Y85.409 E15.3892
G1 X102.966 Y83.831 E15.4617
G1 X104.545 Y82.328 E15.5342
G1 X106.195 Y80.905 E15.6067
G1 X107.913 Y79.564 E15.6792
G1 X109.695 Y78.309 E15.7517
G1 X111.536 Y77.143 E15.8242
G1 X113.432 Y76.069 E15.8966
G1 X115.378 Y75.089 E15.9691
G1 X117.370 Y74.206 E16.0416
G1 X119.403 Y73.422 E16.1141
G1 X121.472 Y72.739 E16.1865
G1 X123.572 Y72.158 E16.2590
G1 X125.697 Y71.680 E16.3314
G1 X127.844 Y71.308 E16.4039
G1 X130.006 Y71.041 E16.4764
G1 X132.178 Y70.881 E16.5488
G1 X134.364 Y70.827 E16.6215
G1 X173.756 Y70.827 E17.9317
G1 X173.756 Y97.656 E18.8240
G1 X152.756 Y97.656 E19.5225
G1 X152.756 Y98.922 E19.5646
G0 X152.356 Y100.188 F5400
G1 X152.356 Y139.265 E20.8644 F3000
G1 X90.356 Y139.265 E22.9265
G1 X90.356 Y115.253 E23.7251
G1 X90.410 Y113.080 E23.7974
G1 X90.569 Y110.924 E23.8693
G1 X90.834 Y108.779 E23.9412
G1 X91.203 Y106.649 E24.0131
G1 X91.676 Y104.539 E24.0850
G1 X92.253 Y102.456 E24.1569
G1 X92.931 Y100.404 E24.2288
G1 X93.709 Y98.387 E24.3007
G1 X94.585 Y96.411 E24.3726
G1 X95.557 Y94.481 E24.4445
G1 X96.622 Y92.600 E24.5164
G1 X97.778 Y90.774 E24.5882
G1 X99.022 Y89.008 E24.6601
G1 X100.352 Y87.304 E24.7320
G1 X101.763 Y85.668 E24.8038
G1 X103.253 Y84.104 E24.8757
G1 X104.817 Y82.614 E24.9475
G1 X106.453 Y81.204 E25.0194
G1 X108.155 Y79.875 E25.0912
G1 X109.921 Y78.632 E25.1630
G1 X111.745 Y77.476 E25.2349
G1 X113.624 Y76.412 E25.3067
G1 X115.553 Y75.441 E25.3785
G1 X117.526 Y74.566 E25.4503
G1 X119.540 Y73.789 E25.5221
G1 X121.591 Y73.112 E25.5939
G1 X123.671 Y72.536 E25.6657
G1 X125.777 Y72.063 E25.7375
G1 X127.904 Y71.694 E25.8093
G1 X130.046 Y71.430 E25.8811
G1 X132.198 Y71.271 E25.9529
G1 X134.369 Y71.218 E26.0251
G1 X173.356 Y71.218 E27.3218
G1 X173.356 Y97.265 E28.1881
G1 X152.356 Y97.265 E28.8866
G1 X152.356 Y99.993 E28.9773
;segType:HShell
G0 X143.267 Y96.954 F5400
G1 X137.756 Y102.335 E29.2335 F3000
G1 X137.530 Y102.005
G1 X142.561 Y97.093 E29.4674
;segType:Perimeter
G0 X142.686 Y96.619 F5400
G1 X142.178 Y96.124 E29.4910 F2100
G1 X141.768 Y96.045 E29.5049
G1 X141.336 Y95.842 E29.5207
G1 X140.969 Y95.538 E29.5366
G1 X140.689 Y95.154 E29.5524
G1 X140.514 Y94.712 E29.5682
G1 X140.455 Y94.242 E29.5840
G1 X140.514 Y93.771 E29.5998
G1 X140.689 Y93.329 E29.6156
G1 X140.969 Y92.945 E29.6314
G1 X141.336 Y92.641 E29.6472
G1 X141.768 Y92.438 E29.6631
G1 X142.237 Y92.348 E29.6790
G1 X142.714 Y92.378 E29.6949
G1 X143.168 Y92.526 E29.7107
G1 X143.570 Y92.782 E29.7266
G1 X143.896 Y93.128 E29.7424
G1 X144.125 Y93.545 E29.7582
G1 X144.235 Y93.972 E29.7729
G1 X144.243 Y94.477 E29.7897
G1 X144.125 Y94.938 E29.8056
G1 X143.896 Y95.355 E29.8214
G1 X143.570 Y95.702 E29.8372
G1 X143.168 Y95.957 E29.8530
G1 X142.714 Y96.105 E29.8689
G1 X142.296 Y96.131 E29.8828
G1 X141.728 Y96.559
;segType:Loop
G0 X140.971 Y96.052 F5400
G1 X140.672 Y95.804 E29.8957 F3000
G1 X140.334 Y95.340 E29.9148
G1 X140.123 Y94.808 E29.9339
G1 X140.052 Y94.242 E29.9529
G1 X140.123 Y93.675 E29.9719
G1 X140.334 Y93.143 E29.9909
G1 X140.672 Y92.679 E30.0100
G1 X141.116 Y92.311 E30.0292
G1 X141.640 Y92.064 E30.0484
G1 X142.211 Y91.955 E30.0678
G1 X142.791 Y91.992 E30.0871
G1 X143.343 Y92.171 E30.1064
G1 X143.831 Y92.481 E30.1256
G1 X144.225 Y92.900 E30.1447
G1 X144.501 Y93.403 E30.1638
G1 X144.634 Y93.920 E30.1816
G1 X144.644 Y94.522 E30.2016
G1 X144.501 Y95.080 E30.2208
G1 X144.225 Y95.583 E30.2398
G1 X143.831 Y96.002 E30.2590
G1 X143.343 Y96.312 E30.2782
G1 X142.791 Y96.491 E30.2975
G1 X142.211 Y96.528 E30.3168
G1 X141.640 Y96.419 E30.3362
G1 X141.124 Y96.176 E30.3551
G0 X139.943 Y95.435 F5400
G1 X139.733 Y94.904 E30.3741 F3000
G1 X139.649 Y94.242 E30.3963
G1 X139.733 Y93.579 E30.4185
G1 X139.979 Y92.957 E30.4408
G1 X140.375 Y92.413 E30.4632
G1 X140.896 Y91.980 E30.4857
G1 X141.513 Y91.691 E30.5084
G1 X142.185 Y91.562 E30.5311
G1 X142.868 Y91.605 E30.5539
G1 X143.518 Y91.816 E30.5766
G1 X144.091 Y92.181 E30.5992
G1 X144.553 Y92.672 E30.6217
G1 X144.877 Y93.261 E30.6440
G1 X145.033 Y93.869 E30.6649
G1 X145.045 Y94.567 E30.6881
G1 X144.877 Y95.223 E30.7106
G1 X144.553 Y95.811 E30.7329
G1 X144.091 Y96.302 E30.7554
G1 X143.518 Y96.667 E30.7780
G1 X142.868 Y96.878 E30.8007
G1 X142.185 Y96.921 E30.8235
G1 X141.513 Y96.792 E30.8462
G1 X140.896 Y96.503 E30.8689
G1 X140.375 Y96.070 E30.8914
G1 X140.036 Y95.605 E30.9105
G0 X123.461 Y97.825 F5400
G0 X121.326 Y98.652
G0 X90.556 Y117.579
;segType:HShell
G1 X111.537 Y97.094 E31.8858 F3000
;segType:Perimeter
G0 X111.686 Y96.619 F5400
G1 X111.178 Y96.124 E31.9094 F2100
G1 X110.767 Y96.045 E31.9233
G1 X110.336 Y95.842 E31.9392
G1 X109.969 Y95.538 E31.9550
G1 X109.689 Y95.154 E31.9708
G1 X109.514 Y94.712 E31.9866
G1 X109.455 Y94.242 E32.0024
G1 X109.514 Y93.771 E32.0182
G1 X109.689 Y93.329 E32.0340
G1 X109.969 Y92.945 E32.0498
G1 X110.336 Y92.641 E32.0656
G1 X110.767 Y92.438 E32.0815
G1 X111.237 Y92.348 E32.0974
G1 X111.713 Y92.378 E32.1133
G1 X112.168 Y92.526 E32.1292
G1 X112.570 Y92.782 E32.1450
G1 X112.896 Y93.128 E32.1609
G1 X113.125 Y93.545 E32.1767
G1 X113.243 Y94.004 E32.1924
G1 X113.243 Y94.479 E32.2082
G1 X113.125 Y94.938 E32.2240
G1 X112.896 Y95.355 E32.2398
G1 X112.570 Y95.702 E32.2556
G1 X112.168 Y95.957 E32.2715
G1 X111.713 Y96.105 E32.2874
G1 X111.296 Y96.131 E32.3013
G1 X110.728 Y96.559
;segType:Loop
G0 X109.971 Y96.052 F5400
G1 X109.671 Y95.804 E32.3142 F3000
G1 X109.334 Y95.340 E32.3333
G1 X109.123 Y94.808 E32.3523
G1 X109.052 Y94.242 E32.3713
G1 X109.123 Y93.675 E32.3903
G1 X109.334 Y93.143 E32.4093
G1 X109.671 Y92.679 E32.4284
G1 X110.116 Y92.311 E32.4476
G1 X110.640 Y92.064 E32.4669
G1 X111.211 Y91.955 E32.4862
G1 X111.791 Y91.992 E32.5055
G1 X112.343 Y92.171 E32.5248
G1 X112.831 Y92.481 E32.5441
G1 X113.225 Y92.900 E32.5632
G1 X113.501 Y93.403 E32.5823
G1 X113.643 Y93.956 E32.6013
G1 X113.643 Y94.527 E32.6202
G1 X113.501 Y95.080 E32.6392
G1 X113.225 Y95.583 E32.6583
G1 X112.831 Y96.002 E32.6775
G1 X112.343 Y96.312 E32.6967
G1 X111.791 Y96.491 E32.7160
G1 X111.211 Y96.528 E32.7353
G1 X110.640 Y96.419 E32.7546
G1 X110.124 Y96.176 E32.7736
G0 X108.943 Y95.435 F5400
G1 X108.732 Y94.904 E32.7926 F3000
G1 X108.649 Y94.242 E32.8148
G1 X108.732 Y93.579 E32.8370
G1 X108.979 Y92.957 E32.8593
G1 X109.374 Y92.413 E32.8817
G1 X109.896 Y91.980 E32.9042
G1 X110.513 Y91.691 E32.9269
G1 X111.185 Y91.562 E32.9496
G1 X111.868 Y91.605 E32.9724
G1 X112.518 Y91.816 E32.9951
G1 X113.091 Y92.181 E33.0177
G1 X113.553 Y92.672 E33.0401
G1 X113.877 Y93.261 E33.0625
G1 X114.043 Y93.908 E33.0847
G1 X114.043 Y94.575 E33.1069
G1 X113.877 Y95.222 E33.1291
G1 X113.553 Y95.811 E33.1514
G1 X113.091 Y96.302 E33.1739
G1 X112.518 Y96.667 E33.1965
G1 X111.868 Y96.878 E33.2192
G1 X111.185 Y96.921 E33.2420
G1 X110.513 Y96.792 E33.2647
G1 X109.896 Y96.503 E33.2874
G1 X109.374 Y96.070 E33.3099
G1 X109.036 Y95.605 E33.3290
G0 X109.321 Y125.759 F5400
G0 X109.971 Y127.052
G1 X109.672 Y126.805 E33.3420 F3000
G1 X109.334 Y126.340 E33.3611
G1 X109.123 Y125.808 E33.3801
G1 X109.052 Y125.242 E33.3991
G1 X109.123 Y124.675 E33.4181
G1 X109.334 Y124.143 E33.4371
G1 X109.671 Y123.679 E33.4562
G1 X110.116 Y123.311 E33.4754
G1 X110.640 Y123.064 E33.4947
G1 X111.211 Y122.955 E33.5140
G1 X111.791 Y122.992 E33.5333
G1 X112.294 Y123.155 E33.5509
G1 X112.874 Y123.523 E33.5737
G1 X113.260 Y123.960 E33.5931
G1 X113.516 Y124.461 E33.6118
G1 X113.643 Y124.956 E33.6289
G1 X113.643 Y125.527 E33.6478
G1 X113.501 Y126.080 E33.6668
G1 X113.225 Y126.583 E33.6859
G1 X112.831 Y127.002 E33.7050
G1 X112.343 Y127.312 E33.7243
G1 X111.791 Y127.491 E33.7436
G1 X111.211 Y127.528 E33.7629
G1 X110.640 Y127.419 E33.7822
G1 X110.124 Y127.176 E33.8012
;segType:Perimeter
G0 X111.686 Y127.619 F5400
G1 X111.178 Y127.124 E33.8248 F2100
G1 X110.767 Y127.045 E33.8387
G1 X110.336 Y126.842 E33.8545
G1 X109.969 Y126.539 E33.8704
G1 X109.689 Y126.154 E33.8862
G1 X109.514 Y125.712 E33.9020
G1 X109.455 Y125.242 E33.9178
G1 X109.514 Y124.771 E33.9335
G1 X109.689 Y124.329 E33.9493
G1 X109.969 Y123.945 E33.9652
G1 X110.336 Y123.641 E33.9810
G1 X110.767 Y123.438 E33.9969
G1 X111.237 Y123.348 E34.0128
G1 X111.713 Y123.378 E34.0287
G1 X112.119 Y123.510 E34.0428
G1 X112.608 Y123.820 E34.0621
G1 X112.924 Y124.178 E34.0780
G1 X113.138 Y124.597 E34.0936
G1 X113.243 Y125.004 E34.1076
G1 X113.243 Y125.479 E34.1234
G1 X113.125 Y125.938 E34.1392
G1 X112.896 Y126.355 E34.1550
G1 X112.570 Y126.702 E34.1708
G1 X112.168 Y126.957 E34.1867
G1 X111.713 Y127.105 E34.2025
G1 X111.296 Y127.131 E34.2164
G1 X110.728 Y127.559
;segType:Loop
G0 X108.943 Y126.435 F5400
G1 X108.732 Y125.904 E34.2355 F3000
G1 X108.649 Y125.242 E34.2577
G1 X108.732 Y124.580 E34.2799
G1 X108.979 Y123.957 E34.3021
G1 X109.374 Y123.412 E34.3245
G1 X109.896 Y122.980 E34.3470
G1 X110.513 Y122.691 E34.3697
G1 X111.185 Y122.562 E34.3925
G1 X111.868 Y122.605 E34.4152
G1 X112.469 Y122.801 E34.4362
G1 X113.139 Y123.226 E34.4626
G1 X113.595 Y123.742 E34.4856
G1 X113.893 Y124.325 E34.5073
G1 X114.043 Y124.908 E34.5274
G1 X114.043 Y125.575 E34.5495
G1 X113.877 Y126.222 E34.5718
G1 X113.553 Y126.811 E34.5941
G1 X113.091 Y127.302 E34.6165
G1 X112.518 Y127.667 E34.6391
G1 X111.868 Y127.878 E34.6619
G1 X111.185 Y127.921 E34.6846
G1 X110.513 Y127.792 E34.7074
G1 X109.896 Y127.502 E34.7300
G1 X109.375 Y127.071 E34.7526
G1 X109.036 Y126.605 E34.7717
;segType:HShell
G0 X115.072 Y115.671 F5400
G1 X102.175 Y128.263 E35.3712 F3000
;segType:Perimeter
G0 X101.826 Y128.613 F5400
G1 X101.576 Y129.270 E35.3946 F2100
G1 X101.736 Y129.891 E35.4159
G1 X101.736 Y130.592 E35.4392
G1 X101.562 Y131.270 E35.4625
G1 X101.224 Y131.884 E35.4858
G1 X100.744 Y132.395 E35.5091
G1 X100.151 Y132.771 E35.5325
G1 X99.482 Y132.989 E35.5559
G1 X98.780 Y133.033 E35.5793
G1 X98.089 Y132.901 E35.6027
G1 X97.454 Y132.602 E35.6261
G1 X96.912 Y132.154 E35.6494
G1 X96.500 Y131.587 E35.6727
G1 X96.242 Y130.936 E35.6960
G1 X96.155 Y130.242 E35.7193
G1 X96.242 Y129.547 E35.7426
G1 X96.500 Y128.896 E35.7659
G1 X96.912 Y128.329 E35.7892
G1 X97.454 Y127.881 E35.8126
G1 X98.089 Y127.582 E35.8359
G1 X98.780 Y127.450 E35.8593
G1 X99.482 Y127.494 E35.8827
G1 X100.151 Y127.712 E35.9061
G1 X100.744 Y128.088 E35.9295
G1 X101.224 Y128.599 E35.9528
G1 X101.534 Y129.162 E35.9742
G1 X102.171 Y129.485
;segType:Loop
G0 X102.136 Y130.263 F5400
G1 X102.136 Y130.640 E35.9867 F3000
G1 X101.938 Y131.411 E36.0132
G1 X101.553 Y132.112 E36.0397
G1 X101.004 Y132.695 E36.0664
G1 X100.326 Y133.126 E36.0931
G1 X99.560 Y133.375 E36.1199
G1 X98.754 Y133.426 E36.1468
G1 X97.962 Y133.275 E36.1736
G1 X97.234 Y132.932 E36.2004
G1 X96.615 Y132.420 E36.2271
G1 X96.145 Y131.774 E36.2536
G1 X95.851 Y131.032 E36.2802
G1 X95.752 Y130.242 E36.3067
G1 X95.851 Y129.451 E36.3332
G1 X96.145 Y128.710 E36.3597
G1 X96.615 Y128.062 E36.3863
G1 X97.234 Y127.551 E36.4130
G1 X97.962 Y127.208 E36.4398
G1 X98.754 Y127.057 E36.4666
G1 X99.560 Y127.108 E36.4934
G1 X100.326 Y127.357 E36.5202
G1 X101.004 Y127.788 E36.5470
G1 X101.553 Y128.371 E36.5736
G1 X101.938 Y129.072 E36.6002
G1 X102.136 Y129.843 E36.6267
G1 X102.136 Y130.069 E36.6342
G0 X102.351 Y131.408 F5400
G1 X102.314 Y131.553 E36.6391 F3000
G1 X101.882 Y132.340 E36.6690
G1 X101.265 Y132.996 E36.6989
G1 X100.501 Y133.481 E36.7290
G1 X99.637 Y133.762 E36.7593
G1 X98.728 Y133.819 E36.7895
G1 X97.835 Y133.648 E36.8198
G1 X97.014 Y133.262 E36.8500
G1 X96.318 Y132.687 E36.8800
G1 X95.790 Y131.960 E36.9099
G1 X95.461 Y131.127 E36.9397
G1 X95.349 Y130.242 E36.9694
G1 X95.461 Y129.356 E36.9991
G1 X95.790 Y128.523 E37.0288
G1 X96.318 Y127.796 E37.0587
G1 X97.014 Y127.221 E37.0888
G1 X97.835 Y126.835 E37.1189
G1 X98.728 Y126.664 E37.1492
G1 X99.637 Y126.721 E37.1795
G1 X100.501 Y127.002 E37.2097
G1 X101.265 Y127.487 E37.2398
G1 X101.882 Y128.143 E37.2697
G1 X102.314 Y128.930 E37.2996
G1 X102.536 Y129.795 E37.3293
G1 X102.536 Y130.688 E37.3590
G1 X102.399 Y131.220 E37.3772
;segType:HShell
G0 X110.848 Y139.070 F5400
G1 X127.421 Y122.888 E38.1476 F3000
;segType:Perimeter
G0 X127.316 Y122.418 F5400
G1 X126.797 Y121.934 E38.1713 F2100
G1 X125.730 Y121.885 E38.2068
G1 X124.614 Y121.729 E38.2443
G1 X123.516 Y121.471 E38.2817
G1 X122.448 Y121.113 E38.3192
G1 X121.417 Y120.658 E38.3567
G1 X120.432 Y120.109 E38.3942
G1 X119.502 Y119.472 E38.4317
G1 X118.635 Y118.752 E38.4692
G1 X117.839 Y117.956 E38.5066
G1 X117.119 Y117.089 E38.5441
G1 X116.483 Y116.160 E38.5816
G1 X115.934 Y115.176 E38.6190
G1 X115.479 Y114.145 E38.6565
G1 X115.121 Y113.078 E38.6939
G1 X114.864 Y111.981 E38.7314
G1 X114.708 Y110.866 E38.7689
G1 X114.656 Y109.741 E38.8063
G1 X114.708 Y108.616 E38.8438
G1 X114.864 Y107.501 E38.8812
G1 X115.121 Y106.405 E38.9187
G1 X115.479 Y105.337 E38.9561
G1 X115.934 Y104.307 E38.9936
G1 X116.483 Y103.323 E39.0310
G1 X117.119 Y102.394 E39.0685
G1 X117.839 Y101.527 E39.1060
G1 X118.635 Y100.731 E39.1435
G1 X119.502 Y100.010 E39.1809
G1 X120.432 Y99.374 E39.2184
G1 X121.417 Y98.825 E39.2559
G1 X122.448 Y98.370 E39.2934
G1 X123.516 Y98.012 E39.3309
G1 X124.614 Y97.754 E39.3684
G1 X125.730 Y97.598 E39.4059
G1 X126.856 Y97.546 E39.4434
G1 X127.983 Y97.598 E39.4809
G1 X129.099 Y97.754 E39.5184
G1 X130.196 Y98.012 E39.5559
G1 X131.265 Y98.370 E39.5933
G1 X132.296 Y98.825 E39.6308
G1 X133.281 Y99.374 E39.6683
G1 X134.210 Y100.010 E39.7058
G1 X135.078 Y100.731 E39.7433
G1 X135.874 Y101.527 E39.7808
G1 X136.594 Y102.394 E39.8182
G1 X137.230 Y103.323 E39.8557
G1 X137.778 Y104.307 E39.8932
G1 X138.233 Y105.337 E39.9306
G1 X138.591 Y106.405 E39.9681
G1 X138.849 Y107.501 E40.0055
G1 X139.005 Y108.616 E40.0430
G1 X139.057 Y109.741 E40.0804
G1 X139.005 Y110.866 E40.1179
G1 X138.849 Y111.981 E40.1553
G1 X138.591 Y113.078 E40.1928
G1 X138.233 Y114.145 E40.2302
G1 X137.778 Y115.176 E40.2677
G1 X137.230 Y116.160 E40.3052
G1 X136.594 Y117.089 E40.3426
G1 X135.874 Y117.956 E40.3801
G1 X135.078 Y118.752 E40.4176
G1 X134.210 Y119.472 E40.4550
G1 X133.281 Y120.109 E40.4925
G1 X132.296 Y120.658 E40.5300
G1 X131.265 Y121.113 E40.5675
G1 X130.196 Y121.471 E40.6050
G1 X129.099 Y121.729 E40.6425
G1 X127.983 Y121.885 E40.6800
G1 X126.916 Y121.934 E40.7155
G1 X126.397 Y122.418
;segType:Loop
G0 X125.742 Y122.276 F5400
G1 X125.692 Y122.274 E40.7171 F3000
G1 X124.538 Y122.113 E40.7559
G1 X123.404 Y121.847 E40.7946
G1 X122.300 Y121.476 E40.8334
G1 X121.235 Y121.006 E40.8721
G1 X120.218 Y120.439 E40.9108
G1 X119.258 Y119.782 E40.9495
G1 X118.362 Y119.038 E40.9882
G1 X117.540 Y118.216 E41.0269
G1 X116.797 Y117.321 E41.0656
G1 X116.140 Y116.362 E41.1043
G1 X115.574 Y115.347 E41.1429
G1 X115.105 Y114.284 E41.1816
G1 X114.736 Y113.183 E41.2202
G1 X114.470 Y112.051 E41.2588
G1 X114.310 Y110.902 E41.2975
G1 X114.256 Y109.741 E41.3361
G1 X114.310 Y108.581 E41.3747
G1 X114.470 Y107.431 E41.4133
G1 X114.736 Y106.301 E41.4520
G1 X115.105 Y105.199 E41.4906
G1 X115.574 Y104.136 E41.5292
G1 X116.140 Y103.121 E41.5679
G1 X116.797 Y102.162 E41.6066
G1 X117.540 Y101.267 E41.6452
G1 X118.362 Y100.445 E41.6839
G1 X119.258 Y99.701 E41.7226
G1 X120.218 Y99.044 E41.7614
G1 X121.235 Y98.477 E41.8001
G1 X122.300 Y98.007 E41.8388
G1 X123.404 Y97.637 E41.8775
G1 X124.538 Y97.370 E41.9163
G1 X125.692 Y97.209 E41.9550
G1 X126.856 Y97.155 E41.9938
G1 X128.020 Y97.209 E42.0326
G1 X129.174 Y97.370 E42.0713
G1 X130.309 Y97.637 E42.1101
G1 X131.413 Y98.007 E42.1488
G1 X132.478 Y98.477 E42.1875
G1 X133.495 Y99.044 E42.2263
G1 X134.455 Y99.701 E42.2650
G1 X135.351 Y100.445 E42.3037
G1 X136.173 Y101.267 E42.3424
G1 X136.916 Y102.162 E42.3810
G1 X137.573 Y103.121 E42.4197
G1 X138.139 Y104.136 E42.4584
G1 X138.608 Y105.199 E42.4970
G1 X138.977 Y106.301 E42.5356
G1 X139.243 Y107.431 E42.5743
G1 X139.403 Y108.581 E42.6129
G1 X139.457 Y109.741 E42.6515
G1 X139.403 Y110.902 E42.6901
G1 X139.243 Y112.051 E42.7288
G1 X138.977 Y113.183 E42.7674
G1 X138.608 Y114.284 E42.8060
G1 X138.139 Y115.347 E42.8447
G1 X137.573 Y116.362 E42.8833
G1 X136.916 Y117.321 E42.9220
G1 X136.173 Y118.216 E42.9607
G1 X135.351 Y119.038 E42.9994
G1 X134.455 Y119.782 E43.0381
G1 X133.495 Y120.439 E43.0768
G1 X132.478 Y121.006 E43.1155
G1 X131.413 Y121.476 E43.1542
G1 X130.309 Y121.847 E43.1930
G1 X129.174 Y122.113 E43.2317
G1 X128.020 Y122.274 E43.2705
G1 X126.856 Y122.328 E43.3092
G1 X125.941 Y122.286 E43.3397
G0 X124.599 Y122.516 F5400
G1 X124.463 Y122.497 E43.3443 F3000
G1 X123.292 Y122.222 E43.3843
G1 X122.153 Y121.840 E43.4243
G1 X121.053 Y121.354 E43.4642
G1 X120.003 Y120.770 E43.5042
G1 X119.013 Y120.091 E43.5441
G1 X118.089 Y119.324 E43.5841
G1 X117.241 Y118.476 E43.6240
G1 X116.475 Y117.553 E43.6638
G1 X115.797 Y116.564 E43.7037
G1 X115.214 Y115.518 E43.7436
G1 X114.730 Y114.422 E43.7834
G1 X114.350 Y113.287 E43.8232
G1 X114.076 Y112.122 E43.8630
G1 X113.911 Y110.937 E43.9028
G1 X113.855 Y109.741 E43.9426
G1 X113.911 Y108.546 E43.9824
G1 X114.076 Y107.361 E44.0222
G1 X114.350 Y106.196 E44.0620
G1 X114.730 Y105.061 E44.1018
G1 X115.214 Y103.965 E44.1417
G1 X115.797 Y102.918 E44.1815
G1 X116.475 Y101.930 E44.2214
G1 X117.241 Y101.008 E44.2613
G1 X118.088 Y100.159 E44.3012
G1 X119.013 Y99.392 E44.3411
G1 X120.003 Y98.713 E44.3810
G1 X121.053 Y98.129 E44.4210
G1 X122.153 Y97.643 E44.4610
G1 X123.292 Y97.261 E44.5010
G1 X124.463 Y96.986 E44.5410
G1 X125.654 Y96.820 E44.5810
G1 X126.856 Y96.764 E44.6210
G1 X128.058 Y96.820 E44.6610
G1 X129.249 Y96.986 E44.7010
G1 X130.421 Y97.261 E44.7410
G1 X131.560 Y97.643 E44.7810
G1 X132.660 Y98.129 E44.8210
G1 X133.710 Y98.713 E44.8610
G1 X134.700 Y99.392 E44.9009
G1 X135.624 Y100.159 E44.9408
G1 X136.472 Y101.008 E44.9807
G1 X137.238 Y101.930 E45.0206
G1 X137.916 Y102.918 E45.0605
G1 X138.499 Y103.965 E45.1003
G1 X138.983 Y105.061 E45.1402
G1 X139.363 Y106.196 E45.1800
G1 X139.637 Y107.361 E45.2198
G1 X139.802 Y108.546 E45.2596
G1 X139.858 Y109.741 E45.2994
G1 X139.802 Y110.937 E45.3392
G1 X139.637 Y112.122 E45.3790
G1 X139.363 Y113.287 E45.4188
G1 X138.983 Y114.422 E45.4586
G1 X138.499 Y115.518 E45.4984
G1 X137.916 Y116.564 E45.5383
G1 X137.238 Y117.553 E45.5782
G1 X136.472 Y118.476 E45.6180
G1 X135.624 Y119.324 E45.6579
G1 X134.700 Y120.091 E45.6979
G1 X133.710 Y120.770 E45.7378
G1 X132.660 Y121.354 E45.7778
G1 X131.560 Y121.840 E45.8177
G1 X130.421 Y122.222 E45.8577
G1 X129.249 Y122.497 E45.8977
G1 X128.058 Y122.663 E45.9377
G1 X126.856 Y122.719 E45.9778
G1 X125.654 Y122.663 E46.0178
G1 X124.797 Y122.544 E46.0466
G0 X140.971 Y127.052 F5400
G1 X140.672 Y126.805 E46.0595 F3000
G1 X140.334 Y126.340 E46.0786
G1 X140.123 Y125.808 E46.0977
G1 X140.052 Y125.242 E46.1166
G1 X140.123 Y124.675 E46.1356
G1 X140.334 Y124.143 E46.1547
G1 X140.672 Y123.679 E46.1738
G1 X141.116 Y123.311 E46.1929
G1 X141.640 Y123.064 E46.2122
G1 X142.211 Y122.955 E46.2315
G1 X142.791 Y122.992 E46.2509
G1 X143.343 Y123.171 E46.2702
G1 X143.831 Y123.481 E46.2894
G1 X144.225 Y123.900 E46.3085
G1 X144.501 Y124.403 E46.3276
G1 X144.643 Y124.956 E46.3466
G1 X144.643 Y125.527 E46.3656
G1 X144.501 Y126.080 E46.3846
G1 X144.225 Y126.583 E46.4036
G1 X143.831 Y127.002 E46.4228
G1 X143.343 Y127.312 E46.4420
G1 X142.791 Y127.491 E46.4613
G1 X142.211 Y127.528 E46.4806
G1 X141.640 Y127.419 E46.5000
G1 X141.124 Y127.176 E46.5189
;segType:Perimeter
G0 X142.686 Y127.619 F5400
G1 X142.178 Y127.124 E46.5425 F2100
G1 X141.768 Y127.045 E46.5564
G1 X141.336 Y126.842 E46.5723
G1 X140.969 Y126.539 E46.5881
G1 X140.689 Y126.154 E46.6040
G1 X140.514 Y125.712 E46.6198
G1 X140.455 Y125.242 E46.6355
G1 X140.514 Y124.771 E46.6513
G1 X140.689 Y124.329 E46.6671
G1 X140.969 Y123.945 E46.6829
G1 X141.336 Y123.641 E46.6988
G1 X141.768 Y123.438 E46.7146
G1 X142.237 Y123.348 E46.7305
G1 X142.714 Y123.378 E46.7464
G1 X143.168 Y123.526 E46.7623
G1 X143.570 Y123.781 E46.7782
G1 X143.896 Y124.128 E46.7940
G1 X144.125 Y124.545 E46.8098
G1 X144.243 Y125.004 E46.8256
G1 X144.243 Y125.479 E46.8413
G1 X144.125 Y125.938 E46.8571
G1 X143.896 Y126.355 E46.8729
G1 X143.570 Y126.702 E46.8888
G1 X143.168 Y126.957 E46.9046
G1 X142.714 Y127.105 E46.9205
G1 X142.296 Y127.131 E46.9344
G1 X141.728 Y127.559
;segType:Loop
G0 X139.943 Y126.435 F5400
G1 X139.733 Y125.904 E46.9534 F3000
G1 X139.649 Y125.242 E46.9756
G1 X139.733 Y124.580 E46.9978
G1 X139.979 Y123.957 E47.0201
G1 X140.375 Y123.412 E47.0425
G1 X140.896 Y122.980 E47.0650
G1 X141.513 Y122.691 E47.0877
G1 X142.185 Y122.562 E47.1104
G1 X142.868 Y122.605 E47.1332
G1 X143.518 Y122.816 E47.1559
G1 X144.091 Y123.181 E47.1785
G1 X144.553 Y123.672 E47.2009
G1 X144.877 Y124.261 E47.2233
G1 X145.043 Y124.908 E47.2455
G1 X145.043 Y125.575 E47.2677
G1 X144.877 Y126.222 E47.2899
G1 X144.553 Y126.811 E47.3122
G1 X144.091 Y127.302 E47.3347
G1 X143.518 Y127.667 E47.3573
G1 X142.868 Y127.878 E47.3800
G1 X142.185 Y127.921 E47.4028
G1 X141.513 Y127.792 E47.4255
G1 X140.896 Y127.502 E47.4482
G1 X140.375 Y127.071 E47.4707
G1 X140.036 Y126.605 E47.4898
G0 X141.705 Y127.230 F5400
G0 X142.752 Y127.296
G0 X152.156 Y125.172
;segType:HShell
G1 X149.864 Y127.410 E47.5964 F3000
G1 X150.296 Y127.539
G1 X152.156 Y125.722 E47.6829
G1 X152.156 Y126.273
G1 X150.697 Y127.698 E47.7507
G1 X151.039 Y127.915
G1 X152.156 Y126.824 E47.8026
G1 X152.156 Y127.375
G1 X151.348 Y128.164 E47.8402
G1 X151.617 Y128.452
G1 X152.156 Y127.925 E47.8653
G1 X152.156 Y128.476
G1 X151.842 Y128.783 E47.8799
;segType:Perimeter
G0 X151.389 Y128.944 F5400
G1 X151.140 Y129.601 E47.9033 F2100
G1 X151.235 Y129.972 E47.9160
G1 X151.244 Y130.477 E47.9328
G1 X151.125 Y130.938 E47.9487
G1 X150.896 Y131.355 E47.9645
G1 X150.570 Y131.702 E47.9803
G1 X150.168 Y131.957 E47.9962
G1 X149.714 Y132.105 E48.0120
G1 X149.237 Y132.135 E48.0279
G1 X148.768 Y132.045 E48.0438
G1 X148.336 Y131.842 E48.0597
G1 X147.968 Y131.538 E48.0755
G1 X147.689 Y131.154 E48.0913
G1 X147.514 Y130.712 E48.1071
G1 X147.455 Y130.242 E48.1229
G1 X147.514 Y129.771 E48.1387
G1 X147.689 Y129.329 E48.1545
G1 X147.968 Y128.945 E48.1703
G1 X148.336 Y128.641 E48.1862
G1 X148.768 Y128.438 E48.2020
G1 X149.237 Y128.348 E48.2179
G1 X149.714 Y128.378 E48.2338
G1 X150.168 Y128.526 E48.2497
G1 X150.570 Y128.781 E48.2655
G1 X150.896 Y129.128 E48.2814
G1 X151.097 Y129.493 E48.2952
G1 X151.734 Y129.816
;segType:Loop
G0 X151.600 Y130.694 F5400
G1 X151.501 Y131.080 E48.3085 F3000
G1 X151.225 Y131.583 E48.3276
G1 X150.831 Y132.002 E48.3467
G1 X150.342 Y132.312 E48.3659
G1 X149.791 Y132.491 E48.3852
G1 X149.211 Y132.528 E48.4046
G1 X148.640 Y132.419 E48.4239
G1 X148.116 Y132.172 E48.4432
G1 X147.671 Y131.804 E48.4624
G1 X147.334 Y131.340 E48.4815
G1 X147.123 Y130.808 E48.5005
G1 X147.052 Y130.242 E48.5195
G1 X147.123 Y129.675 E48.5385
G1 X147.334 Y129.143 E48.5575
G1 X147.671 Y128.679 E48.5766
G1 X148.116 Y128.311 E48.5958
G1 X148.640 Y128.064 E48.6151
G1 X149.211 Y127.955 E48.6344
G1 X149.791 Y127.992 E48.6537
G1 X150.342 Y128.171 E48.6730
G1 X150.831 Y128.481 E48.6922
G1 X151.225 Y128.900 E48.7114
G1 X151.501 Y129.403 E48.7304
G1 X151.634 Y129.920 E48.7482
G1 X151.644 Y130.504 E48.7676
G0 X151.486 Y131.882 F5400
G1 X151.091 Y132.303 E48.7868 F3000
G1 X150.517 Y132.667 E48.8094
G1 X149.868 Y132.878 E48.8321
G1 X149.185 Y132.921 E48.8549
G1 X148.513 Y132.792 E48.8776
G1 X147.896 Y132.502 E48.9003
G1 X147.374 Y132.071 E48.9228
G1 X146.979 Y131.526 E48.9452
G1 X146.732 Y130.904 E48.9675
G1 X146.649 Y130.242 E48.9897
G1 X146.732 Y129.579 E49.0119
G1 X146.979 Y128.957 E49.0342
G1 X147.374 Y128.412 E49.0565
G1 X147.896 Y127.981 E49.0791
G1 X148.513 Y127.691 E49.1017
G1 X149.185 Y127.562 E49.1245
G1 X149.868 Y127.606 E49.1473
G1 X150.517 Y127.817 E49.1700
G1 X151.091 Y128.180 E49.1926
G1 X151.554 Y128.673 E49.2150
G1 X151.877 Y129.261 E49.2374
G1 X152.033 Y129.869 E49.2582
G1 X152.045 Y130.567 E49.2814
G1 X151.877 Y131.222 E49.3040
G1 X151.601 Y131.725 E49.3230
G0 X153.015 Y97.908 F5400
G0 X165.809 Y89.728
G0 X167.334 Y85.615
G0 X167.725 Y83.537
;segType:HShell
G1 X173.156 Y78.235 E49.5755 F3000
G1 X173.156 Y77.684
G1 X167.528 Y83.179 E49.8371
;segType:Perimeter
G0 X167.228 Y83.615 F5400
G1 X166.976 Y84.272 E49.8605 F2100
G1 X167.136 Y84.942 E49.8834
G1 X167.136 Y85.591 E49.9050
G1 X166.962 Y86.270 E49.9283
G1 X166.624 Y86.884 E49.9516
G1 X166.144 Y87.395 E49.9749
G1 X165.551 Y87.771 E49.9983
G1 X164.882 Y87.989 E50.0217
G1 X164.180 Y88.033 E50.0451
G1 X163.489 Y87.901 E50.0685
G1 X162.854 Y87.602 E50.0918
G1 X162.312 Y87.154 E50.1152
G1 X161.901 Y86.587 E50.1385
G1 X161.642 Y85.936 E50.1618
G1 X161.555 Y85.242 E50.1851
G1 X161.642 Y84.547 E50.2084
G1 X161.901 Y83.896 E50.2317
G1 X162.312 Y83.329 E50.2550
G1 X162.854 Y82.881 E50.2783
G1 X163.489 Y82.582 E50.3017
G1 X164.180 Y82.450 E50.3251
G1 X164.882 Y82.494 E50.3485
G1 X165.551 Y82.712 E50.3719
G1 X166.144 Y83.088 E50.3953
G1 X166.624 Y83.599 E50.4186
G1 X166.934 Y84.163 E50.4400
G1 X167.568 Y84.494
;segType:Loop
G0 X167.536 Y85.266 F5400
G1 X167.536 Y85.639 E50.4524 F3000
G1 X167.338 Y86.412 E50.4789
G1 X166.953 Y87.112 E50.5055
G1 X166.404 Y87.695 E50.5321
G1 X165.726 Y88.126 E50.5589
G1 X164.960 Y88.375 E50.5857
G1 X164.154 Y88.426 E50.6125
G1 X163.362 Y88.275 E50.6393
G1 X162.634 Y87.932 E50.6661
G1 X162.015 Y87.420 E50.6928
G1 X161.545 Y86.773 E50.7194
G1 X161.252 Y86.032 E50.7459
G1 X161.152 Y85.242 E50.7724
G1 X161.252 Y84.451 E50.7989
G1 X161.545 Y83.710 E50.8254
G1 X162.015 Y83.062 E50.8520
G1 X162.634 Y82.551 E50.8787
G1 X163.362 Y82.208 E50.9055
G1 X164.154 Y82.057 E50.9323
G1 X164.960 Y82.108 E50.9592
G1 X165.726 Y82.357 E50.9860
G1 X166.404 Y82.788 E51.0127
G1 X166.953 Y83.371 E51.0393
G1 X167.340 Y84.076 E51.0661
G1 X167.536 Y84.897 E51.0942
G1 X167.536 Y85.072 E51.1000
G0 X167.750 Y86.411 F5400
