; GCode generated by CraftWare

G28 X0 Y0
G28 Z0

M190 S65 ;set bed temp (wait)
M109 S240 ;set head temp (wait)
; ------------------------------------
; Layer #0
; ------------------------------------
G21 ; mm
G90 ; abs
G92 E0 ; reset extr
M106 S0
;segType:Skirt
G0 F1200 E-1.0000
G0 F300 Z0.200
G0 X105.821 Y138.219 F5400
G0 F1200 E0.0000
G1 X106.008 Y138.400 E0.0087 F3000
G1 X106.508 Y138.763 E0.0292
G1 X153.492 Y138.763 E1.5919
G1 X154.992 Y137.311 E1.6614
G1 X155.179 Y137.009 E1.6732
G1 X155.179 Y106.991 E2.6716
G1 X153.680 Y105.539 E2.7410
G1 X153.367 Y105.358 E2.7530
G1 X106.383 Y105.358 E4.3157
G1 X104.883 Y106.810 E4.3852
G1 X104.696 Y107.112 E4.3970
G1 X104.696 Y137.130 E5.3954
G1 X105.821 Y138.219 E5.4474
G1 X105.821 Y138.582 E5.4595
G1 X106.008 Y138.763 E5.4682
G1 X106.508 Y139.127 E5.4887
G1 X153.492 Y139.127 E7.0515
G1 X155.492 Y137.190 E7.1440
G1 X155.554 Y136.767 E7.1583
G1 X155.554 Y106.991 E8.1486
G1 X153.555 Y105.055 E8.2412
G1 X153.118 Y104.995 E8.2559
G1 X106.383 Y104.995 E9.8103
G1 X104.383 Y106.931 E9.9028
G1 X104.321 Y107.355 E9.9171
G1 X104.321 Y137.130 E10.9074
G1 X105.821 Y138.582 E10.9768
G0 F1200 E9.9768
G0 X106.714 Y136.941 F5400
G0 X107.608 Y135.300
G0 F1200 E10.9768
;segType:Loop
G1 X107.608 Y108.088 E11.8819 F3000
G1 X152.392 Y108.088 E13.3714
G1 X152.392 Y135.912 E14.2968
G1 X107.608 Y135.912 E15.7864
G1 X107.608 Y135.481 E15.8007
;segType:Perimeter
G0 X107.832 Y135.994 F5400
G1 X107.208 Y136.245 E15.8231 F2100
G1 X107.208 Y107.701 E16.7724
G1 X152.792 Y107.701 E18.2886
G1 X152.792 Y136.299 E19.2398
G1 X107.264 Y136.299 E20.7541
G1 X107.522 Y135.695
;segType:Loop
G0 X108.008 Y134.300 F5400
G1 X108.008 Y108.476 E21.6130 F3000
G1 X151.992 Y108.476 E23.0759
G1 X151.992 Y135.524 E23.9756
G1 X108.008 Y135.524 E25.4385
G1 X108.008 Y134.482 E25.4732
;segType:HShell
G0 X151.792 Y134.782 F5400
G1 X151.226 Y135.331 E25.4994 F3000
G1 X150.695 Y135.331
G1 X151.792 Y134.268 E25.5502
G1 X151.792 Y133.754
G1 X150.164 Y135.331 E25.6256
G1 X149.634 Y135.331
G1 X151.792 Y133.240 E25.7256
G1 X151.792 Y132.726
G1 X149.103 Y135.331 E25.8501
G1 X148.572 Y135.331
G1 X151.792 Y132.212 E25.9992
G1 X151.792 Y131.698
G1 X148.042 Y135.331 E26.1729
G1 X147.511 Y135.331
G1 X151.792 Y131.183 E26.3711
G1 X151.792 Y130.669
G1 X146.980 Y135.331 E26.5940
G1 X146.450 Y135.331
G1 X151.792 Y130.155 E26.8414
G1 X151.792 Y129.641
G1 X145.919 Y135.331 E27.1134
G1 X145.388 Y135.331
G1 X151.792 Y129.127 E27.4099
G1 X151.792 Y128.613
G1 X144.858 Y135.331 E27.7310
G1 X144.327 Y135.331
G1 X151.792 Y128.099 E28.0767
G1 X151.792 Y127.585
G1 X143.796 Y135.331 E28.4470
G1 X143.265 Y135.331
G1 X151.792 Y127.071 E28.8418
G1 X151.792 Y126.557
G1 X142.735 Y135.331 E29.2612
G1 X142.204 Y135.331
G1 X151.792 Y126.043 E29.7052
G1 X151.792 Y125.529
G1 X141.673 Y135.331 E30.1738
G1 X141.143 Y135.331
G1 X151.792 Y125.015 E30.6669
G1 X151.792 Y124.501
G1 X140.612 Y135.331 E31.1846
G1 X140.081 Y135.331
G1 X151.792 Y123.987 E31.7269
G1 X151.792 Y123.473
G1 X139.551 Y135.331 E32.2938
G1 X139.020 Y135.331
G1 X151.792 Y122.959 E32.8852
G1 X151.792 Y122.445
G1 X138.489 Y135.331 E33.5012
G1 X137.959 Y135.331
G1 X151.792 Y121.931 E34.1418
G1 X151.792 Y121.417
G1 X137.428 Y135.331 E34.8069
G1 X136.897 Y135.331
G1 X151.792 Y120.903 E35.4966
G1 X151.792 Y120.389
G1 X136.366 Y135.331 E36.2109
G1 X135.836 Y135.331
G1 X151.792 Y119.875 E36.9498
G1 X151.792 Y119.361
G1 X135.305 Y135.331 E37.7133
G1 X134.774 Y135.331
G1 X151.792 Y118.847 E38.5013
G1 X151.792 Y118.333
G1 X134.244 Y135.331 E39.3139
G1 X133.713 Y135.331
G1 X151.792 Y117.819 E40.1510
G1 X151.792 Y117.305
G1 X133.182 Y135.331 E41.0128
G1 X132.652 Y135.331
G1 X151.792 Y116.791 E41.8991
G1 X151.792 Y116.277
G1 X132.121 Y135.331 E42.8099
G1 X131.590 Y135.331
G1 X151.792 Y115.763 E43.7454
G1 X151.792 Y115.249
G1 X131.060 Y135.331 E44.7054
G1 X130.529 Y135.331
G1 X151.792 Y114.734 E45.6900
G1 X151.792 Y114.220
G1 X129.998 Y135.331 E46.6992
G1 X129.468 Y135.331
G1 X151.792 Y113.706 E47.7329
G1 X151.792 Y113.192
G1 X128.937 Y135.331 E48.7913
G1 X128.406 Y135.331
G1 X151.792 Y112.678 E49.8742
G1 X151.792 Y112.164
G1 X127.875 Y135.331 E50.9816
G1 X127.345 Y135.331
G1 X151.792 Y111.650 E52.1137
G1 X151.792 Y111.136
G1 X126.814 Y135.331 E53.2703
G1 X126.283 Y135.331
G1 X151.792 Y110.622 E54.4515
G1 X151.792 Y110.108
G1 X125.753 Y135.331 E55.6572
G1 X125.222 Y135.331
G1 X151.792 Y109.594 E56.8876
G1 X151.792 Y109.080
G1 X124.691 Y135.331 E58.1425
G1 X124.161 Y135.331
G1 X151.686 Y108.669 E59.4170
G1 X151.155 Y108.669
G1 X123.630 Y135.331 E60.6916
G1 X123.099 Y135.331
G1 X150.625 Y108.669 E61.9661
G1 X150.094 Y108.669
G1 X122.569 Y135.331 E63.2407
G1 X122.038 Y135.331
G1 X149.563 Y108.669 E64.5152
G1 X149.032 Y108.669
G1 X121.507 Y135.331 E65.7898
G1 X120.977 Y135.331
G1 X148.502 Y108.669 E67.0643
G1 X147.971 Y108.669
G1 X120.446 Y135.331 E68.3388
G1 X119.915 Y135.331
G1 X147.440 Y108.669 E69.6134
G1 X146.910 Y108.669
G1 X119.384 Y135.331 E70.8879
G1 X118.854 Y135.331
G1 X146.379 Y108.669 E72.1625
G1 X145.848 Y108.669
G1 X118.323 Y135.331 E73.4370
G1 X117.792 Y135.331
G1 X145.318 Y108.669 E74.7116
G1 X144.787 Y108.669
G1 X117.262 Y135.331 E75.9861
G1 X116.731 Y135.331
G1 X144.256 Y108.669 E77.2606
G1 X143.726 Y108.669
G1 X116.200 Y135.331 E78.5352
G1 X115.670 Y135.331
G1 X143.195 Y108.669 E79.8097
G1 X142.664 Y108.669
G1 X115.139 Y135.331 E81.0843
G1 X114.608 Y135.331
G1 X142.133 Y108.669 E82.3588
G1 X141.603 Y108.669
G1 X114.078 Y135.331 E83.6334
G1 X113.547 Y135.331
G1 X141.072 Y108.669 E84.9079
G1 X140.541 Y108.669
G1 X113.016 Y135.331 E86.1825
G1 X112.485 Y135.331
G1 X140.011 Y108.669 E87.4570
G1 X139.480 Y108.669
G1 X111.955 Y135.331 E88.7315
G1 X111.424 Y135.331
G1 X138.949 Y108.669 E90.0061
G1 X138.419 Y108.669
G1 X110.893 Y135.331 E91.2806
G1 X110.363 Y135.331
G1 X137.888 Y108.669 E92.5552
G1 X137.357 Y108.669
G1 X109.832 Y135.331 E93.8297
G1 X109.301 Y135.331
G1 X136.827 Y108.669 E95.1043
G1 X136.296 Y108.669
G1 X108.771 Y135.331 E96.3788
G1 X108.240 Y135.331
G1 X135.765 Y108.669 E97.6533
G1 X135.235 Y108.669
G1 X108.208 Y134.848 E98.9048
G1 X108.208 Y134.334
G1 X134.704 Y108.669 E100.1317
G1 X134.173 Y108.669
G1 X108.208 Y133.820 E101.3340
G1 X108.208 Y133.306
G1 X133.642 Y108.669 E102.5118
G1 X133.112 Y108.669
G1 X108.208 Y132.792 E103.6650
G1 X108.208 Y132.278
G1 X132.581 Y108.669 E104.7936
G1 X132.050 Y108.669
G1 X108.208 Y131.764 E105.8976
G1 X108.208 Y131.250
G1 X131.520 Y108.669 E106.9771
G1 X130.989 Y108.669
G1 X108.208 Y130.736 E108.0320
G1 X108.208 Y130.222
G1 X130.458 Y108.669 E109.0623
G1 X129.928 Y108.669
G1 X108.208 Y129.708 E110.0680
G1 X108.208 Y129.194
G1 X129.397 Y108.669 E111.0492
G1 X128.866 Y108.669
G1 X108.208 Y128.680 E112.0058
G1 X108.208 Y128.166
G1 X128.336 Y108.669 E112.9378
G1 X127.805 Y108.669
G1 X108.208 Y127.652 E113.8453
G1 X108.208 Y127.138
G1 X127.274 Y108.669 E114.7281
G1 X126.744 Y108.669
G1 X108.208 Y126.624 E115.5864
G1 X108.208 Y126.110
G1 X126.213 Y108.669 E116.4202
G1 X125.682 Y108.669
G1 X108.208 Y125.595 E117.2293
G1 X108.208 Y125.081
G1 X125.151 Y108.669 E118.0139
G1 X124.621 Y108.669
G1 X108.208 Y124.567 E118.7739
G1 X108.208 Y124.053
G1 X124.090 Y108.669 E119.5094
G1 X123.559 Y108.669
G1 X108.208 Y123.539 E120.2202
G1 X108.208 Y123.025
G1 X123.029 Y108.669 E120.9065
G1 X122.498 Y108.669
G1 X108.208 Y122.511 E121.5682
G1 X108.208 Y121.997
G1 X121.967 Y108.669 E122.2054
G1 X121.437 Y108.669
G1 X108.208 Y121.483 E122.8179
G1 X108.208 Y120.969
G1 X120.906 Y108.669 E123.4059
G1 X120.375 Y108.669
G1 X108.208 Y120.455 E123.9694
G1 X108.208 Y119.941
G1 X119.845 Y108.669 E124.5082
G1 X119.314 Y108.669
G1 X108.208 Y119.427 E125.0225
G1 X108.208 Y118.913
G1 X118.783 Y108.669 E125.5122
G1 X118.252 Y108.669
G1 X108.208 Y118.399 E125.9773
G1 X108.208 Y117.885
G1 X117.722 Y108.669 E126.4179
G1 X117.191 Y108.669
G1 X108.208 Y117.371 E126.8338
G1 X108.208 Y116.857
G1 X116.660 Y108.669 E127.2252
G1 X116.130 Y108.669
G1 X108.208 Y116.343 E127.5921
G1 X108.208 Y115.829
G1 X115.599 Y108.669 E127.9343
G1 X115.068 Y108.669
G1 X108.208 Y115.315 E128.2520
G1 X108.208 Y114.801
G1 X114.538 Y108.669 E128.5452
G1 X114.007 Y108.669
G1 X108.208 Y114.287 E128.8137
G1 X108.208 Y113.773
G1 X113.476 Y108.669 E129.0577
G1 X112.946 Y108.669
G1 X108.208 Y113.259 E129.2771
G1 X108.208 Y112.745
G1 X112.415 Y108.669 E129.4719
G1 X111.884 Y108.669
G1 X108.208 Y112.231 E129.6421
G1 X108.208 Y111.717
G1 X111.354 Y108.669 E129.7878
G1 X110.823 Y108.669
G1 X108.208 Y111.203 E129.9089
G1 X108.208 Y110.689
G1 X110.292 Y108.669 E130.0054
G1 X109.761 Y108.669
G1 X108.208 Y110.175 E130.0774
G1 X108.208 Y109.661
G1 X109.231 Y108.669 E130.1248
G1 X108.700 Y108.669
G1 X108.208 Y109.146 E130.1476
; ------------------------------------
; Layer #1
; ------------------------------------
G21 ; mm
G90 ; abs
G92 E0 ; reset extr
M106 S0
G0 F1200 E-1.0000
G0 F300 Z0.400
G0 X117.836 Y120.127 F5400
G0 X121.046 Y123.787
G0 F1200 E0.0000
;segType:HShell
G1 X119.935 Y122.711 E0.0514 F3000
G0 X119.123 Y122.258 F5400
G0 X117.904 Y121.870
;segType:Loop
G1 X112.202 Y121.870 E0.2410 F3000
G1 X111.731 Y121.825 E0.2568
G1 X111.445 Y121.707 E0.2671
G1 X111.197 Y121.516 E0.2775
G1 X111.005 Y121.265 E0.2880
G1 X110.882 Y120.970 E0.2986
G1 X110.836 Y120.614 E0.3106
G1 X110.836 Y111.532 E0.6126
G1 X147.636 Y111.532 E1.8366
G1 X147.634 Y120.624 E2.1390
G1 X147.589 Y120.970 E2.1506
G1 X147.466 Y121.265 E2.1612
G1 X147.274 Y121.516 E2.1717
G1 X147.026 Y121.707 E2.1821
G1 X146.749 Y121.821 E2.1921
G1 X146.263 Y121.870 E2.2084
G1 X139.772 Y121.870 E2.4242
G1 X139.136 Y121.955 E2.4456
G1 X139.136 Y122.936 E2.4782
G1 X139.088 Y123.784 E2.5065
G1 X138.948 Y124.606 E2.5342
G1 X138.718 Y125.407 E2.5619
G1 X138.399 Y126.176 E2.5896
G1 X137.996 Y126.905 E2.6173
G1 X137.515 Y127.583 E2.6450
G1 X136.961 Y128.203 E2.6726
G1 X136.341 Y128.757 E2.7003
G1 X135.665 Y129.237 E2.7279
G1 X134.939 Y129.638 E2.7554
G1 X134.173 Y129.955 E2.7830
G1 X133.378 Y130.184 E2.8105
G1 X132.564 Y130.322 E2.8380
G1 X131.614 Y130.370 E2.8696
G1 X126.794 Y130.370 E3.0299
G1 X125.928 Y130.324 E3.0588
G1 X125.075 Y130.179 E3.0876
G1 X124.298 Y129.955 E3.1145
G1 X123.532 Y129.638 E3.1420
G1 X122.806 Y129.237 E3.1696
G1 X122.130 Y128.757 E3.1972
G1 X121.510 Y128.203 E3.2248
G1 X120.956 Y127.583 E3.2525
G1 X120.475 Y126.905 E3.2801
G1 X120.072 Y126.176 E3.3078
G1 X119.754 Y125.407 E3.3355
G1 X119.523 Y124.606 E3.3633
G1 X119.383 Y123.784 E3.3910
G1 X119.335 Y122.936 E3.4192
G1 X119.335 Y121.870 E3.4547
G1 X118.091 Y121.870 E3.4961
G0 X117.358 Y122.076 F5400
G0 X119.068 Y122.129
G0 X119.503 Y122.508
;segType:Perimeter
G1 X118.879 Y122.258 E3.5184 F2100
G1 X112.200 Y122.258 E3.7406
G1 X112.040 Y122.256 E3.7459
G1 X111.623 Y122.202 E3.7599
G1 X111.239 Y122.043 E3.7737
G1 X110.908 Y121.788 E3.7876
G1 X110.653 Y121.456 E3.8015
G1 X110.492 Y121.068 E3.8155
G1 X110.436 Y120.639 E3.8299
G1 X110.436 Y111.145 E4.1457
G1 X148.036 Y111.145 E5.3962
G1 X148.034 Y120.649 E5.7124
G1 X147.979 Y121.068 E5.7264
G1 X147.818 Y121.456 E5.7404
G1 X147.564 Y121.788 E5.7543
G1 X147.232 Y122.043 E5.7682
G1 X146.851 Y122.200 E5.7819
G1 X146.284 Y122.258 E5.8009
G1 X139.800 Y122.258 E6.0166
G1 X139.536 Y122.293 E6.0254
G1 X139.536 Y122.946 E6.0471
G1 X139.486 Y123.826 E6.0764
G1 X139.340 Y124.690 E6.1056
G1 X139.097 Y125.532 E6.1347
G1 X138.762 Y126.341 E6.1638
G1 X138.338 Y127.107 E6.1930
G1 X137.832 Y127.821 E6.2221
G1 X137.248 Y128.473 E6.2512
G1 X136.596 Y129.056 E6.2803
G1 X135.883 Y129.562 E6.3094
G1 X135.117 Y129.985 E6.3385
G1 X134.310 Y130.320 E6.3675
G1 X133.470 Y130.562 E6.3966
G1 X132.609 Y130.708 E6.4257
G1 X131.625 Y130.758 E6.4584
G1 X126.783 Y130.758 E6.6195
G1 X125.882 Y130.709 E6.6495
G1 X124.983 Y130.557 E6.6798
G1 X124.161 Y130.320 E6.7082
G1 X123.353 Y129.985 E6.7373
G1 X122.588 Y129.562 E6.7664
G1 X121.875 Y129.056 E6.7955
G1 X121.223 Y128.473 E6.8246
G1 X120.639 Y127.821 E6.8537
G1 X120.133 Y127.107 E6.8828
G1 X119.709 Y126.341 E6.9119
G1 X119.374 Y125.532 E6.9411
G1 X119.132 Y124.690 E6.9702
G1 X118.985 Y123.826 E6.9993
G1 X118.935 Y122.946 E7.0286
G1 X118.935 Y122.312 E7.0497
G1 X118.677 Y121.708
;segType:Loop
G0 X116.872 Y121.483 F5400
G1 X112.222 Y121.483 E7.2044 F3000
G1 X111.832 Y121.445 E7.2174
G1 X111.652 Y121.371 E7.2239
G1 X111.487 Y121.244 E7.2308
G1 X111.357 Y121.074 E7.2379
G1 X111.273 Y120.872 E7.2452
G1 X111.236 Y120.590 E7.2547
G1 X111.236 Y111.920 E7.5430
G1 X128.012 Y111.920 E8.1010
G1 X127.726 Y111.953 E8.1106
G1 X126.743 Y112.186 E8.1442
G1 X125.794 Y112.531 E8.1778
G1 X124.893 Y112.984 E8.2113
G1 X124.051 Y113.538 E8.2448
G1 X123.280 Y114.185 E8.2783
G1 X122.590 Y114.915 E8.3117
G1 X121.991 Y115.721 E8.3451
G1 X121.490 Y116.589 E8.3785
G1 X121.093 Y117.509 E8.4118
G1 X120.806 Y118.467 E8.4450
G1 X120.632 Y119.453 E8.4783
G1 X120.574 Y120.451 E8.5116
G1 X120.632 Y121.450 E8.5449
G1 X120.806 Y122.435 E8.5782
G1 X121.093 Y123.394 E8.6114
G1 X121.490 Y124.314 E8.6447
G1 X121.991 Y125.182 E8.6781
G1 X122.590 Y125.987 E8.7115
G1 X123.280 Y126.718 E8.7449
G1 X124.051 Y127.365 E8.7784
G1 X124.893 Y127.919 E8.8119
G1 X125.796 Y128.372 E8.8455
G1 X126.774 Y128.725 E8.8801
G1 X127.731 Y128.950 E8.9128
G1 X128.723 Y129.066 E8.9460
G1 X129.734 Y129.067 E8.9796
G1 X130.732 Y128.952 E9.0130
G1 X131.695 Y128.725 E9.0459
G1 X132.675 Y128.372 E9.0806
G1 X133.578 Y127.919 E9.1142
G1 X134.420 Y127.365 E9.1477
G1 X135.191 Y126.718 E9.1812
G1 X135.881 Y125.987 E9.2146
G1 X136.480 Y125.182 E9.2480
G1 X136.981 Y124.314 E9.2814
G1 X137.378 Y123.394 E9.3147
G1 X137.665 Y122.435 E9.3480
G1 X137.839 Y121.449 E9.3813
G1 X137.896 Y120.430 E9.4152
G1 X137.836 Y119.432 E9.4485
G1 X137.659 Y118.449 E9.4817
G1 X137.378 Y117.509 E9.5143
G1 X136.981 Y116.589 E9.5476
G1 X136.480 Y115.721 E9.5810
G1 X135.881 Y114.915 E9.6144
G1 X135.191 Y114.185 E9.6478
G1 X134.420 Y113.538 E9.6813
G1 X133.579 Y112.984 E9.7148
G1 X132.677 Y112.531 E9.7483
G1 X131.728 Y112.186 E9.7819
G1 X130.745 Y111.953 E9.8155
G1 X130.460 Y111.920 E9.8251
G1 X147.236 Y111.920 E10.3830
G1 X147.234 Y120.600 E10.6717
G1 X147.199 Y120.871 E10.6808
G1 X147.115 Y121.074 E10.6881
G1 X146.984 Y121.244 E10.6953
G1 X146.819 Y121.371 E10.7022
G1 X146.647 Y121.442 E10.7084
G1 X146.242 Y121.483 E10.7219
G1 X139.745 Y121.483 E10.9380
G1 X138.736 Y121.618 E10.9719
G1 X138.736 Y122.925 E11.0154
G1 X138.690 Y123.742 E11.0426
G1 X138.557 Y124.522 E11.0689
G1 X138.338 Y125.282 E11.0952
G1 X138.036 Y126.012 E11.1215
G1 X137.654 Y126.703 E11.1477
G1 X137.198 Y127.346 E11.1740
G1 X136.673 Y127.933 E11.2002
G1 X136.087 Y128.457 E11.2263
G1 X135.447 Y128.911 E11.2524
G1 X134.761 Y129.290 E11.2785
G1 X134.037 Y129.590 E11.3045
G1 X133.286 Y129.806 E11.3305
G1 X132.518 Y129.937 E11.3564
G1 X131.604 Y129.983 E11.3869
G1 X126.805 Y129.983 E11.5465
G1 X125.973 Y129.938 E11.5742
G1 X125.167 Y129.801 E11.6014
G1 X124.434 Y129.590 E11.6268
G1 X123.710 Y129.290 E11.6528
G1 X123.024 Y128.911 E11.6789
G1 X122.384 Y128.457 E11.7050
G1 X121.798 Y127.933 E11.7311
G1 X121.273 Y127.346 E11.7573
G1 X120.817 Y126.703 E11.7836
G1 X120.435 Y126.012 E11.8098
G1 X120.133 Y125.282 E11.8361
G1 X119.914 Y124.522 E11.8624
G1 X119.782 Y123.742 E11.8887
G1 X119.736 Y122.925 E11.9159
G1 X119.736 Y121.483 E11.9639
G1 X117.059 Y121.483 E12.0529
G0 X119.068 Y122.129 F5400
G0 X124.425 Y126.894
G0 X126.044 Y127.829
G0 X127.840 Y128.366
G0 X129.698 Y128.474
G0 X131.486 Y128.375
G1 X130.661 Y128.570 E12.0811 F3000
G1 X129.711 Y128.680 E12.1129
G1 X128.747 Y128.679 E12.1450
G1 X127.802 Y128.569 E12.1766
G1 X126.891 Y128.354 E12.2078
G1 X125.958 Y128.017 E12.2407
G1 X125.098 Y127.585 E12.2728
G1 X124.295 Y127.057 E12.3047
G1 X123.560 Y126.440 E12.3366
G1 X122.901 Y125.742 E12.3686
G1 X122.329 Y124.973 E12.4004
G1 X121.850 Y124.144 E12.4323
G1 X121.471 Y123.265 E12.4641
G1 X121.196 Y122.348 E12.4960
G1 X121.030 Y121.406 E12.5278
G1 X120.974 Y120.451 E12.5596
G1 X121.030 Y119.497 E12.5914
G1 X121.196 Y118.554 E12.6232
G1 X121.471 Y117.638 E12.6550
G1 X121.850 Y116.759 E12.6869
G1 X122.329 Y115.929 E12.7187
G1 X122.901 Y115.160 E12.7506
G1 X123.560 Y114.463 E12.7825
G1 X124.295 Y113.846 E12.8145
G1 X125.098 Y113.318 E12.8464
G1 X125.957 Y112.886 E12.8784
G1 X126.861 Y112.557 E12.9104
G1 X127.798 Y112.335 E12.9424
G1 X128.754 Y112.223 E12.9744
G1 X129.717 Y112.223 E13.0065
G1 X130.673 Y112.335 E13.0385
G1 X131.610 Y112.557 E13.0705
G1 X132.514 Y112.886 E13.1025
G1 X133.373 Y113.318 E13.1345
G1 X134.176 Y113.846 E13.1664
G1 X134.912 Y114.463 E13.1984
G1 X135.570 Y115.160 E13.2303
G1 X136.142 Y115.929 E13.2622
G1 X136.621 Y116.759 E13.2940
G1 X137.000 Y117.638 E13.3259
G1 X137.269 Y118.536 E13.3570
G1 X137.438 Y119.477 E13.3888
G1 X137.496 Y120.431 E13.4206
G1 X137.441 Y121.405 E13.4531
G1 X137.275 Y122.348 E13.4849
G1 X137.000 Y123.265 E13.5168
G1 X136.621 Y124.144 E13.5486
G1 X136.142 Y124.973 E13.5805
G1 X135.570 Y125.742 E13.6123
G1 X134.912 Y126.440 E13.6442
G1 X134.176 Y127.057 E13.6762
G1 X133.373 Y127.585 E13.7081
G1 X132.513 Y128.017 E13.7401
G1 X131.665 Y128.322 E13.7701
;segType:Perimeter
G0 X132.935 Y127.898 F5400
G1 X132.298 Y127.681 E13.7925 F2100
G1 X131.460 Y127.983 E13.8221
G1 X130.590 Y128.188 E13.8519
G1 X129.687 Y128.293 E13.8821
G1 X128.771 Y128.292 E13.9125
G1 X127.874 Y128.187 E13.9426
G1 X127.008 Y127.982 E13.9722
G1 X126.120 Y127.663 E14.0036
G1 X125.303 Y127.252 E14.0340
G1 X124.539 Y126.750 E14.0644
G1 X123.839 Y126.162 E14.0948
G1 X123.212 Y125.498 E14.1252
G1 X122.667 Y124.765 E14.1555
G1 X122.210 Y123.974 E14.1859
G1 X121.849 Y123.136 E14.2163
G1 X121.587 Y122.261 E14.2466
G1 X121.428 Y121.362 E14.2770
G1 X121.375 Y120.451 E14.3074
G1 X121.428 Y119.540 E14.3377
G1 X121.587 Y118.641 E14.3681
G1 X121.849 Y117.767 E14.3984
G1 X122.210 Y116.929 E14.4288
G1 X122.667 Y116.138 E14.4592
G1 X123.212 Y115.405 E14.4895
G1 X123.839 Y114.741 E14.5199
G1 X124.539 Y114.153 E14.5503
G1 X125.303 Y113.651 E14.5807
G1 X126.120 Y113.241 E14.6111
G1 X126.979 Y112.928 E14.6416
G1 X127.870 Y112.717 E14.6720
G1 X128.778 Y112.611 E14.7024
G1 X129.693 Y112.611 E14.7328
G1 X130.602 Y112.717 E14.7633
G1 X131.491 Y112.928 E14.7937
G1 X132.351 Y113.241 E14.8241
G1 X133.168 Y113.651 E14.8545
G1 X133.932 Y114.153 E14.8849
G1 X134.632 Y114.741 E14.9153
G1 X135.259 Y115.405 E14.9457
G1 X135.804 Y116.138 E14.9761
G1 X136.261 Y116.929 E15.0064
G1 X136.623 Y117.767 E15.0368
G1 X136.879 Y118.623 E15.0665
G1 X137.039 Y119.522 E15.0969
G1 X137.095 Y120.432 E15.1272
G1 X137.043 Y121.362 E15.1582
G1 X136.884 Y122.261 E15.1886
G1 X136.623 Y123.136 E15.2189
G1 X136.261 Y123.974 E15.2493
G1 X135.804 Y124.765 E15.2797
G1 X135.259 Y125.498 E15.3101
G1 X134.632 Y126.162 E15.3404
G1 X133.932 Y126.750 E15.3708
G1 X133.168 Y127.252 E15.4012
G1 X132.401 Y127.637 E15.4298
G1 X132.138 Y128.240
G0 X135.963 Y124.863 F5400
G0 X137.067 Y122.302
G0 X137.669 Y117.785
;segType:HShell
G1 X141.287 Y121.289 E15.5973 F3000
G1 X141.818 Y121.289
G1 X137.366 Y116.977 E15.8035
G0 X136.849 Y115.963 F5400
G1 X142.348 Y121.289 E16.0581 F3000
G1 X142.879 Y121.289
G1 X133.406 Y112.113 E16.4968
G1 X133.936 Y112.113
G1 X143.410 Y121.289 E16.9354
G1 X143.940 Y121.289
G1 X134.467 Y112.113 E17.3741
G1 X134.998 Y112.113
G1 X144.471 Y121.289 E17.8127
G1 X145.002 Y121.289
G1 X135.528 Y112.113 E18.2514
G1 X136.059 Y112.113
G1 X145.532 Y121.289 E18.6901
G1 X146.063 Y121.289
G1 X136.590 Y112.113 E19.1287
G1 X137.120 Y112.113
G1 X146.560 Y121.256 E19.5658
G1 X146.873 Y121.045
G1 X137.651 Y112.113 E19.9928
G1 X138.182 Y112.113
G1 X147.023 Y120.677 E20.4021
G1 X147.035 Y120.174
G1 X138.713 Y112.113 E20.7875
G1 X139.243 Y112.113
G1 X147.035 Y119.660 E21.1483
G1 X147.035 Y119.146
G1 X139.774 Y112.113 E21.4845
G1 X140.305 Y112.113
G1 X147.035 Y118.632 E21.7961
G1 X147.035 Y118.118
G1 X140.835 Y112.113 E22.0832
G1 X141.366 Y112.113
G1 X147.035 Y117.604 E22.3457
G1 X147.035 Y117.090
G1 X141.897 Y112.113 E22.5836
G1 X142.427 Y112.113
G1 X147.035 Y116.576 E22.7969
G1 X147.035 Y116.063
G1 X142.958 Y112.113 E22.9857
G1 X143.489 Y112.113
G1 X147.035 Y115.549 E23.1499
G1 X147.035 Y115.035
G1 X144.019 Y112.113 E23.2896
G1 X144.550 Y112.113
G1 X147.035 Y114.521 E23.4047
G1 X147.035 Y114.007
G1 X145.081 Y112.113 E23.4952
G1 X145.611 Y112.113
G1 X147.035 Y113.493 E23.5611
G1 X147.035 Y112.979
G1 X146.142 Y112.113 E23.6024
G1 X146.673 Y112.113
G1 X147.035 Y112.465 E23.6192
G0 X137.871 Y118.494 F5400
G1 X140.756 Y121.289 E23.7528 F3000
G1 X140.225 Y121.289
G1 X137.982 Y119.116 E23.8567
G1 X138.052 Y119.698
G1 X139.699 Y121.294 E23.9330
G1 X139.233 Y121.356
G1 X138.085 Y120.245 E23.9861
G1 X138.079 Y120.752
G1 X138.766 Y121.418 E24.0180
G1 X138.536 Y121.709
G1 X138.051 Y121.239 E24.0404
G1 X137.997 Y121.701
G1 X138.536 Y122.223 E24.0653
G1 X138.536 Y122.737
G1 X137.920 Y122.141 E24.0938
G1 X137.833 Y122.570
G1 X138.518 Y123.234 E24.1256
G1 X138.490 Y123.721
G1 X137.714 Y122.969 E24.1615
G1 X137.594 Y123.367
G1 X138.415 Y124.163 E24.1995
G1 X138.329 Y124.593
G1 X137.447 Y123.738 E24.2404
G1 X137.290 Y124.101
G1 X138.213 Y124.995 E24.2832
G1 X138.082 Y125.381
G1 X137.128 Y124.457 E24.3273
G1 X136.937 Y124.787
G1 X137.930 Y125.748 E24.3733
G1 X137.761 Y126.099
G1 X136.747 Y125.117 E24.4203
G1 X136.541 Y125.431
G1 X137.576 Y126.434 E24.4682
G1 X137.376 Y126.753
G1 X136.319 Y125.730 E24.5171
G1 X136.097 Y126.029
G1 X137.159 Y127.058 E24.5663
G1 X136.930 Y127.350
G1 X135.852 Y126.305 E24.6162
G1 X135.598 Y126.574
G1 X136.684 Y127.625 E24.6665
G1 X136.426 Y127.890
G1 X135.345 Y126.842 E24.7166
G1 X135.062 Y127.083
G1 X136.150 Y128.137 E24.7670
G1 X135.865 Y128.374
G1 X134.778 Y127.321 E24.8173
G1 X134.488 Y127.555
G1 X135.559 Y128.592 E24.8669
G1 X135.244 Y128.801
G1 X134.172 Y127.762 E24.9166
G1 X133.856 Y127.970
G1 X134.906 Y128.987 E24.9652
G1 X134.557 Y129.164
G1 X133.525 Y128.164 E25.0130
G1 X133.175 Y128.339
G1 X134.186 Y129.318 E25.0598
G1 X133.798 Y129.457
G1 X132.826 Y128.515 E25.1048
G1 X132.446 Y128.661
G1 X133.389 Y129.575 E25.1485
G1 X132.953 Y129.666
G1 X132.059 Y128.801 E25.1899
G1 X131.664 Y128.932
G1 X132.502 Y129.743 E25.2286
G1 X131.998 Y129.769
G1 X131.237 Y129.032 E25.2638
G1 X130.811 Y129.133
G1 X131.488 Y129.789 E25.2952
G1 X130.958 Y129.789
G1 X130.341 Y129.192 E25.3238
G1 X129.867 Y129.247
G1 X130.427 Y129.789 E25.3497
G1 X129.896 Y129.789
G1 X129.350 Y129.261 E25.3749
G1 X128.819 Y129.260
G1 X129.365 Y129.789 E25.4002
G1 X128.835 Y129.789
G1 X128.230 Y129.204 E25.4282
G1 X127.616 Y129.123
G1 X128.304 Y129.789 E25.4601
G1 X127.773 Y129.789
G1 X126.914 Y128.957 E25.4999
G1 X126.110 Y128.692
G1 X127.243 Y129.789 E25.5523
G1 X126.706 Y129.784
G1 X125.128 Y128.255 E25.6254
G0 X120.630 Y125.955 F5400
G1 X123.966 Y129.186 E25.7799 F3000
G1 X124.821 Y129.499
G1 X120.292 Y125.113 E25.9896
G0 X121.517 Y124.757 F5400
G1 X119.954 Y123.243 E26.0619 F3000
G1 X119.993 Y123.796
G1 X122.996 Y126.704 E26.2010
G0 X122.575 Y128.353 F5400
G1 X121.551 Y127.361 E26.2484 F3000
G0 X123.242 Y126.942 F5400
G1 X126.144 Y129.753 E26.3828 F3000
G1 X125.522 Y129.665
G1 X120.098 Y124.411 E26.6339
G0 X119.935 Y122.197 F5400
G1 X120.768 Y123.004 E26.6725 F3000
G1 X120.580 Y122.308
G1 X119.935 Y121.683 E26.7023
G0 X112.084 Y121.275 F5400
G1 X111.446 Y120.657 E26.7319 F3000
G1 X111.435 Y120.133
G1 X112.630 Y121.289 E26.7872
G1 X113.160 Y121.289
G1 X111.435 Y119.619 E26.8671
G1 X111.435 Y119.105
G1 X113.691 Y121.289 E26.9715
G1 X114.222 Y121.289
G1 X111.435 Y118.591 E27.1005
G1 X111.435 Y118.077
G1 X114.752 Y121.289 E27.2541
G1 X115.283 Y121.289
G1 X111.435 Y117.563 E27.4323
G1 X111.435 Y117.049
G1 X115.814 Y121.289 E27.6350
G1 X116.344 Y121.289
G1 X111.435 Y116.534 E27.8623
G1 X111.435 Y116.020
G1 X116.875 Y121.289 E28.1142
G1 X117.406 Y121.289
G1 X111.435 Y115.506 E28.3906
G1 X111.435 Y114.992
G1 X117.937 Y121.289 E28.6917
G1 X118.467 Y121.289
G1 X111.435 Y114.478 E29.0173
G1 X111.435 Y113.964
G1 X118.998 Y121.289 E29.3675
G1 X119.529 Y121.289
G1 X111.435 Y113.450 E29.7422
G1 X111.435 Y112.936
G1 X120.471 Y121.688 E30.1606
G1 X120.412 Y121.117
G1 X111.435 Y112.422 E30.5762
G1 X111.647 Y112.113
G1 X120.380 Y120.572 E30.9806
G1 X120.395 Y120.073
G1 X112.178 Y112.113 E31.3611
G1 X112.709 Y112.113
G1 X120.424 Y119.586 E31.7184
G1 X120.486 Y119.132
G1 X113.239 Y112.113 E32.0539
G1 X113.770 Y112.113
G1 X120.563 Y118.693 E32.3684
G1 X120.657 Y118.270
G1 X114.301 Y112.113 E32.6627
G1 X114.832 Y112.113
G1 X120.776 Y117.871 E32.9380
G1 X120.895 Y117.473
G1 X115.362 Y112.113 E33.1942
G1 X115.893 Y112.113
G1 X121.049 Y117.108 E33.4330
G1 X121.206 Y116.745
G1 X116.424 Y112.113 E33.6544
G1 X116.954 Y112.113
G1 X121.373 Y116.394 E33.8590
G1 X121.564 Y116.064
G1 X117.485 Y112.113 E34.0479
G1 X118.016 Y112.113
G1 X121.754 Y115.735 E34.2210
G1 X121.965 Y115.425
G1 X118.546 Y112.113 E34.3793
G1 X119.077 Y112.113
G1 X122.187 Y115.126 E34.5233
G1 X122.409 Y114.827
G1 X119.608 Y112.113 E34.6530
G1 X120.138 Y112.113
G1 X122.659 Y114.555 E34.7697
G1 X122.913 Y114.287
G1 X120.669 Y112.113 E34.8736
G1 X121.200 Y112.113
G1 X123.170 Y114.021 E34.9648
G1 X123.454 Y113.783
G1 X121.731 Y112.113 E35.0446
G1 X122.261 Y112.113
G1 X123.738 Y113.544 E35.1130
G1 X124.033 Y113.316
G1 X122.792 Y112.113 E35.1705
G1 X123.323 Y112.113
G1 X124.349 Y113.108 E35.2180
G1 X124.665 Y112.900
G1 X123.853 Y112.113 E35.2556
G1 X124.384 Y112.113
G1 X125.001 Y112.712 E35.2842
G1 X125.351 Y112.536
G1 X124.915 Y112.113 E35.3044
G1 X125.445 Y112.113
G1 X125.700 Y112.360 E35.3162
G1 X126.085 Y112.219
G1 X125.976 Y112.113 E35.3212
G0 X132.493 Y112.257 F5400
G1 X132.344 Y112.113 E35.3281 F3000
G1 X132.875 Y112.113
G1 X133.517 Y112.735 E35.3578
; ------------------------------------
; Layer #2
; ------------------------------------
G21 ; mm
G90 ; abs
G92 E0 ; reset extr
M106 S0
G0 F1200 E-1.0000
G0 F300 Z0.600
G0 X128.745 Y112.067 F5400
G0 X125.015 Y113.183
G0 X122.192 Y115.845
G0 X120.547 Y118.784
G0 F1200 E0.0000
;segType:HShell
G1 X117.960 Y121.289 E0.1198 F3000
G1 X118.491 Y121.289
G1 X120.438 Y119.404 E0.2099
G1 X120.402 Y119.952
G1 X119.021 Y121.289 E0.2739
G1 X119.552 Y121.289
G1 X120.376 Y120.492 E0.3120
G1 X120.404 Y120.978
G1 X119.935 Y121.432 E0.3337
G1 X119.935 Y121.946
G1 X120.432 Y121.465 E0.3567
G1 X120.509 Y121.904
G1 X119.935 Y122.460 E0.3833
;segType:Perimeter
G0 X119.503 Y122.508 F5400
G1 X118.879 Y122.258 E0.4057 F2100
G1 X112.282 Y122.258 E0.6251
G1 X112.035 Y122.256 E0.6333
G1 X111.623 Y122.202 E0.6471
G1 X111.239 Y122.043 E0.6610
G1 X110.908 Y121.788 E0.6748
G1 X110.653 Y121.456 E0.6888
G1 X110.492 Y121.068 E0.7027
G1 X110.436 Y120.639 E0.7171
G1 X110.436 Y111.145 E1.0329
G1 X148.036 Y111.145 E2.2835
G1 X148.036 Y120.639 E2.5993
G1 X147.979 Y121.068 E2.6137
G1 X147.818 Y121.456 E2.6276
G1 X147.564 Y121.788 E2.6415
G1 X147.232 Y122.043 E2.6554
G1 X146.852 Y122.200 E2.6691
G1 X146.214 Y122.258 E2.6904
G1 X139.838 Y122.258 E2.9025
G1 X139.536 Y122.298 E2.9126
G1 X139.536 Y122.946 E2.9342
G1 X139.486 Y123.826 E2.9635
G1 X139.340 Y124.690 E2.9926
G1 X139.097 Y125.532 E3.0218
G1 X138.762 Y126.341 E3.0509
G1 X138.338 Y127.107 E3.0800
G1 X137.832 Y127.821 E3.1091
G1 X137.248 Y128.473 E3.1382
G1 X136.596 Y129.056 E3.1673
G1 X135.883 Y129.562 E3.1964
G1 X135.117 Y129.985 E3.2255
G1 X134.310 Y130.320 E3.2546
G1 X133.470 Y130.562 E3.2837
G1 X132.609 Y130.708 E3.3127
G1 X131.572 Y130.758 E3.3472
G1 X126.804 Y130.758 E3.5058
G1 X125.891 Y130.710 E3.5362
G1 X124.974 Y130.554 E3.5672
G1 X124.161 Y130.320 E3.5953
G1 X123.353 Y129.985 E3.6244
G1 X122.588 Y129.562 E3.6535
G1 X121.875 Y129.056 E3.6826
G1 X121.223 Y128.473 E3.7117
G1 X120.639 Y127.821 E3.7408
G1 X120.133 Y127.107 E3.7699
G1 X119.709 Y126.341 E3.7990
G1 X119.374 Y125.532 E3.8281
G1 X119.132 Y124.690 E3.8573
G1 X118.985 Y123.826 E3.8864
G1 X118.935 Y122.946 E3.9157
G1 X118.935 Y122.312 E3.9368
G1 X118.677 Y121.708
;segType:Loop
G0 X117.904 Y121.870 F5400
G1 X112.284 Y121.870 E4.1237 F3000
G1 X112.064 Y121.869 E4.1310
G1 X111.731 Y121.825 E4.1422
G1 X111.445 Y121.707 E4.1525
G1 X111.197 Y121.516 E4.1629
G1 X111.005 Y121.265 E4.1734
G1 X110.882 Y120.970 E4.1840
G1 X110.836 Y120.614 E4.1959
G1 X110.836 Y111.532 E4.4980
G1 X147.636 Y111.532 E5.7220
G1 X147.636 Y120.614 E6.0241
G1 X147.589 Y120.970 E6.0360
G1 X147.466 Y121.265 E6.0466
G1 X147.274 Y121.516 E6.0571
G1 X147.026 Y121.707 E6.0675
G1 X146.752 Y121.820 E6.0774
G1 X146.195 Y121.870 E6.0960
G1 X139.811 Y121.870 E6.3083
G1 X139.136 Y121.961 E6.3310
G1 X139.136 Y122.936 E6.3634
G1 X139.088 Y123.784 E6.3917
G1 X138.948 Y124.606 E6.4194
G1 X138.718 Y125.407 E6.4471
G1 X138.399 Y126.176 E6.4748
G1 X137.996 Y126.905 E6.5025
G1 X137.515 Y127.583 E6.5302
G1 X136.961 Y128.203 E6.5578
G1 X136.341 Y128.757 E6.5855
G1 X135.665 Y129.237 E6.6131
G1 X134.939 Y129.638 E6.6406
G1 X134.173 Y129.955 E6.6682
G1 X133.378 Y130.184 E6.6957
G1 X132.564 Y130.322 E6.7232
G1 X131.562 Y130.370 E6.7566
G1 X126.815 Y130.370 E6.9145
G1 X125.936 Y130.324 E6.9437
G1 X125.066 Y130.176 E6.9731
G1 X124.298 Y129.955 E6.9997
G1 X123.532 Y129.638 E7.0272
G1 X122.806 Y129.237 E7.0548
G1 X122.130 Y128.757 E7.0824
G1 X121.510 Y128.203 E7.1100
G1 X120.956 Y127.583 E7.1377
G1 X120.475 Y126.905 E7.1653
G1 X120.072 Y126.176 E7.1930
G1 X119.754 Y125.407 E7.2207
G1 X119.523 Y124.606 E7.2485
G1 X119.383 Y123.784 E7.2762
G1 X119.335 Y122.936 E7.3045
G1 X119.335 Y121.870 E7.3399
G1 X118.091 Y121.870 E7.3813
G0 X116.872 Y121.483 F5400
G1 X112.285 Y121.483 E7.5338 F3000
G1 X111.838 Y121.448 E7.5487
G1 X111.652 Y121.371 E7.5554
G1 X111.487 Y121.244 E7.5623
G1 X111.357 Y121.074 E7.5695
G1 X111.273 Y120.872 E7.5768
G1 X111.236 Y120.590 E7.5862
G1 X111.236 Y111.920 E7.8746
G1 X128.012 Y111.920 E8.4326
G1 X127.726 Y111.953 E8.4421
G1 X126.743 Y112.186 E8.4757
G1 X125.794 Y112.531 E8.5093
G1 X124.893 Y112.984 E8.5429
G1 X124.051 Y113.538 E8.5764
G1 X123.280 Y114.185 E8.6098
G1 X122.590 Y114.915 E8.6433
G1 X121.991 Y115.721 E8.6767
G1 X121.490 Y116.589 E8.7100
G1 X121.093 Y117.509 E8.7433
G1 X120.806 Y118.467 E8.7766
G1 X120.632 Y119.453 E8.8099
G1 X120.574 Y120.451 E8.8431
G1 X120.632 Y121.450 E8.8764
G1 X120.806 Y122.435 E8.9097
G1 X121.093 Y123.394 E8.9430
G1 X121.490 Y124.314 E8.9763
G1 X121.991 Y125.182 E9.0096
G1 X122.590 Y125.987 E9.0430
G1 X123.280 Y126.718 E9.0764
G1 X124.051 Y127.365 E9.1099
G1 X124.893 Y127.919 E9.1434
G1 X125.797 Y128.373 E9.1771
G1 X126.789 Y128.728 E9.2121
G1 X127.733 Y128.951 E9.2444
G1 X128.719 Y129.066 E9.2774
G1 X129.731 Y129.068 E9.3111
G1 X130.726 Y128.953 E9.3444
G1 X131.678 Y128.729 E9.3769
G1 X132.675 Y128.373 E9.4121
G1 X133.579 Y127.919 E9.4458
G1 X134.420 Y127.365 E9.4793
G1 X135.191 Y126.718 E9.5127
G1 X135.881 Y125.987 E9.5462
G1 X136.480 Y125.182 E9.5795
G1 X136.981 Y124.314 E9.6129
G1 X137.378 Y123.394 E9.6462
G1 X137.665 Y122.435 E9.6795
G1 X137.840 Y121.448 E9.7128
G1 X137.896 Y120.420 E9.7471
G1 X137.833 Y119.422 E9.7803
G1 X137.657 Y118.439 E9.8135
G1 X137.378 Y117.509 E9.8458
G1 X136.981 Y116.589 E9.8792
G1 X136.480 Y115.721 E9.9125
G1 X135.881 Y114.915 E9.9459
G1 X135.191 Y114.185 E9.9793
G1 X134.420 Y113.538 E10.0128
G1 X133.579 Y112.984 E10.0463
G1 X132.677 Y112.531 E10.0798
G1 X131.728 Y112.186 E10.1134
G1 X130.745 Y111.953 E10.1470
G1 X130.460 Y111.920 E10.1566
G1 X147.236 Y111.920 E10.7146
G1 X147.236 Y120.590 E11.0029
G1 X147.199 Y120.872 E11.0124
G1 X147.115 Y121.074 E11.0197
G1 X146.984 Y121.244 E11.0268
G1 X146.819 Y121.371 E11.0337
G1 X146.653 Y121.440 E11.0397
G1 X146.177 Y121.483 E11.0556
G1 X139.783 Y121.483 E11.2683
G1 X138.736 Y121.623 E11.3034
G1 X138.736 Y122.925 E11.3467
G1 X138.690 Y123.742 E11.3739
G1 X138.557 Y124.522 E11.4002
G1 X138.338 Y125.282 E11.4266
G1 X138.036 Y126.012 E11.4528
G1 X137.654 Y126.703 E11.4791
G1 X137.198 Y127.346 E11.5053
G1 X136.673 Y127.933 E11.5315
G1 X136.087 Y128.457 E11.5577
G1 X135.447 Y128.911 E11.5838
G1 X134.761 Y129.290 E11.6098
G1 X134.037 Y129.590 E11.6359
G1 X133.286 Y129.806 E11.6619
G1 X132.520 Y129.937 E11.6877
G1 X131.552 Y129.983 E11.7199
G1 X126.825 Y129.983 E11.8772
G1 X125.982 Y129.939 E11.9052
G1 X125.158 Y129.799 E11.9331
G1 X124.434 Y129.590 E11.9581
G1 X123.710 Y129.290 E11.9842
G1 X123.024 Y128.911 E12.0102
G1 X122.384 Y128.457 E12.0363
G1 X121.798 Y127.933 E12.0625
G1 X121.273 Y127.346 E12.0887
G1 X120.817 Y126.703 E12.1149
G1 X120.435 Y126.012 E12.1411
G1 X120.133 Y125.282 E12.1674
G1 X119.914 Y124.522 E12.1937
G1 X119.782 Y123.742 E12.2201
G1 X119.736 Y122.925 E12.2473
G1 X119.736 Y121.483 E12.2952
G1 X117.059 Y121.483 E12.3842
G0 X119.068 Y122.129 F5400
G0 X124.425 Y126.894
G0 X126.045 Y127.829
G0 X127.842 Y128.366
G0 X129.695 Y128.474
G0 X131.470 Y128.379
G1 X130.655 Y128.571 E12.4121 F3000
G1 X129.708 Y128.680 E12.4438
G1 X128.743 Y128.679 E12.4759
G1 X127.804 Y128.569 E12.5073
G1 X126.906 Y128.357 E12.5380
G1 X125.959 Y128.018 E12.5715
G1 X125.098 Y127.585 E12.6035
G1 X124.295 Y127.057 E12.6355
G1 X123.560 Y126.440 E12.6674
G1 X122.901 Y125.742 E12.6993
G1 X122.329 Y124.973 E12.7312
G1 X121.850 Y124.144 E12.7631
G1 X121.471 Y123.265 E12.7949
G1 X121.196 Y122.348 E12.8267
G1 X121.030 Y121.406 E12.8586
G1 X120.974 Y120.451 E12.8904
G1 X121.030 Y119.497 E12.9222
G1 X121.196 Y118.554 E12.9540
G1 X121.471 Y117.638 E12.9858
G1 X121.850 Y116.759 E13.0177
G1 X122.329 Y115.929 E13.0495
G1 X122.901 Y115.160 E13.0814
G1 X123.560 Y114.463 E13.1133
G1 X124.295 Y113.846 E13.1452
G1 X125.098 Y113.318 E13.1772
G1 X125.957 Y112.886 E13.2092
G1 X126.861 Y112.557 E13.2412
G1 X127.798 Y112.335 E13.2732
G1 X128.754 Y112.223 E13.3052
G1 X129.717 Y112.223 E13.3372
G1 X130.673 Y112.335 E13.3693
G1 X131.610 Y112.557 E13.4013
G1 X132.514 Y112.886 E13.4333
G1 X133.373 Y113.318 E13.4653
G1 X134.176 Y113.846 E13.4972
G1 X134.912 Y114.463 E13.5292
G1 X135.570 Y115.160 E13.5611
G1 X136.142 Y115.929 E13.5929
G1 X136.621 Y116.759 E13.6248
G1 X137.000 Y117.638 E13.6566
G1 X137.266 Y118.527 E13.6875
G1 X137.436 Y119.467 E13.7193
G1 X137.495 Y120.421 E13.7511
G1 X137.441 Y121.405 E13.7838
G1 X137.275 Y122.348 E13.8157
G1 X137.000 Y123.265 E13.8475
G1 X136.621 Y124.144 E13.8794
G1 X136.142 Y124.973 E13.9112
G1 X135.570 Y125.742 E13.9431
G1 X134.912 Y126.440 E13.9750
G1 X134.176 Y127.057 E14.0069
G1 X133.373 Y127.585 E14.0389
G1 X132.513 Y128.018 E14.0709
G1 X131.649 Y128.326 E14.1014
;segType:Perimeter
G0 X132.935 Y127.898 F5400
G1 X132.298 Y127.681 E14.1238 F2100
G1 X131.444 Y127.987 E14.1540
G1 X130.584 Y128.189 E14.1834
G1 X129.684 Y128.293 E14.2135
G1 X128.767 Y128.291 E14.2440
G1 X127.876 Y128.187 E14.2738
G1 X127.023 Y127.986 E14.3030
G1 X126.121 Y127.663 E14.3349
G1 X125.303 Y127.252 E14.3653
G1 X124.539 Y126.750 E14.3957
G1 X123.839 Y126.162 E14.4261
G1 X123.212 Y125.498 E14.4565
G1 X122.667 Y124.765 E14.4869
G1 X122.210 Y123.974 E14.5172
G1 X121.849 Y123.136 E14.5476
G1 X121.587 Y122.261 E14.5780
G1 X121.428 Y121.362 E14.6083
G1 X121.375 Y120.451 E14.6387
G1 X121.428 Y119.540 E14.6690
G1 X121.587 Y118.641 E14.6994
G1 X121.849 Y117.767 E14.7297
G1 X122.210 Y116.929 E14.7601
G1 X122.667 Y116.138 E14.7905
G1 X123.212 Y115.405 E14.8209
G1 X123.839 Y114.741 E14.8512
G1 X124.539 Y114.153 E14.8816
G1 X125.303 Y113.651 E14.9120
G1 X126.120 Y113.241 E14.9425
G1 X126.979 Y112.928 E14.9729
G1 X127.870 Y112.717 E15.0033
G1 X128.778 Y112.611 E15.0337
G1 X129.693 Y112.611 E15.0641
G1 X130.602 Y112.717 E15.0946
G1 X131.491 Y112.928 E15.1250
G1 X132.351 Y113.241 E15.1554
G1 X133.168 Y113.651 E15.1858
G1 X133.932 Y114.153 E15.2162
G1 X134.632 Y114.741 E15.2466
G1 X135.259 Y115.405 E15.2770
G1 X135.804 Y116.138 E15.3074
G1 X136.261 Y116.929 E15.3378
G1 X136.623 Y117.767 E15.3681
G1 X136.876 Y118.614 E15.3975
G1 X137.038 Y119.512 E15.4279
G1 X137.094 Y120.423 E15.4582
G1 X137.043 Y121.362 E15.4895
G1 X136.884 Y122.261 E15.5199
G1 X136.623 Y123.136 E15.5503
G1 X136.261 Y123.974 E15.5806
G1 X135.804 Y124.765 E15.6110
G1 X135.259 Y125.498 E15.6414
G1 X134.632 Y126.162 E15.6718
G1 X133.932 Y126.750 E15.7022
G1 X133.168 Y127.252 E15.7326
G1 X132.401 Y127.637 E15.7611
G1 X132.137 Y128.240
;segType:HShell
G0 X130.519 Y129.172 F5400
G1 X129.881 Y129.789 E15.7906 F3000
G1 X129.351 Y129.789
G1 X129.916 Y129.242 E15.8168
G1 X129.366 Y129.261
G1 X128.820 Y129.789 E15.8421
G1 X128.289 Y129.789
G1 X128.836 Y129.260 E15.8674
G1 X128.349 Y129.218
G1 X127.759 Y129.789 E15.8947
G1 X127.228 Y129.789
G1 X127.875 Y129.163 E15.9247
G1 X127.431 Y129.079
G1 X126.704 Y129.783 E15.9583
G1 X126.201 Y129.756
G1 X127.004 Y128.978 E15.9955
G1 X126.591 Y128.864
G1 X125.729 Y129.699 E16.0354
G1 X125.278 Y129.622
G1 X126.204 Y128.725 E16.0783
G1 X125.817 Y128.586
G1 X124.862 Y129.511 E16.1225
G1 X124.457 Y129.389
G1 X125.457 Y128.420 E16.1689
G1 X125.108 Y128.245
G1 X124.085 Y129.235 E16.2162
G1 X123.722 Y129.074
G1 X124.761 Y128.066 E16.2643
G1 X124.445 Y127.858
G1 X123.384 Y128.887 E16.3135
G1 X123.054 Y128.692
G1 X124.129 Y127.651 E16.3633
G1 X123.825 Y127.431
G1 X122.748 Y128.475 E16.4132
G1 X122.448 Y128.251
G1 X123.540 Y127.193 E16.4638
G1 X123.256 Y126.954
G1 X122.172 Y128.004 E16.5140
G1 X121.901 Y127.753
G1 X122.990 Y126.698 E16.5644
G1 X122.737 Y126.429
G1 X121.655 Y127.477 E16.6145
G1 X121.412 Y127.199
G1 X122.483 Y126.161 E16.6641
G1 X122.255 Y125.868
G1 X121.195 Y126.894 E16.7132
G1 X120.981 Y126.588
G1 X122.033 Y125.569 E16.7619
G1 X121.812 Y125.269
G1 X120.795 Y126.253 E16.8089
G1 X120.612 Y125.918
G1 X121.622 Y124.939 E16.8557
G1 X121.431 Y124.609
G1 X120.460 Y125.551 E16.9007
G1 X120.311 Y125.180
G1 X121.253 Y124.268 E16.9444
G1 X121.097 Y123.905
G1 X120.195 Y124.778 E16.9861
G1 X120.090 Y124.366
G1 X120.940 Y123.543 E17.0255
G1 X120.812 Y123.153
G1 X120.015 Y123.925 E17.0624
G1 X119.966 Y123.459
G1 X120.693 Y122.754 E17.0960
G1 X120.587 Y122.344
G1 X119.938 Y122.971 E17.1261
G0 X122.042 Y116.849 F5400
G0 X124.146 Y113.241
G1 X125.311 Y112.113 E17.1800 F3000
G1 X124.780 Y112.113
G1 X115.307 Y121.289 E17.6186
G1 X114.776 Y121.289
G1 X124.249 Y112.113 E18.0573
G1 X123.718 Y112.113
G1 X114.245 Y121.289 E18.4959
G1 X113.715 Y121.289
G1 X123.188 Y112.113 E18.9346
G1 X122.657 Y112.113
G1 X113.184 Y121.289 E19.3732
G1 X112.653 Y121.289
G1 X122.126 Y112.113 E19.8119
G1 X121.596 Y112.113
G1 X112.135 Y121.277 E20.2499
G1 X111.723 Y121.162
G1 X121.065 Y112.113 E20.6825
G1 X120.534 Y112.113
G1 X111.489 Y120.875 E21.1013
G1 X111.435 Y120.413
G1 X120.004 Y112.113 E21.4981
G1 X119.473 Y112.113
G1 X111.435 Y119.899 E21.8702
G1 X111.435 Y119.385
G1 X118.942 Y112.113 E22.2178
G1 X118.412 Y112.113
G1 X111.435 Y118.871 E22.5409
G1 X111.435 Y118.357
G1 X117.881 Y112.113 E22.8393
G1 X117.350 Y112.113
G1 X111.435 Y117.843 E23.1132
G1 X111.435 Y117.329
G1 X116.820 Y112.113 E23.3625
G1 X116.289 Y112.113
G1 X111.435 Y116.815 E23.5872
G1 X111.435 Y116.300
G1 X115.758 Y112.113 E23.7874
G1 X115.227 Y112.113
G1 X111.435 Y115.786 E23.9630
G1 X111.435 Y115.272
G1 X114.697 Y112.113 E24.1140
G1 X114.166 Y112.113
G1 X111.435 Y114.758 E24.2404
G1 X111.435 Y114.244
G1 X113.635 Y112.113 E24.3423
G1 X113.105 Y112.113
G1 X111.435 Y113.730 E24.4196
G1 X111.435 Y113.216
G1 X112.574 Y112.113 E24.4723
G1 X112.043 Y112.113
G1 X111.435 Y112.702 E24.5005
G1 X111.435 Y112.188
G1 X111.513 Y112.113 E24.5040
G0 X121.312 Y116.501 F5400
G1 X116.368 Y121.289 E24.7330 F3000
G1 X115.837 Y121.289
G1 X122.152 Y115.172 E25.0254
G0 X125.841 Y112.113 F5400
G1 X125.464 Y112.479 E25.0429 F3000
G0 X120.702 Y118.120 F5400
G1 X117.429 Y121.289 E25.1944 F3000
G1 X116.899 Y121.289
G1 X120.930 Y117.385 E25.3810
G0 X124.425 Y114.009 F5400
G0 X126.044 Y113.075
G0 X127.836 Y112.538
G0 X129.704 Y112.429
G0 X131.547 Y112.754
G0 X133.264 Y113.495
G0 X146.699 Y121.210
G1 X146.939 Y120.978 E25.3921 F3000
G1 X147.036 Y120.370
G1 X146.087 Y121.289 E25.4361
G1 X145.556 Y121.289
G1 X147.036 Y119.856 E25.5046
G1 X147.036 Y119.342
G1 X145.025 Y121.289 E25.5977
G1 X144.494 Y121.289
G1 X147.036 Y118.828 E25.7154
G1 X147.036 Y118.314
G1 X143.964 Y121.289 E25.8576
G1 X143.433 Y121.289
G1 X147.036 Y117.800 E26.0245
G1 X147.036 Y117.286
G1 X142.902 Y121.289 E26.2158
G1 X142.372 Y121.289
G1 X147.036 Y116.772 E26.4318
G1 X147.036 Y116.258
G1 X141.841 Y121.289 E26.6723
G1 X141.310 Y121.289
G1 X147.036 Y115.744 E26.9375
G1 X147.036 Y115.230
G1 X140.780 Y121.289 E27.2271
G1 X140.249 Y121.289
G1 X147.036 Y114.716 E27.5414
G1 X147.036 Y114.202
G1 X139.710 Y121.297 E27.8806
G1 X139.094 Y121.380
G1 X147.036 Y113.688 E28.2483
G1 X147.036 Y113.174
G1 X137.949 Y121.975 E28.6691
G1 X138.044 Y121.369
G1 X147.036 Y112.660 E29.0854
G1 X147.036 Y112.146
G1 X138.074 Y120.826 E29.5004
G1 X138.089 Y120.298
G1 X146.538 Y112.113 E29.8916
G1 X146.007 Y112.113
G1 X138.058 Y119.813 E30.2597
G1 X138.021 Y119.335
G1 X145.477 Y112.113 E30.6050
G1 X144.946 Y112.113
G1 X137.942 Y118.898 E30.9293
G1 X137.863 Y118.460
G1 X144.415 Y112.113 E31.2327
G1 X143.885 Y112.113
G1 X137.750 Y118.055 E31.5167
G1 X137.631 Y117.657
G1 X143.354 Y112.113 E31.7817
G1 X142.823 Y112.113
G1 X137.494 Y117.275 E32.0285
G1 X137.338 Y116.913
G1 X142.293 Y112.113 E32.2579
G1 X141.762 Y112.113
G1 X137.181 Y116.550 E32.4700
G1 X136.995 Y116.216
G1 X141.231 Y112.113 E32.6662
G1 X140.701 Y112.113
G1 X136.805 Y115.887 E32.8465
G1 X136.609 Y115.563
G1 X140.170 Y112.113 E33.0114
G1 X139.639 Y112.113
G1 X136.387 Y115.264 E33.1620
G1 X136.164 Y114.965
G1 X139.108 Y112.113 E33.2983
G1 X138.578 Y112.113
G1 X135.929 Y114.679 E33.4210
G1 X135.675 Y114.411
G1 X138.047 Y112.113 E33.5308
G1 X137.516 Y112.113
G1 X135.422 Y114.142 E33.6278
G1 X135.149 Y113.893
G1 X136.986 Y112.113 E33.7129
G1 X136.455 Y112.113
G1 X134.864 Y113.654 E33.7865
G1 X134.580 Y113.416
G1 X135.924 Y112.113 E33.8488
G1 X135.394 Y112.113
G1 X134.268 Y113.204 E33.9009
G1 X133.952 Y112.996
G1 X134.863 Y112.113 E33.9431
G1 X134.332 Y112.113
G1 X133.631 Y112.793 E33.9755
G1 X133.282 Y112.617
G1 X133.802 Y112.113 E33.9996
G1 X133.271 Y112.113
G1 X132.932 Y112.441 E34.0153
G1 X132.565 Y112.284
G1 X132.740 Y112.113 E34.0234
G0 X135.963 Y116.040 F5400
G0 X136.800 Y117.707
G0 X137.820 Y122.614
G1 X138.536 Y121.921 E34.0566 F3000
G0 X134.763 Y126.292 F5400
G0 X131.910 Y128.853
G1 X130.943 Y129.789 E34.1013 F3000
G1 X130.412 Y129.789
G1 X131.180 Y129.046 E34.1369
G0 X133.203 Y127.429 F5400
G0 X135.226 Y125.812
G0 X137.249 Y124.195
G1 X138.534 Y122.950 E34.1964 F3000
G1 X138.536 Y122.435
G1 X137.603 Y123.338 E34.2396
G0 X133.938 Y127.916 F5400
G1 X132.028 Y129.766 E34.3280 F3000
G1 X131.474 Y129.789
G1 X132.751 Y128.552 E34.3872
G0 X132.600 Y129.726 F5400
G1 X138.430 Y124.080 E34.6571 F3000
G1 X138.503 Y123.494
G1 X136.638 Y125.301 E34.7435
G0 X138.290 Y124.729 F5400
G1 X133.244 Y129.616 E34.9771 F3000
G1 X134.006 Y129.392
G1 X138.038 Y125.487 E35.1638
G0 X137.558 Y126.466 F5400
G1 X135.021 Y128.924 E35.2813 F3000
; ------------------------------------
; Layer #3
; ------------------------------------
G21 ; mm
G90 ; abs
G92 E0 ; reset extr
M106 S255
;segType:Infill
G0 F1200 E-1.0000
G0 F300 Z0.800
G0 X124.134 Y129.255 F5400
G0 F1200 E0.0000
G1 X124.822 Y128.101 E0.0447 F3750
G1 X124.508 Y127.900 E0.0571
G1 X123.787 Y129.110 E0.1039
G1 X124.040 Y129.216 E0.1130
G1 X119.935 Y122.331 E0.3797
;segType:Perimeter
G0 X119.503 Y122.508 F5400
G1 X118.879 Y122.258 E0.4020 F2100
G1 X112.364 Y122.258 E0.6187
G1 X112.030 Y122.255 E0.6298
G1 X111.623 Y122.202 E0.6435
G1 X111.239 Y122.043 E0.6573
G1 X110.908 Y121.788 E0.6712
G1 X110.653 Y121.456 E0.6851
G1 X110.492 Y121.068 E0.6991
G1 X110.436 Y120.639 E0.7135
G1 X110.436 Y111.145 E1.0293
G1 X148.036 Y111.145 E2.2798
G1 X148.036 Y120.639 E2.5956
G1 X147.979 Y121.068 E2.6100
G1 X147.818 Y121.456 E2.6240
G1 X147.564 Y121.788 E2.6379
G1 X147.232 Y122.043 E2.6518
G1 X146.848 Y122.202 E2.6656
G1 X146.422 Y122.258 E2.6799
G1 X140.088 Y122.258 E2.8906
G1 X139.536 Y122.290 E2.9090
G1 X139.536 Y122.946 E2.9308
G1 X139.486 Y123.826 E2.9601
G1 X139.340 Y124.690 E2.9893
G1 X139.097 Y125.532 E3.0184
G1 X138.762 Y126.341 E3.0475
G1 X138.338 Y127.107 E3.0766
G1 X137.832 Y127.821 E3.1058
G1 X137.248 Y128.473 E3.1349
G1 X136.596 Y129.056 E3.1640
G1 X135.883 Y129.562 E3.1931
G1 X135.117 Y129.985 E3.2221
G1 X134.310 Y130.320 E3.2512
G1 X133.470 Y130.562 E3.2803
G1 X132.609 Y130.708 E3.3093
G1 X131.519 Y130.758 E3.3456
G1 X126.825 Y130.758 E3.5018
G1 X125.900 Y130.710 E3.5325
G1 X124.965 Y130.552 E3.5641
G1 X124.161 Y130.320 E3.5919
G1 X123.353 Y129.985 E3.6210
G1 X122.588 Y129.562 E3.6501
G1 X121.875 Y129.056 E3.6792
G1 X121.223 Y128.473 E3.7083
G1 X120.639 Y127.821 E3.7374
G1 X120.133 Y127.107 E3.7665
G1 X119.709 Y126.341 E3.7956
G1 X119.374 Y125.532 E3.8247
G1 X119.132 Y124.690 E3.8539
G1 X118.985 Y123.826 E3.8830
G1 X118.935 Y122.946 E3.9123
G1 X118.935 Y122.312 E3.9334
G1 X118.677 Y121.708
;segType:Loop
G0 X117.904 Y121.870 F5400
G1 X112.365 Y121.870 E4.1176 F3000
G1 X112.059 Y121.868 E4.1278
G1 X111.731 Y121.825 E4.1388
G1 X111.445 Y121.707 E4.1491
G1 X111.197 Y121.516 E4.1595
G1 X111.005 Y121.265 E4.1700
G1 X110.882 Y120.970 E4.1806
G1 X110.836 Y120.614 E4.1926
G1 X110.836 Y111.532 E4.4946
G1 X147.636 Y111.532 E5.7186
G1 X147.636 Y120.614 E6.0207
G1 X147.589 Y120.970 E6.0326
G1 X147.466 Y121.265 E6.0432
G1 X147.274 Y121.516 E6.0538
G1 X147.026 Y121.707 E6.0641
G1 X146.740 Y121.825 E6.0744
G1 X146.395 Y121.870 E6.0860
G1 X140.075 Y121.870 E6.2962
G1 X139.136 Y121.926 E6.3275
G1 X139.136 Y122.936 E6.3611
G1 X139.088 Y123.784 E6.3894
G1 X138.948 Y124.606 E6.4171
G1 X138.718 Y125.407 E6.4448
G1 X138.399 Y126.176 E6.4725
G1 X137.996 Y126.905 E6.5002
G1 X137.515 Y127.583 E6.5279
G1 X136.961 Y128.203 E6.5555
G1 X136.341 Y128.757 E6.5832
G1 X135.665 Y129.237 E6.6108
G1 X134.939 Y129.638 E6.6383
G1 X134.173 Y129.955 E6.6659
G1 X133.378 Y130.184 E6.6934
G1 X132.565 Y130.322 E6.7209
G1 X131.510 Y130.370 E6.7560
G1 X126.835 Y130.370 E6.9115
G1 X125.946 Y130.325 E6.9411
G1 X125.057 Y130.174 E6.9711
G1 X124.298 Y129.955 E6.9974
G1 X123.532 Y129.638 E7.0249
G1 X122.806 Y129.237 E7.0525
G1 X122.130 Y128.757 E7.0801
G1 X121.510 Y128.203 E7.1077
G1 X120.956 Y127.583 E7.1354
G1 X120.475 Y126.905 E7.1630
G1 X120.072 Y126.176 E7.1907
G1 X119.754 Y125.407 E7.2184
G1 X119.523 Y124.606 E7.2461
G1 X119.383 Y123.784 E7.2739
G1 X119.335 Y122.936 E7.3021
G1 X119.335 Y121.870 E7.3376
G1 X118.091 Y121.870 E7.3790
G0 X116.872 Y121.483 F5400
G1 X112.367 Y121.483 E7.5288 F3000
G1 X112.088 Y121.481 E7.5381
G1 X111.838 Y121.448 E7.5464
G1 X111.652 Y121.371 E7.5532
G1 X111.487 Y121.244 E7.5601
G1 X111.357 Y121.074 E7.5672
G1 X111.273 Y120.872 E7.5745
G1 X111.236 Y120.590 E7.5839
G1 X111.236 Y111.920 E7.8723
G1 X128.012 Y111.920 E8.4303
G1 X127.726 Y111.953 E8.4398
G1 X126.743 Y112.186 E8.4734
G1 X125.794 Y112.531 E8.5070
G1 X124.893 Y112.984 E8.5406
G1 X124.051 Y113.538 E8.5741
G1 X123.280 Y114.185 E8.6075
G1 X122.590 Y114.915 E8.6410
G1 X121.991 Y115.721 E8.6744
G1 X121.490 Y116.589 E8.7077
G1 X121.093 Y117.509 E8.7410
G1 X120.806 Y118.467 E8.7743
G1 X120.632 Y119.453 E8.8076
G1 X120.574 Y120.451 E8.8409
G1 X120.632 Y121.450 E8.8741
G1 X120.806 Y122.435 E8.9074
G1 X121.093 Y123.394 E8.9407
G1 X121.490 Y124.314 E8.9740
G1 X121.991 Y125.182 E9.0073
G1 X122.590 Y125.987 E9.0407
G1 X123.280 Y126.718 E9.0742
G1 X124.051 Y127.365 E9.1076
G1 X124.893 Y127.919 E9.1411
G1 X125.797 Y128.373 E9.1748
G1 X126.804 Y128.732 E9.2104
G1 X127.735 Y128.951 E9.2422
G1 X128.715 Y129.066 E9.2750
G1 X129.728 Y129.068 E9.3087
G1 X130.719 Y128.954 E9.3419
G1 X131.661 Y128.733 E9.3740
G1 X132.674 Y128.373 E9.4098
G1 X133.578 Y127.919 E9.4435
G1 X134.420 Y127.365 E9.4770
G1 X135.191 Y126.718 E9.5104
G1 X135.881 Y125.987 E9.5439
G1 X136.480 Y125.182 E9.5772
G1 X136.981 Y124.314 E9.6106
G1 X137.378 Y123.394 E9.6439
G1 X137.665 Y122.435 E9.6772
G1 X137.840 Y121.448 E9.7105
G1 X137.895 Y120.409 E9.7451
G1 X137.832 Y119.411 E9.7784
G1 X137.654 Y118.430 E9.8116
G1 X137.378 Y117.509 E9.8435
G1 X136.981 Y116.589 E9.8769
G1 X136.480 Y115.721 E9.9102
G1 X135.881 Y114.915 E9.9436
G1 X135.191 Y114.185 E9.9770
G1 X134.420 Y113.538 E10.0105
G1 X133.579 Y112.984 E10.0440
G1 X132.677 Y112.531 E10.0775
G1 X131.728 Y112.186 E10.1111
G1 X130.745 Y111.953 E10.1447
G1 X130.460 Y111.920 E10.1543
G1 X147.236 Y111.920 E10.7123
G1 X147.236 Y120.590 E11.0006
G1 X147.199 Y120.872 E11.0101
G1 X147.115 Y121.074 E11.0174
G1 X146.984 Y121.244 E11.0245
G1 X146.819 Y121.371 E11.0314
G1 X146.633 Y121.448 E11.0381
G1 X146.368 Y121.483 E11.0470
G1 X140.063 Y121.483 E11.2567
G1 X138.736 Y121.561 E11.3009
G1 X138.736 Y122.925 E11.3463
G1 X138.690 Y123.742 E11.3735
G1 X138.557 Y124.522 E11.3999
G1 X138.338 Y125.282 E11.4262
G1 X138.036 Y126.012 E11.4524
G1 X137.654 Y126.703 E11.4787
G1 X137.198 Y127.346 E11.5049
G1 X136.673 Y127.933 E11.5311
G1 X136.087 Y128.457 E11.5573
G1 X135.447 Y128.911 E11.5834
G1 X134.761 Y129.290 E11.6094
G1 X134.037 Y129.590 E11.6355
G1 X133.286 Y129.806 E11.6615
G1 X132.521 Y129.937 E11.6873
G1 X131.500 Y129.983 E11.7213
G1 X126.846 Y129.983 E11.8761
G1 X125.991 Y129.939 E11.9045
G1 X125.149 Y129.796 E11.9330
G1 X124.434 Y129.590 E11.9577
G1 X123.710 Y129.290 E11.9838
G1 X123.024 Y128.911 E12.0098
G1 X122.384 Y128.457 E12.0359
G1 X121.798 Y127.933 E12.0621
G1 X121.273 Y127.346 E12.0883
G1 X120.817 Y126.703 E12.1145
G1 X120.435 Y126.012 E12.1407
G1 X120.133 Y125.282 E12.1670
G1 X119.914 Y124.522 E12.1933
G1 X119.782 Y123.742 E12.2197
G1 X119.736 Y122.925 E12.2469
G1 X119.736 Y121.483 E12.2948
G1 X117.059 Y121.483 E12.3838
G0 X119.068 Y122.129 F5400
G0 X124.425 Y126.894
G0 X126.045 Y127.829
G0 X127.845 Y128.366
G0 X129.693 Y128.474
G0 X131.454 Y128.383
G1 X130.648 Y128.572 E12.4114 F3000
G1 X129.705 Y128.680 E12.4429
G1 X128.739 Y128.679 E12.4751
G1 X127.807 Y128.569 E12.5063
G1 X126.921 Y128.361 E12.5366
G1 X125.959 Y128.018 E12.5705
G1 X125.098 Y127.585 E12.6026
G1 X124.295 Y127.057 E12.6345
G1 X123.560 Y126.440 E12.6665
G1 X122.901 Y125.742 E12.6984
G1 X122.329 Y124.973 E12.7302
G1 X121.850 Y124.144 E12.7621
G1 X121.471 Y123.265 E12.7939
G1 X121.196 Y122.348 E12.8258
G1 X121.030 Y121.406 E12.8576
G1 X120.974 Y120.451 E12.8894
G1 X121.030 Y119.497 E12.9212
G1 X121.196 Y118.554 E12.9530
G1 X121.471 Y117.638 E12.9849
G1 X121.850 Y116.759 E13.0167
G1 X122.329 Y115.929 E13.0486
G1 X122.901 Y115.160 E13.0804
G1 X123.560 Y114.463 E13.1123
G1 X124.295 Y113.846 E13.1443
G1 X125.098 Y113.318 E13.1762
G1 X125.957 Y112.886 E13.2082
G1 X126.861 Y112.557 E13.2402
G1 X127.798 Y112.335 E13.2722
G1 X128.754 Y112.223 E13.3043
G1 X129.717 Y112.223 E13.3363
G1 X130.673 Y112.335 E13.3683
G1 X131.610 Y112.557 E13.4003
G1 X132.514 Y112.886 E13.4323
G1 X133.373 Y113.318 E13.4643
G1 X134.176 Y113.846 E13.4962
G1 X134.912 Y114.463 E13.5282
G1 X135.570 Y115.160 E13.5601
G1 X136.142 Y115.929 E13.5920
G1 X136.621 Y116.759 E13.6238
G1 X137.000 Y117.638 E13.6557
G1 X137.264 Y118.518 E13.6862
G1 X137.434 Y119.457 E13.7180
G1 X137.494 Y120.411 E13.7498
G1 X137.441 Y121.405 E13.7829
G1 X137.275 Y122.348 E13.8147
G1 X137.000 Y123.265 E13.8466
G1 X136.621 Y124.144 E13.8784
G1 X136.142 Y124.973 E13.9103
G1 X135.570 Y125.742 E13.9421
G1 X134.912 Y126.440 E13.9740
G1 X134.176 Y127.057 E14.0060
G1 X133.373 Y127.585 E14.0379
G1 X132.512 Y128.018 E14.0700
G1 X131.633 Y128.331 E14.1010
;segType:Perimeter
G0 X132.935 Y127.899 F5400
G1 X132.297 Y127.681 E14.1234 F2100
G1 X131.429 Y127.991 E14.1541
G1 X130.578 Y128.190 E14.1831
G1 X129.682 Y128.293 E14.2131
G1 X128.764 Y128.291 E14.2437
G1 X127.878 Y128.188 E14.2733
G1 X127.037 Y127.989 E14.3021
G1 X126.121 Y127.663 E14.3344
G1 X125.303 Y127.252 E14.3649
G1 X124.539 Y126.750 E14.3953
G1 X123.839 Y126.162 E14.4257
G1 X123.212 Y125.498 E14.4561
G1 X122.667 Y124.765 E14.4864
G1 X122.210 Y123.974 E14.5168
G1 X121.849 Y123.136 E14.5472
G1 X121.587 Y122.261 E14.5775
G1 X121.428 Y121.362 E14.6079
G1 X121.375 Y120.451 E14.6382
G1 X121.428 Y119.540 E14.6686
G1 X121.587 Y118.641 E14.6990
G1 X121.849 Y117.767 E14.7293
G1 X122.210 Y116.929 E14.7597
G1 X122.667 Y116.138 E14.7901
G1 X123.212 Y115.405 E14.8204
G1 X123.839 Y114.741 E14.8508
G1 X124.539 Y114.153 E14.8812
G1 X125.303 Y113.651 E14.9116
G1 X126.120 Y113.241 E14.9420
G1 X126.979 Y112.928 E14.9724
G1 X127.870 Y112.717 E15.0029
G1 X128.778 Y112.611 E15.0333
G1 X129.693 Y112.611 E15.0637
G1 X130.602 Y112.717 E15.0941
G1 X131.491 Y112.928 E15.1246
G1 X132.351 Y113.241 E15.1550
G1 X133.168 Y113.651 E15.1854
G1 X133.932 Y114.153 E15.2158
G1 X134.632 Y114.741 E15.2462
G1 X135.259 Y115.405 E15.2766
G1 X135.804 Y116.138 E15.3070
G1 X136.261 Y116.929 E15.3373
G1 X136.623 Y117.767 E15.3677
G1 X136.873 Y118.605 E15.3968
G1 X137.036 Y119.502 E15.4271
G1 X137.094 Y120.413 E15.4575
G1 X137.043 Y121.362 E15.4891
G1 X136.884 Y122.261 E15.5195
G1 X136.623 Y123.136 E15.5498
G1 X136.261 Y123.974 E15.5802
G1 X135.804 Y124.765 E15.6106
G1 X135.259 Y125.498 E15.6409
G1 X134.632 Y126.162 E15.6713
G1 X133.932 Y126.750 E15.7017
G1 X133.168 Y127.252 E15.7321
G1 X132.400 Y127.637 E15.7607
G1 X132.136 Y128.240
;segType:Infill
G0 X134.632 Y129.133 F5400
G1 X130.812 Y129.133 E15.8878 F3750
G0 X134.448 Y127.581 F5400
G1 X133.233 Y129.619 E15.9667 F3750
G0 X135.294 Y126.888 F5400
G1 X133.756 Y129.469 E16.0666 F3750
G0 X127.659 Y129.133 F5400
G1 X123.839 Y129.133 E16.1937 F3750
G0 X121.108 Y126.770 F5400
G1 X123.058 Y126.770 E16.2586 F3750
G1 X122.715 Y126.407 E16.2752
G1 X120.880 Y126.407 E16.3363
G0 X127.065 Y129.789 F5400
G1 X127.481 Y129.091 E16.3633 F3750
G1 X127.101 Y129.002 E16.3763
G1 X126.640 Y129.776 E16.4063
G0 X127.631 Y129.789 F5400
G1 X127.172 Y129.018 E16.4361 F3750
G1 X126.655 Y128.879 E16.4539
G1 X127.198 Y129.789 E16.4891
G0 X123.067 Y125.612 F5400
G0 X122.042 Y124.054
G0 X121.404 Y122.302
G0 X120.514 Y118.972
G1 X119.132 Y121.289 E16.5789 F3750
G1 X118.699 Y121.289 E16.5933
G1 X120.816 Y117.738 E16.7308
G0 X111.435 Y117.119 F5400
G1 X114.419 Y112.113 E16.9246 F3750
G1 X114.852 Y112.113 E16.9390
G1 X111.435 Y117.846 E17.1610
G0 X111.435 Y115.866 F5400
G1 X121.678 Y115.866 E17.5017 F3750
G1 X121.907 Y115.503 E17.5160
G1 X111.435 Y115.503 E17.8642
G0 X111.435 Y118.592 F5400
G1 X120.581 Y118.592 E18.1684 F3750
G1 X120.669 Y118.229 E18.1809
G1 X111.435 Y118.229 E18.4880
G0 X112.201 Y121.286 F5400
G1 X117.669 Y112.113 E18.8431 F3750
G1 X118.102 Y112.113 E18.8576
G1 X112.633 Y121.289 E19.2128
G1 X112.815 Y121.289 E19.2189
G1 X111.435 Y118.975 E19.3085
G1 X111.435 Y119.702 E19.3327
G1 X112.381 Y121.288 E19.3941
G0 X119.068 Y122.129 F5400
G0 X120.036 Y124.044
G1 X121.157 Y124.044 E19.4314 F3750
G1 X121.000 Y123.681 E19.4446
G1 X119.979 Y123.681 E19.4786
G0 X121.568 Y127.380 F5400
G1 X122.374 Y126.028 E19.5309 F3750
G1 X122.633 Y126.320 E19.5439
G1 X121.828 Y127.671 E19.5962
G0 X130.448 Y129.789 F5400
G1 X130.109 Y129.221 E19.6182 F3750
G1 X130.514 Y129.173 E19.6318
G1 X130.881 Y129.789 E19.6556
G0 X125.207 Y127.408 F5400
G0 X123.708 Y126.292
G0 X122.509 Y124.863
G0 X121.672 Y123.196
G0 X121.242 Y121.383
G0 X121.242 Y119.520
G0 X122.161 Y115.161
G1 X120.345 Y112.113 E19.7736 F3750
G1 X119.912 Y112.113 E19.7880
G1 X121.921 Y115.484 E19.9185
G0 X111.435 Y112.394 F5400
G1 X111.603 Y112.113 E19.9294 F3750
G0 X111.435 Y113.140 F5400
G1 X124.300 Y113.140 E20.3573 F3750
G1 X124.233 Y113.184 E20.3600
G1 X123.595 Y112.113 E20.4014
G1 X123.161 Y112.113 E20.4158
G1 X123.922 Y113.390 E20.4652
G1 X123.760 Y113.526 E20.4723
G1 X124.602 Y112.113 E20.5270
G1 X124.168 Y112.113 E20.5414
G1 X122.805 Y114.401 E20.6300
G0 X116.065 Y121.289 F5400
G1 X111.435 Y113.522 E20.9307 F3750
G1 X111.435 Y114.249 E20.9549
G1 X115.632 Y121.289 E21.2275
G1 X115.449 Y121.289 E21.2335
G1 X120.919 Y112.113 E21.5888
G1 X121.352 Y112.113 E21.6033
G1 X115.883 Y121.289 E21.9585
G0 X111.523 Y120.955 F5400
G1 X120.403 Y120.955 E22.2539 F3750
G1 X120.424 Y121.318 E22.2660
G1 X119.935 Y121.318 E22.2823
G0 X119.944 Y123.072 F5400
G1 X123.423 Y128.909 E22.5083 F3750
G0 X124.810 Y129.496 F5400
G1 X133.661 Y129.496 E22.8027 F3750
G0 X137.471 Y123.681 F5400
G1 X138.493 Y123.681 E22.8366 F3750
G1 X138.436 Y124.044 E22.8489
G1 X137.314 Y124.044 E22.8862
G0 X136.310 Y127.994 F5400
G1 X135.516 Y126.661 E22.9378 F3750
G1 X135.243 Y126.931 E22.9505
G1 X136.028 Y128.247 E23.0015
G0 X137.228 Y121.393 F5400
G0 X137.603 Y117.563
G1 X140.851 Y112.113 E23.2125 F3750
G1 X140.417 Y112.113 E23.2269
G1 X137.430 Y117.126 E23.4210
G0 X134.171 Y113.140 F5400
G1 X147.036 Y113.140 E23.8489 F3750
G1 X147.036 Y112.776 E23.8609
G1 X133.599 Y112.776 E24.3078
G1 X133.540 Y112.747 E24.3100
G1 X133.918 Y112.113 E24.3346
G1 X134.351 Y112.113 E24.3490
G1 X133.861 Y112.936 E24.3808
G0 X129.704 Y112.429 F5400
G0 X124.872 Y112.776
G1 X111.435 Y112.776 E24.8277 F3750
G0 X129.704 Y112.429 F5400
G0 X131.547 Y112.754
G0 X133.264 Y113.495
G0 X134.763 Y114.611
G0 X135.963 Y116.040
G0 X136.800 Y117.707
G0 X138.067 Y120.955
G1 X146.949 Y120.955 E25.1231 F3750
G0 X147.036 Y114.002 F5400
G1 X145.910 Y112.113 E25.1962 F3750
G1 X146.343 Y112.113 E25.2107
G1 X147.036 Y113.275 E25.2556
G0 X142.063 Y121.289 F5400
G1 X136.594 Y112.113 E25.6109 F3750
G1 X136.161 Y112.113 E25.6253
G1 X141.630 Y121.289 E25.9806
G0 X138.017 Y121.593 F5400
G1 X143.667 Y112.113 E26.3477 F3750
G1 X144.101 Y112.113 E26.3621
G1 X138.576 Y121.381 E26.7209
G1 X138.536 Y121.449 E26.7236
G1 X137.798 Y122.687 E26.7715
G0 X141.448 Y121.289 F5400
G1 X146.917 Y112.113 E27.1268 F3750
G1 X147.036 Y112.641 E27.1448
G1 X141.881 Y121.289 E27.4796
G0 X144.697 Y121.289 F5400
G1 X147.036 Y117.366 E27.6315 F3750
G1 X147.036 Y118.093 E27.6557
G1 X145.131 Y121.289 E27.7795
G1 X144.880 Y121.289 E27.7878
G1 X139.410 Y112.113 E28.1431
G1 X139.844 Y112.113 E28.1575
G1 X145.313 Y121.289 E28.5128
G0 X137.802 Y118.229 F5400
G1 X147.036 Y118.229 E28.8199 F3750
G1 X147.036 Y118.592 E28.8320
G1 X137.888 Y118.592 E29.1363
G0 X147.036 Y119.454 F5400
G1 X142.660 Y112.113 E29.4205 F3750
G1 X143.094 Y112.113 E29.4349
G1 X147.036 Y118.727 E29.6910
G0 X138.074 Y120.048 F5400
G1 X138.859 Y121.365 E29.7420 F3750
G1 X138.536 Y121.550 E29.7544
G1 X138.077 Y120.781 E29.7841
G1 X138.047 Y121.318 E29.8020
G1 X139.656 Y121.318 E29.8556
G0 X135.413 Y126.770 F5400
G1 X137.364 Y126.770 E29.9204 F3750
G1 X137.591 Y126.407 E29.9347
G1 X135.756 Y126.407 E29.9957
G0 X137.872 Y125.888 F5400
G1 X137.074 Y124.550 E30.0475 F3750
G1 X137.269 Y124.150 E30.0624
G1 X138.049 Y125.459 E30.1131
G0 X131.483 Y128.165 F5400
G0 X129.693 Y128.474
G0 X127.845 Y128.366
G0 X126.045 Y127.829
G0 X124.425 Y126.894
G0 X123.067 Y125.612
G0 X122.042 Y124.054
G0 X121.404 Y122.302
G0 X120.693 Y118.149
G1 X117.095 Y112.113 E30.3468 F3750
G1 X116.662 Y112.113 E30.3612
G1 X120.568 Y118.666 E30.6149
G0 X119.315 Y121.289 F5400
G1 X113.845 Y112.113 E30.9702 F3750
G1 X113.412 Y112.113 E30.9846
G1 X118.881 Y121.289 E31.3399
G0 X124.425 Y126.894 F5400
G0 X126.045 Y127.829
G0 X127.845 Y128.366
G0 X133.543 Y129.530
G1 X132.912 Y128.472 E31.3809 F3750
G1 X133.245 Y128.304 E31.3933
G1 X133.913 Y129.424 E31.4367
G0 X130.315 Y129.789 F5400
G1 X130.695 Y129.152 E31.4613 F3750
G1 X130.229 Y129.207 E31.4769
G1 X129.882 Y129.789 E31.4995
G0 X120.230 Y124.900 F5400
G1 X120.982 Y123.639 E31.5483 F3750
G1 X120.821 Y123.182 E31.5644
G1 X120.096 Y124.398 E31.6116
G0 X121.672 Y117.707 F5400
G0 X122.509 Y116.040
G0 X123.708 Y114.611
G0 X125.207 Y113.495
G0 X126.924 Y112.754
G0 X128.767 Y112.429
G0 X133.181 Y112.566
G1 X132.911 Y112.113 E31.6291 F3750
G1 X133.344 Y112.113 E31.6435
G1 X133.817 Y112.907 E31.6742
G0 X136.016 Y114.772 F5400
G1 X137.601 Y112.113 E31.7772 F3750
G1 X137.168 Y112.113 E31.7916
G1 X135.751 Y114.491 E31.8836
G0 X136.564 Y115.503 F5400
G1 X147.036 Y115.503 E32.2319 F3750
G1 X147.036 Y115.866 E32.2440
G1 X136.793 Y115.866 E32.5847
; ------------------------------------
; Layer #4
; ------------------------------------
G21 ; mm
G90 ; abs
G92 E0 ; reset extr
M106 S255
G0 F1200 E-1.0000
G0 F300 Z1.000
G0 X137.602 Y121.422 F5400
G0 X136.279 Y125.058
G0 X133.456 Y127.720
G0 X129.711 Y128.837
G0 X124.134 Y129.255
G0 F1200 E0.0000
;segType:Infill
G1 X124.822 Y128.101 E0.0447 F3750
G1 X124.508 Y127.900 E0.0571
G1 X123.787 Y129.110 E0.1039
G1 X124.040 Y129.216 E0.1130
G1 X119.935 Y122.331 E0.3797
;segType:Perimeter
G0 X119.503 Y122.508 F5400
G1 X118.879 Y122.258 E0.4020 F2100
G1 X112.446 Y122.258 E0.6160
G1 X112.025 Y122.255 E0.6300
G1 X111.623 Y122.202 E0.6435
G1 X111.239 Y122.043 E0.6573
G1 X110.908 Y121.788 E0.6712
G1 X110.653 Y121.456 E0.6851
G1 X110.492 Y121.068 E0.6991
G1 X110.436 Y120.639 E0.7135
G1 X110.436 Y111.145 E1.0293
G1 X148.036 Y111.145 E2.2798
G1 X148.036 Y120.639 E2.5956
G1 X147.979 Y121.068 E2.6100
G1 X147.818 Y121.456 E2.6240
G1 X147.564 Y121.788 E2.6379
G1 X147.232 Y122.043 E2.6518
G1 X146.848 Y122.202 E2.6656
G1 X146.422 Y122.258 E2.6799
G1 X140.177 Y122.258 E2.8876
G1 X139.536 Y122.295 E2.9090
G1 X139.536 Y122.946 E2.9306
G1 X139.486 Y123.826 E2.9600
G1 X139.340 Y124.690 E2.9891
G1 X139.097 Y125.532 E3.0182
G1 X138.762 Y126.341 E3.0474
G1 X138.338 Y127.107 E3.0765
G1 X137.832 Y127.821 E3.1056
G1 X137.248 Y128.473 E3.1347
G1 X136.596 Y129.056 E3.1638
G1 X135.883 Y129.562 E3.1929
G1 X135.117 Y129.985 E3.2220
G1 X134.310 Y130.320 E3.2511
G1 X133.470 Y130.562 E3.2801
G1 X132.609 Y130.708 E3.3092
G1 X131.614 Y130.758 E3.3423
G1 X126.957 Y130.758 E3.4972
G1 X125.909 Y130.711 E3.5321
G1 X124.956 Y130.549 E3.5642
G1 X124.161 Y130.320 E3.5917
G1 X123.353 Y129.985 E3.6208
G1 X122.588 Y129.562 E3.6499
G1 X121.875 Y129.056 E3.6790
G1 X121.223 Y128.473 E3.7081
G1 X120.639 Y127.821 E3.7372
G1 X120.133 Y127.107 E3.7663
G1 X119.709 Y126.341 E3.7954
G1 X119.374 Y125.532 E3.8246
G1 X119.132 Y124.690 E3.8537
G1 X118.985 Y123.826 E3.8828
G1 X118.935 Y122.946 E3.9121
G1 X118.935 Y122.312 E3.9332
G1 X118.677 Y121.708
;segType:Loop
G0 X117.904 Y121.870 F5400
G1 X112.447 Y121.870 E4.1147 F3000
G1 X112.054 Y121.867 E4.1278
G1 X111.731 Y121.825 E4.1386
G1 X111.445 Y121.707 E4.1489
G1 X111.197 Y121.516 E4.1593
G1 X111.005 Y121.265 E4.1698
G1 X110.882 Y120.970 E4.1805
G1 X110.836 Y120.614 E4.1924
G1 X110.836 Y111.532 E4.4945
G1 X147.636 Y111.532 E5.7184
G1 X147.636 Y120.614 E6.0205
G1 X147.589 Y120.970 E6.0324
G1 X147.466 Y121.265 E6.0431
G1 X147.274 Y121.516 E6.0536
G1 X147.026 Y121.707 E6.0640
G1 X146.740 Y121.825 E6.0743
G1 X146.395 Y121.870 E6.0858
G1 X140.165 Y121.870 E6.2931
G1 X139.136 Y121.931 E6.3273
G1 X139.136 Y122.936 E6.3608
G1 X139.088 Y123.784 E6.3890
G1 X138.948 Y124.606 E6.4168
G1 X138.718 Y125.407 E6.4445
G1 X138.399 Y126.176 E6.4722
G1 X137.996 Y126.905 E6.4999
G1 X137.515 Y127.583 E6.5275
G1 X136.961 Y128.203 E6.5552
G1 X136.341 Y128.757 E6.5828
G1 X135.665 Y129.237 E6.6104
G1 X134.939 Y129.638 E6.6380
G1 X134.173 Y129.955 E6.6656
G1 X133.378 Y130.184 E6.6931
G1 X132.564 Y130.322 E6.7205
G1 X131.603 Y130.370 E6.7525
G1 X126.966 Y130.370 E6.9068
G1 X125.953 Y130.325 E6.9405
G1 X125.048 Y130.171 E6.9710
G1 X124.298 Y129.955 E6.9970
G1 X123.532 Y129.638 E7.0246
G1 X122.806 Y129.237 E7.0521
G1 X122.130 Y128.757 E7.0797
G1 X121.510 Y128.203 E7.1074
G1 X120.956 Y127.583 E7.1350
G1 X120.475 Y126.905 E7.1627
G1 X120.072 Y126.176 E7.1904
G1 X119.754 Y125.407 E7.2181
G1 X119.523 Y124.606 E7.2458
G1 X119.383 Y123.784 E7.2735
G1 X119.335 Y122.936 E7.3018
G1 X119.335 Y121.870 E7.3372
G1 X118.091 Y121.870 E7.3786
G0 X116.872 Y121.483 F5400
G1 X112.449 Y121.483 E7.5257 F3000
G1 X112.083 Y121.480 E7.5379
G1 X111.838 Y121.448 E7.5461
G1 X111.652 Y121.371 E7.5528
G1 X111.487 Y121.244 E7.5597
G1 X111.357 Y121.074 E7.5668
G1 X111.273 Y120.872 E7.5741
G1 X111.236 Y120.590 E7.5836
G1 X111.236 Y111.920 E7.8719
G1 X128.012 Y111.920 E8.4299
G1 X127.726 Y111.953 E8.4395
G1 X126.743 Y112.186 E8.4731
G1 X125.794 Y112.531 E8.5067
G1 X124.893 Y112.984 E8.5402
G1 X124.051 Y113.538 E8.5737
G1 X123.280 Y114.185 E8.6072
G1 X122.590 Y114.915 E8.6406
G1 X121.991 Y115.721 E8.6740
G1 X121.490 Y116.589 E8.7074
G1 X121.093 Y117.509 E8.7407
G1 X120.806 Y118.467 E8.7740
G1 X120.632 Y119.453 E8.8072
G1 X120.574 Y120.451 E8.8405
G1 X120.632 Y121.450 E8.8738
G1 X120.806 Y122.435 E8.9071
G1 X121.093 Y123.394 E8.9403
G1 X121.490 Y124.314 E8.9737
G1 X121.991 Y125.182 E9.0070
G1 X122.590 Y125.987 E9.0404
G1 X123.280 Y126.718 E9.0738
G1 X124.051 Y127.365 E9.1073
G1 X124.893 Y127.919 E9.1408
G1 X125.798 Y128.373 E9.1745
G1 X126.819 Y128.736 E9.2105
G1 X127.737 Y128.951 E9.2419
G1 X128.711 Y129.066 E9.2745
G1 X129.725 Y129.068 E9.3082
G1 X130.713 Y128.955 E9.3413
G1 X131.645 Y128.738 E9.3731
G1 X132.673 Y128.373 E9.4094
G1 X133.579 Y127.919 E9.4431
G1 X134.420 Y127.365 E9.4766
G1 X135.191 Y126.718 E9.5101
G1 X135.881 Y125.987 E9.5435
G1 X136.480 Y125.182 E9.5769
G1 X136.981 Y124.314 E9.6102
G1 X137.378 Y123.394 E9.6436
G1 X137.665 Y122.435 E9.6768
G1 X137.840 Y121.447 E9.7102
G1 X137.895 Y120.399 E9.7451
G1 X137.830 Y119.401 E9.7784
G1 X137.651 Y118.420 E9.8115
G1 X137.378 Y117.509 E9.8432
G1 X136.981 Y116.589 E9.8765
G1 X136.480 Y115.721 E9.9098
G1 X135.881 Y114.915 E9.9432
G1 X135.191 Y114.185 E9.9767
G1 X134.420 Y113.538 E10.0101
G1 X133.579 Y112.984 E10.0436
G1 X132.677 Y112.531 E10.0772
G1 X131.728 Y112.186 E10.1108
G1 X130.745 Y111.953 E10.1444
G1 X130.460 Y111.920 E10.1539
G1 X147.236 Y111.920 E10.7119
G1 X147.236 Y120.590 E11.0003
G1 X147.199 Y120.872 E11.0097
G1 X147.115 Y121.074 E11.0170
G1 X146.984 Y121.244 E11.0241
G1 X146.819 Y121.371 E11.0311
G1 X146.633 Y121.448 E11.0378
G1 X146.368 Y121.483 E11.0467
G1 X140.153 Y121.483 E11.2534
G1 X138.736 Y121.566 E11.3006
G1 X138.736 Y122.925 E11.3458
G1 X138.690 Y123.742 E11.3730
G1 X138.557 Y124.522 E11.3993
G1 X138.338 Y125.282 E11.4256
G1 X138.036 Y126.012 E11.4519
G1 X137.654 Y126.703 E11.4782
G1 X137.198 Y127.346 E11.5044
G1 X136.673 Y127.933 E11.5306
G1 X136.087 Y128.457 E11.5567
G1 X135.447 Y128.911 E11.5828
G1 X134.761 Y129.290 E11.6089
G1 X134.037 Y129.590 E11.6349
G1 X133.286 Y129.806 E11.6609
G1 X132.519 Y129.937 E11.6868
G1 X131.593 Y129.983 E11.7177
G1 X126.975 Y129.983 E11.8713
G1 X125.997 Y129.939 E11.9038
G1 X125.140 Y129.793 E11.9328
G1 X124.434 Y129.590 E11.9572
G1 X123.710 Y129.290 E11.9832
G1 X123.024 Y128.911 E12.0093
G1 X122.384 Y128.457 E12.0354
G1 X121.798 Y127.933 E12.0615
G1 X121.273 Y127.346 E12.0877
G1 X120.817 Y126.703 E12.1140
G1 X120.435 Y126.012 E12.1402
G1 X120.133 Y125.282 E12.1665
G1 X119.914 Y124.522 E12.1928
G1 X119.782 Y123.742 E12.2191
G1 X119.736 Y122.925 E12.2463
G1 X119.736 Y121.483 E12.2943
G1 X117.059 Y121.483 E12.3833
G0 X119.068 Y122.129 F5400
G0 X124.425 Y126.894
G0 X126.045 Y127.829
G0 X127.847 Y128.367
G0 X129.690 Y128.474
G0 X131.518 Y128.369
G1 X130.642 Y128.573 E12.4132 F3000
G1 X129.702 Y128.680 E12.4447
G1 X128.736 Y128.678 E12.4768
G1 X127.809 Y128.570 E12.5079
G1 X126.935 Y128.364 E12.5377
G1 X125.959 Y128.018 E12.5722
G1 X125.098 Y127.585 E12.6042
G1 X124.295 Y127.057 E12.6362
G1 X123.560 Y126.440 E12.6681
G1 X122.901 Y125.742 E12.7000
G1 X122.329 Y124.973 E12.7319
G1 X121.850 Y124.144 E12.7638
G1 X121.471 Y123.265 E12.7956
G1 X121.196 Y122.348 E12.8274
G1 X121.030 Y121.406 E12.8593
G1 X120.974 Y120.451 E12.8911
G1 X121.030 Y119.497 E12.9229
G1 X121.196 Y118.554 E12.9547
G1 X121.471 Y117.638 E12.9865
G1 X121.850 Y116.759 E13.0184
G1 X122.329 Y115.929 E13.0502
G1 X122.901 Y115.160 E13.0821
G1 X123.560 Y114.463 E13.1140
G1 X124.295 Y113.846 E13.1459
G1 X125.098 Y113.318 E13.1779
G1 X125.957 Y112.886 E13.2099
G1 X126.861 Y112.557 E13.2419
G1 X127.798 Y112.335 E13.2739
G1 X128.754 Y112.223 E13.3059
G1 X129.717 Y112.223 E13.3379
G1 X130.673 Y112.335 E13.3700
G1 X131.610 Y112.557 E13.4020
G1 X132.514 Y112.886 E13.4340
G1 X133.373 Y113.318 E13.4660
G1 X134.176 Y113.846 E13.4979
G1 X134.912 Y114.463 E13.5298
G1 X135.570 Y115.160 E13.5617
G1 X136.142 Y115.929 E13.5936
G1 X136.621 Y116.759 E13.6255
G1 X137.000 Y117.638 E13.6573
G1 X137.261 Y118.508 E13.6875
G1 X137.432 Y119.447 E13.7193
G1 X137.494 Y120.401 E13.7511
G1 X137.441 Y121.405 E13.7845
G1 X137.275 Y122.348 E13.8164
G1 X137.000 Y123.265 E13.8482
G1 X136.621 Y124.144 E13.8800
G1 X136.142 Y124.973 E13.9119
G1 X135.570 Y125.742 E13.9438
G1 X134.912 Y126.440 E13.9757
G1 X134.176 Y127.057 E14.0076
G1 X133.373 Y127.585 E14.0396
G1 X132.512 Y128.018 E14.0717
G1 X131.695 Y128.307 E14.1005
;segType:Perimeter
G0 X132.934 Y127.899 F5400
G1 X132.297 Y127.681 E14.1229 F2100
G1 X131.413 Y127.995 E14.1541
G1 X130.572 Y128.191 E14.1828
G1 X129.679 Y128.293 E14.2127
G1 X128.760 Y128.291 E14.2432
G1 X127.880 Y128.188 E14.2727
G1 X127.052 Y127.993 E14.3010
G1 X126.121 Y127.663 E14.3339
G1 X125.303 Y127.252 E14.3643
G1 X124.539 Y126.750 E14.3947
G1 X123.839 Y126.162 E14.4251
G1 X123.212 Y125.498 E14.4555
G1 X122.667 Y124.765 E14.4859
G1 X122.210 Y123.974 E14.5163
G1 X121.849 Y123.136 E14.5466
G1 X121.587 Y122.261 E14.5770
G1 X121.428 Y121.362 E14.6073
G1 X121.375 Y120.451 E14.6377
G1 X121.428 Y119.540 E14.6680
G1 X121.587 Y118.641 E14.6984
G1 X121.849 Y117.767 E14.7288
G1 X122.210 Y116.929 E14.7591
G1 X122.667 Y116.138 E14.7895
G1 X123.212 Y115.405 E14.8199
G1 X123.839 Y114.741 E14.8503
G1 X124.539 Y114.153 E14.8807
G1 X125.303 Y113.651 E14.9111
G1 X126.120 Y113.241 E14.9415
G1 X126.979 Y112.928 E14.9719
G1 X127.870 Y112.717 E15.0023
G1 X128.778 Y112.611 E15.0327
G1 X129.693 Y112.611 E15.0632
G1 X130.602 Y112.717 E15.0936
G1 X131.491 Y112.928 E15.1240
G1 X132.351 Y113.241 E15.1544
G1 X133.168 Y113.651 E15.1849
G1 X133.932 Y114.153 E15.2153
G1 X134.632 Y114.741 E15.2457
G1 X135.259 Y115.405 E15.2760
G1 X135.804 Y116.138 E15.3064
G1 X136.261 Y116.929 E15.3368
G1 X136.623 Y117.767 E15.3672
G1 X136.871 Y118.596 E15.3959
G1 X137.035 Y119.493 E15.4263
G1 X137.093 Y120.403 E15.4566
G1 X137.043 Y121.362 E15.4885
G1 X136.884 Y122.261 E15.5189
G1 X136.623 Y123.136 E15.5493
G1 X136.261 Y123.974 E15.5796
G1 X135.804 Y124.765 E15.6100
G1 X135.259 Y125.498 E15.6404
G1 X134.632 Y126.162 E15.6708
G1 X133.932 Y126.750 E15.7012
G1 X133.168 Y127.252 E15.7316
G1 X132.400 Y127.638 E15.7602
G1 X132.135 Y128.239
;segType:Infill
G0 X134.632 Y129.133 F5400
G1 X130.812 Y129.133 E15.8872 F3750
G0 X134.448 Y127.581 F5400
G1 X133.233 Y129.619 E15.9661 F3750
G0 X135.294 Y126.888 F5400
G1 X133.756 Y129.469 E16.0661 F3750
G0 X127.660 Y129.133 F5400
G1 X123.839 Y129.133 E16.1932 F3750
G0 X121.108 Y126.770 F5400
G1 X123.058 Y126.770 E16.2581 F3750
G1 X122.715 Y126.407 E16.2747
G1 X120.880 Y126.407 E16.3357
G0 X127.065 Y129.789 F5400
G1 X127.481 Y129.091 E16.3628 F3750
G1 X127.101 Y129.002 E16.3757
G1 X126.640 Y129.776 E16.4057
G0 X127.631 Y129.789 F5400
G1 X127.172 Y129.018 E16.4356 F3750
G1 X126.654 Y128.877 E16.4534
G1 X127.198 Y129.789 E16.4887
G0 X123.067 Y125.612 F5400
G0 X122.042 Y124.054
G0 X121.404 Y122.302
G0 X120.514 Y118.972
G1 X119.132 Y121.289 E16.5785 F3750
G1 X118.699 Y121.289 E16.5929
G1 X120.816 Y117.738 E16.7304
G0 X111.435 Y117.119 F5400
G1 X114.419 Y112.113 E16.9242 F3750
G1 X114.852 Y112.113 E16.9386
G1 X111.435 Y117.846 E17.1606
G0 X111.435 Y115.866 F5400
G1 X121.678 Y115.866 E17.5013 F3750
G1 X121.907 Y115.503 E17.5156
G1 X111.435 Y115.503 E17.8639
G0 X111.435 Y118.592 F5400
G1 X120.581 Y118.592 E18.1680 F3750
G1 X120.669 Y118.229 E18.1805
G1 X111.435 Y118.229 E18.4876
G0 X112.201 Y121.286 F5400
G1 X117.669 Y112.113 E18.8427 F3750
G1 X118.102 Y112.113 E18.8572
G1 X112.633 Y121.289 E19.2125
G1 X112.815 Y121.289 E19.2185
G1 X111.435 Y118.975 E19.3081
G1 X111.435 Y119.702 E19.3323
G1 X112.381 Y121.288 E19.3937
G0 X119.068 Y122.129 F5400
G0 X120.036 Y124.044
G1 X121.157 Y124.044 E19.4310 F3750
G1 X121.000 Y123.681 E19.4442
G1 X119.979 Y123.681 E19.4782
G0 X121.568 Y127.380 F5400
G1 X122.374 Y126.028 E19.5305 F3750
G1 X122.633 Y126.320 E19.5435
G1 X121.828 Y127.671 E19.5958
G0 X130.448 Y129.789 F5400
G1 X130.109 Y129.221 E19.6178 F3750
G1 X130.514 Y129.173 E19.6314
G1 X130.881 Y129.789 E19.6552
G0 X125.207 Y127.408 F5400
G0 X123.708 Y126.292
G0 X122.509 Y124.863
G0 X121.672 Y123.196
G0 X121.242 Y121.383
G0 X121.242 Y119.520
G0 X122.161 Y115.161
G1 X120.345 Y112.113 E19.7732 F3750
G1 X119.912 Y112.113 E19.7876
G1 X121.921 Y115.484 E19.9182
G0 X111.435 Y112.394 F5400
G1 X111.603 Y112.113 E19.9290 F3750
G0 X111.435 Y113.140 F5400
G1 X124.300 Y113.140 E20.3569 F3750
G1 X124.233 Y113.184 E20.3596
G1 X123.595 Y112.113 E20.4010
G1 X123.161 Y112.113 E20.4154
G1 X123.922 Y113.390 E20.4649
G1 X123.760 Y113.526 E20.4719
G1 X124.602 Y112.113 E20.5266
G1 X124.168 Y112.113 E20.5410
G1 X122.805 Y114.401 E20.6296
G0 X116.065 Y121.289 F5400
G1 X111.435 Y113.522 E20.9303 F3750
G1 X111.435 Y114.249 E20.9545
G1 X115.632 Y121.289 E21.2271
G1 X115.449 Y121.289 E21.2332
G1 X120.919 Y112.113 E21.5884
G1 X121.352 Y112.113 E21.6029
G1 X115.883 Y121.289 E21.9581
G0 X111.523 Y120.955 F5400
G1 X120.403 Y120.955 E22.2535 F3750
G1 X120.424 Y121.318 E22.2656
G1 X119.935 Y121.318 E22.2819
G0 X119.944 Y123.072 F5400
G1 X123.423 Y128.909 E22.5079 F3750
G0 X124.810 Y129.496 F5400
G1 X133.661 Y129.496 E22.8023 F3750
G0 X137.471 Y123.681 F5400
G1 X138.493 Y123.681 E22.8362 F3750
G1 X138.436 Y124.044 E22.8485
G1 X137.314 Y124.044 E22.8858
G0 X136.310 Y127.994 F5400
G1 X135.516 Y126.661 E22.9374 F3750
G1 X135.243 Y126.931 E22.9501
G1 X136.028 Y128.247 E23.0011
G0 X137.228 Y121.393 F5400
G0 X137.603 Y117.563
G1 X140.851 Y112.113 E23.2121 F3750
G1 X140.417 Y112.113 E23.2265
G1 X137.430 Y117.126 E23.4206
G0 X134.171 Y113.140 F5400
G1 X147.036 Y113.140 E23.8485 F3750
G1 X147.036 Y112.776 E23.8605
G1 X133.599 Y112.776 E24.3075
G1 X133.540 Y112.747 E24.3096
G1 X133.918 Y112.113 E24.3342
G1 X134.351 Y112.113 E24.3486
G1 X133.861 Y112.936 E24.3804
G0 X129.704 Y112.429 F5400
G0 X124.872 Y112.776
G1 X111.435 Y112.776 E24.8273 F3750
G0 X129.704 Y112.429 F5400
G0 X131.547 Y112.754
G0 X133.264 Y113.495
G0 X134.763 Y114.611
G0 X135.963 Y116.040
G0 X136.800 Y117.707
G0 X138.069 Y120.955
G1 X146.949 Y120.955 E25.1227 F3750
G0 X147.036 Y114.002 F5400
G1 X145.910 Y112.113 E25.1958 F3750
G1 X146.343 Y112.113 E25.2102
G1 X147.036 Y113.275 E25.2552
G0 X142.063 Y121.289 F5400
G1 X136.594 Y112.113 E25.6105 F3750
G1 X136.161 Y112.113 E25.6249
G1 X141.630 Y121.289 E25.9802
G0 X138.017 Y121.593 F5400
G1 X143.667 Y112.113 E26.3472 F3750
G1 X144.101 Y112.113 E26.3617
G1 X138.576 Y121.381 E26.7205
G1 X138.536 Y121.449 E26.7231
G1 X137.798 Y122.687 E26.7711
G0 X141.448 Y121.289 F5400
G1 X146.917 Y112.113 E27.1264 F3750
G1 X147.036 Y112.641 E27.1444
G1 X141.881 Y121.289 E27.4792
G0 X144.697 Y121.289 F5400
G1 X147.036 Y117.366 E27.6311 F3750
G1 X147.036 Y118.093 E27.6553
G1 X145.131 Y121.289 E27.7790
G1 X144.880 Y121.289 E27.7874
G1 X139.410 Y112.113 E28.1427
G1 X139.844 Y112.113 E28.1571
G1 X145.313 Y121.289 E28.5124
G0 X137.802 Y118.229 F5400
G1 X147.036 Y118.229 E28.8195 F3750
G1 X147.036 Y118.592 E28.8316
G1 X137.890 Y118.592 E29.1358
G0 X147.036 Y119.454 F5400
G1 X142.660 Y112.113 E29.4200 F3750
G1 X143.094 Y112.113 E29.4344
G1 X147.036 Y118.727 E29.6905
G0 X138.075 Y120.050 F5400
G1 X138.859 Y121.365 E29.7414 F3750
G1 X138.536 Y121.550 E29.7538
G1 X138.078 Y120.783 E29.7835
G1 X138.047 Y121.318 E29.8013
G1 X139.656 Y121.318 E29.8548
G0 X135.413 Y126.770 F5400
G1 X137.364 Y126.770 E29.9197 F3750
G1 X137.591 Y126.407 E29.9340
G1 X135.756 Y126.407 E29.9950
G0 X137.872 Y125.888 F5400
G1 X137.074 Y124.550 E30.0468 F3750
G1 X137.269 Y124.150 E30.0616
G1 X138.049 Y125.459 E30.1123
G0 X131.467 Y128.169 F5400
G0 X129.690 Y128.474
G0 X127.847 Y128.367
G0 X126.045 Y127.829
G0 X124.425 Y126.894
G0 X123.067 Y125.612
G0 X122.042 Y124.054
G0 X121.404 Y122.302
G0 X120.693 Y118.149
G1 X117.095 Y112.113 E30.3460 F3750
G1 X116.662 Y112.113 E30.3604
G1 X120.568 Y118.666 E30.6142
G0 X119.315 Y121.289 F5400
G1 X113.845 Y112.113 E30.9695 F3750
G1 X113.412 Y112.113 E30.9839
G1 X118.881 Y121.289 E31.3392
G0 X124.425 Y126.894 F5400
G0 X126.045 Y127.829
G0 X127.847 Y128.367
G0 X133.543 Y129.530
G1 X132.912 Y128.472 E31.3802 F3750
G1 X133.245 Y128.304 E31.3926
G1 X133.913 Y129.424 E31.4359
G0 X130.315 Y129.789 F5400
G1 X130.695 Y129.152 E31.4606 F3750
G1 X130.229 Y129.207 E31.4762
G1 X129.882 Y129.789 E31.4988
G0 X120.230 Y124.900 F5400
G1 X120.982 Y123.639 E31.5476 F3750
G1 X120.821 Y123.182 E31.5637
G1 X120.096 Y124.398 E31.6108
G0 X121.672 Y117.707 F5400
G0 X122.509 Y116.040
G0 X123.708 Y114.611
G0 X125.207 Y113.495
G0 X126.924 Y112.754
G0 X128.767 Y112.429
G0 X133.181 Y112.566
G1 X132.911 Y112.113 E31.6284 F3750
G1 X133.344 Y112.113 E31.6428
G1 X133.817 Y112.907 E31.6735
G0 X136.016 Y114.772 F5400
G1 X137.601 Y112.113 E31.7764 F3750
G1 X137.168 Y112.113 E31.7908
G1 X135.751 Y114.491 E31.8829
G0 X136.564 Y115.503 F5400
G1 X147.036 Y115.503 E32.2312 F3750
G1 X147.036 Y115.866 E32.2433
G1 X136.793 Y115.866 E32.5839
; ------------------------------------
; Layer #5
; ------------------------------------
G21 ; mm
G90 ; abs
G92 E0 ; reset extr
M106 S255
G0 F1200 E-1.0000
G0 F300 Z1.200
G0 X137.602 Y121.422 F5400
G0 X136.279 Y125.058
G0 X133.456 Y127.720
G0 X129.756 Y128.834
G0 X124.134 Y129.255
G0 F1200 E0.0000
;segType:Infill
G1 X124.822 Y128.101 E0.0447 F3750
G1 X124.508 Y127.900 E0.0571
G1 X123.787 Y129.110 E0.1039
G1 X124.040 Y129.216 E0.1130
G1 X119.935 Y122.331 E0.3797
;segType:Perimeter
G0 X119.503 Y122.508 F5400
G1 X118.879 Y122.258 E0.4020 F2100
G1 X112.527 Y122.258 E0.6133
G1 X112.020 Y122.254 E0.6301
G1 X111.623 Y122.202 E0.6435
G1 X111.239 Y122.043 E0.6573
G1 X110.908 Y121.788 E0.6712
G1 X110.653 Y121.456 E0.6851
G1 X110.492 Y121.068 E0.6991
G1 X110.436 Y120.639 E0.7135
G1 X110.436 Y111.145 E1.0293
G1 X148.036 Y111.145 E2.2798
G1 X148.036 Y120.639 E2.5956
G1 X147.979 Y121.068 E2.6100
G1 X147.818 Y121.456 E2.6240
G1 X147.564 Y121.788 E2.6379
G1 X147.232 Y122.043 E2.6518
G1 X146.848 Y122.202 E2.6656
G1 X146.422 Y122.258 E2.6799
G1 X140.015 Y122.258 E2.8930
G1 X139.536 Y122.310 E2.9091
G1 X139.536 Y122.946 E2.9302
G1 X139.486 Y123.826 E2.9595
G1 X139.340 Y124.690 E2.9887
G1 X139.097 Y125.532 E3.0178
G1 X138.762 Y126.341 E3.0469
G1 X138.338 Y127.107 E3.0760
G1 X137.832 Y127.821 E3.1052
G1 X137.248 Y128.473 E3.1343
G1 X136.596 Y129.056 E3.1634
G1 X135.883 Y129.562 E3.1925
G1 X135.117 Y129.985 E3.2216
G1 X134.310 Y130.320 E3.2506
G1 X133.470 Y130.562 E3.2797
G1 X132.608 Y130.709 E3.3088
G1 X131.730 Y130.758 E3.3380
G1 X126.908 Y130.758 E3.4984
G1 X125.919 Y130.711 E3.5314
G1 X124.947 Y130.546 E3.5641
G1 X124.161 Y130.320 E3.5913
G1 X123.353 Y129.985 E3.6204
G1 X122.588 Y129.562 E3.6495
G1 X121.875 Y129.056 E3.6786
G1 X121.223 Y128.473 E3.7077
G1 X120.639 Y127.821 E3.7368
G1 X120.133 Y127.107 E3.7659
G1 X119.709 Y126.341 E3.7950
G1 X119.374 Y125.532 E3.8241
G1 X119.132 Y124.690 E3.8533
G1 X118.985 Y123.826 E3.8824
G1 X118.935 Y122.946 E3.9117
G1 X118.935 Y122.312 E3.9328
G1 X118.677 Y121.708
;segType:Loop
G0 X117.904 Y121.870 F5400
G1 X112.529 Y121.870 E4.1116 F3000
G1 X112.049 Y121.867 E4.1275
G1 X111.731 Y121.825 E4.1382
G1 X111.445 Y121.707 E4.1485
G1 X111.197 Y121.516 E4.1589
G1 X111.005 Y121.265 E4.1694
G1 X110.882 Y120.970 E4.1800
G1 X110.836 Y120.614 E4.1920
G1 X110.836 Y111.532 E4.4940
G1 X147.636 Y111.532 E5.7180
G1 X147.636 Y120.614 E6.0201
G1 X147.589 Y120.970 E6.0320
G1 X147.466 Y121.265 E6.0426
G1 X147.274 Y121.516 E6.0532
G1 X147.026 Y121.707 E6.0636
G1 X146.740 Y121.825 E6.0738
G1 X146.395 Y121.870 E6.0854
G1 X139.993 Y121.870 E6.2984
G1 X139.136 Y121.963 E6.3270
G1 X139.136 Y122.936 E6.3594
G1 X139.088 Y123.784 E6.3876
G1 X138.948 Y124.606 E6.4154
G1 X138.718 Y125.407 E6.4431
G1 X138.399 Y126.176 E6.4708
G1 X137.996 Y126.905 E6.4985
G1 X137.515 Y127.583 E6.5262
G1 X136.961 Y128.203 E6.5538
G1 X136.341 Y128.757 E6.5814
G1 X135.665 Y129.237 E6.6090
G1 X134.939 Y129.638 E6.6366
G1 X134.173 Y129.955 E6.6642
G1 X133.378 Y130.184 E6.6917
G1 X132.562 Y130.323 E6.7192
G1 X131.718 Y130.370 E6.7473
G1 X126.918 Y130.370 E6.9070
G1 X125.963 Y130.326 E6.9388
G1 X125.038 Y130.169 E6.9700
G1 X124.298 Y129.955 E6.9956
G1 X123.532 Y129.638 E7.0232
G1 X122.806 Y129.237 E7.0508
G1 X122.130 Y128.757 E7.0784
G1 X121.510 Y128.203 E7.1060
G1 X120.956 Y127.583 E7.1336
G1 X120.475 Y126.905 E7.1613
G1 X120.072 Y126.176 E7.1890
G1 X119.754 Y125.407 E7.2167
G1 X119.523 Y124.606 E7.2444
G1 X119.383 Y123.784 E7.2721
G1 X119.335 Y122.936 E7.3004
G1 X119.335 Y121.870 E7.3358
G1 X118.091 Y121.870 E7.3772
G0 X116.872 Y121.483 F5400
G1 X112.531 Y121.483 E7.5216 F3000
G1 X112.078 Y121.479 E7.5367
G1 X111.838 Y121.448 E7.5447
G1 X111.652 Y121.371 E7.5514
G1 X111.487 Y121.244 E7.5583
G1 X111.357 Y121.074 E7.5654
G1 X111.273 Y120.872 E7.5727
G1 X111.236 Y120.590 E7.5822
G1 X111.236 Y111.920 E7.8706
G1 X128.012 Y111.920 E8.4285
G1 X127.726 Y111.953 E8.4381
G1 X126.743 Y112.186 E8.4717
G1 X125.794 Y112.531 E8.5053
G1 X124.893 Y112.984 E8.5388
G1 X124.051 Y113.538 E8.5723
G1 X123.280 Y114.185 E8.6058
G1 X122.590 Y114.915 E8.6392
G1 X121.991 Y115.721 E8.6726
G1 X121.490 Y116.589 E8.7060
G1 X121.093 Y117.509 E8.7393
G1 X120.806 Y118.467 E8.7726
G1 X120.632 Y119.453 E8.8059
G1 X120.574 Y120.451 E8.8391
G1 X120.632 Y121.450 E8.8724
G1 X120.806 Y122.435 E8.9057
G1 X121.093 Y123.394 E8.9390
G1 X121.490 Y124.314 E8.9723
G1 X121.991 Y125.182 E9.0056
G1 X122.590 Y125.987 E9.0390
G1 X123.280 Y126.718 E9.0724
G1 X124.051 Y127.365 E9.1059
G1 X124.893 Y127.919 E9.1394
G1 X125.815 Y128.382 E9.1737
G1 X126.064 Y128.460 E9.1824
G1 X126.839 Y128.741 E9.2098
G1 X127.769 Y128.956 E9.2416
G1 X128.753 Y129.068 E9.2745
G1 X129.771 Y129.065 E9.3084
G1 X130.734 Y128.951 E9.3406
G1 X131.642 Y128.738 E9.3716
G1 X132.408 Y128.460 E9.3988
G1 X132.656 Y128.382 E9.4074
G1 X133.579 Y127.919 E9.4417
G1 X134.420 Y127.365 E9.4752
G1 X135.191 Y126.718 E9.5087
G1 X135.881 Y125.987 E9.5421
G1 X136.480 Y125.182 E9.5755
G1 X136.981 Y124.314 E9.6089
G1 X137.378 Y123.394 E9.6422
G1 X137.665 Y122.435 E9.6755
G1 X137.840 Y121.447 E9.7089
G1 X137.894 Y120.389 E9.7441
G1 X137.829 Y119.391 E9.7774
G1 X137.648 Y118.411 E9.8105
G1 X137.378 Y117.509 E9.8418
G1 X136.981 Y116.589 E9.8751
G1 X136.480 Y115.721 E9.9085
G1 X135.881 Y114.915 E9.9419
G1 X135.191 Y114.185 E9.9753
G1 X134.420 Y113.538 E10.0088
G1 X133.579 Y112.984 E10.0423
G1 X132.677 Y112.531 E10.0758
G1 X131.728 Y112.186 E10.1094
G1 X130.745 Y111.953 E10.1430
G1 X130.460 Y111.920 E10.1526
G1 X147.236 Y111.920 E10.7105
G1 X147.236 Y120.590 E10.9989
G1 X147.199 Y120.872 E11.0084
G1 X147.115 Y121.074 E11.0157
G1 X146.984 Y121.244 E11.0228
G1 X146.819 Y121.371 E11.0297
G1 X146.633 Y121.448 E11.0364
G1 X146.368 Y121.483 E11.0453
G1 X139.970 Y121.483 E11.2581
G1 X138.736 Y121.617 E11.2994
G1 X138.736 Y122.925 E11.3429
G1 X138.690 Y123.742 E11.3701
G1 X138.557 Y124.522 E11.3964
G1 X138.338 Y125.282 E11.4227
G1 X138.036 Y126.012 E11.4490
G1 X137.654 Y126.703 E11.4753
G1 X137.198 Y127.346 E11.5015
G1 X136.673 Y127.933 E11.5277
G1 X136.087 Y128.457 E11.5538
G1 X135.447 Y128.911 E11.5799
G1 X134.761 Y129.290 E11.6060
G1 X134.037 Y129.590 E11.6321
G1 X133.286 Y129.806 E11.6580
G1 X132.515 Y129.937 E11.6841
G1 X131.706 Y129.983 E11.7110
G1 X126.928 Y129.983 E11.8699
G1 X126.007 Y129.940 E11.9006
G1 X125.130 Y129.791 E11.9302
G1 X124.434 Y129.590 E11.9543
G1 X123.710 Y129.290 E11.9803
G1 X123.024 Y128.911 E12.0064
G1 X122.384 Y128.457 E12.0325
G1 X121.798 Y127.933 E12.0587
G1 X121.273 Y127.346 E12.0849
G1 X120.817 Y126.703 E12.1111
G1 X120.435 Y126.012 E12.1373
G1 X120.133 Y125.282 E12.1636
G1 X119.914 Y124.522 E12.1899
G1 X119.782 Y123.742 E12.2162
G1 X119.736 Y122.925 E12.2434
G1 X119.736 Y121.483 E12.2914
G1 X117.059 Y121.483 E12.3804
G0 X119.068 Y122.129 F5400
G0 X124.425 Y126.894
G0 X126.265 Y127.899
G0 X127.876 Y128.371
G0 X129.732 Y128.472
G0 X131.518 Y128.369
G1 X130.663 Y128.570 E12.4096 F3000
G1 X129.746 Y128.678 E12.4404
G1 X128.776 Y128.681 E12.4726
G1 X127.839 Y128.574 E12.5040
G1 X126.957 Y128.370 E12.5341
G1 X126.195 Y128.094 E12.5610
G1 X125.970 Y128.023 E12.5689
G1 X125.098 Y127.585 E12.6013
G1 X124.295 Y127.057 E12.6333
G1 X123.560 Y126.440 E12.6652
G1 X122.901 Y125.742 E12.6971
G1 X122.329 Y124.973 E12.7290
G1 X121.850 Y124.144 E12.7609
G1 X121.471 Y123.265 E12.7927
G1 X121.196 Y122.348 E12.8245
G1 X121.030 Y121.406 E12.8564
G1 X120.974 Y120.451 E12.8882
G1 X121.030 Y119.497 E12.9200
G1 X121.196 Y118.554 E12.9518
G1 X121.471 Y117.638 E12.9836
G1 X121.850 Y116.759 E13.0155
G1 X122.329 Y115.929 E13.0473
G1 X122.901 Y115.160 E13.0792
G1 X123.560 Y114.463 E13.1111
G1 X124.295 Y113.846 E13.1431
G1 X125.098 Y113.318 E13.1750
G1 X125.957 Y112.886 E13.2070
G1 X126.861 Y112.557 E13.2390
G1 X127.798 Y112.335 E13.2710
G1 X128.754 Y112.223 E13.3030
G1 X129.717 Y112.223 E13.3350
G1 X130.673 Y112.335 E13.3671
G1 X131.610 Y112.557 E13.3991
G1 X132.514 Y112.886 E13.4311
G1 X133.373 Y113.318 E13.4631
G1 X134.176 Y113.846 E13.4950
G1 X134.912 Y114.463 E13.5270
G1 X135.570 Y115.160 E13.5589
G1 X136.142 Y115.929 E13.5908
G1 X136.621 Y116.759 E13.6226
G1 X137.000 Y117.638 E13.6544
G1 X137.258 Y118.499 E13.6843
G1 X137.431 Y119.437 E13.7161
G1 X137.493 Y120.391 E13.7479
G1 X137.441 Y121.404 E13.7816
G1 X137.275 Y122.348 E13.8135
G1 X137.000 Y123.265 E13.8453
G1 X136.621 Y124.144 E13.8772
G1 X136.142 Y124.973 E13.9090
G1 X135.570 Y125.742 E13.9409
G1 X134.912 Y126.440 E13.9728
G1 X134.176 Y127.057 E14.0047
G1 X133.373 Y127.585 E14.0367
G1 X132.501 Y128.023 E14.0691
G1 X132.276 Y128.094 E14.0770
G1 X131.694 Y128.306 E14.0976
;segType:Perimeter
G0 X132.928 Y127.905 F5400
G1 X132.293 Y127.681 E14.1200 F2100
G1 X132.144 Y127.728 E14.1252
G1 X131.406 Y127.997 E14.1513
G1 X130.591 Y128.188 E14.1791
G1 X129.721 Y128.290 E14.2083
G1 X128.799 Y128.293 E14.2390
G1 X127.909 Y128.192 E14.2688
G1 X127.074 Y127.998 E14.2973
G1 X126.327 Y127.728 E14.3237
G1 X126.124 Y127.664 E14.3307
G1 X125.303 Y127.252 E14.3613
G1 X124.539 Y126.750 E14.3917
G1 X123.839 Y126.162 E14.4221
G1 X123.212 Y125.498 E14.4525
G1 X122.667 Y124.765 E14.4829
G1 X122.210 Y123.974 E14.5132
G1 X121.849 Y123.136 E14.5436
G1 X121.587 Y122.261 E14.5740
G1 X121.428 Y121.362 E14.6043
G1 X121.375 Y120.451 E14.6347
G1 X121.428 Y119.540 E14.6650
G1 X121.587 Y118.641 E14.6954
G1 X121.849 Y117.767 E14.7258
G1 X122.210 Y116.929 E14.7561
G1 X122.667 Y116.138 E14.7865
G1 X123.212 Y115.405 E14.8169
G1 X123.839 Y114.741 E14.8473
G1 X124.539 Y114.153 E14.8777
G1 X125.303 Y113.651 E14.9081
G1 X126.120 Y113.241 E14.9385
G1 X126.979 Y112.928 E14.9689
G1 X127.870 Y112.717 E14.9993
G1 X128.778 Y112.611 E15.0297
G1 X129.693 Y112.611 E15.0602
G1 X130.602 Y112.717 E15.0906
G1 X131.491 Y112.928 E15.1210
G1 X132.351 Y113.241 E15.1514
G1 X133.168 Y113.651 E15.1819
G1 X133.932 Y114.153 E15.2123
G1 X134.632 Y114.741 E15.2427
G1 X135.259 Y115.405 E15.2730
G1 X135.804 Y116.138 E15.3034
G1 X136.261 Y116.929 E15.3338
G1 X136.623 Y117.767 E15.3642
G1 X136.868 Y118.587 E15.3926
G1 X137.033 Y119.484 E15.4229
G1 X137.093 Y120.394 E15.4533
G1 X137.043 Y121.362 E15.4855
G1 X136.884 Y122.261 E15.5159
G1 X136.623 Y123.136 E15.5463
G1 X136.261 Y123.974 E15.5766
G1 X135.804 Y124.765 E15.6070
G1 X135.259 Y125.498 E15.6374
G1 X134.632 Y126.162 E15.6678
G1 X133.932 Y126.750 E15.6982
G1 X133.168 Y127.252 E15.7286
G1 X132.397 Y127.639 E15.7573
G1 X132.114 Y128.233
;segType:Infill
G0 X130.811 Y129.133 F5400
G1 X134.632 Y129.133 E15.8844 F3750
G0 X133.661 Y129.496 F5400
G1 X124.810 Y129.496 E16.1788 F3750
G0 X126.640 Y129.776 F5400
G1 X127.101 Y129.002 E16.2087 F3750
G1 X127.481 Y129.091 E16.2217
G1 X127.065 Y129.789 E16.2488
G1 X127.198 Y129.789 E16.2532
G1 X126.653 Y128.875 E16.2886
G1 X127.172 Y129.019 E16.3065
G1 X127.631 Y129.789 E16.3363
G0 X129.882 Y129.789 F5400
G1 X130.229 Y129.207 E16.3589 F3750
G1 X130.695 Y129.152 E16.3745
G1 X130.315 Y129.789 E16.3992
G1 X130.448 Y129.789 E16.4036
G1 X130.109 Y129.221 E16.4256
G1 X130.514 Y129.173 E16.4392
G1 X130.881 Y129.789 E16.4630
G0 X127.659 Y129.133 F5400
G1 X123.839 Y129.133 E16.5901 F3750
G0 X121.828 Y127.671 F5400
G1 X122.633 Y126.320 E16.6424 F3750
G1 X122.374 Y126.028 E16.6554
G1 X121.568 Y127.380 E16.7078
G0 X123.423 Y128.909 F5400
G1 X119.944 Y123.072 E16.9338 F3750
G0 X119.068 Y122.129 F5400
G0 X115.883 Y121.289
G1 X121.352 Y112.113 E17.2891 F3750
G1 X120.919 Y112.113 E17.3035
G1 X115.449 Y121.289 E17.6588
G0 X118.881 Y121.289 F5400
G1 X113.412 Y112.113 E18.0141 F3750
G1 X113.845 Y112.113 E18.0285
G1 X119.315 Y121.289 E18.3838
G1 X119.132 Y121.289 E18.3898
G1 X120.514 Y118.972 E18.4796
G0 X119.935 Y121.318 F5400
G1 X120.424 Y121.318 E18.4958 F3750
G1 X120.403 Y120.955 E18.5079
G1 X111.523 Y120.955 E18.8033
G0 X111.435 Y118.592 F5400
G1 X120.581 Y118.592 E19.1074 F3750
G1 X120.669 Y118.229 E19.1199
G1 X111.435 Y118.229 E19.4270
G1 X111.435 Y117.846 E19.4397
G1 X114.852 Y112.113 E19.6617
G1 X114.419 Y112.113 E19.6761
G1 X111.435 Y117.119 E19.8699
G0 X111.435 Y115.866 F5400
G1 X121.678 Y115.866 E20.2106 F3750
G1 X121.907 Y115.503 E20.2249
G1 X111.435 Y115.503 E20.5732
G0 X112.201 Y121.286 F5400
G1 X117.669 Y112.113 E20.9283 F3750
G1 X118.102 Y112.113 E20.9427
G1 X112.633 Y121.289 E21.2980
G1 X112.381 Y121.288 E21.3064
G1 X111.435 Y119.702 E21.3678
G1 X111.435 Y118.975 E21.3920
G1 X112.815 Y121.289 E21.4816
G0 X119.068 Y122.129 F5400
G0 X120.096 Y124.398
G1 X120.821 Y123.182 E21.5288 F3750
G1 X120.982 Y123.639 E21.5449
G1 X120.230 Y124.900 E21.5937
G0 X120.880 Y126.407 F5400
G1 X122.715 Y126.407 E21.6547 F3750
G1 X123.058 Y126.770 E21.6713
G1 X121.108 Y126.770 E21.7362
G0 X119.979 Y123.681 F5400
G1 X121.000 Y123.681 E21.7702 F3750
G1 X121.157 Y124.044 E21.7834
G1 X120.036 Y124.044 E21.8207
G0 X119.068 Y122.129 F5400
G0 X115.632 Y121.289
G1 X111.435 Y114.249 E22.0933 F3750
G1 X111.435 Y113.522 E22.1174
G1 X116.065 Y121.289 E22.4182
G0 X118.699 Y121.289 F5400
G1 X120.816 Y117.738 E22.5557 F3750
G1 X120.693 Y118.149 E22.5700
G1 X117.095 Y112.113 E22.8037
G1 X116.662 Y112.113 E22.8181
G1 X120.568 Y118.666 E23.0718
G0 X121.921 Y115.484 F5400
G1 X119.912 Y112.113 E23.2023 F3750
G1 X120.345 Y112.113 E23.2167
G1 X122.161 Y115.161 E23.3347
G0 X122.805 Y114.401 F5400
G1 X124.168 Y112.113 E23.4233 F3750
G1 X124.602 Y112.113 E23.4377
G1 X123.760 Y113.526 E23.4924
G1 X123.922 Y113.390 E23.4995
G1 X123.161 Y112.113 E23.5489
G1 X123.595 Y112.113 E23.5633
G1 X124.233 Y113.184 E23.6047
G1 X124.300 Y113.140 E23.6074
G1 X111.435 Y113.140 E24.0353
G0 X111.603 Y112.113 F5400
G1 X111.435 Y112.394 E24.0462 F3750
G1 X111.435 Y112.776 E24.0589
G1 X124.872 Y112.776 E24.5058
G0 X129.704 Y112.429 F5400
G0 X133.181 Y112.566
G1 X132.911 Y112.113 E24.5233 F3750
G1 X133.344 Y112.113 E24.5377
G1 X133.817 Y112.907 E24.5685
G1 X133.861 Y112.936 E24.5702
G1 X134.351 Y112.113 E24.6020
G1 X133.918 Y112.113 E24.6165
G1 X133.540 Y112.747 E24.6410
G1 X133.599 Y112.776 E24.6432
G1 X147.036 Y112.776 E25.0901
G1 X147.036 Y113.140 E25.1022
G1 X134.171 Y113.140 E25.5300
G0 X135.751 Y114.491 F5400
G1 X137.168 Y112.113 E25.6221 F3750
G1 X137.601 Y112.113 E25.6365
G1 X136.016 Y114.772 E25.7394
G1 X136.564 Y115.503 E25.7698
G1 X147.036 Y115.503 E26.1181
G1 X147.036 Y115.866 E26.1302
G1 X136.793 Y115.866 E26.4708
G0 X137.890 Y118.592 F5400
G1 X147.036 Y118.592 E26.7750 F3750
G1 X147.036 Y118.229 E26.7871
G1 X137.802 Y118.229 E27.0942
G1 X137.603 Y117.563 E27.1173
G1 X140.851 Y112.113 E27.3283
G1 X140.417 Y112.113 E27.3428
G1 X137.430 Y117.126 E27.5368
G0 X138.075 Y120.050 F5400
G1 X138.814 Y121.289 E27.5848 F3750
;segType:HShell
G0 X139.164 Y121.289 F5400
G1 X139.244 Y121.367 E27.5885 F3000
G1 X138.767 Y121.418
G1 X138.633 Y121.289 E27.5947
;segType:Infill
G1 X144.101 Y112.113 E27.9500 F3750
G1 X143.667 Y112.113 E27.9644
G1 X138.017 Y121.593 E28.3315
G0 X137.798 Y122.687 F5400
G1 X138.536 Y121.449 E28.3794 F3750
G1 X138.047 Y121.318 E28.3962
G1 X138.536 Y121.318 E28.4124
G1 X138.536 Y121.550 E28.4202
G1 X138.078 Y120.783 E28.4499
G1 X138.069 Y120.955 E28.4556
G1 X146.949 Y120.955 E28.7509
G0 X147.036 Y118.727 F5400
G1 X143.094 Y112.113 E29.0070 F3750
G1 X142.660 Y112.113 E29.0214
G1 X147.036 Y119.454 E29.3057
G0 X147.036 Y113.275 F5400
G1 X146.343 Y112.113 E29.3507 F3750
G1 X145.910 Y112.113 E29.3651
G1 X147.036 Y114.002 E29.4382
G0 X144.880 Y121.289 F5400
G1 X139.410 Y112.113 E29.7935 F3750
G1 X139.844 Y112.113 E29.8079
G1 X145.313 Y121.289 E30.1632
G1 X145.131 Y121.289 E30.1693
G1 X147.036 Y118.093 E30.2930
G1 X147.036 Y117.366 E30.3172
G1 X144.697 Y121.289 E30.4691
G0 X142.063 Y121.289 F5400
G1 X136.594 Y112.113 E30.8244 F3750
G1 X136.161 Y112.113 E30.8388
G1 X141.630 Y121.289 E31.1941
G1 X141.881 Y121.289 E31.2024
G1 X147.036 Y112.641 E31.5373
G1 X146.917 Y112.113 E31.5553
G1 X141.448 Y121.289 E31.9106
G0 X139.515 Y122.129 F5400
G0 X137.471 Y123.681
G1 X138.493 Y123.681 E31.9445 F3750
G1 X138.436 Y124.044 E31.9568
G1 X137.314 Y124.044 E31.9941
G0 X137.872 Y125.888 F5400
G1 X137.074 Y124.550 E32.0459 F3750
G1 X137.269 Y124.150 E32.0607
G1 X138.049 Y125.459 E32.1114
G0 X136.310 Y127.994 F5400
G1 X135.516 Y126.661 E32.1630 F3750
G1 X135.243 Y126.931 E32.1758
G1 X136.028 Y128.247 E32.2267
G0 X135.756 Y126.407 F5400
G1 X137.591 Y126.407 E32.2877 F3750
G1 X137.364 Y126.770 E32.3020
G1 X135.413 Y126.770 E32.3669
G1 X135.294 Y126.888 E32.3724
G1 X133.756 Y129.469 E32.4724
G1 X133.543 Y129.530 E32.4797
G1 X132.912 Y128.472 E32.5207
G1 X133.245 Y128.304 E32.5331
G1 X133.913 Y129.424 E32.5765
G1 X133.233 Y129.619 E32.6000
G1 X134.448 Y127.581 E32.6789
; ------------------------------------
; Layer #6
; ------------------------------------
G21 ; mm
G90 ; abs
G92 E0 ; reset extr
M106 S255
G0 F1200 E-1.0000
G0 F300 Z1.400
G0 X129.291 Y128.418 F5400
G0 X126.712 Y128.837
G0 X124.134 Y129.255
G0 F1200 E0.0000
;segType:Infill
G1 X124.822 Y128.101 E0.0447 F3750
G1 X124.508 Y127.900 E0.0571
G1 X123.787 Y129.110 E0.1039
G1 X124.040 Y129.216 E0.1130
G1 X119.935 Y122.331 E0.3797
;segType:Perimeter
G0 X119.503 Y122.508 F5400
G1 X118.879 Y122.258 E0.4020 F2100
G1 X112.609 Y122.258 E0.6106
G1 X112.016 Y122.253 E0.6303
G1 X111.623 Y122.202 E0.6435
G1 X111.239 Y122.043 E0.6573
G1 X110.908 Y121.788 E0.6712
G1 X110.653 Y121.456 E0.6851
G1 X110.492 Y121.068 E0.6991
G1 X110.436 Y120.639 E0.7135
G1 X110.436 Y111.145 E1.0293
G1 X148.036 Y111.145 E2.2798
G1 X148.031 Y120.674 E2.5968
G1 X147.979 Y121.068 E2.6100
G1 X147.818 Y121.456 E2.6240
G1 X147.564 Y121.788 E2.6379
G1 X147.232 Y122.043 E2.6518
G1 X146.848 Y122.202 E2.6656
G1 X146.422 Y122.258 E2.6799
G1 X140.063 Y122.258 E2.8914
G1 X139.536 Y122.315 E2.9090
G1 X139.536 Y122.946 E2.9300
G1 X139.486 Y123.826 E2.9594
G1 X139.340 Y124.690 E2.9885
G1 X139.097 Y125.532 E3.0176
G1 X138.762 Y126.341 E3.0467
G1 X138.338 Y127.107 E3.0759
G1 X137.832 Y127.821 E3.1050
G1 X137.248 Y128.473 E3.1341
G1 X136.596 Y129.056 E3.1632
G1 X135.883 Y129.562 E3.1923
G1 X135.117 Y129.985 E3.2214
G1 X134.310 Y130.320 E3.2505
G1 X133.470 Y130.562 E3.2795
G1 X132.608 Y130.709 E3.3086
G1 X131.730 Y130.758 E3.3379
G1 X126.741 Y130.758 E3.5038
G1 X125.863 Y130.709 E3.5330
G1 X125.001 Y130.562 E3.5621
G1 X124.161 Y130.320 E3.5912
G1 X123.353 Y129.985 E3.6203
G1 X122.588 Y129.562 E3.6493
G1 X121.875 Y129.056 E3.6784
G1 X121.223 Y128.473 E3.7075
G1 X120.639 Y127.821 E3.7366
G1 X120.133 Y127.107 E3.7658
G1 X119.709 Y126.341 E3.7949
G1 X119.374 Y125.532 E3.8240
G1 X119.132 Y124.690 E3.8531
G1 X118.985 Y123.826 E3.8823
G1 X118.935 Y122.946 E3.9116
G1 X118.935 Y122.312 E3.9327
G1 X118.677 Y121.708
;segType:Loop
G0 X117.904 Y121.870 F5400
G1 X112.611 Y121.870 E4.1087 F3000
G1 X112.044 Y121.866 E4.1275
G1 X111.731 Y121.825 E4.1381
G1 X111.445 Y121.707 E4.1483
G1 X111.197 Y121.516 E4.1587
G1 X111.005 Y121.265 E4.1693
G1 X110.882 Y120.970 E4.1799
G1 X110.836 Y120.614 E4.1918
G1 X110.836 Y111.532 E4.4939
G1 X147.635 Y111.532 E5.7179
G1 X147.631 Y120.649 E6.0211
G1 X147.589 Y120.970 E6.0318
G1 X147.466 Y121.265 E6.0425
G1 X147.274 Y121.516 E6.0530
G1 X147.026 Y121.707 E6.0634
G1 X146.740 Y121.825 E6.0737
G1 X146.395 Y121.870 E6.0853
G1 X140.041 Y121.870 E6.2966
G1 X139.136 Y121.969 E6.3269
G1 X139.136 Y122.936 E6.3590
G1 X139.088 Y123.784 E6.3873
G1 X138.948 Y124.606 E6.4150
G1 X138.718 Y125.407 E6.4428
G1 X138.399 Y126.176 E6.4705
G1 X137.996 Y126.905 E6.4981
G1 X137.515 Y127.583 E6.5258
G1 X136.961 Y128.203 E6.5535
G1 X136.341 Y128.757 E6.5811
G1 X135.665 Y129.237 E6.6087
G1 X134.939 Y129.638 E6.6363
G1 X134.173 Y129.955 E6.6638
G1 X133.378 Y130.184 E6.6914
G1 X132.562 Y130.323 E6.7189
G1 X131.718 Y130.370 E6.7470
G1 X126.753 Y130.370 E6.9121
G1 X125.909 Y130.323 E6.9402
G1 X125.093 Y130.184 E6.9678
G1 X124.298 Y129.955 E6.9953
G1 X123.532 Y129.638 E7.0229
G1 X122.806 Y129.237 E7.0505
G1 X122.130 Y128.757 E7.0781
G1 X121.510 Y128.203 E7.1057
G1 X120.956 Y127.583 E7.1333
G1 X120.475 Y126.905 E7.1610
G1 X120.072 Y126.176 E7.1887
G1 X119.754 Y125.407 E7.2164
G1 X119.523 Y124.606 E7.2441
G1 X119.383 Y123.784 E7.2718
G1 X119.335 Y122.936 E7.3001
G1 X119.335 Y121.870 E7.3355
G1 X118.091 Y121.870 E7.3769
G0 X116.872 Y121.483 F5400
G1 X112.612 Y121.483 E7.5186 F3000
G1 X112.073 Y121.479 E7.5365
G1 X111.838 Y121.448 E7.5444
G1 X111.652 Y121.371 E7.5511
G1 X111.487 Y121.244 E7.5580
G1 X111.357 Y121.074 E7.5651
G1 X111.273 Y120.872 E7.5724
G1 X111.236 Y120.590 E7.5819
G1 X111.236 Y111.920 E7.8703
G1 X128.012 Y111.920 E8.4282
G1 X127.726 Y111.953 E8.4378
G1 X126.743 Y112.186 E8.4714
G1 X125.794 Y112.531 E8.5050
G1 X124.893 Y112.984 E8.5385
G1 X124.051 Y113.538 E8.5720
G1 X123.280 Y114.185 E8.6055
G1 X122.590 Y114.915 E8.6389
G1 X121.991 Y115.721 E8.6723
G1 X121.490 Y116.589 E8.7057
G1 X121.093 Y117.509 E8.7390
G1 X120.806 Y118.467 E8.7723
G1 X120.632 Y119.453 E8.8055
G1 X120.574 Y120.451 E8.8388
G1 X120.632 Y121.450 E8.8721
G1 X120.806 Y122.435 E8.9054
