; generated by Slic3r 1.3.0-dev on 2017-07-07 at 15:51:45

; external perimeters extrusion width = 0.40mm (2.86mm^3/s)
; perimeters extrusion width = 0.67mm (6.28mm^3/s)
; infill extrusion width = 0.67mm (7.54mm^3/s)
; solid infill extrusion width = 0.67mm (6.28mm^3/s)
; top infill extrusion width = 0.67mm (3.77mm^3/s)

M109 S70 ; set bed temperature and wait for it to be reached
M103 (disable RPM)
M73 P0 (enable build progress)
G21 (set units to mm)
G90 (set positioning to absolute)
M109 S70 T0; heat bed up to first layer temperature
M104 S240 T0; set nozzle heater to first layer temperature
(**** begin homing ****)
G162 X Y F2500 (home XY axes maximum)
G161 Z F1100 (home Z axis minimum)
G92 Z-5 (set Z to -5)
G1 Z0.0 (move Z to "0")
G161 Z F100 (home Z axis minimum)
M132 X Y Z A B (Recall stored home offsets for XYZAB axis)
(**** end homing ****)
G1 X-110.5 Y-74 Z150 F3300.0 (move to waiting position)
G130 X20 Y20 Z20 A20 B20 (Lower stepper Vrefs while heating)
M6 T0 (wait for toolhead, and HBP to reach temperature)
G130 X127 Y127 Z40 A127 B127 (Set Stepper motor Vref to defaults)
M108 R3.0 T0
G0 X-110.5 Y-74 (Position Nozzle)
G0 Z0.6      (Position Height)
M108 R5.0    (Set Extruder Speed)
M101         (Start Extruder)
G4 P2000     (Create Anchor)
; Filament gcode

; Filament gcode

G21 ; set units to millimeters
G90 ; use absolute coordinates
M108 T1
M73 P0
G1 E-1.00000 F1800.00000
G1 Z0.200 F5400.000
G1 X-6.858 Y25.527 F5400.000
G1 E0.00000 F1800.00000
G1 F2400
G1 X-7.556 Y25.592 E0.01466
G1 X-31.556 Y25.592 E0.51616
G1 X-33.236 Y25.197 E0.55221
G1 X-34.564 Y24.096 E0.58826
G1 X-35.327 Y21.821 E0.63841
G1 X-35.327 Y-8.179 E1.26529
G1 X-35.287 Y-8.729 E1.27682
G1 X-33.163 Y-23.127 E1.58093
G1 X-33.050 Y-23.640 E1.59191
G1 X-32.810 Y-24.460 E1.60975
G1 X-32.364 Y-25.436 E1.63217
G1 X-31.908 Y-26.145 E1.64979
G1 X-31.199 Y-26.965 E1.67243
G1 X-30.554 Y-27.524 E1.69027
G1 X-29.651 Y-28.104 E1.71270
G1 X-28.874 Y-28.458 E1.73054
G1 X-27.845 Y-28.760 E1.75296
G1 X-27.000 Y-28.882 E1.77080
G1 X-26.463 Y-28.920 E1.78204
G1 X-12.649 Y-28.920 E2.07070
G1 X-12.112 Y-28.882 E2.08194
G1 X-11.267 Y-28.760 E2.09978
G1 X-10.819 Y-28.668 E2.10935
G1 X29.158 Y-17.852 E2.97474
G1 X30.676 Y-17.032 E3.01079
G1 X31.671 Y-15.622 E3.04685
G1 X31.944 Y-14.211 E3.07687
G1 X31.944 Y15.089 E3.68912
G1 X31.550 Y16.768 E3.72517
G1 X30.448 Y18.097 E3.76123
G1 X28.871 Y18.795 E3.79726
G1 X-6.799 Y25.516 E4.55574
G1 X-6.905 Y25.274 F5400.000
G1 F2400
G1 X-7.556 Y25.335 E4.56939
G1 X-31.556 Y25.335 E5.07089
G1 X-33.173 Y24.941 E5.10568
G1 X-34.428 Y23.846 E5.14047
G1 X-35.070 Y21.821 E5.18487
G1 X-35.070 Y-8.179 E5.81174
G1 X-35.032 Y-8.692 E5.82249
G1 X-32.909 Y-23.090 E6.12660
G1 X-32.804 Y-23.568 E6.13683
G1 X-32.563 Y-24.387 E6.15468
G1 X-32.147 Y-25.297 E6.17557
G1 X-31.691 Y-26.006 E6.19318
G1 X-31.031 Y-26.770 E6.21430
G1 X-30.385 Y-27.329 E6.23214
G1 X-29.544 Y-27.870 E6.25303
G1 X-28.768 Y-28.224 E6.27087
G1 X-27.808 Y-28.506 E6.29177
G1 X-26.963 Y-28.627 E6.30961
G1 X-26.463 Y-28.663 E6.32008
G1 X-12.649 Y-28.663 E6.60874
G1 X-12.149 Y-28.627 E6.61922
G1 X-11.304 Y-28.506 E6.63706
G1 X-10.886 Y-28.420 E6.64597
G1 X29.091 Y-17.603 E7.51136
G1 X30.549 Y-16.800 E7.54615
G1 X31.474 Y-15.416 E7.58093
G1 X31.687 Y-14.211 E7.60651
G1 X31.687 Y15.089 E8.21876
G1 X31.293 Y16.706 E8.25354
G1 X30.199 Y17.961 E8.28833
G1 X28.824 Y18.542 E8.31952
G1 X-6.846 Y25.263 E9.07799
G1 X-6.953 Y25.022 F5400.000
G1 F2400
G1 X-7.556 Y25.078 E9.09065
G1 X-31.556 Y25.078 E9.59215
G1 X-33.108 Y24.684 E9.62562
G1 X-34.286 Y23.598 E9.65909
G1 X-34.813 Y21.821 E9.69782
G1 X-34.813 Y-8.179 E10.32470
G1 X-34.778 Y-8.654 E10.33466
G1 X-32.655 Y-23.052 E10.63877
G1 X-32.557 Y-23.495 E10.64825
G1 X-32.316 Y-24.315 E10.66610
G1 X-31.931 Y-25.158 E10.68546
G1 X-31.475 Y-25.867 E10.70308
G1 X-30.862 Y-26.576 E10.72266
G1 X-30.217 Y-27.135 E10.74050
G1 X-29.437 Y-27.636 E10.75987
G1 X-28.661 Y-27.990 E10.77771
G1 X-27.772 Y-28.252 E10.79707
G1 X-26.926 Y-28.373 E10.81492
G1 X-26.463 Y-28.406 E10.82462
G1 X-12.649 Y-28.406 E11.11328
G1 X-12.185 Y-28.373 E11.12299
G1 X-11.340 Y-28.252 E11.14083
G1 X-10.953 Y-28.172 E11.14909
G1 X29.024 Y-17.355 E12.01448
G1 X30.420 Y-16.570 E12.04795
G1 X31.272 Y-15.213 E12.08142
G1 X31.430 Y-14.211 E12.10263
G1 X31.430 Y15.089 E12.71488
G1 X31.036 Y16.641 E12.74835
G1 X29.950 Y17.819 E12.78182
G1 X28.776 Y18.290 E12.80825
G1 X-6.894 Y25.011 E13.56672
G1 E12.56672 F1800.00000
G1 X-4.786 Y16.618 F5400.000
G1 E13.56672 F1800.00000
G1 F2400
G1 X-4.922 Y16.697 E13.57021
G1 X-4.922 Y22.912 E13.70799
G1 X-6.465 Y24.455 E13.75636
G1 X-32.647 Y24.455 E14.33675
G1 X-34.190 Y22.912 E14.38512
G1 X-34.178 Y10.563 E14.65887
G1 X-34.042 Y9.530 E14.68198
G1 X-33.953 Y9.196 E14.68963
G1 X-33.521 Y8.154 E14.71465
G1 X-33.349 Y7.855 E14.72230
G1 X-32.662 Y6.959 E14.74731
G1 X-32.580 Y6.877 E14.74988
G1 X-32.580 Y6.764 E14.75238
G1 X-32.662 Y6.683 E14.75495
G1 X-33.349 Y5.787 E14.77996
G1 X-33.521 Y5.488 E14.78762
G1 X-33.953 Y4.446 E14.81263
G1 X-34.042 Y4.112 E14.82029
G1 X-34.178 Y3.079 E14.84339
G1 X-34.190 Y-9.270 E15.11714
G1 X-33.977 Y-9.502 E15.12411
G1 X-32.026 Y-23.046 E15.42745
G1 X-31.986 Y-23.229 E15.43162
G1 X-31.665 Y-24.320 E15.45681
G1 X-31.509 Y-24.662 E15.46515
G1 X-30.843 Y-25.697 E15.49243
G1 X-30.597 Y-25.982 E15.50078
G1 X-29.667 Y-26.787 E15.52805
G1 X-29.350 Y-26.991 E15.53640
G1 X-28.231 Y-27.502 E15.56367
G1 X-27.869 Y-27.608 E15.57202
G1 X-26.557 Y-27.783 E15.60137
G1 X-12.555 Y-27.783 E15.91177
G1 X-11.243 Y-27.608 E15.94111
G1 X-10.881 Y-27.502 E15.94946
G1 X-9.762 Y-26.991 E15.97674
G1 X-9.445 Y-26.787 E15.98509
G1 X-8.515 Y-25.982 E16.01236
G1 X-8.269 Y-25.697 E16.02071
G1 X-7.603 Y-24.662 E16.04799
G1 X-7.446 Y-24.319 E16.05634
G1 X-7.086 Y-23.046 E16.08568
G1 X-5.931 Y-15.033 E16.26514
G1 X-5.786 Y-14.974 E16.26861
G1 X-4.793 Y-15.736 E16.29636
G1 X-4.494 Y-15.909 E16.30402
G1 X-2.969 Y-16.540 E16.34061
G1 X-2.636 Y-16.630 E16.34826
G1 X-0.913 Y-16.845 E16.38675
G1 X29.264 Y-16.845 E17.05571
G1 X30.807 Y-15.302 E17.10408
G1 X30.807 Y16.180 E17.80196
G1 X29.264 Y17.723 E17.85033
G1 X-0.913 Y17.723 E18.51929
G1 X-2.636 Y17.507 E18.55778
G1 X-2.969 Y17.418 E18.56543
G1 X-4.494 Y16.786 E18.60202
G1 X-4.734 Y16.648 E18.60815
G1 X-5.043 Y16.078 F5400.000
G1 F2400
G1 X-5.195 Y16.153 E18.61191
G1 X-5.195 Y22.799 E18.75923
G1 X-6.578 Y24.182 E18.80259
G1 X-32.534 Y24.182 E19.37797
G1 X-33.917 Y22.799 E19.42133
G1 X-33.907 Y10.590 E19.69199
G1 X-33.774 Y9.583 E19.71450
G1 X-33.694 Y9.284 E19.72136
G1 X-33.276 Y8.274 E19.74558
G1 X-33.121 Y8.006 E19.75244
G1 X-32.456 Y7.139 E19.77666
G1 X-32.194 Y6.877 E19.78488
G1 X-32.194 Y6.764 E19.78738
G1 X-32.456 Y6.502 E19.79560
G1 X-33.121 Y5.636 E19.81982
G1 X-33.276 Y5.367 E19.82668
G1 X-33.694 Y4.358 E19.85090
G1 X-33.774 Y4.059 E19.85777
G1 X-33.907 Y3.052 E19.88028
G1 X-33.917 Y-9.157 E20.15093
G1 X-33.720 Y-9.373 E20.15741
G1 X-31.721 Y-23.162 E20.46627
G1 X-31.409 Y-24.224 E20.49081
G1 X-31.269 Y-24.531 E20.49829
G1 X-30.624 Y-25.533 E20.52470
G1 X-30.403 Y-25.788 E20.53218
G1 X-29.503 Y-26.568 E20.55859
G1 X-29.219 Y-26.751 E20.56608
G1 X-28.135 Y-27.246 E20.59249
G1 X-27.811 Y-27.341 E20.59997
G1 X-26.547 Y-27.510 E20.62824
G1 X-12.565 Y-27.510 E20.93821
G1 X-11.301 Y-27.341 E20.96647
G1 X-10.977 Y-27.246 E20.97395
G1 X-9.893 Y-26.751 E21.00037
G1 X-9.609 Y-26.568 E21.00785
G1 X-8.708 Y-25.788 E21.03426
G1 X-8.487 Y-25.533 E21.04174
G1 X-7.843 Y-24.531 E21.06816
G1 X-7.703 Y-24.224 E21.07564
G1 X-7.355 Y-22.997 E21.10391
G1 X-6.135 Y-14.533 E21.29348
G1 X-5.990 Y-14.474 E21.29695
G1 X-4.641 Y-15.509 E21.33463
G1 X-4.373 Y-15.663 E21.34149
G1 X-2.882 Y-16.281 E21.37729
G1 X-2.583 Y-16.362 E21.38415
G1 X-0.904 Y-16.572 E21.42165
G1 X29.151 Y-16.572 E22.08790
G1 X30.534 Y-15.189 E22.13126
G1 X30.534 Y16.067 E22.82414
G1 X29.151 Y17.450 E22.86750
G1 X-0.904 Y17.450 E23.53376
G1 X-2.583 Y17.239 E23.57126
G1 X-2.882 Y17.159 E23.57812
G1 X-4.373 Y16.541 E23.61392
G1 X-4.641 Y16.386 E23.62078
G1 X-4.995 Y16.115 E23.63066
G1 X-5.315 Y15.525 F5400.000
G1 F2400
G1 X-5.468 Y15.600 E23.63442
G1 X-5.468 Y22.686 E23.79149
G1 X-6.691 Y23.909 E23.82984
G1 X-32.421 Y23.909 E24.40022
G1 X-33.644 Y22.686 E24.43857
G1 X-33.635 Y10.616 E24.70613
G1 X-33.506 Y9.636 E24.72804
G1 X-33.435 Y9.372 E24.73411
G1 X-33.031 Y8.395 E24.75754
G1 X-32.894 Y8.158 E24.76361
G1 X-32.251 Y7.320 E24.78704
G1 X-32.057 Y7.126 E24.79311
G1 X-31.747 Y6.888 E24.80177
G1 X-31.747 Y6.754 E24.80475
G1 X-32.057 Y6.516 E24.81342
G1 X-32.251 Y6.322 E24.81949
G1 X-32.894 Y5.484 E24.84292
G1 X-33.031 Y5.247 E24.84899
G1 X-33.435 Y4.270 E24.87242
G1 X-33.506 Y4.006 E24.87848
G1 X-33.635 Y3.026 E24.90040
G1 X-33.644 Y-9.044 E25.16796
G1 X-33.463 Y-9.245 E25.17394
G1 X-31.457 Y-23.094 E25.48416
G1 X-31.153 Y-24.128 E25.50806
G1 X-31.029 Y-24.400 E25.51467
G1 X-30.406 Y-25.369 E25.54022
G1 X-30.210 Y-25.595 E25.54684
G1 X-29.339 Y-26.349 E25.57238
G1 X-29.088 Y-26.511 E25.57901
G1 X-28.040 Y-26.989 E25.60455
G1 X-27.753 Y-27.073 E25.61117
G1 X-26.538 Y-27.237 E25.63836
G1 X-12.574 Y-27.237 E25.94789
G1 X-11.359 Y-27.073 E25.97508
G1 X-11.072 Y-26.989 E25.98170
G1 X-10.024 Y-26.511 E26.00725
G1 X-9.773 Y-26.349 E26.01387
G1 X-8.902 Y-25.595 E26.03941
G1 X-8.706 Y-25.369 E26.04603
G1 X-8.083 Y-24.400 E26.07158
G1 X-7.959 Y-24.128 E26.07820
G1 X-7.623 Y-22.949 E26.10538
G1 X-6.319 Y-13.901 E26.30802
G1 X-6.144 Y-13.855 E26.31204
G1 X-5.936 Y-14.127 E26.31962
G1 X-5.742 Y-14.320 E26.32569
G1 X-4.490 Y-15.281 E26.36069
G1 X-4.252 Y-15.418 E26.36676
G1 X-2.794 Y-16.023 E26.40176
G1 X-2.529 Y-16.093 E26.40783
G1 X-0.895 Y-16.300 E26.44434
G1 X29.038 Y-16.300 E27.10790
G1 X30.262 Y-15.076 E27.14625
G1 X30.262 Y15.954 E27.83412
G1 X29.038 Y17.177 E27.87247
G1 X-0.895 Y17.177 E28.53603
G1 X-2.529 Y16.971 E28.57254
G1 X-2.794 Y16.900 E28.57861
G1 X-4.252 Y16.296 E28.61361
G1 X-4.490 Y16.159 E28.61968
G1 X-5.268 Y15.562 E28.64142
G1 X-5.588 Y14.972 F5400.000
G1 F2400
G1 X-5.740 Y15.047 E28.64518
G1 X-5.740 Y22.573 E28.81201
G1 X-6.804 Y23.637 E28.84535
G1 X-32.308 Y23.637 E29.41072
G1 X-33.372 Y22.573 E29.44406
G1 X-33.372 Y10.762 E29.70590
G1 X-33.238 Y9.690 E29.72985
G1 X-33.126 Y9.338 E29.73803
G1 X-32.786 Y8.516 E29.75774
G1 X-32.667 Y8.310 E29.76302
G1 X-32.045 Y7.500 E29.78566
G1 X-31.877 Y7.332 E29.79093
G1 X-31.299 Y6.888 E29.80708
G1 X-31.299 Y6.754 E29.81006
G1 X-31.877 Y6.310 E29.82621
G1 X-32.045 Y6.142 E29.83148
G1 X-32.667 Y5.332 E29.85412
G1 X-32.786 Y5.126 E29.85940
G1 X-33.177 Y4.182 E29.88203
G1 X-33.238 Y3.952 E29.88731
G1 X-33.364 Y2.999 E29.90863
G1 X-33.372 Y-8.931 E30.17309
G1 X-33.206 Y-9.116 E30.17858
G1 X-31.193 Y-23.027 E30.49017
G1 X-30.897 Y-24.033 E30.51341
G1 X-30.789 Y-24.269 E30.51917
G1 X-30.187 Y-25.205 E30.54385
G1 X-30.017 Y-25.401 E30.54961
G1 X-29.175 Y-26.130 E30.57429
G1 X-28.957 Y-26.271 E30.58004
G1 X-27.944 Y-26.733 E30.60472
G1 X-27.695 Y-26.806 E30.61048
G1 X-26.528 Y-26.965 E30.63659
G1 X-12.584 Y-26.965 E30.94569
G1 X-11.417 Y-26.806 E30.97180
G1 X-11.168 Y-26.733 E30.97755
G1 X-10.155 Y-26.271 E31.00223
G1 X-9.937 Y-26.130 E31.00799
G1 X-9.095 Y-25.401 E31.03267
G1 X-8.925 Y-25.205 E31.03842
G1 X-8.323 Y-24.269 E31.06311
G1 X-8.215 Y-24.033 E31.06886
G1 X-7.919 Y-23.027 E31.09210
G1 X-6.497 Y-13.221 E31.31174
G1 X-6.322 Y-13.176 E31.31575
G1 X-5.730 Y-13.946 E31.33729
G1 X-5.562 Y-14.115 E31.34256
G1 X-4.338 Y-15.054 E31.37677
G1 X-4.132 Y-15.173 E31.38205
G1 X-2.706 Y-15.764 E31.41626
G1 X-2.476 Y-15.825 E31.42154
G1 X-0.886 Y-16.027 E31.45706
G1 X28.925 Y-16.027 E32.11791
G1 X29.989 Y-14.963 E32.15126
G1 X29.989 Y15.841 E32.83412
G1 X28.925 Y16.904 E32.86746
G1 X-0.886 Y16.904 E33.52831
G1 X-2.476 Y16.703 E33.56383
G1 X-2.706 Y16.641 E33.56911
G1 X-4.132 Y16.051 E33.60332
G1 X-4.338 Y15.932 E33.60860
G1 X-5.541 Y15.009 E33.64221
G1 X-5.828 Y14.249 F5400.000
G1 F2400
G1 X-6.013 Y14.312 E33.64654
G1 X-6.013 Y22.460 E33.82717
G1 X-6.917 Y23.364 E33.85550
G1 X-32.195 Y23.364 E34.41586
G1 X-33.099 Y22.460 E34.44420
G1 X-33.099 Y10.770 E34.70333
G1 X-32.970 Y9.743 E34.72629
G1 X-32.874 Y9.442 E34.73329
G1 X-32.541 Y8.637 E34.75260
G1 X-32.440 Y8.462 E34.75708
G1 X-31.840 Y7.680 E34.77893
G1 X-31.697 Y7.537 E34.78341
G1 X-30.850 Y6.900 E34.80691
G1 X-30.850 Y6.742 E34.81040
G1 X-31.697 Y6.105 E34.83390
G1 X-31.840 Y5.962 E34.83838
G1 X-32.440 Y5.180 E34.86022
G1 X-32.541 Y5.005 E34.86471
G1 X-32.918 Y4.094 E34.88655
G1 X-32.970 Y3.899 E34.89104
G1 X-33.099 Y2.871 E34.91399
G1 X-33.099 Y-8.818 E35.17313
G1 X-32.949 Y-8.987 E35.17813
G1 X-30.928 Y-22.959 E35.49108
G1 X-30.641 Y-23.937 E35.51367
G1 X-30.549 Y-24.138 E35.51856
G1 X-29.968 Y-25.041 E35.54238
G1 X-29.823 Y-25.208 E35.54727
G1 X-29.011 Y-25.911 E35.57109
G1 X-28.826 Y-26.031 E35.57598
G1 X-27.848 Y-26.477 E35.59979
G1 X-27.637 Y-26.539 E35.60468
G1 X-26.518 Y-26.692 E35.62971
G1 X-12.594 Y-26.692 E35.93838
G1 X-11.475 Y-26.539 E35.96341
G1 X-11.263 Y-26.477 E35.96830
G1 X-10.286 Y-26.031 E35.99212
G1 X-10.100 Y-25.911 E35.99701
G1 X-9.288 Y-25.208 E36.02083
G1 X-9.144 Y-25.041 E36.02572
G1 X-8.563 Y-24.138 E36.04954
G1 X-8.471 Y-23.937 E36.05443
G1 X-8.184 Y-22.959 E36.07702
G1 X-6.675 Y-12.542 E36.31036
G1 X-6.499 Y-12.496 E36.31437
G1 X-5.525 Y-13.766 E36.34986
G1 X-5.382 Y-13.909 E36.35434
G1 X-4.186 Y-14.827 E36.38776
G1 X-4.011 Y-14.928 E36.39224
G1 X-2.618 Y-15.505 E36.42566
G1 X-2.423 Y-15.557 E36.43014
G1 X-0.877 Y-15.754 E36.46467
G1 X28.812 Y-15.754 E37.12283
G1 X29.716 Y-14.850 E37.15116
G1 X29.716 Y15.728 E37.82901
G1 X28.812 Y16.632 E37.85735
G1 X-0.978 Y16.625 E38.51773
G1 X-2.423 Y16.435 E38.55003
G1 X-2.618 Y16.383 E38.55451
G1 X-4.011 Y15.806 E38.58793
G1 X-4.186 Y15.705 E38.59242
G1 X-5.382 Y14.787 E38.62583
G1 X-5.525 Y14.644 E38.63032
G1 X-5.791 Y14.297 E38.64002
G1 X-6.101 Y13.446 F5400.000
G1 F2400
G1 X-6.286 Y13.508 E38.64435
G1 X-6.286 Y22.347 E38.84029
G1 X-7.030 Y23.091 E38.86361
G1 X-32.082 Y23.091 E39.41897
G1 X-32.826 Y22.347 E39.44229
G1 X-32.826 Y10.779 E39.69872
G1 X-32.702 Y9.796 E39.72069
G1 X-32.659 Y9.635 E39.72438
G1 X-32.296 Y8.758 E39.74543
G1 X-32.212 Y8.614 E39.74913
G1 X-31.634 Y7.860 E39.77018
G1 X-31.516 Y7.743 E39.77387
G1 X-30.763 Y7.164 E39.79492
G1 X-30.619 Y7.081 E39.79861
G1 X-30.210 Y6.912 E39.80841
G1 X-30.210 Y6.730 E39.81245
G1 X-30.619 Y6.561 E39.82225
G1 X-30.763 Y6.477 E39.82594
G1 X-31.516 Y5.899 E39.84699
G1 X-31.634 Y5.782 E39.85068
G1 X-32.212 Y5.028 E39.87174
G1 X-32.296 Y4.884 E39.87543
G1 X-32.659 Y4.007 E39.89648
G1 X-32.702 Y3.846 E39.90017
G1 X-32.826 Y2.862 E39.92214
G1 X-32.826 Y-8.705 E40.17857
G1 X-32.692 Y-8.859 E40.18308
G1 X-30.664 Y-22.892 E40.49739
G1 X-30.385 Y-23.841 E40.51934
G1 X-30.309 Y-24.007 E40.52336
G1 X-29.749 Y-24.877 E40.54632
G1 X-29.630 Y-25.015 E40.55034
G1 X-28.848 Y-25.693 E40.57329
G1 X-28.695 Y-25.791 E40.57732
G1 X-27.753 Y-26.221 E40.60027
G1 X-27.579 Y-26.272 E40.60430
G1 X-26.508 Y-26.419 E40.62825
G1 X-12.603 Y-26.419 E40.93649
G1 X-11.533 Y-26.272 E40.96044
G1 X-11.359 Y-26.221 E40.96446
G1 X-10.417 Y-25.791 E40.98742
G1 X-10.264 Y-25.693 E40.99144
G1 X-9.482 Y-25.015 E41.01439
G1 X-9.363 Y-24.878 E41.01842
G1 X-8.803 Y-24.007 E41.04137
G1 X-8.727 Y-23.841 E41.04540
G1 X-8.448 Y-22.892 E41.06734
G1 X-6.809 Y-11.565 E41.32104
G1 X-6.603 Y-11.539 E41.32565
G1 X-6.299 Y-12.274 E41.34328
G1 X-6.215 Y-12.418 E41.34697
G1 X-5.319 Y-13.586 E41.37960
G1 X-5.202 Y-13.704 E41.38329
G1 X-4.034 Y-14.600 E41.41591
G1 X-3.890 Y-14.683 E41.41961
G1 X-2.530 Y-15.246 E41.45223
G1 X-2.369 Y-15.289 E41.45592
G1 X-0.951 Y-15.476 E41.48763
G1 X28.699 Y-15.481 E42.14492
G1 X29.443 Y-14.737 E42.16824
G1 X29.443 Y15.615 E42.84108
G1 X28.699 Y16.359 E42.86441
G1 X-0.951 Y16.354 E43.52170
G1 X-2.369 Y16.167 E43.55340
G1 X-2.530 Y16.124 E43.55709
G1 X-3.890 Y15.561 E43.58972
G1 X-4.034 Y15.477 E43.59341
G1 X-5.202 Y14.581 E43.62604
G1 X-5.319 Y14.464 E43.62973
G1 X-6.064 Y13.493 E43.65684
G1 X-6.339 Y12.342 F5400.000
G1 F2400
G1 X-6.558 Y12.386 E43.66181
G1 X-6.558 Y22.234 E43.88013
G1 X-7.143 Y22.818 E43.89844
G1 X-31.969 Y22.818 E44.44879
