; GCode generated by CraftWare

G28 X0 Y0
G28 Z0

M190 S65 ;set bed temp (wait)
M109 S240 ;set head temp (wait)
; ------------------------------------
; Layer #0
; ------------------------------------
G21 ; mm
G90 ; abs
G92 E0 ; reset extr
M106 S0
;segType:Skirt
G0 F1200 E-1.0000
G0 F300 Z0.200
G0 X99.290 Y128.742 F5400
G0 F1200 E0.0000
G1 X99.480 Y128.929 E0.0089 F3000
G1 X99.989 Y129.304 E0.0299
G1 X160.011 Y129.304 E2.0263
G1 X161.537 Y127.804 E2.0974
G1 X161.728 Y127.492 E2.1096
G1 X161.728 Y92.508 E3.2732
G1 X160.202 Y91.008 E3.3443
G1 X159.884 Y90.821 E3.3566
G1 X99.862 Y90.821 E5.3529
G1 X98.336 Y92.321 E5.4241
G1 X98.145 Y92.633 E5.4363
G1 X98.145 Y127.617 E6.5998
G1 X99.290 Y128.742 E6.6532
G1 X99.290 Y129.117 E6.6657
G1 X99.480 Y129.304 E6.6746
G1 X99.989 Y129.679 E6.6956
G1 X160.011 Y129.679 E8.6919
G1 X162.046 Y127.679 E8.7868
G1 X162.109 Y127.242 E8.8015
G1 X162.109 Y92.508 E9.9568
G1 X160.075 Y90.509 E10.0516
G1 X159.630 Y90.446 E10.0666
G1 X99.862 Y90.446 E12.0545
G1 X97.827 Y92.446 E12.1494
G1 X97.764 Y92.883 E12.1640
G1 X97.764 Y127.617 E13.3193
G1 X99.290 Y129.117 E13.3905
G0 F1200 E12.3905
G0 X100.185 Y127.440 F5400
G0 X101.080 Y125.764
G0 F1200 E13.3905
;segType:Loop
G1 X101.080 Y93.597 E14.4603 F3000
G1 X158.920 Y93.597 E16.3841
G1 X158.920 Y126.403 E17.4752
G1 X101.080 Y126.403 E19.3990
G1 X101.080 Y125.951 E19.4140
;segType:Perimeter
G0 X101.315 Y126.481 F5400
G1 X100.680 Y126.739 E19.4368 F2100
G1 X100.680 Y93.205 E20.5522
G1 X159.320 Y93.205 E22.5026
G1 X159.320 Y126.796 E23.6198
G1 X100.737 Y126.796 E25.5683
G1 X101.000 Y126.172
;segType:Loop
G0 X101.480 Y124.732 F5400
G1 X101.480 Y93.990 E26.5908 F3000
G1 X158.520 Y93.990 E28.4879
G1 X158.520 Y126.010 E29.5529
G1 X101.480 Y126.010 E31.4501
G1 X101.480 Y124.919 E31.4864
;segType:HShell
G0 X157.864 Y125.813 F5400
G1 X158.320 Y125.365 E31.5076 F3000
G1 X158.320 Y124.834
G1 X157.324 Y125.813 E31.5541
G1 X156.784 Y125.813
G1 X158.320 Y124.304 E31.6258
G1 X158.320 Y123.773
G1 X156.244 Y125.813 E31.7226
G1 X155.704 Y125.813
G1 X158.320 Y123.242 E31.8446
G1 X158.320 Y122.712
G1 X155.164 Y125.813 E31.9918
G1 X154.624 Y125.813
G1 X158.320 Y122.181 E32.1642
G1 X158.320 Y121.650
G1 X154.084 Y125.813 E32.3617
G1 X153.543 Y125.813
G1 X158.320 Y121.120 E32.5845
G1 X158.320 Y120.589
G1 X153.003 Y125.813 E32.8324
G1 X152.463 Y125.813
G1 X158.320 Y120.059 E33.1055
G1 X158.320 Y119.528
G1 X151.923 Y125.813 E33.4038
G1 X151.383 Y125.813
G1 X158.320 Y118.997 E33.7272
G1 X158.320 Y118.467
G1 X150.843 Y125.813 E34.0759
G1 X150.303 Y125.813
G1 X158.320 Y117.936 E34.4497
G1 X158.320 Y117.405
G1 X149.763 Y125.813 E34.8487
G1 X149.223 Y125.813
G1 X158.320 Y116.875 E35.2729
G1 X158.320 Y116.344
G1 X148.683 Y125.813 E35.7223
G1 X148.143 Y125.813
G1 X158.320 Y115.814 E36.1968
G1 X158.320 Y115.283
G1 X147.603 Y125.813 E36.6966
G1 X147.063 Y125.813
G1 X158.320 Y114.752 E37.2215
G1 X158.320 Y114.222
G1 X146.523 Y125.813 E37.7716
G1 X145.983 Y125.813
G1 X158.320 Y113.691 E38.3469
G1 X158.320 Y113.160
G1 X145.443 Y125.813 E38.9474
G1 X144.902 Y125.813
G1 X158.320 Y112.630 E39.5730
G1 X158.320 Y112.099
G1 X144.362 Y125.813 E40.2238
G1 X143.822 Y125.813
G1 X158.320 Y111.569 E40.8999
G1 X158.320 Y111.038
G1 X143.282 Y125.813 E41.6010
G1 X142.742 Y125.813
G1 X158.320 Y110.507 E42.3274
G1 X158.320 Y109.977
G1 X142.202 Y125.813 E43.0790
G1 X141.662 Y125.813
G1 X158.320 Y109.446 E43.8557
G1 X158.320 Y108.915
G1 X141.122 Y125.813 E44.6576
G1 X140.582 Y125.813
G1 X158.320 Y108.385 E45.4847
G1 X158.320 Y107.854
G1 X140.042 Y125.813 E46.3370
G1 X139.502 Y125.813
G1 X158.320 Y107.324 E47.2145
G1 X158.320 Y106.793
G1 X138.962 Y125.813 E48.1172
G1 X138.422 Y125.813
G1 X158.320 Y106.262 E49.0450
G1 X158.320 Y105.732
G1 X137.882 Y125.813 E49.9980
G1 X137.342 Y125.813
G1 X158.320 Y105.201 E50.9762
G1 X158.320 Y104.670
G1 X136.802 Y125.813 E51.9796
G1 X136.261 Y125.813
G1 X158.320 Y104.140 E53.0081
G1 X158.320 Y103.609
G1 X135.721 Y125.813 E54.0619
G1 X135.181 Y125.813
G1 X158.320 Y103.079 E55.1408
G1 X158.320 Y102.548
G1 X134.641 Y125.813 E56.2449
G1 X134.101 Y125.813
G1 X158.320 Y102.017 E57.3742
G1 X158.320 Y101.487
G1 X133.561 Y125.813 E58.5287
G1 X133.021 Y125.813
G1 X158.320 Y100.956 E59.7083
G1 X158.320 Y100.425
G1 X132.481 Y125.813 E60.9131
G1 X131.941 Y125.813
G1 X158.320 Y99.895 E62.1432
G1 X158.320 Y99.364
G1 X131.401 Y125.813 E63.3984
G1 X130.861 Y125.813
G1 X158.320 Y98.834 E64.6787
G1 X158.320 Y98.303
G1 X130.321 Y125.813 E65.9843
G1 X129.781 Y125.813
G1 X158.320 Y97.772 E67.3150
G1 X158.320 Y97.242
G1 X129.241 Y125.813 E68.6710
G1 X128.701 Y125.813
G1 X158.320 Y96.711 E70.0521
G1 X158.320 Y96.180
G1 X128.161 Y125.813 E71.4583
G1 X127.620 Y125.813
G1 X158.320 Y95.650 E72.8898
G1 X158.320 Y95.119
G1 X127.080 Y125.813 E74.3465
G1 X126.540 Y125.813
G1 X158.320 Y94.589 E75.8283
G1 X158.189 Y94.187
G1 X126.000 Y125.813 E77.3292
G1 X125.460 Y125.813
G1 X157.649 Y94.187 E78.8301
G1 X157.109 Y94.187
G1 X124.920 Y125.813 E80.3310
G1 X124.380 Y125.813
G1 X156.569 Y94.187 E81.8319
G1 X156.029 Y94.187
G1 X123.840 Y125.813 E83.3328
G1 X123.300 Y125.813
G1 X155.489 Y94.187 E84.8337
G1 X154.949 Y94.187
G1 X122.760 Y125.813 E86.3346
G1 X122.220 Y125.813
G1 X154.409 Y94.187 E87.8355
G1 X153.869 Y94.187
G1 X121.680 Y125.813 E89.3364
G1 X121.140 Y125.813
G1 X153.329 Y94.187 E90.8373
G1 X152.789 Y94.187
G1 X120.600 Y125.813 E92.3382
G1 X120.060 Y125.813
G1 X152.249 Y94.187 E93.8391
G1 X151.709 Y94.187
G1 X119.520 Y125.813 E95.3400
G1 X118.979 Y125.813
G1 X151.169 Y94.187 E96.8409
G1 X150.628 Y94.187
G1 X118.439 Y125.813 E98.3418
G1 X117.899 Y125.813
G1 X150.088 Y94.187 E99.8427
G1 X149.548 Y94.187
G1 X117.359 Y125.813 E101.3436
G1 X116.819 Y125.813
G1 X149.008 Y94.187 E102.8445
G1 X148.468 Y94.187
G1 X116.279 Y125.813 E104.3454
G1 X115.739 Y125.813
G1 X147.928 Y94.187 E105.8463
G1 X147.388 Y94.187
G1 X115.199 Y125.813 E107.3472
G1 X114.659 Y125.813
G1 X146.848 Y94.187 E108.8481
G1 X146.308 Y94.187
G1 X114.119 Y125.813 E110.3490
G1 X113.579 Y125.813
G1 X145.768 Y94.187 E111.8500
G1 X145.228 Y94.187
G1 X113.039 Y125.813 E113.3509
G1 X112.499 Y125.813
G1 X144.688 Y94.187 E114.8518
G1 X144.148 Y94.187
G1 X111.959 Y125.813 E116.3527
G1 X111.419 Y125.813
G1 X143.608 Y94.187 E117.8536
G1 X143.068 Y94.187
G1 X110.879 Y125.813 E119.3545
G1 X110.338 Y125.813
G1 X142.528 Y94.187 E120.8554
G1 X141.987 Y94.187
G1 X109.798 Y125.813 E122.3563
G1 X109.258 Y125.813
G1 X141.447 Y94.187 E123.8572
G1 X140.907 Y94.187
G1 X108.718 Y125.813 E125.3581
G1 X108.178 Y125.813
G1 X140.367 Y94.187 E126.8590
G1 X139.827 Y94.187
G1 X107.638 Y125.813 E128.3599
G1 X107.098 Y125.813
G1 X139.287 Y94.187 E129.8608
G1 X138.747 Y94.187
G1 X106.558 Y125.813 E131.3617
G1 X106.018 Y125.813
G1 X138.207 Y94.187 E132.8626
G1 X137.667 Y94.187
G1 X105.478 Y125.813 E134.3635
G1 X104.938 Y125.813
G1 X137.127 Y94.187 E135.8644
G1 X136.587 Y94.187
G1 X104.398 Y125.813 E137.3653
G1 X103.858 Y125.813
G1 X136.047 Y94.187 E138.8662
G1 X135.507 Y94.187
G1 X103.318 Y125.813 E140.3671
G1 X102.778 Y125.813
G1 X134.967 Y94.187 E141.8680
G1 X134.427 Y94.187
G1 X102.238 Y125.813 E143.3689
G1 X101.697 Y125.813
G1 X133.887 Y94.187 E144.8698
G1 X133.346 Y94.187
G1 X101.680 Y125.300 E146.3464
G1 X101.680 Y124.770
G1 X132.806 Y94.187 E147.7977
G1 X132.266 Y94.187
G1 X101.680 Y124.239 E149.2239
G1 X101.680 Y123.708
G1 X131.726 Y94.187 E150.6249
G1 X131.186 Y94.187
G1 X101.680 Y123.178 E152.0008
G1 X101.680 Y122.647
G1 X130.646 Y94.187 E153.3514
G1 X130.106 Y94.187
G1 X101.680 Y122.116 E154.6769
G1 X101.680 Y121.586
G1 X129.566 Y94.187 E155.9771
G1 X129.026 Y94.187
G1 X101.680 Y121.055 E157.2522
G1 X101.680 Y120.525
G1 X128.486 Y94.187 E158.5022
G1 X127.946 Y94.187
G1 X101.680 Y119.994 E159.7269
G1 X101.680 Y119.463
G1 X127.406 Y94.187 E160.9265
G1 X126.866 Y94.187
G1 X101.680 Y118.933 E162.1008
G1 X101.680 Y118.402
G1 X126.326 Y94.187 E163.2500
G1 X125.786 Y94.187
G1 X101.680 Y117.871 E164.3740
G1 X101.680 Y117.341
G1 X125.246 Y94.187 E165.4729
G1 X124.705 Y94.187
G1 X101.680 Y116.810 E166.5465
G1 X101.680 Y116.280
G1 X124.165 Y94.187 E167.5950
G1 X123.625 Y94.187
G1 X101.680 Y115.749 E168.6182
G1 X101.680 Y115.218
G1 X123.085 Y94.187 E169.6163
G1 X122.545 Y94.187
G1 X101.680 Y114.688 E170.5893
G1 X101.680 Y114.157
G1 X122.005 Y94.187 E171.5370
G1 X121.465 Y94.187
G1 X101.680 Y113.626 E172.4595
G1 X101.680 Y113.096
G1 X120.925 Y94.187 E173.3569
G1 X120.385 Y94.187
G1 X101.680 Y112.565 E174.2291
G1 X101.680 Y112.035
G1 X119.845 Y94.187 E175.0761
G1 X119.305 Y94.187
G1 X101.680 Y111.504 E175.8979
G1 X101.680 Y110.973
G1 X118.765 Y94.187 E176.6946
G1 X118.225 Y94.187
G1 X101.680 Y110.443 E177.4661
G1 X101.680 Y109.912
G1 X117.685 Y94.187 E178.2123
G1 X117.145 Y94.187
G1 X101.680 Y109.381 E178.9334
G1 X101.680 Y108.851
G1 X116.605 Y94.187 E179.6294
G1 X116.064 Y94.187
G1 X101.680 Y108.320 E180.3001
G1 X101.680 Y107.790
G1 X115.524 Y94.187 E180.9456
G1 X114.984 Y94.187
G1 X101.680 Y107.259 E181.5660
G1 X101.680 Y106.728
G1 X114.444 Y94.187 E182.1612
G1 X113.904 Y94.187
G1 X101.680 Y106.198 E182.7312
G1 X101.680 Y105.667
G1 X113.364 Y94.187 E183.2760
G1 X112.824 Y94.187
G1 X101.680 Y105.136 E183.7957
G1 X101.680 Y104.606
G1 X112.284 Y94.187 E184.2901
G1 X111.744 Y94.187
G1 X101.680 Y104.075 E184.7594
G1 X101.680 Y103.545
G1 X111.204 Y94.187 E185.2035
G1 X110.664 Y94.187
G1 X101.680 Y103.014 E185.6224
G1 X101.680 Y102.483
G1 X110.124 Y94.187 E186.0162
G1 X109.584 Y94.187
G1 X101.680 Y101.953 E186.3847
G1 X101.680 Y101.422
G1 X109.044 Y94.187 E186.7281
G1 X108.504 Y94.187
G1 X101.680 Y100.891 E187.0463
G1 X101.680 Y100.361
G1 X107.964 Y94.187 E187.3393
G1 X107.423 Y94.187
G1 X101.680 Y99.830 E187.6071
G1 X101.680 Y99.300
G1 X106.883 Y94.187 E187.8497
G1 X106.343 Y94.187
G1 X101.680 Y98.769 E188.0672
G1 X101.680 Y98.238
G1 X105.803 Y94.187 E188.2595
G1 X105.263 Y94.187
G1 X101.680 Y97.708 E188.4266
G1 X101.680 Y97.177
G1 X104.723 Y94.187 E188.5685
G1 X104.183 Y94.187
G1 X101.680 Y96.646 E188.6852
G1 X101.680 Y96.116
G1 X103.643 Y94.187 E188.7768
G1 X103.103 Y94.187
G1 X101.680 Y95.585 E188.8431
G1 X101.680 Y95.055
G1 X102.563 Y94.187 E188.8843
G1 X102.023 Y94.187
G1 X101.680 Y94.524 E188.9003
; ------------------------------------
; Layer #1
; ------------------------------------
G21 ; mm
G90 ; abs
G92 E0 ; reset extr
M106 S0
;segType:Loop
G0 F1200 E-1.0000
G0 F300 Z0.400
G0 X105.913 Y119.738 F5400
G0 F1200 E0.0000
G1 X105.913 Y97.555 E0.7378 F3000
G1 X116.273 Y97.555 E1.0824
G1 X116.930 Y97.642 E1.1044
G1 X117.507 Y97.881 E1.1252
G1 X118.003 Y98.262 E1.1460
G1 X118.385 Y98.760 E1.1669
G1 X118.626 Y99.341 E1.1878
G1 X118.713 Y100.004 E1.2100
G1 X118.713 Y116.747 E1.7669
G1 X118.706 Y117.978 E1.8078
G1 X118.626 Y118.591 E1.8284
G1 X118.385 Y119.172 E1.8493
G1 X118.003 Y119.671 E1.8702
G1 X117.507 Y120.051 E1.8910
G1 X116.930 Y120.290 E1.9118
G1 X116.273 Y120.377 E1.9338
G1 X105.913 Y120.377 E2.2784
G1 X105.913 Y119.925 E2.2934
;segType:Perimeter
G0 X106.148 Y120.455 F5400
G1 X105.513 Y120.713 E2.3162 F2100
G1 X105.513 Y97.162 E3.0995
G1 X116.300 Y97.162 E3.4583
G1 X117.036 Y97.260 E3.4830
G1 X117.711 Y97.539 E3.5073
G1 X118.290 Y97.984 E3.5316
G1 X118.736 Y98.564 E3.5559
G1 X119.016 Y99.240 E3.5803
G1 X119.113 Y99.979 E3.6050
G1 X119.113 Y116.748 E4.1628
G1 X119.106 Y118.005 E4.2046
G1 X119.016 Y118.692 E4.2276
G1 X118.736 Y119.368 E4.2520
G1 X118.290 Y119.948 E4.2763
G1 X117.711 Y120.393 E4.3006
G1 X117.036 Y120.673 E4.3249
G1 X116.300 Y120.770 E4.3496
G1 X105.570 Y120.770 E4.7065
G1 X105.833 Y120.146
;segType:Loop
G0 X106.313 Y118.706 F5400
G1 X106.313 Y97.948 E5.3969 F3000
G1 X116.246 Y97.948 E5.7273
G1 X116.824 Y98.025 E5.7467
G1 X117.302 Y98.223 E5.7639
G1 X117.715 Y98.540 E5.7812
G1 X118.034 Y98.955 E5.7986
G1 X118.236 Y99.442 E5.8161
G1 X118.313 Y100.029 E5.8358
G1 X118.313 Y116.747 E6.3918
G1 X118.306 Y117.952 E6.4319
G1 X118.236 Y118.490 E6.4500
G1 X118.034 Y118.977 E6.4675
G1 X117.715 Y119.393 E6.4849
G1 X117.302 Y119.710 E6.5022
G1 X116.824 Y119.907 E6.5195
G1 X116.246 Y119.984 E6.5389
G1 X106.313 Y119.984 E6.8692
G1 X106.313 Y118.894 E6.9055
G0 X112.313 Y119.032 F5400
G0 X113.314 Y118.775
G0 X114.065 Y118.070
G0 X114.576 Y117.200
G1 X114.487 Y117.666 E6.9213 F3000
G1 X114.245 Y118.180 E6.9402
G1 X113.881 Y118.620 E6.9592
G1 X113.417 Y118.957 E6.9782
G1 X112.884 Y119.168 E6.9973
G1 X112.313 Y119.241 E7.0164
G1 X111.742 Y119.168 E7.0356
G1 X111.209 Y118.957 E7.0547
G1 X110.745 Y118.620 E7.0737
G1 X110.382 Y118.181 E7.0927
G1 X110.139 Y117.666 E7.1116
G1 X110.033 Y117.108 E7.1305
G1 X110.068 Y116.542 E7.1494
G1 X110.244 Y116.001 E7.1683
G1 X110.549 Y115.520 E7.1872
G1 X110.966 Y115.129 E7.2062
G1 X111.468 Y114.853 E7.2253
G1 X112.025 Y114.710 E7.2444
G1 X112.601 Y114.710 E7.2636
G1 X113.157 Y114.853 E7.2827
G1 X113.660 Y115.129 E7.3018
G1 X114.077 Y115.520 E7.3208
G1 X114.385 Y116.005 E7.3399
G1 X114.560 Y116.574 E7.3597
G1 X114.587 Y117.015 E7.3744
;segType:Perimeter
G0 X114.233 Y115.576 F5400
G1 X114.034 Y116.223 E7.3968 F2100
G1 X114.163 Y116.644 E7.4115
G1 X114.191 Y117.084 E7.4262
G1 X114.103 Y117.545 E7.4418
G1 X113.902 Y117.971 E7.4574
G1 X113.602 Y118.334 E7.4731
G1 X113.221 Y118.611 E7.4888
G1 X112.782 Y118.785 E7.5045
G1 X112.313 Y118.844 E7.5202
G1 X111.844 Y118.785 E7.5359
G1 X111.405 Y118.611 E7.5516
G1 X111.024 Y118.334 E7.5673
G1 X110.724 Y117.971 E7.5830
G1 X110.523 Y117.545 E7.5986
G1 X110.435 Y117.084 E7.6143
G1 X110.465 Y116.615 E7.6299
G1 X110.610 Y116.167 E7.6455
G1 X110.862 Y115.770 E7.6612
G1 X111.206 Y115.448 E7.6769
G1 X111.619 Y115.220 E7.6925
G1 X112.077 Y115.103 E7.7083
G1 X112.549 Y115.103 E7.7240
G1 X113.007 Y115.220 E7.7397
G1 X113.420 Y115.448 E7.7554
G1 X113.764 Y115.770 E7.7711
G1 X113.987 Y116.121 E7.7849
G1 X114.613 Y116.400
;segType:Loop
G0 X114.611 Y118.338 F5400
G1 X114.587 Y118.390 E7.7868 F3000
G1 X114.160 Y118.907 E7.8091
G1 X113.614 Y119.303 E7.8315
G1 X112.986 Y119.551 E7.8540
G1 X112.313 Y119.637 E7.8766
G1 X111.640 Y119.551 E7.8991
G1 X111.012 Y119.303 E7.9216
G1 X110.467 Y118.907 E7.9440
G1 X110.040 Y118.390 E7.9663
G1 X109.755 Y117.787 E7.9885
G1 X109.630 Y117.133 E8.0106
G1 X109.672 Y116.469 E8.0328
G1 X109.878 Y115.835 E8.0549
G1 X110.237 Y115.270 E8.0772
G1 X110.727 Y114.810 E8.0995
G1 X111.318 Y114.485 E8.1220
G1 X111.974 Y114.317 E8.1445
G1 X112.652 Y114.317 E8.1670
G1 X113.308 Y114.485 E8.1896
G1 X113.900 Y114.810 E8.2120
G1 X114.389 Y115.270 E8.2344
G1 X114.752 Y115.841 E8.2569
G1 X114.956 Y116.505 E8.2799
G1 X114.996 Y117.133 E8.3009
G1 X114.871 Y117.787 E8.3230
G1 X114.691 Y118.167 E8.3370
G0 X114.576 Y101.200 F5400
G1 X114.487 Y101.666 E8.3528 F3000
G1 X114.245 Y102.180 E8.3717
G1 X113.881 Y102.620 E8.3907
G1 X113.417 Y102.957 E8.4097
G1 X112.884 Y103.168 E8.4288
G1 X112.313 Y103.241 E8.4480
G1 X111.742 Y103.168 E8.4671
G1 X111.209 Y102.957 E8.4862
G1 X110.745 Y102.620 E8.5052
G1 X110.381 Y102.181 E8.5242
G1 X110.139 Y101.666 E8.5431
G1 X110.033 Y101.108 E8.5620
G1 X110.068 Y100.542 E8.5809
G1 X110.244 Y100.001 E8.5998
G1 X110.549 Y99.520 E8.6187
G1 X110.966 Y99.129 E8.6377
G1 X111.469 Y98.853 E8.6568
G1 X112.026 Y98.710 E8.6759
G1 X112.601 Y98.710 E8.6951
G1 X113.157 Y98.853 E8.7142
G1 X113.660 Y99.129 E8.7333
G1 X114.077 Y99.520 E8.7523
G1 X114.385 Y100.005 E8.7714
G1 X114.560 Y100.575 E8.7912
G1 X114.587 Y101.015 E8.8059
;segType:Perimeter
G0 X114.233 Y99.576 F5400
G1 X114.034 Y100.223 E8.8284 F2100
G1 X114.163 Y100.644 E8.8430
G1 X114.191 Y101.084 E8.8577
G1 X114.103 Y101.546 E8.8733
G1 X113.902 Y101.971 E8.8889
G1 X113.602 Y102.334 E8.9046
G1 X113.221 Y102.611 E8.9203
G1 X112.782 Y102.785 E8.9360
G1 X112.313 Y102.844 E8.9517
G1 X111.844 Y102.785 E8.9674
G1 X111.405 Y102.611 E8.9831
G1 X111.024 Y102.334 E8.9988
G1 X110.723 Y101.971 E9.0145
G1 X110.523 Y101.546 E9.0301
G1 X110.435 Y101.084 E9.0458
G1 X110.465 Y100.615 E9.0614
G1 X110.610 Y100.167 E9.0770
G1 X110.862 Y99.770 E9.0927
G1 X111.206 Y99.448 E9.1084
G1 X111.619 Y99.220 E9.1241
G1 X112.077 Y99.103 E9.1398
G1 X112.549 Y99.103 E9.1555
G1 X113.007 Y99.220 E9.1712
G1 X113.420 Y99.448 E9.1869
G1 X113.764 Y99.770 E9.2026
G1 X113.987 Y100.121 E9.2164
G1 X114.613 Y100.400
;segType:Loop
G0 X114.611 Y102.338 F5400
G1 X114.587 Y102.390 E9.2183 F3000
G1 X114.160 Y102.907 E9.2406
G1 X113.614 Y103.303 E9.2630
G1 X112.986 Y103.551 E9.2855
G1 X112.313 Y103.637 E9.3081
G1 X111.640 Y103.551 E9.3306
G1 X111.012 Y103.303 E9.3531
G1 X110.467 Y102.907 E9.3755
G1 X110.039 Y102.390 E9.3978
G1 X109.755 Y101.786 E9.4200
G1 X109.630 Y101.133 E9.4421
G1 X109.672 Y100.469 E9.4643
G1 X109.878 Y99.835 E9.4865
G1 X110.237 Y99.270 E9.5087
G1 X110.726 Y98.811 E9.5310
G1 X111.318 Y98.485 E9.5535
G1 X111.974 Y98.317 E9.5760
G1 X112.652 Y98.317 E9.5986
G1 X113.308 Y98.485 E9.6211
G1 X113.900 Y98.810 E9.6435
G1 X114.389 Y99.270 E9.6659
G1 X114.752 Y99.841 E9.6884
G1 X114.956 Y100.505 E9.7115
G1 X114.996 Y101.133 E9.7324
G1 X114.871 Y101.787 E9.7545
G1 X114.691 Y102.167 E9.7685
G0 X114.285 Y117.603 F5400
G0 X113.272 Y119.787
;segType:HShell
G1 X113.172 Y119.689 E9.7732 F3000
G1 X113.557 Y119.537
G1 X113.812 Y119.787 E9.7851
G1 X114.352 Y119.787
G1 X113.898 Y119.341 E9.8062
G1 X114.209 Y119.116
G1 X114.892 Y119.787 E9.8381
G1 X115.432 Y119.787
G1 X114.471 Y118.843 E9.8830
G1 X114.712 Y118.550
G1 X115.972 Y119.787 E9.9417
G1 X116.479 Y119.755
G1 X114.897 Y118.200 E10.0155
G1 X115.065 Y117.835
G1 X116.918 Y119.655 E10.1019
G1 X117.278 Y119.479
G1 X115.150 Y117.388 E10.2011
G1 X115.181 Y116.887
G1 X117.579 Y119.244 E10.3129
G1 X117.811 Y118.941
G1 X115.093 Y116.270 E10.4397
G0 X114.641 Y115.296 F5400
G1 X117.983 Y118.579 E10.5955 F3000
G1 X118.080 Y118.143
G1 X106.513 Y106.779 E11.1348
G1 X106.513 Y106.248
G1 X118.108 Y117.641 E11.6755
G1 X118.111 Y117.113
G1 X106.513 Y105.717 E12.2163
G1 X106.513 Y105.187
G1 X118.113 Y116.585 E12.7573
G1 X118.113 Y116.054
G1 X106.513 Y104.656 E13.2982
G1 X106.513 Y104.126
G1 X118.113 Y115.524 E13.8391
G1 X118.113 Y114.993
G1 X106.513 Y103.595 E14.3800
G1 X106.513 Y103.064
G1 X118.113 Y114.462 E14.9209
G1 X118.113 Y113.932
G1 X106.513 Y102.534 E15.4618
G1 X106.513 Y102.003
G1 X118.113 Y113.401 E16.0027
G1 X118.113 Y112.870
G1 X106.513 Y101.472 E16.5437
G1 X106.513 Y100.942
G1 X118.113 Y112.340 E17.0846
G1 X118.113 Y111.809
G1 X106.513 Y100.411 E17.6255
G1 X106.513 Y99.881
G1 X118.113 Y111.279 E18.1664
G1 X118.113 Y110.748
G1 X106.513 Y99.350 E18.7073
G1 X106.513 Y98.819
G1 X109.556 Y101.810 E18.8492
G1 X109.432 Y101.157
G1 X106.513 Y98.289 E18.9853
G1 X106.906 Y98.145
G1 X109.460 Y100.654 E19.1044
G1 X109.547 Y100.209
G1 X107.446 Y98.145 E19.2024
G1 X107.986 Y98.145
G1 X109.678 Y99.806 E19.2812
G1 X109.875 Y99.469
G1 X108.526 Y98.145 E19.3441
G1 X109.066 Y98.145
G1 X110.083 Y99.143 E19.3915
G1 X110.359 Y98.884
G1 X109.607 Y98.145 E19.4266
G1 X110.147 Y98.145
G1 X110.642 Y98.632 E19.4497
G1 X110.988 Y98.441
G1 X110.687 Y98.145 E19.4637
G1 X111.227 Y98.145
G1 X111.357 Y98.272 E19.4698
G0 X113.753 Y98.505 F5400
G1 X113.387 Y98.145 E19.4869 F3000
G0 X115.129 Y100.387 F5400
G1 X118.113 Y103.319 E19.6261 F3000
G1 X118.113 Y103.850
G1 X115.186 Y100.974 E19.7626
G1 X115.137 Y101.456
G1 X118.113 Y104.380 E19.9013
G1 X118.113 Y104.911
G1 X115.041 Y101.892 E20.0446
G1 X114.870 Y102.255
G1 X118.113 Y105.442 E20.1958
G1 X118.113 Y105.972
G1 X114.675 Y102.594 E20.3561
G1 X114.434 Y102.887
G1 X118.113 Y106.503 E20.5277
G1 X118.113 Y107.034
G1 X114.161 Y103.150 E20.7120
G1 X113.850 Y103.376
G1 X118.113 Y107.564 E20.9107
G1 X118.113 Y108.095
G1 X113.498 Y103.560 E21.1259
G1 X113.113 Y103.713
G1 X118.113 Y108.625 E21.3591
G1 X118.113 Y109.156
G1 X112.654 Y103.792 E21.6136
G1 X112.135 Y103.812
G1 X118.113 Y109.687 E21.8924
G1 X118.113 Y110.217
G1 X111.480 Y103.700 E22.2017
G0 X113.292 Y102.785 F5400
G0 X118.047 Y99.540
G1 X116.689 Y98.205 E22.2650 F3000
G1 X116.087 Y98.145
G1 X118.113 Y100.135 E22.3595
G1 X118.113 Y100.666
G1 X115.547 Y98.145 E22.4792
G1 X115.007 Y98.145
G1 X118.113 Y101.197 E22.6240
G1 X118.113 Y101.727
G1 X114.467 Y98.145 E22.7940
G1 X113.927 Y98.145
G1 X118.113 Y102.258 E22.9892
G1 X118.113 Y102.789
G1 X114.779 Y99.512 E23.1447
G0 X113.941 Y114.608 F5400
G1 X106.513 Y107.309 E23.4911 F3000
G1 X106.513 Y107.840
G1 X112.985 Y114.199 E23.7929
G1 X112.365 Y114.120
G1 X106.513 Y108.371 E24.0658
G1 X106.513 Y108.901
G1 X111.850 Y114.146 E24.3147
G1 X111.422 Y114.255
G1 X106.513 Y109.432 E24.5436
G1 X106.513 Y109.962
G1 X111.041 Y114.412 E24.7547
G1 X110.695 Y114.602
G1 X106.513 Y110.493 E24.9498
G1 X106.513 Y111.024
G1 X110.401 Y114.844 E25.1311
G1 X110.125 Y115.103
G1 X106.513 Y111.554 E25.2995
G1 X106.513 Y112.085
G1 X109.906 Y115.419 E25.4577
G1 X109.699 Y115.746
G1 X106.513 Y112.616 E25.6063
G1 X106.513 Y113.146
G1 X109.567 Y116.147 E25.7487
G1 X109.465 Y116.577
G1 X106.513 Y113.677 E25.8864
G1 X106.513 Y114.207
G1 X109.434 Y117.077 E26.0226
G1 X109.537 Y117.709
G1 X106.513 Y114.738 E26.1636
G1 X106.513 Y115.269
G1 X110.180 Y118.872 E26.3346
G1 X110.458 Y119.145
G1 X111.112 Y119.787 E26.3651
G1 X110.572 Y119.787
G1 X106.513 Y115.799 E26.5544
G1 X106.513 Y116.330
G1 X110.032 Y119.787 E26.7184
G1 X109.492 Y119.787
G1 X106.513 Y116.861 E26.8573
G1 X106.513 Y117.391
G1 X108.952 Y119.787 E26.9711
G1 X108.411 Y119.787
G1 X106.513 Y117.922 E27.0596
G1 X106.513 Y118.452
G1 X107.871 Y119.787 E27.1230
G1 X107.331 Y119.787
G1 X106.513 Y118.983 E27.1611
G1 X106.513 Y119.514
G1 X106.791 Y119.787 E27.1741
G0 F1200 E26.1741
G0 X113.500 Y119.102 F5400
G0 X150.972 Y100.383
G0 F1200 E27.1741
;segType:Loop
G1 X151.295 Y100.755 E27.1905 F3000
G1 X151.579 Y101.379 E27.2133
G1 X151.683 Y102.100 E27.2375
G1 X151.677 Y115.870 E27.6955
G1 X151.564 Y116.584 E27.7196
G1 X151.271 Y117.202 E27.7423
G1 X150.815 Y117.714 E27.7651
G1 X150.274 Y118.061 E27.7865
G1 X149.580 Y118.266 E27.8106
G1 X135.083 Y120.377 E28.2978
G1 X124.353 Y120.377 E28.6547
G1 X123.696 Y120.290 E28.6768
G1 X123.120 Y120.051 E28.6975
G1 X122.623 Y119.671 E28.7183
G1 X122.241 Y119.172 E28.7392
G1 X122.000 Y118.591 E28.7601
G1 X121.913 Y117.928 E28.7824
G1 X121.913 Y100.004 E29.3785
G1 X122.000 Y99.341 E29.4008
G1 X122.241 Y98.760 E29.4217
G1 X122.623 Y98.262 E29.4426
G1 X123.120 Y97.881 E29.4634
G1 X123.696 Y97.642 E29.4841
G1 X124.353 Y97.556 E29.5062
G1 X135.083 Y97.577 E29.8631
G1 X149.580 Y99.666 E30.3502
G1 X150.274 Y99.871 E30.3743
G1 X150.847 Y100.239 E30.3969
G1 X150.848 Y100.240 E30.3970
G0 F1200 E29.3970
G0 X149.866 Y99.818 F5400
G0 F1200 E30.3970
;segType:Perimeter
G1 X150.493 Y99.541 E30.4198 F2100
G1 X151.114 Y99.941 E30.4444
G1 X151.636 Y100.543 E30.4709
G1 X151.968 Y101.269 E30.4974
G1 X152.083 Y102.073 E30.5244
G1 X152.077 Y115.900 E30.9843
G1 X151.951 Y116.699 E31.0112
G1 X151.610 Y117.419 E31.0377
G1 X151.080 Y118.014 E31.0642
G1 X150.445 Y118.422 E31.0893
G1 X149.667 Y118.650 E31.1162
G1 X135.113 Y120.770 E31.6054
G1 X124.326 Y120.770 E31.9642
G1 X123.590 Y120.673 E31.9889
G1 X122.915 Y120.393 E32.0132
G1 X122.335 Y119.948 E32.0375
G1 X121.890 Y119.368 E32.0618
G1 X121.610 Y118.692 E32.0862
G1 X121.513 Y117.953 E32.1109
G1 X121.513 Y99.979 E32.7088
G1 X121.610 Y99.240 E32.7336
G1 X121.890 Y98.564 E32.7579
G1 X122.335 Y97.984 E32.7822
G1 X122.915 Y97.539 E32.8065
G1 X123.590 Y97.260 E32.8308
G1 X124.326 Y97.162 E32.8555
G1 X135.113 Y97.184 E33.2143
G1 X149.667 Y99.282 E33.7034
G1 X150.390 Y99.494 E33.7284
G1 X150.579 Y100.144
;segType:Loop
G0 X151.156 Y101.411 F5400
G1 X151.191 Y101.489 E33.7313 F3000
G1 X151.283 Y102.128 E33.7527
G1 X151.277 Y115.839 E34.2088
G1 X151.178 Y116.469 E34.2300
G1 X150.933 Y116.985 E34.2490
G1 X150.550 Y117.415 E34.2681
G1 X150.104 Y117.701 E34.2857
G1 X149.493 Y117.881 E34.3069
G1 X135.054 Y119.984 E34.7922
G1 X124.380 Y119.984 E35.1473
G1 X123.802 Y119.907 E35.1667
G1 X123.324 Y119.710 E35.1839
G1 X122.911 Y119.393 E35.2012
G1 X122.592 Y118.977 E35.2186
G1 X122.390 Y118.490 E35.2361
G1 X122.313 Y117.903 E35.2558
G1 X122.313 Y100.029 E35.8503
G1 X122.390 Y99.442 E35.8700
G1 X122.592 Y98.955 E35.8875
G1 X122.911 Y98.540 E35.9050
G1 X123.324 Y98.223 E35.9223
G1 X123.802 Y98.025 E35.9395
G1 X124.379 Y97.949 E35.9588
G1 X135.054 Y97.970 E36.3139
G1 X149.494 Y100.051 E36.7991
G1 X150.104 Y100.231 E36.8203
G1 X150.580 Y100.537 E36.8391
G1 X150.953 Y100.967 E36.8581
G1 X151.078 Y101.240 E36.8680
G0 X148.334 Y110.839 F5400
G1 X148.046 Y111.214 E36.8838 F3000
G1 X147.385 Y111.722 E36.9115
G1 X146.613 Y112.042 E36.9393
G1 X145.823 Y112.145 E36.9657
G1 X142.743 Y112.145 E37.0682
G1 X141.953 Y112.042 E37.0947
G1 X141.181 Y111.722 E37.1225
G1 X140.520 Y111.214 E37.1502
G1 X140.014 Y110.555 E37.1779
G1 X139.696 Y109.788 E37.2055
G1 X139.588 Y108.966 E37.2330
G1 X139.696 Y108.144 E37.2606
G1 X140.014 Y107.377 E37.2882
G1 X140.520 Y106.718 E37.3159
G1 X141.181 Y106.210 E37.3436
G1 X141.953 Y105.890 E37.3714
G1 X142.743 Y105.787 E37.3979
G1 X145.823 Y105.787 E37.5003
G1 X146.575 Y105.885 E37.5255
G1 X147.346 Y106.193 E37.5532
G1 X148.013 Y106.692 E37.5809
G1 X148.528 Y107.344 E37.6085
G1 X148.855 Y108.106 E37.6360
G1 X148.974 Y108.925 E37.6636
G1 X148.871 Y109.784 E37.6924
G1 X148.552 Y110.555 E37.7201
G1 X148.449 Y110.690 E37.7258
;segType:Perimeter
G0 X149.025 Y109.356 F5400
G1 X148.459 Y109.738 E37.7485 F2100
G1 X148.201 Y110.359 E37.7708
G1 X147.758 Y110.936 E37.7951
G1 X147.180 Y111.380 E37.8193
G1 X146.507 Y111.659 E37.8435
G1 X145.796 Y111.752 E37.8674
G1 X142.770 Y111.752 E37.9680
G1 X142.059 Y111.659 E37.9919
G1 X141.386 Y111.380 E38.0161
G1 X140.808 Y110.936 E38.0403
G1 X140.365 Y110.359 E38.0646
G1 X140.086 Y109.687 E38.0887
G1 X139.991 Y108.966 E38.1129
G1 X140.086 Y108.245 E38.1371
G1 X140.365 Y107.573 E38.1613
G1 X140.808 Y106.996 E38.1855
G1 X141.386 Y106.552 E38.2098
G1 X142.059 Y106.273 E38.2340
G1 X142.770 Y106.180 E38.2578
G1 X145.796 Y106.180 E38.3585
G1 X146.472 Y106.268 E38.3811
G1 X147.147 Y106.538 E38.4053
G1 X147.730 Y106.973 E38.4295
G1 X148.180 Y107.544 E38.4537
G1 X148.466 Y108.211 E38.4779
G1 X148.570 Y108.930 E38.5020
G1 X148.487 Y109.630 E38.5254
G1 X148.796 Y110.233
;segType:Loop
G0 X147.841 Y111.870 F5400
G1 X147.589 Y112.064 E38.5360 F3000
G1 X146.719 Y112.424 E38.5674
G1 X145.850 Y112.538 E38.5965
G1 X142.716 Y112.538 E38.7007
G1 X141.847 Y112.424 E38.7299
G1 X140.977 Y112.064 E38.7612
G1 X140.233 Y111.492 E38.7924
G1 X139.663 Y110.750 E38.8235
G1 X139.307 Y109.889 E38.8545
G1 X139.185 Y108.966 E38.8855
G1 X139.307 Y108.043 E38.9165
G1 X139.663 Y107.182 E38.9475
G1 X140.233 Y106.440 E38.9786
G1 X140.977 Y105.868 E39.0098
G1 X141.847 Y105.508 E39.0411
G1 X142.716 Y105.394 E39.0703
G1 X145.850 Y105.394 E39.1745
G1 X146.678 Y105.502 E39.2023
G1 X147.546 Y105.849 E39.2334
G1 X148.297 Y106.410 E39.2646
G1 X148.876 Y107.144 E39.2956
G1 X149.243 Y108.000 E39.3266
G1 X149.377 Y108.920 E39.3575
G1 X149.262 Y109.883 E39.3898
G1 X148.903 Y110.750 E39.4210
G1 X148.333 Y111.492 E39.4521
G1 X147.992 Y111.754 E39.4665
G0 X130.586 Y117.201 F5400
G1 X130.496 Y117.669 E39.4823 F3000
G1 X130.253 Y118.186 E39.5013
G1 X129.888 Y118.628 E39.5204
G1 X129.422 Y118.966 E39.5395
G1 X128.886 Y119.178 E39.5587
G1 X128.313 Y119.251 E39.5779
G1 X127.740 Y119.178 E39.5971
G1 X127.204 Y118.966 E39.6163
G1 X126.738 Y118.628 E39.6354
G1 X126.373 Y118.186 E39.6545
G1 X126.130 Y117.669 E39.6735
G1 X126.023 Y117.109 E39.6925
G1 X126.059 Y116.540 E39.7114
G1 X126.235 Y115.997 E39.7304
G1 X126.542 Y115.514 E39.7494
G1 X126.960 Y115.121 E39.7685
G1 X127.465 Y114.843 E39.7877
G1 X128.024 Y114.700 E39.8069
G1 X128.602 Y114.700 E39.8261
G1 X129.161 Y114.843 E39.8453
G1 X129.666 Y115.121 E39.8645
G1 X130.084 Y115.514 E39.8836
G1 X130.394 Y116.001 E39.9028
G1 X130.570 Y116.573 E39.9227
G1 X130.597 Y117.015 E39.9374
;segType:Perimeter
G0 X130.242 Y115.572 F5400
G1 X130.043 Y116.219 E39.9599 F2100
G1 X130.173 Y116.643 E39.9746
G1 X130.201 Y117.084 E39.9894
G1 X130.112 Y117.548 E40.0051
G1 X129.911 Y117.976 E40.0208
G1 X129.609 Y118.341 E40.0366
G1 X129.226 Y118.620 E40.0523
G1 X128.784 Y118.794 E40.0681
G1 X128.313 Y118.854 E40.0839
G1 X127.842 Y118.794 E40.0997
G1 X127.401 Y118.620 E40.1155
G1 X127.017 Y118.341 E40.1313
G1 X126.715 Y117.976 E40.1470
G1 X126.514 Y117.548 E40.1628
G1 X126.425 Y117.084 E40.1785
G1 X126.455 Y116.613 E40.1942
G1 X126.601 Y116.163 E40.2099
G1 X126.854 Y115.764 E40.2256
G1 X127.200 Y115.439 E40.2414
G1 X127.616 Y115.211 E40.2572
G1 X128.076 Y115.093 E40.2730
G1 X128.551 Y115.093 E40.2888
G1 X129.010 Y115.211 E40.3046
G1 X129.426 Y115.439 E40.3203
G1 X129.772 Y115.764 E40.3361
G1 X129.996 Y116.117 E40.3500
G1 X130.622 Y116.396
;segType:Loop
G0 X130.622 Y118.338 F5400
G1 X130.595 Y118.395 E40.3521 F3000
G1 X130.166 Y118.914 E40.3745
G1 X129.619 Y119.312 E40.3970
G1 X128.988 Y119.561 E40.4196
G1 X128.313 Y119.647 E40.4422
G1 X127.638 Y119.561 E40.4648
G1 X127.007 Y119.312 E40.4874
G1 X126.460 Y118.914 E40.5099
G1 X126.031 Y118.395 E40.5323
G1 X125.746 Y117.790 E40.5546
G1 X125.620 Y117.134 E40.5768
G1 X125.662 Y116.467 E40.5990
G1 X125.869 Y115.830 E40.6212
G1 X126.229 Y115.264 E40.6436
G1 X126.720 Y114.802 E40.6660
G1 X127.315 Y114.476 E40.6885
G1 X127.973 Y114.307 E40.7111
G1 X128.653 Y114.307 E40.7338
G1 X129.312 Y114.476 E40.7564
G1 X129.905 Y114.802 E40.7789
G1 X130.397 Y115.264 E40.8014
G1 X130.761 Y115.837 E40.8239
G1 X130.966 Y116.502 E40.8471
G1 X131.006 Y117.133 E40.8681
G1 X130.880 Y117.790 E40.8903
G1 X130.702 Y118.168 E40.9042
G0 X130.586 Y101.201 F5400
G1 X130.496 Y101.669 E40.9201 F3000
G1 X130.253 Y102.186 E40.9391
G1 X129.888 Y102.628 E40.9582
G1 X129.422 Y102.966 E40.9773
G1 X128.886 Y103.178 E40.9965
G1 X128.313 Y103.251 E41.0157
G1 X127.740 Y103.178 E41.0349
G1 X127.204 Y102.966 E41.0541
G1 X126.738 Y102.628 E41.0732
G1 X126.373 Y102.186 E41.0923
G1 X126.130 Y101.669 E41.1113
G1 X126.023 Y101.109 E41.1302
G1 X126.059 Y100.540 E41.1492
G1 X126.235 Y99.997 E41.1682
G1 X126.542 Y99.514 E41.1872
G1 X126.960 Y99.121 E41.2063
G1 X127.465 Y98.843 E41.2255
G1 X128.024 Y98.700 E41.2447
G1 X128.602 Y98.700 E41.2639
G1 X129.161 Y98.843 E41.2831
G1 X129.666 Y99.121 E41.3022
G1 X130.084 Y99.514 E41.3213
G1 X130.394 Y100.001 E41.3405
G1 X130.570 Y100.573 E41.3604
G1 X130.597 Y101.015 E41.3752
;segType:Perimeter
G0 X130.242 Y99.572 F5400
G1 X130.043 Y100.219 E41.3977 F2100
G1 X130.173 Y100.643 E41.4124
G1 X130.201 Y101.084 E41.4271
G1 X130.112 Y101.548 E41.4429
G1 X129.911 Y101.976 E41.4586
G1 X129.609 Y102.341 E41.4743
G1 X129.226 Y102.620 E41.4901
G1 X128.784 Y102.794 E41.5059
G1 X128.313 Y102.854 E41.5217
G1 X127.842 Y102.794 E41.5375
G1 X127.401 Y102.620 E41.5533
G1 X127.017 Y102.341 E41.5690
G1 X126.715 Y101.976 E41.5848
G1 X126.514 Y101.548 E41.6005
G1 X126.425 Y101.084 E41.6162
G1 X126.455 Y100.613 E41.6320
G1 X126.601 Y100.163 E41.6477
G1 X126.854 Y99.764 E41.6634
G1 X127.200 Y99.440 E41.6792
G1 X127.616 Y99.211 E41.6950
G1 X128.076 Y99.093 E41.7108
G1 X128.551 Y99.093 E41.7265
G1 X129.010 Y99.211 E41.7423
G1 X129.426 Y99.440 E41.7581
G1 X129.772 Y99.764 E41.7739
G1 X129.996 Y100.117 E41.7878
G1 X130.622 Y100.396
;segType:Loop
G0 X130.622 Y102.338 F5400
G1 X130.595 Y102.395 E41.7899 F3000
G1 X130.166 Y102.914 E41.8123
G1 X129.619 Y103.312 E41.8348
G1 X128.988 Y103.561 E41.8574
G1 X128.313 Y103.647 E41.8800
G1 X127.638 Y103.561 E41.9026
G1 X127.007 Y103.312 E41.9252
G1 X126.460 Y102.914 E41.9477
G1 X126.031 Y102.395 E41.9701
G1 X125.746 Y101.790 E41.9923
G1 X125.620 Y101.134 E42.0145
G1 X125.662 Y100.467 E42.0368
G1 X125.869 Y99.830 E42.0590
G1 X126.229 Y99.264 E42.0813
G1 X126.720 Y98.802 E42.1038
G1 X127.315 Y98.476 E42.1263
G1 X127.973 Y98.307 E42.1489
G1 X128.653 Y98.307 E42.1715
G1 X129.312 Y98.476 E42.1942
G1 X129.905 Y98.802 E42.2167
G1 X130.397 Y99.264 E42.2391
G1 X130.761 Y99.837 E42.2617
G1 X130.966 Y100.503 E42.2849
G1 X131.006 Y101.133 E42.3059
G1 X130.880 Y101.790 E42.3281
G1 X130.702 Y102.168 E42.3420
;segType:HShell
G0 X131.183 Y100.773 F5400
G1 X139.045 Y108.497 E42.7086 F3000
G1 X138.983 Y108.967
G1 X131.178 Y101.298 E43.0725
G1 X131.092 Y101.744
G1 X139.064 Y109.576 E43.4442
G0 X141.488 Y112.489 F5400
G1 X147.125 Y118.027 E43.7070 F3000
G1 X147.595 Y117.959
G1 X142.213 Y112.671 E43.9580
G1 X142.818 Y112.735
G1 X148.065 Y117.890 E44.2027
G1 X148.536 Y117.822
G1 X143.358 Y112.735 E44.4441
G1 X143.898 Y112.735
G1 X149.006 Y117.753 E44.6823
G1 X149.473 Y117.682
G1 X144.438 Y112.735 E44.9171
G1 X144.978 Y112.735
G1 X149.889 Y117.559 E45.1460
G1 X150.243 Y117.377
G1 X145.518 Y112.735 E45.3663
G1 X146.035 Y112.712
G1 X150.535 Y117.133 E45.5761
G1 X150.780 Y116.843
G1 X146.512 Y112.650 E45.7751
G1 X146.945 Y112.544
G1 X150.951 Y116.481 E45.9620
G1 X151.043 Y116.040
G1 X147.324 Y112.387 E46.1354
G1 X147.702 Y112.227
G1 X151.077 Y115.543 E46.2928
G1 X151.078 Y115.013
G1 X148.005 Y111.994 E46.4361
G1 X148.308 Y111.761
G1 X151.078 Y114.483 E46.5652
G1 X151.078 Y113.952
G1 X148.580 Y111.498 E46.6817
G1 X148.812 Y111.195
G1 X151.078 Y113.422 E46.7874
G1 X151.079 Y112.891
G1 X149.044 Y110.893 E46.8822
G1 X149.212 Y110.527
G1 X151.079 Y112.361 E46.9693
G1 X151.079 Y111.831
G1 X149.368 Y110.149 E47.0491
G1 X149.482 Y109.730
G1 X151.079 Y111.300 E47.1236
G1 X151.079 Y110.770
G1 X149.538 Y109.256 E47.1954
G1 X149.553 Y108.739
G1 X151.080 Y110.239 E47.2666
G1 X151.080 Y109.709
G1 X149.463 Y108.120 E47.3420
G0 X148.368 Y110.452 F5400
G0 X147.277 Y111.542
G0 X146.557 Y111.840
G0 X127.544 Y115.037
G0 X122.568 Y118.308
G1 X124.023 Y119.738 E47.4099 F3000
G1 X124.613 Y119.787
G1 X122.513 Y117.723 E47.5078
G1 X122.513 Y117.193
G1 X125.153 Y119.787 E47.6310
G1 X125.693 Y119.787
G1 X122.513 Y116.662 E47.7793
G1 X122.513 Y116.131
G1 X126.234 Y119.787 E47.9528
G1 X126.774 Y119.787
G1 X122.513 Y115.601 E48.1515
G1 X122.513 Y115.070
G1 X125.736 Y118.238 E48.3018
G0 X127.314 Y119.787 F5400
G1 X127.070 Y119.548 E48.3131 F3000
G0 X126.235 Y117.096 F5400
G0 X126.427 Y116.085
G0 X127.086 Y115.289
G0 X129.244 Y114.255
G1 X122.513 Y107.641 E48.6270 F3000
G1 X122.513 Y108.172
G1 X128.557 Y114.111 E48.9088
G1 X128.017 Y114.111
G1 X122.513 Y108.703 E49.1655
G1 X122.513 Y109.233
G1 X127.574 Y114.206 E49.4015
G1 X127.164 Y114.334
G1 X122.513 Y109.764 E49.6183
G1 X122.513 Y110.295
G1 X126.817 Y114.524 E49.8191
G1 X126.497 Y114.740
G1 X122.513 Y110.825 E50.0048
G1 X122.513 Y111.356
G1 X126.221 Y114.999 E50.1778
G1 X125.977 Y115.290
G1 X122.513 Y111.886 E50.3393
G1 X122.513 Y112.417
G1 X125.769 Y115.617 E50.4911
G1 X125.608 Y115.989
G1 X122.513 Y112.948 E50.6355
G1 X122.513 Y113.478
G1 X125.477 Y116.391 E50.7737
G1 X125.436 Y116.881
G1 X122.513 Y114.009 E50.9100
G1 X122.513 Y114.540
G1 X125.478 Y117.453 E51.0483
G0 X127.086 Y115.289 F5400
G0 X128.051 Y114.907
G0 X129.082 Y115.037
G0 X131.021 Y116.001
G1 X134.875 Y119.787 E51.2280 F3000
G1 X135.366 Y119.740
G1 X122.513 Y107.111 E51.8273
G1 X122.513 Y106.580
G1 X135.837 Y119.671 E52.4486
G1 X136.307 Y119.603
G1 X122.513 Y106.050 E53.0918
G1 X122.513 Y105.519
G1 X136.777 Y119.534 E53.7569
G1 X137.248 Y119.466
G1 X122.513 Y104.988 E54.4439
G1 X122.513 Y104.458
G1 X137.718 Y119.397 E55.1529
G1 X138.188 Y119.329
G1 X122.513 Y103.927 E55.8839
G1 X122.513 Y103.396
G1 X138.659 Y119.260 E56.6367
G1 X139.129 Y119.192
G1 X122.513 Y102.866 E57.4115
G1 X122.513 Y102.335
G1 X139.599 Y119.123 E58.2082
G1 X140.070 Y119.055
G1 X122.513 Y101.805 E59.0269
G1 X122.513 Y101.274
G1 X140.540 Y118.986 E59.8674
G1 X141.010 Y118.918
G1 X122.513 Y100.743 E60.7299
G1 X122.513 Y100.213
G1 X141.481 Y118.849 E61.6144
G1 X141.951 Y118.781
G1 X122.555 Y99.723 E62.5188
G1 X122.665 Y99.301
G1 X125.807 Y102.389 E62.6653
G1 X125.497 Y101.553
G1 X122.847 Y98.949 E62.7889
G1 X123.086 Y98.654
G1 X125.431 Y100.958 E62.8982
G1 X125.462 Y100.458
G1 X123.390 Y98.421 E62.9949
G1 X123.761 Y98.255
G1 X125.588 Y100.050 E63.0801
G1 X125.737 Y99.667
G1 X124.213 Y98.169 E63.1512
G1 X124.729 Y98.146
G1 X125.945 Y99.340 E63.2078
G1 X126.179 Y99.039
G1 X125.271 Y98.147 E63.2502
G1 X125.812 Y98.148
G1 X126.455 Y98.780 E63.2801
G1 X126.764 Y98.553
G1 X126.353 Y98.149 E63.2993
G1 X126.894 Y98.150
G1 X127.110 Y98.363 E63.3094
G1 X127.508 Y98.223
G1 X127.435 Y98.151 E63.3128
G0 X129.059 Y98.155 F5400
G1 X129.132 Y98.227 E63.3162 F3000
G0 X127.086 Y99.289 F5400
G0 X126.427 Y100.085
G0 X126.235 Y101.096
G0 X126.932 Y103.494
G1 X142.421 Y118.712 E64.0385 F3000
G1 X142.892 Y118.644
G1 X127.758 Y103.774 E64.7441
G1 X128.363 Y103.839
G1 X143.362 Y118.575 E65.4435
G1 X143.832 Y118.507
G1 X128.841 Y103.778 E66.1425
G1 X129.265 Y103.663
G1 X144.303 Y118.438 E66.8436
G1 X144.773 Y118.370
G1 X129.650 Y103.511 E67.5488
G1 X129.974 Y103.298
G1 X145.243 Y118.301 E68.2608
G1 X145.714 Y118.233
G1 X130.284 Y103.073 E68.9802
G1 X130.531 Y102.785
G1 X146.184 Y118.164 E69.7101
G1 X146.654 Y118.096
G1 X130.771 Y102.490 E70.4507
G1 X130.942 Y102.127
G1 X139.261 Y110.301 E70.8386
G0 X140.199 Y107.480 F5400
G0 X140.672 Y106.864
G0 X141.289 Y106.390
G0 X151.018 Y101.689
G1 X149.588 Y100.284 E70.9053 F3000
G0 X147.426 Y105.589 F5400
G1 X140.703 Y98.983 E71.2188 F3000
G1 X140.070 Y98.892
G1 X146.584 Y105.292 E71.5225
G1 X145.961 Y105.210
G1 X139.437 Y98.800 E71.8267
G1 X138.804 Y98.709
G1 X145.408 Y105.197 E72.1346
G1 X144.868 Y105.197
G1 X138.172 Y98.618 E72.4468
G1 X137.539 Y98.527
G1 X144.328 Y105.197 E72.7634
G1 X143.788 Y105.197
G1 X136.906 Y98.436 E73.0843
G1 X136.273 Y98.344
G1 X143.248 Y105.197 E73.4095
G1 X142.708 Y105.197
G1 X135.640 Y98.253 E73.7391
G1 X135.012 Y98.167
G1 X142.231 Y105.259 E74.0757
G1 X141.762 Y105.330
G1 X134.471 Y98.166 E74.4157
G1 X133.929 Y98.164
G1 X141.382 Y105.487 E74.7632
G1 X141.003 Y105.645
G1 X133.388 Y98.163 E75.1182
G1 X132.847 Y98.162
G1 X140.674 Y105.852 E75.4831
G1 X140.370 Y106.085
G1 X132.306 Y98.161 E75.8592
G1 X131.765 Y98.160
G1 X140.072 Y106.322 E76.2465
G1 X139.840 Y106.625
G1 X131.224 Y98.159 E76.6483
G1 X130.682 Y98.158
G1 X139.608 Y106.927 E77.0645
G1 X139.412 Y107.266
G1 X130.141 Y98.157 E77.4967
G1 X129.600 Y98.156
G1 X139.256 Y107.643 E77.9470
G1 X139.107 Y108.027
G1 X131.056 Y100.117 E78.3224
G0 X144.630 Y105.494 F5400
G0 X146.892 Y106.390
G0 X149.154 Y107.286
G1 X151.080 Y109.178 E78.4122 F3000
G1 X151.080 Y108.648
G1 X141.336 Y99.074 E78.8665
G1 X141.969 Y99.165
G1 X151.080 Y108.118 E79.2914
G1 X151.081 Y107.587
G1 X142.602 Y99.256 E79.6867
G1 X143.235 Y99.348
G1 X151.081 Y107.057 E80.0526
G1 X151.081 Y106.526
G1 X143.868 Y99.439 E80.3889
G1 X144.500 Y99.530
G1 X151.081 Y105.996 E80.6958
G1 X151.082 Y105.466
G1 X145.133 Y99.621 E80.9731
G1 X145.766 Y99.712
G1 X151.082 Y104.935 E81.2210
G1 X151.082 Y104.405
G1 X146.399 Y99.804 E81.4393
G1 X147.032 Y99.895
G1 X151.082 Y103.874 E81.6282
G1 X151.082 Y103.344
G1 X147.665 Y99.986 E81.7875
G1 X148.298 Y100.077
G1 X151.083 Y102.813 E81.9174
G1 X151.083 Y102.283
G1 X148.931 Y100.169 E82.0177
G0 X140.672 Y106.864 F5400
G0 X131.178 Y116.686
G1 X134.334 Y119.787 E82.1649 F3000
G1 X133.794 Y119.787
G1 X131.191 Y117.229 E82.2863
G1 X131.105 Y117.676
G1 X133.254 Y119.787 E82.3865
G1 X132.714 Y119.787
G1 X130.968 Y118.072 E82.4679
G1 X130.797 Y118.434
G1 X132.174 Y119.787 E82.5321
G1 X131.634 Y119.787
G1 X130.568 Y118.740 E82.5819
G1 X130.326 Y119.033
G1 X131.094 Y119.787 E82.6177
G1 X130.554 Y119.787
G1 X130.021 Y119.264 E82.6425
G1 X129.709 Y119.488
G1 X130.014 Y119.787 E82.6567
G1 X129.474 Y119.787
G1 X129.324 Y119.640 E82.6637
; ------------------------------------
; Layer #2
; ------------------------------------
G21 ; mm
G90 ; abs
G92 E0 ; reset extr
M106 S0
G0 F1200 E-1.0000
G0 F300 Z0.600
G0 X118.919 Y119.683 F5400
G0 X116.318 Y119.694
G0 X105.913 Y119.738
G0 F1200 E0.0000
;segType:Loop
G1 X105.913 Y97.555 E0.7378 F3000
G1 X116.273 Y97.555 E1.0824
G1 X116.930 Y97.642 E1.1044
G1 X117.507 Y97.881 E1.1252
G1 X118.003 Y98.262 E1.1460
G1 X118.385 Y98.760 E1.1669
G1 X118.626 Y99.341 E1.1878
G1 X118.713 Y100.004 E1.2100
G1 X118.713 Y117.928 E1.8062
G1 X118.626 Y118.591 E1.8284
G1 X118.385 Y119.172 E1.8494
G1 X118.003 Y119.671 E1.8702
G1 X117.507 Y120.051 E1.8910
G1 X116.930 Y120.290 E1.9118
G1 X116.273 Y120.377 E1.9338
G1 X105.913 Y120.377 E2.2784
G1 X105.913 Y119.925 E2.2934
;segType:Perimeter
G0 X106.148 Y120.455 F5400
G1 X105.513 Y120.713 E2.3162 F2100
G1 X105.513 Y97.162 E3.0995
G1 X116.300 Y97.162 E3.4583
G1 X117.036 Y97.260 E3.4830
G1 X117.711 Y97.539 E3.5073
G1 X118.290 Y97.984 E3.5316
G1 X118.736 Y98.564 E3.5559
G1 X119.016 Y99.240 E3.5803
G1 X119.113 Y99.979 E3.6050
G1 X119.113 Y117.953 E4.2029
G1 X119.016 Y118.692 E4.2277
G1 X118.736 Y119.368 E4.2520
G1 X118.290 Y119.948 E4.2763
G1 X117.711 Y120.393 E4.3006
G1 X117.036 Y120.673 E4.3249
G1 X116.300 Y120.770 E4.3496
G1 X105.570 Y120.770 E4.7065
G1 X105.833 Y120.146
;segType:Loop
G0 X106.313 Y118.706 F5400
G1 X106.313 Y97.948 E5.3969 F3000
G1 X116.246 Y97.948 E5.7273
G1 X116.824 Y98.025 E5.7467
G1 X117.302 Y98.223 E5.7639
G1 X117.715 Y98.540 E5.7812
G1 X118.034 Y98.955 E5.7986
G1 X118.236 Y99.442 E5.8162
G1 X118.313 Y100.029 E5.8359
G1 X118.313 Y117.903 E6.4303
G1 X118.236 Y118.490 E6.4500
G1 X118.034 Y118.977 E6.4676
G1 X117.715 Y119.393 E6.4850
G1 X117.302 Y119.710 E6.5023
G1 X116.824 Y119.907 E6.5195
G1 X116.246 Y119.984 E6.5389
G1 X106.313 Y119.984 E6.8693
G1 X106.313 Y118.894 E6.9055
G0 X112.313 Y119.032 F5400
G0 X113.314 Y118.775
G0 X114.065 Y118.070
G0 X114.576 Y117.200
G1 X114.487 Y117.666 E6.9213 F3000
G1 X114.245 Y118.180 E6.9402
G1 X113.881 Y118.620 E6.9592
G1 X113.417 Y118.957 E6.9783
G1 X112.884 Y119.168 E6.9974
G1 X112.313 Y119.241 E7.0165
G1 X111.742 Y119.168 E7.0356
G1 X111.209 Y118.957 E7.0547
G1 X110.745 Y118.620 E7.0738
G1 X110.382 Y118.181 E7.0927
G1 X110.139 Y117.666 E7.1117
G1 X110.033 Y117.108 E7.1305
G1 X110.068 Y116.542 E7.1494
G1 X110.244 Y116.001 E7.1683
G1 X110.549 Y115.520 E7.1873
G1 X110.966 Y115.129 E7.2063
G1 X111.468 Y114.853 E7.2254
G1 X112.025 Y114.710 E7.2445
G1 X112.601 Y114.710 E7.2636
G1 X113.157 Y114.853 E7.2827
G1 X113.660 Y115.129 E7.3018
G1 X114.077 Y115.520 E7.3208
G1 X114.386 Y116.007 E7.3400
G1 X114.560 Y116.591 E7.3603
G1 X114.587 Y117.015 E7.3744
;segType:Perimeter
G0 X114.234 Y115.577 F5400
G1 X114.033 Y116.223 E7.3969 F2100
G1 X114.164 Y116.659 E7.4120
G1 X114.191 Y117.084 E7.4262
G1 X114.103 Y117.545 E7.4418
G1 X113.902 Y117.971 E7.4574
G1 X113.602 Y118.334 E7.4731
G1 X113.221 Y118.611 E7.4888
G1 X112.782 Y118.785 E7.5045
G1 X112.313 Y118.844 E7.5202
G1 X111.844 Y118.785 E7.5359
G1 X111.405 Y118.611 E7.5516
G1 X111.024 Y118.334 E7.5673
G1 X110.724 Y117.971 E7.5830
G1 X110.523 Y117.545 E7.5986
G1 X110.435 Y117.084 E7.6142
G1 X110.465 Y116.615 E7.6299
G1 X110.610 Y116.167 E7.6455
G1 X110.862 Y115.770 E7.6612
G1 X111.206 Y115.448 E7.6769
G1 X111.619 Y115.220 E7.6925
G1 X112.077 Y115.103 E7.7083
G1 X112.549 Y115.103 E7.7240
G1 X113.007 Y115.220 E7.7397
G1 X113.420 Y115.448 E7.7554
G1 X113.764 Y115.770 E7.7710
G1 X113.987 Y116.122 E7.7849
G1 X114.611 Y116.404
;segType:Loop
G0 X114.611 Y118.338 F5400
G1 X114.587 Y118.390 E7.7868 F3000
G1 X114.160 Y118.907 E7.8091
G1 X113.614 Y119.303 E7.8315
G1 X112.986 Y119.551 E7.8540
G1 X112.313 Y119.637 E7.8766
G1 X111.640 Y119.551 E7.8991
G1 X111.012 Y119.303 E7.9216
G1 X110.467 Y118.907 E7.9440
G1 X110.040 Y118.390 E7.9663
G1 X109.755 Y117.787 E7.9885
G1 X109.630 Y117.133 E8.0106
G1 X109.672 Y116.469 E8.0328
G1 X109.878 Y115.835 E8.0549
G1 X110.237 Y115.270 E8.0772
G1 X110.727 Y114.810 E8.0995
G1 X111.318 Y114.485 E8.1220
G1 X111.974 Y114.317 E8.1445
G1 X112.652 Y114.317 E8.1671
G1 X113.308 Y114.485 E8.1896
G1 X113.900 Y114.810 E8.2120
G1 X114.389 Y115.270 E8.2344
G1 X114.754 Y115.844 E8.2570
G1 X114.957 Y116.522 E8.2805
G1 X114.996 Y117.133 E8.3009
G1 X114.871 Y117.787 E8.3230
G1 X114.691 Y118.167 E8.3370
G0 X114.576 Y101.200 F5400
G1 X114.487 Y101.666 E8.3528 F3000
G1 X114.245 Y102.180 E8.3717
G1 X113.881 Y102.620 E8.3907
G1 X113.417 Y102.957 E8.4097
G1 X112.884 Y103.168 E8.4288
G1 X112.313 Y103.241 E8.4480
G1 X111.742 Y103.168 E8.4671
G1 X111.209 Y102.957 E8.4862
G1 X110.745 Y102.620 E8.5052
G1 X110.381 Y102.181 E8.5242
G1 X110.139 Y101.666 E8.5431
G1 X110.033 Y101.108 E8.5620
G1 X110.068 Y100.542 E8.5809
G1 X110.244 Y100.001 E8.5998
G1 X110.549 Y99.520 E8.6187
G1 X110.966 Y99.129 E8.6377
G1 X111.469 Y98.853 E8.6568
G1 X112.026 Y98.710 E8.6759
G1 X112.601 Y98.710 E8.6951
G1 X113.157 Y98.853 E8.7142
G1 X113.660 Y99.129 E8.7333
G1 X114.077 Y99.520 E8.7523
G1 X114.386 Y100.007 E8.7714
G1 X114.560 Y100.591 E8.7917
G1 X114.587 Y101.015 E8.8058
;segType:Perimeter
G0 X114.234 Y99.577 F5400
G1 X114.033 Y100.223 E8.8283 F2100
G1 X114.164 Y100.659 E8.8435
G1 X114.191 Y101.084 E8.8576
G1 X114.103 Y101.546 E8.8733
G1 X113.902 Y101.971 E8.8889
G1 X113.602 Y102.334 E8.9046
G1 X113.221 Y102.611 E8.9203
G1 X112.782 Y102.785 E8.9359
G1 X112.313 Y102.844 E8.9517
G1 X111.844 Y102.785 E8.9674
G1 X111.405 Y102.611 E8.9831
G1 X111.024 Y102.334 E8.9988
G1 X110.723 Y101.971 E9.0144
G1 X110.523 Y101.546 E9.0301
G1 X110.435 Y101.084 E9.0457
G1 X110.465 Y100.615 E9.0613
G1 X110.610 Y100.167 E9.0770
G1 X110.862 Y99.770 E9.0926
G1 X111.206 Y99.448 E9.1083
G1 X111.619 Y99.220 E9.1240
G1 X112.077 Y99.103 E9.1397
G1 X112.549 Y99.103 E9.1554
G1 X113.007 Y99.220 E9.1711
G1 X113.420 Y99.448 E9.1868
G1 X113.764 Y99.770 E9.2025
G1 X113.987 Y100.122 E9.2164
G1 X114.611 Y100.404
;segType:Loop
G0 X114.611 Y102.338 F5400
G1 X114.587 Y102.390 E9.2183 F3000
G1 X114.160 Y102.907 E9.2406
G1 X113.614 Y103.303 E9.2630
G1 X112.986 Y103.551 E9.2855
G1 X112.313 Y103.637 E9.3080
G1 X111.640 Y103.551 E9.3306
G1 X111.012 Y103.303 E9.3531
G1 X110.467 Y102.907 E9.3755
G1 X110.039 Y102.390 E9.3978
G1 X109.755 Y101.786 E9.4200
G1 X109.630 Y101.133 E9.4421
G1 X109.672 Y100.469 E9.4642
G1 X109.878 Y99.835 E9.4864
G1 X110.237 Y99.270 E9.5087
G1 X110.726 Y98.811 E9.5310
G1 X111.318 Y98.485 E9.5535
G1 X111.974 Y98.317 E9.5760
G1 X112.652 Y98.317 E9.5985
G1 X113.308 Y98.485 E9.6210
G1 X113.900 Y98.810 E9.6435
G1 X114.389 Y99.270 E9.6659
G1 X114.754 Y99.844 E9.6885
G1 X114.957 Y100.522 E9.7120
G1 X114.996 Y101.133 E9.7323
G1 X114.871 Y101.787 E9.7545
G1 X114.691 Y102.167 E9.7685
G0 X111.796 Y102.966 F5400
G0 X110.892 Y102.470
G0 X110.341 Y101.603
G0 X109.618 Y99.990
;segType:HShell
G1 X106.513 Y103.041 E9.9133 F3000
G1 X106.513 Y102.510
G1 X110.956 Y98.145 E10.1205
G1 X110.416 Y98.145
G1 X106.513 Y101.980 E10.3025
G1 X106.513 Y101.449
G1 X109.876 Y98.145 E10.4593
G1 X109.336 Y98.145
G1 X106.513 Y100.918 E10.5909
G1 X106.513 Y100.388
G1 X108.796 Y98.145 E10.6974
G1 X108.256 Y98.145
G1 X106.513 Y99.857 E10.7786
G1 X106.513 Y99.327
G1 X107.716 Y98.145 E10.8347
G1 X107.176 Y98.145
G1 X106.513 Y98.796 E10.8656
G1 X106.513 Y98.265
G1 X106.636 Y98.145 E10.8714
G0 X111.496 Y98.145 F5400
G1 X111.370 Y98.269 E10.8773 F3000
G0 X113.534 Y99.297 F5400
G0 X114.191 Y100.093
G0 X114.381 Y101.095
G0 X113.576 Y103.530
G1 X106.513 Y110.470 E11.2066 F3000
G1 X106.513 Y109.939
G1 X112.787 Y103.775 E11.4992
G1 X112.200 Y103.821
G1 X106.513 Y109.408 E11.7643
G1 X106.513 Y108.878
G1 X111.722 Y103.760 E12.0072
G1 X111.311 Y103.633
G1 X106.513 Y108.347 E12.2310
G1 X106.513 Y107.817
G1 X110.926 Y103.481 E12.4367
G1 X110.613 Y103.257
G1 X106.513 Y107.286 E12.6279
G1 X106.513 Y106.755
G1 X110.308 Y103.027 E12.8049
G1 X110.066 Y102.734
G1 X106.513 Y106.225 E12.9705
G1 X106.513 Y105.694
G1 X109.837 Y102.428 E13.1255
G1 X109.666 Y102.065
G1 X106.513 Y105.163 E13.2726
G1 X106.513 Y104.633
G1 X109.529 Y101.669 E13.4132
G1 X109.444 Y101.222
G1 X106.513 Y104.102 E13.5499
G1 X106.513 Y103.572
G1 X109.459 Y100.677 E13.6873
G0 X110.892 Y102.470 F5400
G0 X111.796 Y102.966
G0 X112.830 Y102.966
G0 X113.734 Y102.470
G0 X115.135 Y101.467
G1 X117.744 Y98.904 E13.8089 F3000
G1 X117.494 Y98.619
G1 X115.181 Y100.892 E13.9168
G1 X115.132 Y100.410
G1 X117.188 Y98.389 E14.0127
G1 X116.808 Y98.232
G1 X115.009 Y100.000 E14.0966
G1 X114.850 Y99.625
G1 X116.342 Y98.159 E14.1661
G1 X115.817 Y98.145
G1 X114.643 Y99.298 E14.2209
G1 X114.399 Y99.007
G1 X115.277 Y98.145 E14.2618
G1 X114.736 Y98.145
G1 X114.123 Y98.748 E14.2904
G1 X113.802 Y98.532
G1 X114.196 Y98.145 E14.3088
G1 X113.656 Y98.145
G1 X113.456 Y98.341 E14.3181
G1 X113.045 Y98.215
G1 X113.116 Y98.145 E14.3215
G0 X114.352 Y100.627 F5400
G0 X114.285 Y101.603
G0 X109.657 Y115.871
G1 X106.513 Y118.960 E14.4681 F3000
G1 X106.513 Y118.429
G1 X118.113 Y107.031 E15.0090
G1 X118.113 Y106.500
G1 X106.513 Y117.898 E15.5499
G1 X106.513 Y117.368
G1 X118.113 Y105.970 E16.0908
G1 X118.113 Y105.439
G1 X106.513 Y116.837 E16.6317
G1 X106.513 Y116.307
G1 X118.113 Y104.909 E17.1726
G1 X118.113 Y104.378
G1 X106.513 Y115.776 E17.7136
G1 X106.513 Y115.245
G1 X118.113 Y103.847 E18.2545
G1 X118.113 Y103.317
G1 X106.513 Y114.715 E18.7954
G1 X106.513 Y114.184
G1 X118.113 Y102.786 E19.3363
G1 X118.113 Y102.255
G1 X106.513 Y113.653 E19.8772
G1 X106.513 Y113.123
G1 X118.113 Y101.725 E20.4181
G1 X118.113 Y101.194
G1 X106.513 Y112.592 E20.9591
G1 X106.513 Y112.062
G1 X118.113 Y100.664 E21.5000
G1 X118.113 Y100.133
G1 X106.513 Y111.531 E22.0409
G1 X106.513 Y111.000
G1 X118.062 Y99.653 E22.5794
G1 X117.938 Y99.244
G1 X114.868 Y102.260 E22.7226
G0 X115.154 Y117.367 F5400
G1 X118.113 Y114.460 E22.8605 F3000
G1 X118.113 Y113.929
G1 X115.176 Y116.815 E22.9975
G1 X115.113 Y116.347
G1 X118.113 Y113.399 E23.1374
G1 X118.113 Y112.868
G1 X114.990 Y115.937 E23.2831
G1 X114.818 Y115.575
G1 X118.113 Y112.337 E23.4367
G1 X118.113 Y111.807
G1 X114.611 Y115.248 E23.6000
G1 X114.356 Y114.967
G1 X118.113 Y111.276 E23.7752
G1 X118.113 Y110.745
G1 X114.080 Y114.708 E23.9632
G1 X113.749 Y114.503
G1 X118.113 Y110.215 E24.1667
G1 X118.113 Y109.684
G1 X113.403 Y114.312 E24.3864
G1 X112.979 Y114.198
G1 X118.113 Y109.154 E24.6258
G1 X118.113 Y108.623
G1 X112.518 Y114.120 E24.8867
G1 X111.978 Y114.120
G1 X118.113 Y108.092 E25.1727
G1 X118.113 Y107.562
G1 X111.258 Y114.298 E25.4924
G0 X110.277 Y116.580 F5400
G0 X110.341 Y117.603
G0 X111.252 Y119.610
G1 X111.071 Y119.787 E25.5008 F3000
G1 X110.531 Y119.787
G1 X110.876 Y119.448 E25.5169
G1 X110.565 Y119.223
G1 X109.991 Y119.787 E25.5437
G1 X109.451 Y119.787
G1 X110.271 Y118.982 E25.5820
G1 X110.029 Y118.689
G1 X108.911 Y119.787 E25.6341
G1 X108.371 Y119.787
G1 X109.811 Y118.372 E25.7012
G1 X109.640 Y118.010
G1 X107.831 Y119.787 E25.7856
G1 X107.290 Y119.787
G1 X109.516 Y117.601 E25.8894
G1 X109.431 Y117.154
G1 X106.750 Y119.787 E26.0144
G1 X106.513 Y119.490
G1 X109.464 Y116.591 E26.1520
G0 X110.892 Y118.470 F5400
G0 X111.796 Y118.966
G0 X112.830 Y118.966
G0 X118.070 Y118.217
G1 X116.509 Y119.751 E26.2248 F3000
G1 X115.931 Y119.787
G1 X118.113 Y117.644 E26.3265
G1 X118.113 Y117.113
G1 X115.391 Y119.787 E26.4535
G1 X114.851 Y119.787
G1 X118.113 Y116.582 E26.6056
G1 X118.113 Y116.052
G1 X114.311 Y119.787 E26.7828
G1 X113.771 Y119.787
G1 X118.113 Y115.521 E26.9853
G1 X118.113 Y114.990
G1 X114.939 Y118.109 E27.1333
G0 X113.438 Y119.584 F5400
G1 X113.231 Y119.787 E27.1430 F3000
G0 X117.496 Y119.311 F5400
G1 X117.621 Y119.188 E27.1488 F3000
;segType:Loop
G0 F1200 E26.1488
G0 X150.972 Y100.383 F5400
G0 F1200 E27.1488
G1 X151.295 Y100.755 E27.1652 F3000
G1 X151.579 Y101.379 E27.1880
G1 X151.683 Y102.100 E27.2122
G1 X151.683 Y115.832 E27.6690
G1 X151.579 Y116.553 E27.6932
G1 X151.295 Y117.177 E27.7160
G1 X150.847 Y117.693 E27.7387
G1 X150.274 Y118.061 E27.7614
G1 X149.580 Y118.266 E27.7854
G1 X135.083 Y120.377 E28.2727
G1 X124.353 Y120.377 E28.6296
G1 X123.696 Y120.290 E28.6516
G1 X123.120 Y120.051 E28.6724
G1 X122.623 Y119.671 E28.6932
G1 X122.241 Y119.172 E28.7141
G1 X122.000 Y118.591 E28.7350
G1 X121.913 Y117.928 E28.7572
G1 X121.913 Y100.004 E29.3534
G1 X122.000 Y99.341 E29.3756
G1 X122.241 Y98.760 E29.3966
G1 X122.623 Y98.262 E29.4174
G1 X123.120 Y97.881 E29.4383
G1 X123.696 Y97.642 E29.4590
G1 X124.353 Y97.556 E29.4810
G1 X135.083 Y97.577 E29.8379
G1 X149.580 Y99.666 E30.3251
G1 X150.274 Y99.871 E30.3492
G1 X150.847 Y100.239 E30.3718
G1 X150.848 Y100.240 E30.3718
G0 F1200 E29.3718
G0 X149.866 Y99.818 F5400
G0 F1200 E30.3718
;segType:Perimeter
G1 X150.493 Y99.541 E30.3946 F2100
G1 X151.114 Y99.941 E30.4192
G1 X151.636 Y100.543 E30.4457
G1 X151.968 Y101.269 E30.4723
G1 X152.083 Y102.073 E30.4993
G1 X152.083 Y115.859 E30.9578
G1 X151.968 Y116.663 E30.9848
G1 X151.636 Y117.389 E31.0114
G1 X151.114 Y117.991 E31.0379
G1 X150.445 Y118.422 E31.0643
G1 X149.667 Y118.650 E31.0913
G1 X135.113 Y120.770 E31.5805
G1 X124.326 Y120.770 E31.9392
G1 X123.590 Y120.673 E31.9640
G1 X122.915 Y120.393 E31.9882
G1 X122.335 Y119.948 E32.0125
G1 X121.890 Y119.368 E32.0369
G1 X121.610 Y118.692 E32.0612
G1 X121.513 Y117.953 E32.0860
G1 X121.513 Y99.979 E32.6838
G1 X121.610 Y99.240 E32.7086
G1 X121.890 Y98.564 E32.7329
G1 X122.335 Y97.984 E32.7573
G1 X122.915 Y97.539 E32.7816
G1 X123.590 Y97.260 E32.8059
G1 X124.326 Y97.162 E32.8306
G1 X135.113 Y97.184 E33.1893
G1 X149.667 Y99.282 E33.6784
G1 X150.390 Y99.494 E33.7035
G1 X150.579 Y100.144
;segType:Loop
G0 X151.156 Y101.411 F5400
G1 X151.191 Y101.489 E33.7063 F3000
G1 X151.283 Y102.128 E33.7278
G1 X151.283 Y115.804 E34.1827
G1 X151.191 Y116.443 E34.2041
G1 X150.953 Y116.965 E34.2232
G1 X150.580 Y117.395 E34.2421
G1 X150.104 Y117.701 E34.2610
G1 X149.493 Y117.881 E34.2821
G1 X135.054 Y119.984 E34.7675
G1 X124.380 Y119.984 E35.1225
G1 X123.802 Y119.907 E35.1419
G1 X123.324 Y119.710 E35.1591
G1 X122.911 Y119.393 E35.1764
G1 X122.592 Y118.977 E35.1938
G1 X122.390 Y118.490 E35.2114
G1 X122.313 Y117.903 E35.2311
G1 X122.313 Y100.029 E35.8255
G1 X122.390 Y99.442 E35.8452
G1 X122.592 Y98.955 E35.8627
G1 X122.911 Y98.540 E35.8802
G1 X123.324 Y98.223 E35.8975
G1 X123.802 Y98.025 E35.9147
G1 X124.379 Y97.949 E35.9341
G1 X135.054 Y97.970 E36.2891
G1 X149.494 Y100.051 E36.7743
G1 X150.104 Y100.231 E36.7955
G1 X150.580 Y100.537 E36.8143
G1 X150.953 Y100.967 E36.8333
G1 X151.078 Y101.240 E36.8432
G0 X148.333 Y110.840 F5400
G1 X148.046 Y111.214 E36.8589 F3000
G1 X147.385 Y111.722 E36.8866
G1 X146.613 Y112.042 E36.9144
G1 X145.823 Y112.145 E36.9409
G1 X142.743 Y112.145 E37.0434
G1 X141.953 Y112.042 E37.0698
G1 X141.181 Y111.722 E37.0976
G1 X140.520 Y111.214 E37.1254
G1 X140.014 Y110.555 E37.1530
G1 X139.696 Y109.788 E37.1806
G1 X139.588 Y108.966 E37.2082
G1 X139.696 Y108.144 E37.2358
G1 X140.014 Y107.377 E37.2634
G1 X140.520 Y106.718 E37.2910
G1 X141.181 Y106.210 E37.3188
G1 X141.953 Y105.890 E37.3466
G1 X142.743 Y105.787 E37.3730
G1 X145.823 Y105.787 E37.4755
G1 X146.613 Y105.890 E37.5020
G1 X147.385 Y106.210 E37.5298
G1 X148.046 Y106.718 E37.5575
G1 X148.552 Y107.377 E37.5851
G1 X148.870 Y108.144 E37.6127
G1 X148.978 Y108.966 E37.6403
G1 X148.870 Y109.788 E37.6679
G1 X148.552 Y110.555 E37.6955
G1 X148.448 Y110.691 E37.7012
;segType:Perimeter
G0 X149.028 Y109.362 F5400
G1 X148.458 Y109.739 E37.7239 F2100
G1 X148.201 Y110.359 E37.7462
G1 X147.758 Y110.936 E37.7705
G1 X147.180 Y111.380 E37.7947
G1 X146.507 Y111.659 E37.8189
G1 X145.796 Y111.752 E37.8428
G1 X142.770 Y111.752 E37.9434
G1 X142.059 Y111.659 E37.9673
G1 X141.386 Y111.380 E37.9915
G1 X140.808 Y110.936 E38.0157
G1 X140.365 Y110.359 E38.0399
G1 X140.086 Y109.687 E38.0641
G1 X139.991 Y108.966 E38.0883
G1 X140.086 Y108.245 E38.1125
G1 X140.365 Y107.573 E38.1367
G1 X140.808 Y106.996 E38.1609
G1 X141.386 Y106.552 E38.1852
G1 X142.059 Y106.273 E38.2094
G1 X142.770 Y106.180 E38.2332
G1 X145.796 Y106.180 E38.3339
G1 X146.507 Y106.273 E38.3577
G1 X147.180 Y106.552 E38.3820
G1 X147.758 Y106.996 E38.4062
G1 X148.201 Y107.573 E38.4304
G1 X148.480 Y108.245 E38.4546
G1 X148.575 Y108.966 E38.4788
G1 X148.487 Y109.631 E38.5011
G1 X148.794 Y110.235
;segType:Loop
G0 X147.840 Y111.871 F5400
G1 X147.589 Y112.064 E38.5116 F3000
G1 X146.719 Y112.424 E38.5430
G1 X145.850 Y112.538 E38.5721
G1 X142.716 Y112.538 E38.6763
G1 X141.847 Y112.424 E38.7055
G1 X140.977 Y112.064 E38.7368
G1 X140.233 Y111.492 E38.7680
G1 X139.663 Y110.750 E38.7992
G1 X139.307 Y109.889 E38.8302
G1 X139.185 Y108.966 E38.8611
G1 X139.307 Y108.043 E38.8921
G1 X139.663 Y107.182 E38.9231
G1 X140.233 Y106.440 E38.9542
G1 X140.977 Y105.868 E38.9854
G1 X141.847 Y105.508 E39.0167
G1 X142.716 Y105.394 E39.0459
G1 X145.850 Y105.394 E39.1501
G1 X146.719 Y105.508 E39.1793
G1 X147.589 Y105.868 E39.2106
G1 X148.333 Y106.440 E39.2418
G1 X148.903 Y107.182 E39.2729
G1 X149.260 Y108.043 E39.3039
G1 X149.382 Y108.966 E39.3349
G1 X149.260 Y109.889 E39.3659
G1 X148.903 Y110.750 E39.3969
G1 X148.333 Y111.492 E39.4280
G1 X147.991 Y111.755 E39.4423
G0 X130.586 Y117.201 F5400
G1 X130.496 Y117.669 E39.4582 F3000
G1 X130.253 Y118.186 E39.4772
G1 X129.888 Y118.628 E39.4963
G1 X129.422 Y118.966 E39.5154
G1 X128.886 Y119.178 E39.5346
G1 X128.313 Y119.251 E39.5538
G1 X127.740 Y119.178 E39.5730
G1 X127.204 Y118.966 E39.5922
G1 X126.738 Y118.628 E39.6113
G1 X126.373 Y118.186 E39.6304
G1 X126.130 Y117.669 E39.6494
G1 X126.023 Y117.109 E39.6683
G1 X126.059 Y116.540 E39.6873
G1 X126.235 Y115.997 E39.7063
G1 X126.542 Y115.514 E39.7253
G1 X126.960 Y115.121 E39.7444
G1 X127.465 Y114.843 E39.7636
G1 X128.024 Y114.700 E39.7828
G1 X128.602 Y114.700 E39.8020
G1 X129.161 Y114.843 E39.8212
G1 X129.666 Y115.121 E39.8403
G1 X130.084 Y115.514 E39.8595
G1 X130.395 Y116.003 E39.8787
G1 X130.570 Y116.589 E39.8991
G1 X130.597 Y117.015 E39.9133
;segType:Perimeter
G0 X130.243 Y115.573 F5400
G1 X130.043 Y116.219 E39.9358 F2100
G1 X130.174 Y116.657 E39.9510
G1 X130.201 Y117.084 E39.9652
G1 X130.112 Y117.548 E39.9809
G1 X129.911 Y117.976 E39.9966
G1 X129.609 Y118.341 E40.0124
G1 X129.226 Y118.620 E40.0282
G1 X128.784 Y118.794 E40.0440
G1 X128.313 Y118.854 E40.0598
G1 X127.842 Y118.794 E40.0756
G1 X127.401 Y118.620 E40.0913
G1 X127.017 Y118.341 E40.1071
G1 X126.715 Y117.976 E40.1229
G1 X126.514 Y117.548 E40.1386
G1 X126.425 Y117.084 E40.1543
G1 X126.455 Y116.613 E40.1700
G1 X126.601 Y116.163 E40.1857
G1 X126.854 Y115.764 E40.2015
G1 X127.200 Y115.439 E40.2172
G1 X127.616 Y115.211 E40.2330
G1 X128.076 Y115.093 E40.2488
G1 X128.551 Y115.093 E40.2646
G1 X129.010 Y115.211 E40.2804
G1 X129.426 Y115.439 E40.2962
G1 X129.772 Y115.764 E40.3119
G1 X129.996 Y116.117 E40.3259
G1 X130.620 Y116.400
;segType:Loop
G0 X130.622 Y118.338 F5400
G1 X130.595 Y118.395 E40.3280 F3000
G1 X130.166 Y118.914 E40.3504
G1 X129.619 Y119.312 E40.3729
G1 X128.988 Y119.561 E40.3954
G1 X128.313 Y119.647 E40.4181
G1 X127.638 Y119.561 E40.4407
G1 X127.007 Y119.312 E40.4633
G1 X126.460 Y118.914 E40.4857
G1 X126.031 Y118.395 E40.5081
G1 X125.746 Y117.790 E40.5304
G1 X125.620 Y117.134 E40.5526
G1 X125.662 Y116.467 E40.5748
G1 X125.869 Y115.830 E40.5971
G1 X126.229 Y115.264 E40.6194
G1 X126.720 Y114.802 E40.6418
G1 X127.315 Y114.476 E40.6644
G1 X127.973 Y114.307 E40.6870
G1 X128.653 Y114.307 E40.7096
G1 X129.312 Y114.476 E40.7322
G1 X129.905 Y114.802 E40.7548
G1 X130.397 Y115.264 E40.7772
G1 X130.763 Y115.840 E40.7999
G1 X130.967 Y116.520 E40.8235
G1 X131.006 Y117.133 E40.8439
G1 X130.880 Y117.790 E40.8662
G1 X130.702 Y118.168 E40.8801
G0 X130.586 Y101.201 F5400
G1 X130.496 Y101.669 E40.8959 F3000
G1 X130.253 Y102.186 E40.9149
G1 X129.888 Y102.628 E40.9340
G1 X129.422 Y102.966 E40.9531
G1 X128.886 Y103.178 E40.9723
G1 X128.313 Y103.251 E40.9915
G1 X127.740 Y103.178 E41.0107
G1 X127.204 Y102.966 E41.0299
G1 X126.738 Y102.628 E41.0490
G1 X126.373 Y102.186 E41.0681
G1 X126.130 Y101.669 E41.0871
G1 X126.023 Y101.109 E41.1061
G1 X126.059 Y100.540 E41.1250
G1 X126.235 Y99.997 E41.1440
G1 X126.542 Y99.514 E41.1631
G1 X126.960 Y99.121 E41.1821
G1 X127.465 Y98.843 E41.2013
G1 X128.024 Y98.700 E41.2205
G1 X128.602 Y98.700 E41.2397
G1 X129.161 Y98.843 E41.2589
G1 X129.666 Y99.121 E41.2781
G1 X130.084 Y99.514 E41.2972
G1 X130.395 Y100.003 E41.3164
G1 X130.570 Y100.589 E41.3368
G1 X130.597 Y101.015 E41.3510
;segType:Perimeter
G0 X130.243 Y99.573 F5400
G1 X130.043 Y100.219 E41.3735 F2100
G1 X130.174 Y100.657 E41.3887
G1 X130.201 Y101.084 E41.4029
G1 X130.112 Y101.548 E41.4186
G1 X129.911 Y101.976 E41.4344
G1 X129.609 Y102.341 E41.4501
G1 X129.226 Y102.620 E41.4659
G1 X128.784 Y102.794 E41.4817
G1 X128.313 Y102.854 E41.4975
G1 X127.842 Y102.794 E41.5133
G1 X127.401 Y102.620 E41.5291
G1 X127.017 Y102.341 E41.5448
G1 X126.715 Y101.976 E41.5606
G1 X126.514 Y101.548 E41.5763
G1 X126.425 Y101.084 E41.5920
G1 X126.455 Y100.613 E41.6077
G1 X126.601 Y100.163 E41.6235
G1 X126.854 Y99.764 E41.6392
G1 X127.200 Y99.440 E41.6550
G1 X127.616 Y99.211 E41.6708
G1 X128.076 Y99.093 E41.6865
G1 X128.551 Y99.093 E41.7023
G1 X129.010 Y99.211 E41.7181
G1 X129.426 Y99.440 E41.7339
G1 X129.772 Y99.764 E41.7497
G1 X129.996 Y100.118 E41.7636
G1 X130.620 Y100.400
;segType:Loop
G0 X130.622 Y102.338 F5400
G1 X130.595 Y102.395 E41.7657 F3000
G1 X130.166 Y102.914 E41.7881
G1 X129.619 Y103.312 E41.8106
G1 X128.988 Y103.561 E41.8332
G1 X128.313 Y103.647 E41.8558
G1 X127.638 Y103.561 E41.8784
G1 X127.007 Y103.312 E41.9010
G1 X126.460 Y102.914 E41.9235
G1 X126.031 Y102.395 E41.9459
G1 X125.746 Y101.790 E41.9681
G1 X125.620 Y101.134 E41.9904
G1 X125.662 Y100.467 E42.0126
G1 X125.869 Y99.830 E42.0348
G1 X126.229 Y99.264 E42.0571
G1 X126.720 Y98.802 E42.0796
G1 X127.315 Y98.476 E42.1021
G1 X127.973 Y98.307 E42.1247
G1 X128.653 Y98.307 E42.1474
G1 X129.312 Y98.476 E42.1700
G1 X129.905 Y98.802 E42.1925
G1 X130.397 Y99.264 E42.2149
G1 X130.763 Y99.840 E42.2376
G1 X130.967 Y100.520 E42.2612
G1 X131.006 Y101.133 E42.2817
G1 X130.880 Y101.790 E42.3039
G1 X130.702 Y102.168 E42.3178
G0 X130.201 Y100.088 F5400
G0 X129.539 Y99.289
G0 X128.575 Y98.907
G0 X126.715 Y98.580
;segType:HShell
G1 X127.152 Y98.151 E42.3382 F3000
G1 X126.613 Y98.150
G1 X122.513 Y102.178 E42.5293
G1 X122.513 Y101.648
G1 X126.074 Y98.149 E42.6954
G1 X125.535 Y98.147
G1 X122.513 Y101.117 E42.8363
G1 X122.513 Y100.586
G1 X124.996 Y98.146 E42.9521
G1 X124.457 Y98.145
G1 X122.513 Y100.056 E43.0428
G1 X122.612 Y99.427
G1 X123.837 Y98.224 E43.0999
G0 X126.885 Y102.477 F5400
G0 X127.794 Y102.976
G0 X130.126 Y103.188
G1 X122.513 Y110.668 E43.4549 F3000
G1 X122.513 Y110.138
G1 X129.007 Y103.757 E43.7577
G1 X128.386 Y103.836
G1 X122.513 Y109.607 E44.0316
G1 X122.513 Y109.076
G1 X127.891 Y103.791 E44.2824
G1 X127.447 Y103.697
G1 X122.513 Y108.546 E44.5125
G1 X122.513 Y108.015
G1 X127.062 Y103.545 E44.7246
G1 X126.722 Y103.349
G1 X122.513 Y107.484 E44.9209
G1 X122.513 Y106.954
G1 X126.411 Y103.123 E45.1026
G1 X126.149 Y102.850
G1 X122.513 Y106.423 E45.2722
G1 X122.513 Y105.893
G1 X125.907 Y102.557 E45.4305
G1 X125.722 Y102.208
G1 X122.513 Y105.362 E45.5802
G1 X122.513 Y104.831
G1 X125.553 Y101.844 E45.7219
G1 X125.467 Y101.397
G1 X122.513 Y104.301 E45.8597
G1 X122.513 Y103.770
G1 X125.435 Y100.899 E45.9960
G1 X125.508 Y100.297
G1 X122.513 Y103.239 E46.1356
G1 X122.513 Y102.709
G1 X125.951 Y99.331 E46.2959
G0 X128.575 Y98.907 F5400
G0 X129.539 Y99.289
G0 X130.201 Y100.088
G0 X131.101 Y101.699
G1 X134.697 Y98.166 E46.4636 F3000
G1 X134.158 Y98.165
G1 X131.202 Y101.069 E46.6014
G1 X131.170 Y100.570
G1 X133.619 Y98.164 E46.7156
G1 X133.080 Y98.163
G1 X131.063 Y100.145 E46.8097
G1 X130.935 Y99.740
G1 X132.541 Y98.162 E46.8846
G1 X132.002 Y98.161
G1 X130.727 Y99.413 E46.9441
G1 X130.509 Y99.097
G1 X131.463 Y98.159 E46.9886
G1 X130.924 Y98.158
G1 X130.233 Y98.838 E47.0208
G1 X129.939 Y98.596
G1 X130.385 Y98.157 E47.0416
G1 X129.847 Y98.156
G1 X129.593 Y98.405 E47.0534
G1 X129.213 Y98.248
G1 X129.308 Y98.155 E47.0578
G0 X130.362 Y100.625 F5400
G0 X130.294 Y101.606
G0 X129.741 Y102.477
G0 X126.235 Y117.096
G0 X126.553 Y118.075
G0 X127.388 Y119.674
G1 X127.273 Y119.787 E47.0632 F3000
G1 X126.733 Y119.787
G1 X127.003 Y119.522 E47.0758
G1 X126.674 Y119.314
G1 X126.193 Y119.787 E47.0983
G1 X125.653 Y119.787
G1 X126.364 Y119.089 E47.1314
G1 X126.112 Y118.805
G1 X125.113 Y119.787 E47.1780
G1 X124.572 Y119.787
G1 X125.870 Y118.512 E47.2385
G1 X125.696 Y118.153
G1 X124.075 Y119.745 E47.3141
G1 X123.651 Y119.632
G1 X125.540 Y117.776 E47.4022
G1 X125.454 Y117.329
G1 X123.302 Y119.444 E47.5025
G1 X123.012 Y119.198
G1 X125.440 Y116.812 E47.6157
G1 X125.547 Y116.177
G1 X122.780 Y118.896 E47.7447
G1 X122.620 Y118.522
G1 X142.276 Y99.210 E48.6613
G1 X141.805 Y99.142
G1 X122.537 Y118.073 E49.5597
G1 X122.513 Y117.566
G1 X141.334 Y99.074 E50.4373
G1 X140.863 Y99.006
G1 X122.513 Y117.036 E51.2930
G1 X122.513 Y116.505
G1 X140.392 Y98.938 E52.1266
G1 X139.921 Y98.870
G1 X122.513 Y115.974 E52.9384
G1 X122.513 Y115.444
G1 X139.450 Y98.802 E53.7281
G1 X138.979 Y98.734
G1 X122.513 Y114.913 E54.4959
G1 X122.513 Y114.383
G1 X138.508 Y98.667 E55.2417
G1 X138.037 Y98.599
G1 X122.513 Y113.852 E55.9656
G1 X122.513 Y113.321
G1 X137.566 Y98.531 E56.6675
G1 X137.095 Y98.463
G1 X122.513 Y112.791 E57.3475
G1 X122.513 Y112.260
G1 X136.624 Y98.395 E58.0055
G1 X136.153 Y98.327
G1 X122.513 Y111.729 E58.6415
G1 X122.513 Y111.199
G1 X135.682 Y98.259 E59.2556
G1 X135.211 Y98.191
G1 X130.508 Y102.812 E59.4749
G0 X141.218 Y105.555 F5400
G1 X146.986 Y99.888 E59.7438 F3000
G1 X146.515 Y99.820
G1 X130.696 Y115.363 E60.4814
G1 X130.467 Y115.057
G1 X146.044 Y99.752 E61.2077
G1 X145.573 Y99.685
G1 X130.190 Y114.798 E61.9250
G1 X129.886 Y114.567
G1 X145.102 Y99.617 E62.6345
G1 X144.631 Y99.549
G1 X129.540 Y114.376 E63.3381
G1 X129.148 Y114.231
G1 X144.160 Y99.481 E64.0381
G1 X143.689 Y99.413
G1 X128.719 Y114.121 E64.7361
G1 X128.190 Y114.111
G1 X143.218 Y99.345 E65.4368
G1 X142.747 Y99.277
G1 X127.545 Y114.214 E66.1457
G0 X129.539 Y115.289 F5400
G0 X130.201 Y116.088
G0 X131.120 Y117.599
G1 X139.089 Y109.769 E66.5172 F3000
G1 X139.027 Y109.300
G1 X131.197 Y116.993 E66.8823
G1 X131.165 Y116.493
G1 X139.006 Y108.790 E67.2479
G1 X139.087 Y108.180
G1 X131.044 Y116.082 E67.6230
G1 X130.903 Y115.690
G1 X139.368 Y107.373 E68.0176
G0 X142.009 Y106.092 F5400
G0 X145.809 Y105.992
G0 X146.557 Y106.092
G0 X147.277 Y106.390
G0 X147.894 Y106.864
G0 X148.368 Y107.480
G0 X149.275 Y110.374
G1 X151.083 Y108.597 E68.1020 F3000
G1 X151.083 Y108.067
G1 X149.496 Y109.626 E68.1760
G1 X149.577 Y109.017
G1 X151.083 Y107.536 E68.2462
G1 X151.083 Y107.005
G1 X149.526 Y108.535 E68.3189
G1 X149.464 Y108.066
G1 X151.083 Y106.475 E68.3944
G1 X151.083 Y105.944
G1 X149.323 Y107.674 E68.4764
G1 X149.167 Y107.297
G1 X151.083 Y105.414 E68.5658
G1 X151.083 Y104.883
G1 X148.977 Y106.952 E68.6640
G1 X148.745 Y106.650
G1 X151.083 Y104.352 E68.7730
G1 X151.083 Y103.822
G1 X148.513 Y106.347 E68.8929
G1 X148.221 Y106.104
G1 X151.083 Y103.291 E69.0264
G1 X151.083 Y102.760
G1 X147.917 Y105.871 E69.1740
G1 X147.595 Y105.657
G1 X151.083 Y102.230 E69.3367
G1 X151.027 Y101.754
G1 X147.215 Y105.500 E69.5144
G1 X146.835 Y105.343
G1 X150.905 Y101.343 E69.7042
G1 X150.717 Y100.998
G1 X146.375 Y105.264 E69.9067
G1 X145.898 Y105.202
G1 X150.468 Y100.711 E70.1198
G1 X150.149 Y100.495
G1 X145.363 Y105.197 E70.3430
G1 X144.823 Y105.197
G1 X149.769 Y100.337 E70.5736
G1 X149.341 Y100.228
G1 X144.282 Y105.197 E70.8095
G1 X143.742 Y105.197
G1 X148.870 Y100.160 E71.0486
G1 X148.399 Y100.092
G1 X143.202 Y105.197 E71.2909
G1 X142.656 Y105.204
G1 X147.928 Y100.024 E71.5367
G1 X147.457 Y99.956
G1 X142.033 Y105.285 E71.7896
G0 X140.199 Y107.480 F5400
G0 X139.902 Y108.197
G0 X139.800 Y108.966
G0 X139.902 Y109.735
G0 X140.199 Y110.452
G0 X140.672 Y111.068
G0 X141.289 Y111.542
G0 X142.009 Y111.840
G0 X146.404 Y112.664
G1 X139.870 Y119.084 E72.0942 F3000
G1 X139.236 Y119.176
G1 X145.792 Y112.735 E72.3999
G1 X145.252 Y112.735
G1 X138.602 Y119.269 E72.7100
G1 X137.968 Y119.361
G1 X144.712 Y112.735 E73.0245
G1 X144.172 Y112.735
G1 X137.334 Y119.453 E73.3433
G1 X136.700 Y119.546
G1 X143.632 Y112.735 E73.6665
G1 X143.092 Y112.735
G1 X136.066 Y119.638 E73.9942
G1 X135.432 Y119.730
G1 X142.570 Y112.717 E74.3270
G1 X142.093 Y112.655
G1 X134.834 Y119.787 E74.6655
G1 X134.294 Y119.787
G1 X141.653 Y112.557 E75.0086
G1 X141.273 Y112.400
G1 X133.754 Y119.787 E75.3592
G1 X133.213 Y119.787
G1 X140.893 Y112.242 E75.7173
G1 X140.586 Y112.013
G1 X132.673 Y119.787 E76.0862
G1 X132.133 Y119.787
G1 X140.283 Y111.780 E76.4662
G1 X140.005 Y111.522
G1 X131.593 Y119.787 E76.8585
G1 X131.053 Y119.787
G1 X139.773 Y111.220 E77.2650
G1 X139.541 Y110.918
G1 X130.513 Y119.787 E77.6860
G1 X129.973 Y119.787
G1 X139.367 Y110.558 E78.1240
G1 X139.211 Y110.180
G1 X130.786 Y118.458 E78.5168
G0 X129.809 Y119.418 F5400
G1 X129.433 Y119.787 E78.5344 F3000
G0 X149.381 Y117.699 F5400
G1 X151.044 Y116.065 E78.6119 F3000
G1 X151.083 Y115.495
G1 X148.747 Y117.791 E78.7208
G1 X148.113 Y117.883
G1 X151.083 Y114.965 E78.8593
G1 X151.083 Y114.434
G1 X147.479 Y117.976 E79.0274
G1 X146.845 Y118.068
G1 X151.083 Y113.904 E79.2251
G1 X151.083 Y113.373
G1 X146.211 Y118.160 E79.4523
G1 X145.577 Y118.253
G1 X151.083 Y112.842 E79.7090
G1 X151.083 Y112.312
G1 X144.943 Y118.345 E79.9954
G1 X144.309 Y118.437
G1 X151.083 Y111.781 E80.3113
G1 X151.083 Y111.250
G1 X143.675 Y118.530 E80.6567
G1 X143.040 Y118.622
G1 X151.083 Y110.720 E81.0317
G1 X151.083 Y110.189
G1 X142.406 Y118.714 E81.4363
G1 X141.772 Y118.807
G1 X151.083 Y109.659 E81.8705
G1 X151.083 Y109.128
G1 X141.138 Y118.899 E82.3342
G1 X140.504 Y118.991
G1 X147.155 Y112.457 E82.6443
G0 X150.787 Y116.848 F5400
G1 X150.259 Y117.367 E82.6690 F3000
; ------------------------------------
; Layer #3
; ------------------------------------
G21 ; mm
G90 ; abs
G92 E0 ; reset extr
M106 S255
;segType:Loop
G0 F1200 E-1.0000
G0 F300 Z0.800
G0 X150.972 Y100.383 F5400
G0 F1200 E0.0000
G1 X151.295 Y100.755 E0.0164 F3000
G1 X151.579 Y101.379 E0.0392
G1 X151.683 Y102.100 E0.0634
G1 X151.683 Y115.832 E0.5201
G1 X151.579 Y116.553 E0.5444
G1 X151.295 Y117.177 E0.5672
G1 X150.847 Y117.693 E0.5899
G1 X150.274 Y118.061 E0.6126
G1 X149.580 Y118.266 E0.6366
G1 X135.083 Y120.377 E1.1239
G1 X124.353 Y120.377 E1.4808
G1 X123.696 Y120.290 E1.5028
G1 X123.120 Y120.051 E1.5236
G1 X122.623 Y119.671 E1.5444
G1 X122.241 Y119.172 E1.5653
G1 X122.000 Y118.591 E1.5862
G1 X121.913 Y117.928 E1.6084
G1 X121.913 Y100.004 E2.2046
G1 X122.000 Y99.341 E2.2268
G1 X122.241 Y98.760 E2.2478
G1 X122.623 Y98.262 E2.2686
G1 X123.120 Y97.881 E2.2894
G1 X123.696 Y97.642 E2.3102
G1 X124.353 Y97.556 E2.3322
G1 X135.083 Y97.577 E2.6891
G1 X149.580 Y99.666 E3.1763
G1 X150.274 Y99.871 E3.2003
G1 X150.847 Y100.239 E3.2230
G1 X150.848 Y100.240 E3.2230
G0 F1200 E2.2230
G0 X149.866 Y99.818 F5400
G0 F1200 E3.2230
;segType:Perimeter
G1 X150.493 Y99.541 E3.2458 F2100
G1 X151.114 Y99.941 E3.2704
G1 X151.636 Y100.543 E3.2969
G1 X151.968 Y101.269 E3.3234
G1 X152.083 Y102.073 E3.3505
G1 X152.083 Y115.859 E3.8090
G1 X151.968 Y116.663 E3.8360
G1 X151.636 Y117.389 E3.8625
G1 X151.114 Y117.991 E3.8891
G1 X150.445 Y118.422 E3.9155
G1 X149.667 Y118.650 E3.9425
G1 X135.113 Y120.770 E4.4317
G1 X124.326 Y120.770 E4.7904
G1 X123.590 Y120.673 E4.8151
G1 X122.915 Y120.393 E4.8394
G1 X122.335 Y119.948 E4.8637
G1 X121.890 Y119.368 E4.8881
G1 X121.610 Y118.692 E4.9124
G1 X121.513 Y117.953 E4.9372
G1 X121.513 Y99.979 E5.5350
G1 X121.610 Y99.240 E5.5598
G1 X121.890 Y98.564 E5.5841
G1 X122.335 Y97.984 E5.6085
G1 X122.915 Y97.539 E5.6328
G1 X123.590 Y97.260 E5.6570
G1 X124.326 Y97.162 E5.6818
G1 X135.113 Y97.184 E6.0405
G1 X149.667 Y99.282 E6.5296
G1 X150.390 Y99.494 E6.5547
G1 X150.579 Y100.144
;segType:Loop
G0 X151.156 Y101.411 F5400
G1 X151.191 Y101.489 E6.5575 F3000
G1 X151.283 Y102.128 E6.5790
G1 X151.283 Y115.804 E7.0339
G1 X151.191 Y116.443 E7.0553
G1 X150.953 Y116.965 E7.0744
G1 X150.580 Y117.395 E7.0933
G1 X150.104 Y117.701 E7.1122
G1 X149.493 Y117.881 E7.1333
G1 X135.054 Y119.984 E7.6187
G1 X124.380 Y119.984 E7.9737
G1 X123.802 Y119.907 E7.9931
G1 X123.324 Y119.710 E8.0103
G1 X122.911 Y119.393 E8.0276
G1 X122.592 Y118.977 E8.0450
G1 X122.390 Y118.490 E8.0625
G1 X122.313 Y117.903 E8.0822
G1 X122.313 Y100.029 E8.6767
G1 X122.390 Y99.442 E8.6964
G1 X122.592 Y98.955 E8.7139
G1 X122.911 Y98.540 E8.7314
G1 X123.324 Y98.223 E8.7487
G1 X123.802 Y98.025 E8.7659
G1 X124.379 Y97.949 E8.7853
G1 X135.054 Y97.970 E9.1403
G1 X149.494 Y100.051 E9.6255
G1 X150.104 Y100.231 E9.6467
G1 X150.580 Y100.537 E9.6655
G1 X150.953 Y100.967 E9.6845
G1 X151.078 Y101.240 E9.6944
G0 X148.333 Y110.840 F5400
G1 X148.046 Y111.214 E9.7101 F3000
G1 X147.385 Y111.722 E9.7378
G1 X146.613 Y112.042 E9.7656
G1 X145.823 Y112.145 E9.7921
G1 X142.743 Y112.145 E9.8946
G1 X141.953 Y112.042 E9.9210
G1 X141.181 Y111.722 E9.9488
G1 X140.520 Y111.214 E9.9766
G1 X140.014 Y110.555 E10.0042
G1 X139.696 Y109.788 E10.0318
G1 X139.588 Y108.966 E10.0594
G1 X139.696 Y108.144 E10.0870
G1 X140.014 Y107.377 E10.1146
G1 X140.520 Y106.718 E10.1422
G1 X141.181 Y106.210 E10.1700
G1 X141.953 Y105.890 E10.1977
G1 X142.743 Y105.787 E10.2242
G1 X145.823 Y105.787 E10.3267
G1 X146.613 Y105.890 E10.3532
G1 X147.385 Y106.210 E10.3810
G1 X148.046 Y106.718 E10.4087
G1 X148.552 Y107.377 E10.4363
G1 X148.870 Y108.144 E10.4639
G1 X148.978 Y108.966 E10.4915
G1 X148.870 Y109.788 E10.5191
G1 X148.552 Y110.555 E10.5467
G1 X148.448 Y110.691 E10.5524
;segType:Perimeter
G0 X149.028 Y109.362 F5400
G1 X148.458 Y109.739 E10.5751 F2100
G1 X148.201 Y110.359 E10.5974
G1 X147.758 Y110.936 E10.6217
G1 X147.180 Y111.380 E10.6459
G1 X146.507 Y111.659 E10.6701
G1 X145.796 Y111.752 E10.6940
G1 X142.770 Y111.752 E10.7946
G1 X142.059 Y111.659 E10.8184
G1 X141.386 Y111.380 E10.8427
G1 X140.808 Y110.936 E10.8669
G1 X140.365 Y110.359 E10.8911
G1 X140.086 Y109.687 E10.9153
G1 X139.991 Y108.966 E10.9395
G1 X140.086 Y108.245 E10.9637
G1 X140.365 Y107.573 E10.9879
G1 X140.808 Y106.996 E11.0121
G1 X141.386 Y106.552 E11.0363
G1 X142.059 Y106.273 E11.0606
G1 X142.770 Y106.180 E11.0844
G1 X145.796 Y106.180 E11.1851
G1 X146.507 Y106.273 E11.2089
G1 X147.180 Y106.552 E11.2332
G1 X147.758 Y106.996 E11.2574
G1 X148.201 Y107.573 E11.2816
G1 X148.480 Y108.245 E11.3058
G1 X148.575 Y108.966 E11.3300
G1 X148.487 Y109.631 E11.3523
G1 X148.794 Y110.235
;segType:Loop
G0 X147.840 Y111.871 F5400
G1 X147.589 Y112.064 E11.3628 F3000
G1 X146.719 Y112.424 E11.3942
G1 X145.850 Y112.538 E11.4233
G1 X142.716 Y112.538 E11.5275
G1 X141.847 Y112.424 E11.5567
G1 X140.977 Y112.064 E11.5880
G1 X140.233 Y111.492 E11.6192
G1 X139.663 Y110.750 E11.6503
G1 X139.307 Y109.889 E11.6813
G1 X139.185 Y108.966 E11.7123
G1 X139.307 Y108.043 E11.7433
G1 X139.663 Y107.182 E11.7743
G1 X140.233 Y106.440 E11.8054
G1 X140.977 Y105.868 E11.8366
G1 X141.847 Y105.508 E11.8679
G1 X142.716 Y105.394 E11.8971
G1 X145.850 Y105.394 E12.0013
G1 X146.719 Y105.508 E12.0305
G1 X147.589 Y105.868 E12.0618
G1 X148.333 Y106.440 E12.0930
G1 X148.903 Y107.182 E12.1241
G1 X149.260 Y108.043 E12.1551
G1 X149.382 Y108.966 E12.1861
G1 X149.260 Y109.889 E12.2171
G1 X148.903 Y110.750 E12.2481
G1 X148.333 Y111.492 E12.2792
G1 X147.991 Y111.755 E12.2935
G0 X130.586 Y117.201 F5400
G1 X130.496 Y117.669 E12.3094 F3000
G1 X130.253 Y118.186 E12.3284
G1 X129.888 Y118.628 E12.3475
G1 X129.422 Y118.966 E12.3666
G1 X128.886 Y119.178 E12.3858
G1 X128.313 Y119.251 E12.4050
G1 X127.740 Y119.178 E12.4242
G1 X127.204 Y118.966 E12.4434
G1 X126.738 Y118.628 E12.4625
G1 X126.373 Y118.186 E12.4816
G1 X126.130 Y117.669 E12.5006
G1 X126.023 Y117.109 E12.5195
G1 X126.059 Y116.540 E12.5385
G1 X126.235 Y115.997 E12.5575
G1 X126.542 Y115.514 E12.5765
G1 X126.960 Y115.121 E12.5956
G1 X127.465 Y114.843 E12.6148
G1 X128.024 Y114.700 E12.6340
G1 X128.602 Y114.700 E12.6532
G1 X129.161 Y114.843 E12.6724
G1 X129.666 Y115.121 E12.6915
G1 X130.084 Y115.514 E12.7106
G1 X130.396 Y116.004 E12.7300
G1 X130.571 Y116.605 E12.7508
G1 X130.597 Y117.015 E12.7644
;segType:Perimeter
G0 X130.244 Y115.574 F5400
G1 X130.043 Y116.220 E12.7869 F2100
G1 X130.175 Y116.672 E12.8026
G1 X130.201 Y117.084 E12.8164
G1 X130.112 Y117.548 E12.8321
G1 X129.911 Y117.976 E12.8478
G1 X129.609 Y118.341 E12.8635
G1 X129.226 Y118.620 E12.8793
G1 X128.784 Y118.794 E12.8951
G1 X128.313 Y118.854 E12.9109
G1 X127.842 Y118.794 E12.9267
G1 X127.401 Y118.620 E12.9425
G1 X127.017 Y118.341 E12.9583
G1 X126.715 Y117.976 E12.9740
G1 X126.514 Y117.548 E12.9897
G1 X126.425 Y117.084 E13.0055
G1 X126.455 Y116.613 E13.0212
G1 X126.601 Y116.163 E13.0369
G1 X126.854 Y115.764 E13.0526
G1 X127.200 Y115.439 E13.0684
G1 X127.616 Y115.211 E13.0842
G1 X128.076 Y115.093 E13.1000
G1 X128.551 Y115.093 E13.1158
G1 X129.010 Y115.211 E13.1315
G1 X129.426 Y115.439 E13.1473
G1 X129.772 Y115.764 E13.1631
G1 X129.997 Y116.118 E13.1770
G1 X130.620 Y116.403
;segType:Loop
G0 X130.622 Y118.338 F5400
G1 X130.595 Y118.395 E13.1791 F3000
G1 X130.166 Y118.914 E13.2015
G1 X129.619 Y119.312 E13.2240
G1 X128.988 Y119.561 E13.2466
G1 X128.313 Y119.647 E13.2692
G1 X127.638 Y119.561 E13.2918
G1 X127.007 Y119.312 E13.3144
G1 X126.460 Y118.914 E13.3369
G1 X126.031 Y118.395 E13.3593
G1 X125.746 Y117.790 E13.3816
G1 X125.620 Y117.134 E13.4038
G1 X125.662 Y116.467 E13.4260
G1 X125.869 Y115.830 E13.4483
G1 X126.229 Y115.264 E13.4706
G1 X126.720 Y114.802 E13.4930
G1 X127.315 Y114.476 E13.5156
G1 X127.973 Y114.307 E13.5382
G1 X128.653 Y114.307 E13.5608
G1 X129.312 Y114.476 E13.5834
G1 X129.905 Y114.802 E13.6059
G1 X130.397 Y115.264 E13.6284
G1 X130.765 Y115.843 E13.6512
G1 X130.968 Y116.537 E13.6752
G1 X131.006 Y117.133 E13.6951
G1 X130.880 Y117.790 E13.7173
G1 X130.702 Y118.168 E13.7312
G0 X130.586 Y101.201 F5400
G1 X130.496 Y101.669 E13.7471 F3000
G1 X130.253 Y102.186 E13.7661
G1 X129.888 Y102.628 E13.7852
G1 X129.422 Y102.966 E13.8043
G1 X128.886 Y103.178 E13.8235
G1 X128.313 Y103.251 E13.8427
G1 X127.740 Y103.178 E13.8619
G1 X127.204 Y102.966 E13.8811
G1 X126.738 Y102.628 E13.9002
G1 X126.373 Y102.186 E13.9193
G1 X126.130 Y101.669 E13.9383
G1 X126.023 Y101.109 E13.9572
G1 X126.059 Y100.540 E13.9762
G1 X126.235 Y99.997 E13.9952
G1 X126.542 Y99.514 E14.0142
G1 X126.960 Y99.121 E14.0333
G1 X127.465 Y98.843 E14.0525
G1 X128.024 Y98.700 E14.0717
G1 X128.602 Y98.700 E14.0909
G1 X129.161 Y98.843 E14.1101
G1 X129.666 Y99.121 E14.1292
G1 X130.084 Y99.514 E14.1483
G1 X130.396 Y100.004 E14.1677
G1 X130.571 Y100.605 E14.1885
G1 X130.597 Y101.015 E14.2021
;segType:Perimeter
G0 X130.244 Y99.574 F5400
G1 X130.043 Y100.220 E14.2246 F2100
G1 X130.175 Y100.672 E14.2403
G1 X130.201 Y101.084 E14.2541
G1 X130.112 Y101.548 E14.2698
G1 X129.911 Y101.976 E14.2855
G1 X129.609 Y102.341 E14.3012
G1 X129.226 Y102.620 E14.3170
G1 X128.784 Y102.794 E14.3328
G1 X128.313 Y102.854 E14.3486
G1 X127.842 Y102.794 E14.3644
G1 X127.401 Y102.620 E14.3802
G1 X127.017 Y102.341 E14.3960
G1 X126.715 Y101.976 E14.4117
G1 X126.514 Y101.548 E14.4274
G1 X126.425 Y101.084 E14.4432
G1 X126.455 Y100.613 E14.4589
G1 X126.601 Y100.163 E14.4746
G1 X126.854 Y99.764 E14.4903
G1 X127.200 Y99.440 E14.5061
G1 X127.616 Y99.211 E14.5219
G1 X128.076 Y99.093 E14.5377
G1 X128.551 Y99.093 E14.5535
G1 X129.010 Y99.211 E14.5692
G1 X129.426 Y99.440 E14.5850
G1 X129.772 Y99.764 E14.6008
G1 X129.997 Y100.118 E14.6147
G1 X130.620 Y100.403
;segType:Loop
G0 X130.622 Y102.338 F5400
G1 X130.595 Y102.395 E14.6168 F3000
G1 X130.166 Y102.914 E14.6392
G1 X129.619 Y103.312 E14.6617
G1 X128.988 Y103.561 E14.6843
G1 X128.313 Y103.647 E14.7069
G1 X127.638 Y103.561 E14.7295
G1 X127.007 Y103.312 E14.7521
G1 X126.460 Y102.914 E14.7746
G1 X126.031 Y102.395 E14.7970
G1 X125.746 Y101.790 E14.8193
G1 X125.620 Y101.134 E14.8415
G1 X125.662 Y100.467 E14.8637
G1 X125.869 Y99.830 E14.8860
G1 X126.229 Y99.264 E14.9083
G1 X126.720 Y98.802 E14.9307
G1 X127.315 Y98.476 E14.9533
G1 X127.973 Y98.307 E14.9759
G1 X128.653 Y98.307 E14.9985
G1 X129.312 Y98.476 E15.0211
G1 X129.905 Y98.802 E15.0436
G1 X130.397 Y99.264 E15.0661
G1 X130.765 Y99.843 E15.0889
G1 X130.968 Y100.537 E15.1129
G1 X131.006 Y101.133 E15.1328
G1 X130.880 Y101.790 E15.1550
G1 X130.702 Y102.168 E15.1689
;segType:Infill
G0 X130.789 Y102.451 F5400
G1 X151.083 Y102.451 E15.8439 F3750
G1 X151.074 Y102.076 E15.8564
G1 X130.966 Y102.076 E16.5252
G0 X129.920 Y99.645 F5400
G0 X129.082 Y99.037
G0 X127.556 Y98.211
G1 X127.521 Y98.151 E16.5275 F3750
G1 X127.080 Y98.151 E16.5422
G1 X127.182 Y98.324 E16.5488
G0 X126.267 Y100.578 F5400
G0 X126.332 Y101.606
G0 X129.475 Y114.340
G1 X122.513 Y102.492 E17.0059 F3750
G0 X122.513 Y101.285 F5400
G1 X124.354 Y98.150 E17.1269 F3750
G1 X124.798 Y98.146 E17.1416
G1 X122.513 Y102.035 E17.2916
G0 X122.513 Y115.315 F5400
G1 X125.961 Y115.315 E17.4063 F3750
G1 X126.284 Y114.940 E17.4228
G1 X122.513 Y114.940 E17.5482
G0 X122.513 Y102.076 F5400
G1 X125.660 Y102.076 E17.6529 F3750
G1 X125.837 Y102.451 E17.6667
G1 X122.513 Y102.451 E17.7773
G0 X122.513 Y114.149 F5400
G1 X128.588 Y103.810 E18.1761 F3750
G1 X129.070 Y103.741 E18.1923
G1 X122.513 Y114.899 E18.6228
G0 X130.152 Y114.762 F5400
G1 X139.524 Y98.813 E19.2381 F3750
G1 X139.118 Y98.754 E19.2517
G1 X129.841 Y114.542 E19.8608
G0 X122.513 Y108.883 F5400
G1 X138.994 Y108.883 E20.4089 F3750
G1 X139.043 Y108.508 E20.4215
G1 X122.513 Y108.508 E20.9713
G0 X122.513 Y103.242 F5400
G1 X128.938 Y114.177 E21.3932 F3750
G0 X126.706 Y115.645 F5400
G0 X124.676 Y119.787
G1 X122.513 Y116.106 E21.5352 F3750
G1 X122.513 Y115.356 E21.5601
G1 X125.117 Y119.787 E21.7311
G0 X126.759 Y119.787 F5400
G1 X126.931 Y119.493 E21.7424 F3750
G1 X127.289 Y119.635 E21.7552
G1 X127.200 Y119.787 E21.7611
G0 X129.741 Y118.477 F5400
G0 X130.294 Y117.605
G0 X130.342 Y114.940
G1 X151.083 Y114.940 E22.4510 F3750
G1 X151.083 Y115.315 E22.4635
G1 X130.666 Y115.315 E23.1425
G0 X132.235 Y119.787 F5400
G1 X131.078 Y117.819 E23.2185 F3750
G1 X131.186 Y117.253 E23.2377
G1 X132.676 Y119.787 E23.3354
G0 X134.318 Y119.787 F5400
G1 X139.535 Y110.910 E23.6779 F3750
G1 X139.784 Y111.235 E23.6916
G1 X134.759 Y119.787 E24.0215
G0 X139.419 Y119.150 F5400
G1 X130.066 Y103.232 E24.6356 F3750
G1 X130.363 Y102.988 E24.6484
G1 X139.826 Y119.090 E25.2696
G0 X142.517 Y118.698 F5400
G1 X146.035 Y112.712 E25.5005 F3750
G1 X146.512 Y112.650 E25.5165
G1 X142.999 Y118.628 E25.7471
G0 X146.383 Y118.135 F5400
G1 X143.209 Y112.735 E25.9555 F3750
G1 X143.650 Y112.735 E25.9702
G1 X146.789 Y118.076 E26.1762
G0 X151.083 Y113.271 F5400
G1 X149.319 Y110.268 E26.2921 F3750
G1 X149.477 Y109.786 E26.3089
G1 X151.083 Y112.520 E26.4144
G0 X149.188 Y107.346 F5400
G1 X151.083 Y104.121 E26.5389 F3750
G0 X149.524 Y108.508 F5400
G1 X151.083 Y108.508 E26.5907 F3750
G1 X151.083 Y108.883 E26.6032
G1 X149.574 Y108.883 E26.6534
G0 X146.379 Y105.265 F5400
G1 X142.871 Y99.295 E26.8837 F3750
G1 X143.353 Y99.365 E26.8999
G1 X146.876 Y105.359 E27.1311
G0 X149.371 Y107.786 F5400
G1 X151.083 Y104.871 E27.2436 F3750
G0 X142.891 Y105.197 F5400
G1 X146.087 Y99.759 E27.4534 F3750
G1 X146.494 Y99.817 E27.4671
G1 X143.332 Y105.197 E27.6746
G0 X139.965 Y106.463 F5400
G1 X135.094 Y98.175 E27.9943 F3750
G1 X134.648 Y98.166 E28.0092
G1 X139.715 Y106.788 E28.3418
G0 X131.109 Y100.270 F5400
G1 X132.348 Y98.161 E28.4232 F3750
G1 X131.908 Y98.160 E28.4378
G1 X130.956 Y99.779 E28.5003
G0 F1200 E27.5003
G0 X130.397 Y102.274 F5400
G0 X128.929 Y103.339
G0 X121.198 Y107.512
G0 X119.202 Y108.969
G0 X117.206 Y110.426
G0 X108.949 Y116.821
G0 X105.913 Y119.738
G0 F1200 E28.5003
;segType:Loop
G1 X105.913 Y97.555 E29.2381 F3000
G1 X116.273 Y97.555 E29.5826
G1 X116.930 Y97.642 E29.6047
G1 X117.507 Y97.881 E29.6254
G1 X118.003 Y98.262 E29.6462
G1 X118.385 Y98.760 E29.6671
G1 X118.626 Y99.341 E29.6881
G1 X118.713 Y100.004 E29.7103
G1 X118.713 Y117.928 E30.3064
G1 X118.626 Y118.591 E30.3287
G1 X118.385 Y119.172 E30.3496
G1 X118.003 Y119.671 E30.3705
G1 X117.507 Y120.051 E30.3913
G1 X116.930 Y120.290 E30.4120
G1 X116.273 Y120.377 E30.4341
G1 X105.913 Y120.377 E30.7787
G1 X105.913 Y119.925 E30.7937
;segType:Perimeter
G0 X106.148 Y120.455 F5400
G1 X105.513 Y120.713 E30.8165 F2100
G1 X105.513 Y97.162 E31.5998
G1 X116.300 Y97.162 E31.9586
G1 X117.036 Y97.260 E31.9833
G1 X117.711 Y97.539 E32.0076
G1 X118.290 Y97.984 E32.0319
G1 X118.736 Y98.564 E32.0562
G1 X119.016 Y99.240 E32.0805
G1 X119.113 Y99.979 E32.1053
G1 X119.113 Y117.953 E32.7031
G1 X119.016 Y118.692 E32.7279
G1 X118.736 Y119.368 E32.7523
G1 X118.290 Y119.948 E32.7766
G1 X117.711 Y120.393 E32.8009
G1 X117.036 Y120.673 E32.8252
G1 X116.300 Y120.770 E32.8499
G1 X105.570 Y120.770 E33.2068
G1 X105.833 Y120.146
;segType:Loop
G0 X106.313 Y118.706 F5400
G1 X106.313 Y97.948 E33.8972 F3000
G1 X116.246 Y97.948 E34.2275
G1 X116.824 Y98.025 E34.2469
G1 X117.302 Y98.223 E34.2642
G1 X117.715 Y98.540 E34.2815
G1 X118.034 Y98.955 E34.2989
G1 X118.236 Y99.442 E34.3164
G1 X118.313 Y100.029 E34.3361
G1 X118.313 Y117.903 E34.9306
G1 X118.236 Y118.490 E34.9503
G1 X118.034 Y118.977 E34.9678
G1 X117.715 Y119.393 E34.9853
G1 X117.302 Y119.710 E35.0026
G1 X116.824 Y119.907 E35.0198
G1 X116.246 Y119.984 E35.0392
G1 X106.313 Y119.984 E35.3696
G1 X106.313 Y118.894 E35.4058
G0 X112.313 Y119.032 F5400
G0 X113.314 Y118.775
G0 X114.065 Y118.070
G0 X114.576 Y117.200
G1 X114.487 Y117.666 E35.4216 F3000
G1 X114.245 Y118.180 E35.4405
G1 X113.881 Y118.620 E35.4595
G1 X113.417 Y118.957 E35.4785
G1 X112.884 Y119.168 E35.4976
G1 X112.313 Y119.241 E35.5168
G1 X111.742 Y119.168 E35.5359
G1 X111.209 Y118.957 E35.5550
G1 X110.745 Y118.620 E35.5740
G1 X110.382 Y118.181 E35.5930
G1 X110.139 Y117.666 E35.6119
G1 X110.033 Y117.108 E35.6308
G1 X110.068 Y116.542 E35.6497
G1 X110.244 Y116.001 E35.6686
G1 X110.549 Y115.520 E35.6875
G1 X110.966 Y115.129 E35.7065
G1 X111.468 Y114.853 E35.7256
G1 X112.025 Y114.710 E35.7447
G1 X112.601 Y114.710 E35.7639
G1 X113.157 Y114.853 E35.7830
G1 X113.660 Y115.129 E35.8021
G1 X114.077 Y115.520 E35.8211
G1 X114.387 Y116.009 E35.8403
G1 X114.562 Y116.606 E35.8610
G1 X114.587 Y117.015 E35.8746
;segType:Perimeter
G0 X114.235 Y115.578 F5400
G1 X114.034 Y116.224 E35.8971 F2100
G1 X114.165 Y116.674 E35.9127
G1 X114.191 Y117.084 E35.9264
G1 X114.103 Y117.545 E35.9420
G1 X113.902 Y117.971 E35.9577
G1 X113.602 Y118.334 E35.9733
G1 X113.221 Y118.611 E35.9890
G1 X112.782 Y118.785 E36.0047
G1 X112.313 Y118.844 E36.0204
G1 X111.844 Y118.785 E36.0361
G1 X111.405 Y118.611 E36.0518
G1 X111.024 Y118.334 E36.0675
G1 X110.724 Y117.971 E36.0832
G1 X110.523 Y117.545 E36.0988
G1 X110.435 Y117.084 E36.1145
G1 X110.465 Y116.615 E36.1301
G1 X110.610 Y116.167 E36.1457
G1 X110.862 Y115.770 E36.1614
G1 X111.206 Y115.448 E36.1771
G1 X111.619 Y115.220 E36.1928
G1 X112.077 Y115.103 E36.2085
G1 X112.549 Y115.103 E36.2242
G1 X113.007 Y115.220 E36.2399
G1 X113.420 Y115.448 E36.2556
G1 X113.764 Y115.770 E36.2713
G1 X113.987 Y116.122 E36.2851
G1 X114.610 Y116.407
;segType:Loop
G0 X114.611 Y118.338 F5400
G1 X114.587 Y118.390 E36.2871 F3000
G1 X114.160 Y118.907 E36.3094
G1 X113.614 Y119.303 E36.3318
G1 X112.986 Y119.551 E36.3543
G1 X112.313 Y119.637 E36.3768
G1 X111.640 Y119.551 E36.3994
G1 X111.012 Y119.303 E36.4218
G1 X110.467 Y118.907 E36.4442
G1 X110.040 Y118.390 E36.4665
G1 X109.755 Y117.787 E36.4887
G1 X109.630 Y117.133 E36.5109
G1 X109.672 Y116.469 E36.5330
G1 X109.878 Y115.835 E36.5552
G1 X110.237 Y115.270 E36.5774
G1 X110.727 Y114.810 E36.5998
G1 X111.318 Y114.485 E36.6222
G1 X111.974 Y114.317 E36.6447
G1 X112.652 Y114.317 E36.6673
G1 X113.308 Y114.485 E36.6898
G1 X113.900 Y114.810 E36.7123
G1 X114.389 Y115.270 E36.7346
G1 X114.756 Y115.847 E36.7574
G1 X114.958 Y116.539 E36.7813
G1 X114.996 Y117.133 E36.8011
G1 X114.871 Y117.787 E36.8233
G1 X114.691 Y118.167 E36.8373
G0 X114.576 Y101.200 F5400
G1 X114.487 Y101.666 E36.8530 F3000
G1 X114.245 Y102.180 E36.8719
G1 X113.881 Y102.620 E36.8909
G1 X113.417 Y102.957 E36.9100
G1 X112.884 Y103.168 E36.9291
G1 X112.313 Y103.241 E36.9482
G1 X111.742 Y103.168 E36.9673
G1 X111.209 Y102.957 E36.9864
G1 X110.745 Y102.620 E37.0055
G1 X110.381 Y102.181 E37.0244
G1 X110.139 Y101.666 E37.0434
G1 X110.033 Y101.108 E37.0622
G1 X110.068 Y100.542 E37.0811
G1 X110.244 Y100.001 E37.1000
G1 X110.549 Y99.520 E37.1190
G1 X110.966 Y99.129 E37.1380
G1 X111.469 Y98.853 E37.1571
G1 X112.026 Y98.710 E37.1762
G1 X112.601 Y98.710 E37.1953
G1 X113.157 Y98.853 E37.2144
G1 X113.660 Y99.129 E37.2335
G1 X114.077 Y99.520 E37.2525
G1 X114.387 Y100.009 E37.2717
G1 X114.562 Y100.606 E37.2925
G1 X114.587 Y101.015 E37.3061
;segType:Perimeter
G0 X114.235 Y99.578 F5400
G1 X114.034 Y100.224 E37.3286 F2100
G1 X114.165 Y100.674 E37.3441
G1 X114.191 Y101.084 E37.3578
G1 X114.103 Y101.546 E37.3734
G1 X113.902 Y101.971 E37.3891
G1 X113.602 Y102.334 E37.4048
G1 X113.221 Y102.611 E37.4204
G1 X112.782 Y102.785 E37.4361
G1 X112.313 Y102.844 E37.4519
G1 X111.844 Y102.785 E37.4676
G1 X111.405 Y102.611 E37.4833
G1 X111.024 Y102.334 E37.4990
G1 X110.723 Y101.971 E37.5146
G1 X110.523 Y101.546 E37.5303
G1 X110.435 Y101.084 E37.5459
G1 X110.465 Y100.615 E37.5615
G1 X110.610 Y100.167 E37.5772
G1 X110.862 Y99.770 E37.5928
G1 X111.206 Y99.448 E37.6085
G1 X111.619 Y99.220 E37.6242
G1 X112.077 Y99.103 E37.6399
G1 X112.549 Y99.103 E37.6556
G1 X113.007 Y99.220 E37.6713
G1 X113.420 Y99.448 E37.6870
G1 X113.764 Y99.770 E37.7027
G1 X113.987 Y100.122 E37.7166
G1 X114.610 Y100.407
;segType:Loop
G0 X114.611 Y102.338 F5400
G1 X114.587 Y102.390 E37.7185 F3000
G1 X114.160 Y102.907 E37.7408
G1 X113.614 Y103.303 E37.7632
G1 X112.986 Y103.551 E37.7857
G1 X112.313 Y103.637 E37.8083
G1 X111.640 Y103.551 E37.8308
G1 X111.012 Y103.303 E37.8533
G1 X110.467 Y102.907 E37.8757
G1 X110.039 Y102.390 E37.8980
G1 X109.755 Y101.786 E37.9202
G1 X109.630 Y101.133 E37.9423
G1 X109.672 Y100.469 E37.9644
G1 X109.878 Y99.835 E37.9866
G1 X110.237 Y99.270 E38.0089
G1 X110.726 Y98.811 E38.0312
G1 X111.318 Y98.485 E38.0537
G1 X111.974 Y98.317 E38.0762
G1 X112.652 Y98.317 E38.0987
G1 X113.308 Y98.485 E38.1213
G1 X113.900 Y98.810 E38.1437
G1 X114.389 Y99.270 E38.1661
G1 X114.756 Y99.847 E38.1888
G1 X114.958 Y100.539 E38.2128
G1 X114.996 Y101.133 E38.2326
G1 X114.871 Y101.787 E38.2547
G1 X114.691 Y102.167 E38.2687
;segType:Infill
G0 X114.955 Y102.076 F5400
G1 X118.113 Y102.076 E38.3737 F3750
G1 X118.113 Y102.451 E38.3862
G1 X114.778 Y102.451 E38.4972
G1 X114.499 Y102.808 E38.5122
G1 X106.513 Y116.399 E39.0365
G0 X106.513 Y114.940 F5400
G1 X110.299 Y114.940 E39.1625 F3750
G1 X109.972 Y115.315 E39.1790
G1 X106.513 Y115.315 E39.2941
G1 X106.513 Y115.649 E39.3052
G1 X113.652 Y103.500 E39.7738
G0 X106.513 Y114.607 F5400
G1 X109.557 Y119.787 E39.9737 F3750
G0 X117.345 Y119.427 F5400
G1 X106.513 Y100.992 E40.6849 F3750
G1 X106.513 Y101.742 E40.7098
G1 X114.195 Y114.815 E41.2142
G1 X114.327 Y114.940 E41.2202
G1 X118.113 Y114.940 E41.3461
G1 X118.113 Y115.315 E41.3586
G1 X114.654 Y115.315 E41.4737
G1 X114.431 Y115.038 E41.4855
G1 X118.113 Y108.771 E41.7273
G1 X118.113 Y108.620 E41.7323
G1 X114.615 Y102.667 E41.9619
G1 X114.845 Y102.308 E41.9761
G1 X118.113 Y107.870 E42.1907
G0 X118.113 Y109.522 F5400
G1 X114.682 Y115.360 E42.4159 F3750
G0 X115.143 Y116.430 F5400
G1 X117.015 Y119.615 E42.5388 F3750
G0 X111.661 Y119.752 F5400
G1 X111.640 Y119.787 E42.5401 F3750
G0 X109.998 Y119.787 F5400
G1 X106.513 Y113.856 E42.7690 F3750
G0 X106.513 Y108.883 F5400
G1 X118.113 Y108.883 E43.1548 F3750
G1 X118.113 Y108.508 E43.1673
G1 X106.513 Y108.508 E43.5531
G0 X106.513 Y103.535 F5400
G1 X109.680 Y98.145 E43.7611 F3750
G1 X109.239 Y98.145 E43.7757
G1 X106.513 Y102.784 E43.9547
G1 X106.513 Y102.451 E43.9658
G1 X109.847 Y102.451 E44.0767
G1 X109.671 Y102.076 E44.0905
G1 X106.513 Y102.076 E44.1955
G0 X112.313 Y103.032 F5400
G0 X113.314 Y102.775
G0 X115.181 Y100.897
G1 X116.757 Y98.214 E44.2990 F3750
G1 X117.114 Y98.358 E44.3118
G1 X115.058 Y101.857 E44.4468
; ------------------------------------
; Layer #4
; ------------------------------------
G21 ; mm
G90 ; abs
G92 E0 ; reset extr
M106 S255
;segType:Loop
G0 F1200 E-1.0000
G0 F300 Z1.000
G0 X105.913 Y119.738 F5400
G0 F1200 E0.0000
G1 X105.913 Y97.555 E0.7378 F3000
G1 X116.273 Y97.555 E1.0824
G1 X116.930 Y97.642 E1.1044
G1 X117.507 Y97.881 E1.1252
G1 X118.003 Y98.262 E1.1460
G1 X118.385 Y98.760 E1.1669
G1 X118.626 Y99.341 E1.1878
G1 X118.713 Y100.004 E1.2100
G1 X118.713 Y117.928 E1.8062
G1 X118.626 Y118.591 E1.8284
G1 X118.385 Y119.172 E1.8494
G1 X118.003 Y119.671 E1.8702
G1 X117.507 Y120.051 E1.8910
G1 X116.930 Y120.290 E1.9118
G1 X116.273 Y120.377 E1.9338
G1 X105.913 Y120.377 E2.2784
G1 X105.913 Y119.925 E2.2934
;segType:Perimeter
G0 X106.148 Y120.455 F5400
G1 X105.513 Y120.713 E2.3162 F2100
G1 X105.513 Y97.162 E3.0995
G1 X116.300 Y97.162 E3.4583
G1 X117.036 Y97.260 E3.4830
G1 X117.711 Y97.539 E3.5073
G1 X118.290 Y97.984 E3.5316
G1 X118.736 Y98.564 E3.5559
G1 X119.016 Y99.240 E3.5803
G1 X119.113 Y99.979 E3.6050
G1 X119.113 Y117.953 E4.2029
G1 X119.016 Y118.692 E4.2277
G1 X118.736 Y119.368 E4.2520
G1 X118.290 Y119.948 E4.2763
G1 X117.711 Y120.393 E4.3006
G1 X117.036 Y120.673 E4.3249
G1 X116.300 Y120.770 E4.3496
G1 X105.570 Y120.770 E4.7065
G1 X105.833 Y120.146
;segType:Loop
G0 X106.313 Y118.706 F5400
G1 X106.313 Y97.948 E5.3969 F3000
G1 X116.246 Y97.948 E5.7273
G1 X116.824 Y98.025 E5.7467
G1 X117.302 Y98.223 E5.7639
G1 X117.715 Y98.540 E5.7812
G1 X118.034 Y98.955 E5.7986
G1 X118.236 Y99.442 E5.8162
G1 X118.313 Y100.029 E5.8359
G1 X118.313 Y117.903 E6.4303
G1 X118.236 Y118.490 E6.4500
G1 X118.034 Y118.977 E6.4676
G1 X117.715 Y119.393 E6.4850
G1 X117.302 Y119.710 E6.5023
G1 X116.824 Y119.907 E6.5195
G1 X116.246 Y119.984 E6.5389
G1 X106.313 Y119.984 E6.8693
G1 X106.313 Y118.894 E6.9055
G0 X112.313 Y119.032 F5400
G0 X113.314 Y118.775
G0 X114.065 Y118.070
G0 X114.576 Y117.200
G1 X114.487 Y117.666 E6.9213 F3000
G1 X114.245 Y118.180 E6.9402
G1 X113.881 Y118.620 E6.9592
G1 X113.417 Y118.957 E6.9783
G1 X112.884 Y119.168 E6.9974
G1 X112.313 Y119.241 E7.0165
G1 X111.742 Y119.168 E7.0356
G1 X111.209 Y118.957 E7.0547
G1 X110.745 Y118.620 E7.0738
G1 X110.382 Y118.181 E7.0927
G1 X110.139 Y117.666 E7.1117
G1 X110.033 Y117.108 E7.1305
G1 X110.068 Y116.542 E7.1494
G1 X110.244 Y116.001 E7.1683
G1 X110.549 Y115.520 E7.1873
G1 X110.966 Y115.129 E7.2063
G1 X111.468 Y114.853 E7.2254
G1 X112.025 Y114.710 E7.2445
G1 X112.601 Y114.710 E7.2636
G1 X113.157 Y114.853 E7.2827
G1 X113.660 Y115.129 E7.3018
G1 X114.077 Y115.520 E7.3208
G1 X114.388 Y116.010 E7.3401
G1 X114.562 Y116.622 E7.3613
G1 X114.587 Y117.015 E7.3744
;segType:Perimeter
G0 X114.236 Y115.579 F5400
G1 X114.033 Y116.225 E7.3969 F2100
G1 X114.166 Y116.688 E7.4129
G1 X114.191 Y117.084 E7.4261
G1 X114.103 Y117.545 E7.4417
G1 X113.902 Y117.971 E7.4573
G1 X113.602 Y118.334 E7.4730
G1 X113.221 Y118.611 E7.4887
G1 X112.782 Y118.785 E7.5044
G1 X112.313 Y118.844 E7.5201
G1 X111.844 Y118.785 E7.5358
G1 X111.405 Y118.611 E7.5515
G1 X111.024 Y118.334 E7.5672
G1 X110.724 Y117.971 E7.5829
G1 X110.523 Y117.545 E7.5985
G1 X110.435 Y117.084 E7.6142
G1 X110.465 Y116.615 E7.6298
G1 X110.610 Y116.167 E7.6454
G1 X110.862 Y115.770 E7.6611
G1 X111.206 Y115.448 E7.6768
G1 X111.619 Y115.220 E7.6925
G1 X112.077 Y115.103 E7.7082
G1 X112.549 Y115.103 E7.7239
G1 X113.007 Y115.220 E7.7396
G1 X113.420 Y115.448 E7.7553
G1 X113.764 Y115.770 E7.7710
G1 X113.988 Y116.123 E7.7849
G1 X114.609 Y116.411
;segType:Loop
G0 X114.611 Y118.338 F5400
G1 X114.587 Y118.390 E7.7868 F3000
G1 X114.160 Y118.907 E7.8091
G1 X113.614 Y119.303 E7.8315
G1 X112.986 Y119.551 E7.8540
G1 X112.313 Y119.637 E7.8765
G1 X111.640 Y119.551 E7.8991
G1 X111.012 Y119.303 E7.9216
G1 X110.467 Y118.907 E7.9440
G1 X110.040 Y118.390 E7.9663
G1 X109.755 Y117.787 E7.9885
G1 X109.630 Y117.133 E8.0106
G1 X109.672 Y116.469 E8.0327
G1 X109.878 Y115.835 E8.0549
G1 X110.237 Y115.270 E8.0771
G1 X110.727 Y114.810 E8.0995
G1 X111.318 Y114.485 E8.1219
G1 X111.974 Y114.317 E8.1445
G1 X112.652 Y114.317 E8.1670
G1 X113.308 Y114.485 E8.1895
G1 X113.900 Y114.810 E8.2120
G1 X114.389 Y115.270 E8.2343
G1 X114.757 Y115.850 E8.2572
G1 X114.959 Y116.556 E8.2816
G1 X114.996 Y117.133 E8.3008
G1 X114.871 Y117.787 E8.3230
G1 X114.691 Y118.167 E8.3369
G0 X114.576 Y101.200 F5400
G1 X114.487 Y101.666 E8.3527 F3000
G1 X114.245 Y102.180 E8.3716
G1 X113.881 Y102.620 E8.3906
G1 X113.417 Y102.957 E8.4097
G1 X112.884 Y103.168 E8.4288
G1 X112.313 Y103.241 E8.4479
G1 X111.742 Y103.168 E8.4670
G1 X111.209 Y102.957 E8.4861
G1 X110.745 Y102.620 E8.5052
G1 X110.381 Y102.181 E8.5241
G1 X110.139 Y101.666 E8.5431
G1 X110.033 Y101.108 E8.5619
G1 X110.068 Y100.542 E8.5808
G1 X110.244 Y100.001 E8.5997
G1 X110.549 Y99.520 E8.6187
G1 X110.966 Y99.129 E8.6377
G1 X111.469 Y98.853 E8.6568
G1 X112.026 Y98.710 E8.6759
G1 X112.601 Y98.710 E8.6950
G1 X113.157 Y98.853 E8.7141
G1 X113.660 Y99.129 E8.7332
G1 X114.077 Y99.520 E8.7522
G1 X114.388 Y100.010 E8.7715
G1 X114.562 Y100.622 E8.7927
G1 X114.587 Y101.015 E8.8058
;segType:Perimeter
G0 X114.236 Y99.579 F5400
G1 X114.033 Y100.225 E8.8283 F2100
G1 X114.166 Y100.688 E8.8443
G1 X114.191 Y101.084 E8.8575
G1 X114.103 Y101.546 E8.8731
G1 X113.902 Y101.971 E8.8887
G1 X113.602 Y102.334 E8.9044
G1 X113.221 Y102.611 E8.9201
G1 X112.782 Y102.785 E8.9358
G1 X112.313 Y102.844 E8.9515
G1 X111.844 Y102.785 E8.9672
G1 X111.405 Y102.611 E8.9829
G1 X111.024 Y102.334 E8.9986
G1 X110.723 Y101.971 E9.0143
G1 X110.523 Y101.546 E9.0299
G1 X110.435 Y101.084 E9.0456
G1 X110.465 Y100.615 E9.0612
G1 X110.610 Y100.167 E9.0768
G1 X110.862 Y99.770 E9.0925
G1 X111.206 Y99.448 E9.1082
G1 X111.619 Y99.220 E9.1239
G1 X112.077 Y99.103 E9.1396
G1 X112.549 Y99.103 E9.1553
G1 X113.007 Y99.220 E9.1710
G1 X113.420 Y99.448 E9.1867
G1 X113.764 Y99.770 E9.2024
G1 X113.988 Y100.123 E9.2163
G1 X114.609 Y100.411
;segType:Loop
G0 X114.611 Y102.338 F5400
G1 X114.587 Y102.390 E9.2182 F3000
G1 X114.160 Y102.907 E9.2405
G1 X113.614 Y103.303 E9.2629
G1 X112.986 Y103.551 E9.2854
G1 X112.313 Y103.637 E9.3079
G1 X111.640 Y103.551 E9.3305
G1 X111.012 Y103.303 E9.3530
G1 X110.467 Y102.907 E9.3754
G1 X110.039 Y102.390 E9.3977
G1 X109.755 Y101.786 E9.4199
