;FLAVOR:RepRap
;TIME:1715
;Filament used: 0.657116m
;Layer height: 0.2
;Generated with Cura_SteamEngine 2.4.0
M190 S65
M104 S205
M104 T1 S195
M109 S205
M109 T1 S195
G21 ;metric values
G90 ;absolute positioning
M82 ;set extruder to absolute mode
M107 ;start with the fan off
G28 X0 Y0 ;move X/Y to min endstops
G28 Z0 ;move Z to min endstops
G1 Z15.0 F9000 ;move the platform down 15mm
T1 ;Switch to the 2nd extruder
G92 E0 ;zero the extruded length
G1 F200 E6 ;extrude 6 mm of feed stock
G92 E0 ;zero the extruded length again
G1 F200 E-16
T0 ;Switch to the 1st extruder
G92 E0 ;zero the extruded length
G1 F200 E6 ;extrude 6 mm of feed stock
G92 E0 ;zero the extruded length again
G1 F9000
;Put printing message on LCD screen
M117 Printing...
;LAYER_COUNT:40
;LAYER:0
G1 F1200 E-16
G92 E0

T1
G92 E0

M109 S195
G1 F1200 E-0.3
M107
M104 T0 S175
G0 F4320 X75.297 Y80.542 Z0.2
;TYPE:SKIRT
G1 F1200 E0
G1 F1800 X75.834 Y80.164 E0.00824
G1 X76.555 Y79.701 E0.01898
G1 X77.241 Y79.308 E0.02889
G1 X77.962 Y78.987 E0.03879
G1 X78.563 Y78.783 E0.04675
G1 X79.38 Y78.542 E0.05743
G1 X80.449 Y78.306 E0.07116
G1 X94.848 Y76.183 E0.25368
G1 X95.986 Y76.1 E0.26799
G1 X106.982 Y76.1 E0.40589
G1 X108.002 Y76.167 E0.4187
G1 X108.783 Y76.27 E0.42858
G1 X109.56 Y76.413 E0.43849
G1 X110.318 Y76.633 E0.44839
G1 X110.746 Y76.796 E0.45413
G1 X110.984 Y76.894 E0.45736
G1 X111.227 Y76.794 E0.46065
G1 X111.971 Y76.53 E0.47055
G1 X112.738 Y76.342 E0.48046
G1 X113.185 Y76.27 E0.48614
G1 X113.965 Y76.167 E0.496
G1 X114.986 Y76.1 E0.50883
G1 X125.984 Y76.1 E0.64675
G1 X126.773 Y76.14 E0.65666
G1 X127.553 Y76.259 E0.66655
G1 X128.318 Y76.457 E0.67646
G1 X129.058 Y76.731 E0.68636
G1 X129.767 Y77.079 E0.69626
G1 X130.438 Y77.497 E0.70618
G1 X131.062 Y77.98 E0.71607
G1 X131.635 Y78.523 E0.72597
G1 X132.15 Y79.122 E0.73588
G1 X132.601 Y79.77 E0.74578
G1 X132.985 Y80.461 E0.75569
G1 X133.297 Y81.186 E0.76559
G1 X133.534 Y81.939 E0.77549
G1 X133.693 Y82.713 E0.7854
G1 X133.774 Y83.498 E0.7953
G1 X133.784 Y83.9 E0.80034
G1 X133.784 Y107.899 E1.10129
G1 X133.744 Y108.688 E1.1112
G1 X133.625 Y109.468 E1.1211
G1 X133.427 Y110.233 E1.13101
G1 X133.153 Y110.973 E1.1409
G1 X132.805 Y111.682 E1.15081
G1 X132.387 Y112.353 E1.16072
G1 X131.904 Y112.977 E1.17062
G1 X131.361 Y113.55 E1.18051
G1 X130.762 Y114.065 E1.19042
G1 X130.114 Y114.516 E1.20032
G1 X129.423 Y114.9 E1.21024
G1 X128.698 Y115.212 E1.22013
G1 X127.945 Y115.449 E1.23003
G1 X127.171 Y115.608 E1.23994
G1 X126.386 Y115.689 E1.24984
G1 X125.984 Y115.699 E1.25488
G1 X114.986 Y115.699 E1.3928
G1 X113.965 Y115.632 E1.40563
G1 X113.185 Y115.529 E1.4155
G1 X112.408 Y115.386 E1.42541
G1 X111.65 Y115.165 E1.43531
G1 X111.227 Y115.005 E1.44098
G1 X110.984 Y114.905 E1.44427
G1 X110.746 Y115.003 E1.4475
G1 X110.002 Y115.268 E1.45741
G1 X109.235 Y115.456 E1.46731
G1 X108.783 Y115.529 E1.47305
G1 X108.002 Y115.632 E1.48293
G1 X106.949 Y115.699 E1.49616
G1 X95.953 Y115.652 E1.63406
G1 X94.873 Y115.572 E1.64764
G1 X80.474 Y113.496 E1.83007
G1 X79.38 Y113.257 E1.84411
G1 X78.563 Y113.016 E1.8548
G1 X77.818 Y112.755 E1.8647
G1 X77.103 Y112.419 E1.8746
G1 X76.555 Y112.098 E1.88257
G1 X75.834 Y111.635 E1.89331
G1 X75.192 Y111.175 E1.90322
G1 X74.6 Y110.653 E1.91311
G1 X74.149 Y110.175 E1.92136
G1 X73.592 Y109.531 E1.93203
G1 X73.107 Y108.908 E1.94193
G1 X72.687 Y108.239 E1.95184
G1 X72.399 Y107.672 E1.95982
G1 X72.045 Y106.898 E1.97049
G1 X71.753 Y106.164 E1.9804
G1 X71.537 Y105.405 E1.99029
G1 X71.418 Y104.767 E1.99843
G1 X71.296 Y103.921 E2.00915
G1 X71.216 Y102.808 E2.02314
G1 X71.216 Y88.994 E2.19638
G1 X71.295 Y87.886 E2.21031
G1 X71.417 Y87.036 E2.22107
G1 X71.569 Y86.261 E2.23098
G1 X71.798 Y85.505 E2.24088
G1 X72.046 Y84.896 E2.24913
G1 X72.4 Y84.123 E2.25979
G1 X72.765 Y83.423 E2.26969
G1 X73.199 Y82.763 E2.2796
G1 X73.592 Y82.268 E2.28752
G1 X74.149 Y81.624 E2.2982
G1 X74.696 Y81.054 E2.30811
G1 X75.297 Y80.542 E2.31801
G0 F4320 X75.572 Y80.835
G1 F1800 X76.05 Y80.5 E2.32533
G1 X76.771 Y80.037 E2.33607
G1 X77.439 Y79.656 E2.34572
G1 X78.143 Y79.346 E2.35536
G1 X78.676 Y79.166 E2.36242
G1 X79.493 Y78.925 E2.3731
G1 X80.508 Y78.702 E2.38613
G1 X94.907 Y76.579 E2.56865
G1 X95.986 Y76.5 E2.58222
G1 X106.982 Y76.5 E2.72011
G1 X107.95 Y76.564 E2.73228
G1 X108.731 Y76.667 E2.74216
G1 X109.487 Y76.807 E2.7518
G1 X110.225 Y77.024 E2.76145
G1 X110.593 Y77.166 E2.76639
G1 X110.983 Y77.328 E2.77169
G1 X111.379 Y77.164 E2.77707
G1 X112.105 Y76.908 E2.78672
G1 X112.852 Y76.728 E2.79635
G1 X113.237 Y76.667 E2.80124
G1 X114.017 Y76.564 E2.81111
G1 X114.986 Y76.5 E2.82329
G1 X125.984 Y76.5 E2.96121
G1 X126.752 Y76.54 E2.97085
G1 X127.512 Y76.659 E2.9805
G1 X128.255 Y76.857 E2.99014
G1 X128.974 Y77.131 E2.99979
G1 X129.66 Y77.478 E3.00943
G1 X130.307 Y77.894 E3.01908
G1 X130.907 Y78.375 E3.02872
G1 X131.454 Y78.916 E3.03837
G1 X131.942 Y79.511 E3.04802
G1 X132.365 Y80.153 E3.05766
G1 X132.72 Y80.836 E3.06731
G1 X133.001 Y81.551 E3.07695
G1 X133.207 Y82.293 E3.0866
G1 X133.335 Y83.051 E3.09624
G1 X133.384 Y83.9 E3.10691
G1 X133.384 Y107.899 E3.40786
G1 X133.344 Y108.667 E3.41751
G1 X133.225 Y109.427 E3.42715
G1 X133.027 Y110.17 E3.4368
G1 X132.753 Y110.889 E3.44645
G1 X132.406 Y111.575 E3.45609
G1 X131.99 Y112.222 E3.46573
G1 X131.509 Y112.822 E3.47538
G1 X130.968 Y113.369 E3.48502
G1 X130.373 Y113.857 E3.49467
G1 X129.731 Y114.28 E3.50432
G1 X129.048 Y114.635 E3.51397
G1 X128.333 Y114.916 E3.5236
G1 X127.591 Y115.122 E3.53326
G1 X126.833 Y115.25 E3.5429
G1 X125.984 Y115.299 E3.55356
G1 X114.986 Y115.299 E3.69148
G1 X114.017 Y115.235 E3.70366
G1 X113.237 Y115.132 E3.71353
G1 X112.481 Y114.992 E3.72317
G1 X111.743 Y114.774 E3.73282
G1 X111.379 Y114.635 E3.73771
G1 X110.983 Y114.471 E3.74308
G1 X110.593 Y114.633 E3.74838
G1 X109.868 Y114.89 E3.75802
G1 X109.12 Y115.07 E3.76767
G1 X108.731 Y115.132 E3.77261
G1 X107.95 Y115.235 E3.78249
G1 X106.95 Y115.299 E3.79506
G1 X95.954 Y115.252 E3.93295
G1 X94.93 Y115.176 E3.94583
G1 X80.531 Y113.1 E4.12826
G1 X79.493 Y112.874 E4.14158
G1 X78.676 Y112.633 E4.15227
G1 X77.951 Y112.377 E4.16191
G1 X77.256 Y112.047 E4.17156
G1 X76.771 Y111.762 E4.17861
G1 X76.05 Y111.299 E4.18936
G1 X75.426 Y110.85 E4.199
G1 X74.851 Y110.339 E4.20864
G1 X74.452 Y109.913 E4.21596
G1 X73.895 Y109.269 E4.22664
G1 X73.423 Y108.662 E4.23628
G1 X73.016 Y108.009 E4.24593
G1 X72.762 Y107.506 E4.253
G1 X72.408 Y106.732 E4.26367
G1 X72.125 Y106.017 E4.27332
G1 X71.918 Y105.276 E4.28296
G1 X71.814 Y104.71 E4.29018
G1 X71.692 Y103.864 E4.3009
G1 X71.616 Y102.808 E4.31418
G1 X71.616 Y88.994 E4.48741
G1 X71.691 Y87.943 E4.50062
G1 X71.813 Y87.093 E4.51139
G1 X71.962 Y86.338 E4.52104
G1 X72.188 Y85.603 E4.53068
G1 X72.41 Y85.063 E4.53801
G1 X72.764 Y84.29 E4.54867
G1 X73.12 Y83.608 E4.55832
G1 X73.545 Y82.967 E4.56796
G1 X73.895 Y82.53 E4.57498
G1 X74.452 Y81.886 E4.58566
G1 X74.985 Y81.331 E4.59531
G1 X75.572 Y80.835 E4.60495
G0 F4320 X76.267 Y80.837
G1 F1800 X76.988 Y80.374 E4.61569
G1 X77.638 Y80.004 E4.62507
G1 X78.324 Y79.705 E4.63445
G1 X78.789 Y79.55 E4.6406
G1 X79.606 Y79.309 E4.65128
G1 X80.566 Y79.098 E4.66361
G1 X94.965 Y76.975 E4.84613
G1 X95.986 Y76.9 E4.85897
G1 X106.982 Y76.9 E4.99686
G1 X107.897 Y76.96 E5.00836
G1 X108.678 Y77.063 E5.01824
G1 X109.414 Y77.2 E5.02763
G1 X110.44 Y77.535 E5.04116
G1 X110.984 Y77.76 E5.04855
G1 X111.532 Y77.534 E5.05598
G1 X112.238 Y77.285 E5.06537
G1 X113.29 Y77.063 E5.07885
G1 X114.07 Y76.96 E5.08872
G1 X114.986 Y76.9 E5.10023
G1 X125.984 Y76.9 E5.23815
G1 X126.731 Y76.94 E5.24753
G1 X127.469 Y77.059 E5.2569
G1 X128.191 Y77.257 E5.26629
G1 X128.887 Y77.53 E5.27567
G1 X129.55 Y77.877 E5.28505
G1 X130.173 Y78.292 E5.29444
G1 X130.747 Y78.771 E5.30381
G1 X131.268 Y79.308 E5.3132
G1 X131.727 Y79.898 E5.32257
G1 X132.122 Y80.534 E5.33196
G1 X132.446 Y81.208 E5.34134
G1 X132.696 Y81.913 E5.35072
G1 X132.87 Y82.641 E5.3601
G1 X132.965 Y83.383 E5.36949
G1 X132.984 Y83.9 E5.37597
G1 X132.984 Y107.899 E5.67693
G1 X132.944 Y108.646 E5.68631
G1 X132.825 Y109.384 E5.69568
G1 X132.627 Y110.106 E5.70507
G1 X132.354 Y110.802 E5.71445
G1 X132.007 Y111.465 E5.72383
G1 X131.592 Y112.088 E5.73322
G1 X131.113 Y112.662 E5.7426
G1 X130.576 Y113.183 E5.75198
G1 X129.986 Y113.642 E5.76135
G1 X129.35 Y114.037 E5.77074
G1 X128.676 Y114.361 E5.78012
G1 X127.971 Y114.611 E5.7895
G1 X127.243 Y114.785 E5.79889
G1 X126.501 Y114.88 E5.80827
G1 X125.984 Y114.899 E5.81475
G1 X114.986 Y114.899 E5.95267
G1 X114.07 Y114.839 E5.96419
G1 X113.29 Y114.736 E5.97405
G1 X112.554 Y114.598 E5.98344
G1 X111.532 Y114.265 E5.99692
G1 X110.984 Y114.039 E6.00436
G1 X110.44 Y114.264 E6.01174
G1 X109.734 Y114.513 E6.02113
G1 X108.678 Y114.736 E6.03466
G1 X107.897 Y114.839 E6.04454
G1 X106.952 Y114.899 E6.05641
G1 X95.956 Y114.852 E6.19431
G1 X94.987 Y114.78 E6.20649
G1 X80.588 Y112.704 E6.38893
G1 X79.606 Y112.49 E6.40153
G1 X78.789 Y112.249 E6.41222
G1 X78.084 Y111.999 E6.4216
G1 X77.41 Y111.676 E6.43097
G1 X76.988 Y111.425 E6.43713
G1 X76.267 Y110.962 E6.44787
G1 X75.66 Y110.525 E6.45725
G1 X75.103 Y110.025 E6.46664
G1 X74.755 Y109.651 E6.47304
G1 X74.198 Y109.007 E6.48372
G1 X73.739 Y108.416 E6.49311
G1 X73.346 Y107.779 E6.50249
G1 X73.126 Y107.339 E6.50866
G1 X72.772 Y106.565 E6.51933
G1 X72.498 Y105.87 E6.5287
G1 X72.299 Y105.148 E6.53809
G1 X72.21 Y104.653 E6.5444
G1 X72.088 Y103.807 E6.55512
G1 X72.016 Y102.808 E6.56768
G1 X72.016 Y88.994 E6.74091
G1 X72.087 Y87.999 E6.75342
G1 X72.209 Y87.149 E6.76419
G1 X72.355 Y86.416 E6.77356
G1 X72.578 Y85.702 E6.78294
G1 X72.774 Y85.229 E6.78936
G1 X73.128 Y84.456 E6.80003
G1 X73.475 Y83.794 E6.8094
G1 X73.891 Y83.172 E6.81878
G1 X74.198 Y82.792 E6.82491
G1 X74.755 Y82.148 E6.83559
G1 X75.273 Y81.609 E6.84496
G1 X75.847 Y81.129 E6.85435
G1 X76.267 Y80.837 E6.86076
G0 F4320 X76.483 Y81.173
G1 F1800 X77.204 Y80.71 E6.87151
G1 X77.836 Y80.352 E6.88061
G1 X78.503 Y80.066 E6.88972
G1 X78.903 Y79.934 E6.895
G1 X79.72 Y79.693 E6.90568
G1 X80.624 Y79.494 E6.91729
G1 X95.023 Y77.371 E7.09981
G1 X95.986 Y77.3 E7.11192
G1 X106.982 Y77.3 E7.24981
G1 X107.845 Y77.357 E7.26066
G1 X108.626 Y77.46 E7.27054
G1 X109.34 Y77.594 E7.27965
G1 X110.287 Y77.905 E7.29215
G1 X110.983 Y78.193 E7.30159
G1 X111.685 Y77.903 E7.31112
G1 X112.371 Y77.663 E7.32023
G1 X113.342 Y77.46 E7.33267
G1 X114.122 Y77.357 E7.34254
G1 X114.986 Y77.3 E7.3534
G1 X125.984 Y77.3 E7.49131
G1 X126.709 Y77.34 E7.50042
G1 X127.426 Y77.459 E7.50953
G1 X128.125 Y77.657 E7.51865
G1 X128.798 Y77.93 E7.52775
G1 X129.437 Y78.275 E7.53686
G1 X130.034 Y78.689 E7.54597
G1 X130.582 Y79.165 E7.55507
G1 X131.075 Y79.699 E7.56419
G1 X131.505 Y80.284 E7.57329
G1 X131.869 Y80.913 E7.5824
G1 X132.162 Y81.578 E7.59152
G1 X132.38 Y82.271 E7.60063
G1 X132.52 Y82.983 E7.60973
G1 X132.584 Y83.9 E7.62126
G1 X132.584 Y107.899 E7.92221
G1 X132.544 Y108.624 E7.93132
G1 X132.425 Y109.341 E7.94043
G1 X132.227 Y110.04 E7.94954
G1 X131.954 Y110.713 E7.95865
G1 X131.609 Y111.352 E7.96776
G1 X131.195 Y111.949 E7.97687
G1 X130.719 Y112.497 E7.98597
G1 X130.185 Y112.99 E7.99508
G1 X129.6 Y113.42 E8.00419
G1 X128.971 Y113.784 E8.0133
G1 X128.306 Y114.077 E8.02241
G1 X127.613 Y114.295 E8.03153
G1 X126.901 Y114.435 E8.04062
G1 X125.984 Y114.499 E8.05215
G1 X114.986 Y114.499 E8.19007
G1 X114.122 Y114.442 E8.20093
G1 X113.342 Y114.339 E8.2108
G1 X112.628 Y114.205 E8.21991
G1 X111.685 Y113.896 E8.23235
G1 X110.983 Y113.606 E8.24188
G1 X110.287 Y113.894 E8.25132
G1 X109.602 Y114.135 E8.26043
G1 X108.626 Y114.339 E8.27293
G1 X107.845 Y114.442 E8.28281
G1 X106.954 Y114.499 E8.29401
G1 X95.958 Y114.452 E8.4319
G1 X95.044 Y114.384 E8.4434
G1 X80.645 Y112.308 E8.62583
G1 X79.72 Y112.106 E8.6377
G1 X78.903 Y111.865 E8.64839
G1 X78.218 Y111.622 E8.6575
G1 X77.565 Y111.305 E8.6666
G1 X77.204 Y111.089 E8.67188
G1 X76.483 Y110.626 E8.68262
G1 X75.894 Y110.2 E8.69174
G1 X75.356 Y109.712 E8.70085
G1 X75.057 Y109.39 E8.70636
G1 X74.5 Y108.746 E8.71704
G1 X74.056 Y108.171 E8.72615
G1 X73.678 Y107.551 E8.73525
G1 X73.49 Y107.173 E8.74055
G1 X73.136 Y106.399 E8.75122
G1 X72.871 Y105.723 E8.76033
G1 X72.681 Y105.022 E8.76943
G1 X72.606 Y104.596 E8.77486
G1 X72.484 Y103.75 E8.78558
G1 X72.416 Y102.808 E8.79742
G1 X72.416 Y88.994 E8.97065
G1 X72.483 Y88.056 E8.98245
G1 X72.605 Y87.206 E8.99322
G1 X72.748 Y86.494 E9.00232
G1 X72.968 Y85.802 E9.01143
G1 X73.137 Y85.396 E9.01694
G1 X73.491 Y84.623 E9.02761
G1 X73.83 Y83.98 E9.03672
G1 X74.237 Y83.378 E9.04583
G1 X74.5 Y83.053 E9.05108
G1 X75.057 Y82.409 E9.06175
G1 X75.562 Y81.887 E9.07086
G1 X76.121 Y81.423 E9.07997
G1 X76.483 Y81.173 E9.08549
G0 F4320 X76.699 Y81.51
G1 F1800 X77.42 Y81.047 E9.09623
G1 X78.033 Y80.701 E9.10506
G1 X79.016 Y80.317 E9.1183
G1 X79.833 Y80.076 E9.12898
G1 X80.683 Y79.889 E9.13989
G1 X95.082 Y77.766 E9.32241
G1 X95.986 Y77.7 E9.33378
G1 X106.982 Y77.7 E9.47167
G1 X107.793 Y77.753 E9.48187
G1 X108.574 Y77.856 E9.49174
G1 X109.265 Y77.988 E9.50057
G1 X110.134 Y78.274 E9.51204
G1 X110.854 Y78.572 E9.52181
G1 X110.987 Y78.636 E9.52366
G1 X111.117 Y78.571 E9.52549
G1 X111.838 Y78.273 E9.53527
G1 X112.503 Y78.042 E9.5441
G1 X113.394 Y77.856 E9.55551
G1 X114.174 Y77.753 E9.56538
G1 X114.986 Y77.7 E9.57558
G1 X125.984 Y77.7 E9.7135
G1 X126.687 Y77.74 E9.72233
G1 X127.381 Y77.859 E9.73116
G1 X128.056 Y78.057 E9.73998
G1 X128.705 Y78.329 E9.74881
G1 X129.319 Y78.674 E9.75764
G1 X129.89 Y79.085 E9.76646
G1 X130.411 Y79.559 E9.77529
G1 X130.875 Y80.089 E9.78413
G1 X131.275 Y80.668 E9.79295
G1 X131.607 Y81.289 E9.80178
G1 X131.867 Y81.943 E9.81061
G1 X132.051 Y82.623 E9.81944
G1 X132.157 Y83.319 E9.82827
G1 X132.184 Y83.9 E9.83557
G1 X132.184 Y107.899 E10.13652
G1 X132.144 Y108.602 E10.14535
G1 X132.025 Y109.296 E10.15418
G1 X131.827 Y109.971 E10.163
G1 X131.555 Y110.62 E10.17183
G1 X131.21 Y111.234 E10.18066
G1 X130.799 Y111.805 E10.18948
G1 X130.325 Y112.326 E10.19832
G1 X129.795 Y112.79 E10.20715
G1 X129.216 Y113.19 E10.21597
G1 X128.595 Y113.522 E10.22481
G1 X127.941 Y113.782 E10.23363
G1 X127.261 Y113.966 E10.24247
G1 X126.565 Y114.072 E10.25129
G1 X125.984 Y114.099 E10.25859
G1 X114.986 Y114.099 E10.39651
G1 X114.174 Y114.046 E10.40671
G1 X113.394 Y113.943 E10.41658
G1 X112.703 Y113.811 E10.4254
G1 X111.838 Y113.526 E10.43682
G1 X111.117 Y113.228 E10.4466
G1 X110.982 Y113.163 E10.44848
G1 X110.854 Y113.227 E10.45028
G1 X110.134 Y113.525 E10.46005
G1 X109.469 Y113.757 E10.46888
G1 X108.574 Y113.943 E10.48035
G1 X107.793 Y114.046 E10.49022
G1 X106.955 Y114.099 E10.50075
G1 X95.959 Y114.052 E10.63865
G1 X95.101 Y113.989 E10.64944
G1 X80.702 Y111.913 E10.83187
G1 X79.833 Y111.723 E10.84303
G1 X79.016 Y111.482 E10.85371
G1 X78.353 Y111.244 E10.86254
G1 X77.42 Y110.752 E10.87577
G1 X76.699 Y110.289 E10.88652
G1 X76.129 Y109.876 E10.89534
G1 X75.61 Y109.4 E10.90418
G1 X75.36 Y109.128 E10.90881
G1 X74.803 Y108.484 E10.91949
G1 X74.373 Y107.926 E10.92832
G1 X74.01 Y107.323 E10.93715
G1 X73.854 Y107.007 E10.94157
G1 X73.5 Y106.233 E10.95224
G1 X73.244 Y105.577 E10.96107
G1 X73.064 Y104.896 E10.9699
G1 X73.001 Y104.539 E10.97445
G1 X72.879 Y103.693 E10.98517
G1 X72.816 Y102.808 E10.99629
G1 X72.816 Y88.994 E11.16953
G1 X72.879 Y88.113 E11.1806
G1 X73.001 Y87.263 E11.19137
G1 X73.14 Y86.573 E11.2002
G1 X73.357 Y85.903 E11.20903
G1 X73.501 Y85.562 E11.21367
G1 X73.855 Y84.789 E11.22433
G1 X74.184 Y84.167 E11.23316
G1 X74.803 Y83.315 E11.24636
G1 X75.36 Y82.671 E11.25704
G1 X75.85 Y82.166 E11.26587
G1 X76.394 Y81.719 E11.2747
G1 X76.699 Y81.51 E11.27933
G0 F4320 X76.915 Y81.847
G1 F1800 X77.636 Y81.384 E11.29008
G1 X78.23 Y81.05 E11.29862
G1 X79.129 Y80.701 E11.31072
G1 X79.946 Y80.46 E11.3214
G1 X80.741 Y80.285 E11.33161
G1 X95.14 Y78.162 E11.51413
G1 X95.986 Y78.1 E11.52477
G1 X106.982 Y78.1 E11.66266
G1 X107.74 Y78.15 E11.67219
G1 X108.521 Y78.253 E11.68207
G1 X109.19 Y78.381 E11.69061
G1 X109.981 Y78.644 E11.70106
G1 X110.701 Y78.942 E11.71083
G1 X110.989 Y79.082 E11.71485
G1 X111.27 Y78.941 E11.71879
G1 X111.991 Y78.643 E11.72857
G1 X112.634 Y78.42 E11.73711
G1 X113.447 Y78.253 E11.74752
G1 X114.227 Y78.15 E11.75738
G1 X114.986 Y78.1 E11.76692
G1 X125.984 Y78.1 E11.90484
G1 X126.664 Y78.14 E11.91338
