; GCode generated by CraftWare

M103 (disable RPM)
M73 P0 (enable build progress)
G21 (set units to mm)
G90 (set positioning to absolute)
M109 S65 T0 (set HBP temperature)
M104 S190 T0 (set extruder temperature) (temp updated by printOMatic)
G162 X Y F2500 (home XY axes maximum)
G161 Z F1100 (home Z axis minimum)
G92 Z-5 (set Z to -5)
G1 Z0.0 (move Z to "0")
G161 Z F100 (home Z axis minimum)
M132 X Y Z A B (Recall stored home offsets for XYZAB axis)
(**** end homing ****)
G1 X-110.5 Y-74 Z150 F3300.0 (move to waiting position)
G130 X20 Y20 Z20 A20 B20 (Lower stepper Vrefs while heating)
M6 T0 (wait for toolhead, and HBP to reach temperature)
G130 X127 Y127 Z40 A127 B127 (Set Stepper motor Vref to defaults)
M108 R3.0 T0
G0 X-110.5 Y-74 (Position Nozzle)
G0 Z0.6      (Position Height)
M108 R5.0    (Set Extruder Speed)
M101         (Start Extruder)
G4 P2000     (Create Anchor)
; ------------------------------------
; Layer #0
; ------------------------------------
G21 ; mm
G90 ; abs
G92 E0 ; reset extr
M73 S0
M106 S0
;segType:Skirt
G0 F1200 E-1.0000
G0 F300 Z0.200
G0 X106.681 Y123.382 F5400
G0 F1200 E0.0000
G1 X106.990 Y123.567 E0.0120 F3000
G1 X116.391 Y123.567 E0.3247
G1 X116.824 Y123.629 E0.3392
G1 X117.195 Y124.000 E0.3567
G1 X117.380 Y124.185 E0.3654
G1 X122.699 Y124.185 E0.5423
G1 X123.132 Y124.124 E0.5568
G1 X123.627 Y123.629 E0.5801
G1 X124.060 Y123.567 E0.5947
G1 X133.461 Y123.567 E0.9073
G1 X133.894 Y123.629 E0.9219
G1 X134.389 Y124.124 E0.9452
G1 X134.822 Y124.185 E0.9597
G1 X140.017 Y124.185 E1.1325
G1 X140.635 Y123.567 E1.1616
G1 X151.026 Y123.567 E1.5072
G1 X151.459 Y123.505 E1.5217
G1 X151.706 Y123.258 E1.5334
G1 X152.139 Y123.196 E1.5479
G1 X152.634 Y123.196 E1.5644
G1 X153.067 Y123.134 E1.5789
G1 X153.562 Y122.639 E1.6022
G1 X153.562 Y77.118 E3.1162
G1 X153.376 Y76.809 E3.1282
G1 X151.892 Y75.325 E3.1980
G1 X127.152 Y75.325 E4.0209
G1 X126.720 Y75.387 E4.0354
G1 X105.196 Y96.910 E5.0478
G1 X105.196 Y121.897 E5.8789
G1 X106.681 Y123.382 E5.9487
G0 F1200 E4.9487
G0 X120.349 Y107.734 F5400
G0 F1200 E5.9487
G1 X120.163 Y107.548 E5.9574 F3000
G1 X120.473 Y107.362 E5.9694
G1 X120.658 Y107.424 E5.9759
G1 X120.658 Y107.672 E5.9842
G1 X120.349 Y107.734 E5.9947
G0 F1200 E4.9947
G0 X137.419 Y90.787 F5400
G0 F1200 E5.9947
G1 X137.233 Y90.602 E6.0034 F3000
G1 X137.419 Y90.292 E6.0154
G1 X137.605 Y90.354 E6.0219
G1 X137.543 Y90.787 E6.0365
G1 X137.419 Y90.787 E6.0406
G0 F1200 E5.0406
G0 X127.152 Y74.954 F5400
G0 F1200 E6.0406
G1 X126.720 Y75.016 E6.0551 F3000
G1 X104.825 Y96.910 E7.0850
G1 X104.825 Y121.897 E7.9161
G1 X106.804 Y123.876 E8.0092
G1 X107.237 Y123.938 E8.0237
G1 X116.638 Y123.938 E8.3364
G1 X116.948 Y124.124 E8.3484
G1 X117.195 Y124.371 E8.3600
G1 X117.380 Y124.556 E8.3687
G1 X122.699 Y124.556 E8.5456
G1 X123.132 Y124.495 E8.5602
G1 X123.627 Y124.000 E8.5835
G1 X124.060 Y123.938 E8.5980
G1 X133.461 Y123.938 E8.9107
G1 X133.894 Y124.000 E8.9252
G1 X134.389 Y124.495 E8.9485
G1 X134.822 Y124.556 E8.9631
G1 X140.017 Y124.556 E9.1359
G1 X140.635 Y123.938 E9.1649
G1 X151.026 Y123.938 E9.5105
G1 X151.459 Y123.876 E9.5251
G1 X151.706 Y123.629 E9.5367
G1 X152.139 Y123.567 E9.5513
G1 X152.634 Y123.567 E9.5677
G1 X153.067 Y123.505 E9.5823
G1 X153.933 Y122.639 E9.6230
G1 X153.933 Y77.118 E11.1370
G1 X153.747 Y76.809 E11.1490
G1 X151.892 Y74.954 E11.2363
G1 X127.152 Y74.954 E12.0591
G1 X127.152 Y74.583 E12.0715
G0 F1200 E11.0715
G0 X151.136 Y77.514 F5400
G0 X152.500 Y78.000
G0 F1200 E12.0715
;segType:Support
G1 X152.000 Y78.000 E12.0856 F4500
G1 X152.000 Y77.500 E12.0997
G1 X152.500 Y77.500 E12.1139
G0 F1200 E11.1139
G0 X152.000 Y78.500 F5400
G0 F1200 E12.1139
G1 X152.500 Y78.500 E12.1280 F4500
G1 X152.500 Y79.000 E12.1421
G1 X152.000 Y79.000 E12.1563
G0 X152.000 Y80.000 F5400
G1 X152.500 Y80.000 E12.1704 F4500
G1 X152.500 Y79.500 E12.1845
G1 X152.000 Y79.500 E12.1987
G0 X152.000 Y80.500 F5400
G1 X152.500 Y80.500 E12.2128 F4500
G1 X152.500 Y81.000 E12.2270
G1 X152.000 Y81.000 E12.2411
G1 X152.000 Y81.500 E12.2552
G1 X152.500 Y81.500 E12.2694
G1 X152.000 Y82.000 E12.2893
G1 X152.500 Y82.000 E12.3035
G1 X152.500 Y82.500 E12.3176
G1 X152.000 Y82.500 E12.3318
G1 X152.500 Y83.000 E12.3517
G1 X152.000 Y83.000 E12.3659
G1 X152.000 Y83.500 E12.3800
G1 X152.500 Y83.500 E12.3942
G0 X152.500 Y84.500 F5400
G1 X152.000 Y84.500 E12.4083 F4500
G1 X152.000 Y84.000 E12.4224
G1 X152.500 Y84.000 E12.4366
G0 X152.500 Y85.000 F5400
G1 X152.000 Y85.000 E12.4507 F4500
G1 X152.000 Y85.500 E12.4648
G1 X152.500 Y85.500 E12.4790
G1 X152.000 Y86.000 E12.4990
G1 X152.500 Y86.000 E12.5131
G1 X152.000 Y86.500 E12.5331
G1 X152.500 Y86.500 E12.5472
G1 X152.500 Y87.000 E12.5614
G1 X152.000 Y87.000 E12.5755
G0 F1200 E11.5755
G0 X152.500 Y88.500 F5400
G0 F1200 E12.5755
G1 X152.000 Y88.500 E12.5896 F4500
G0 X152.000 Y89.500 F5400
G1 X152.500 Y89.500 E12.6038 F4500
G0 F1200 E11.6038
G0 X152.500 Y88.000 F5400
G0 F1200 E12.6038
G1 X152.000 Y88.000 E12.6179 F4500
G0 F1200 E11.6179
G0 X152.000 Y90.000 F5400
G0 F1200 E12.6179
G1 X152.500 Y90.000 E12.6320 F4500
G0 X152.500 Y91.000 F5400
G1 X152.000 Y91.000 E12.6462 F4500
G1 X152.500 Y91.500 E12.6662
G1 X152.000 Y91.500 E12.6803
G0 X152.000 Y92.500 F5400
G1 X152.500 Y92.500 E12.6944 F4500
G0 X152.500 Y93.500 F5400
G1 X152.000 Y93.500 E12.7086 F4500
G1 X152.000 Y94.000 E12.7227
G1 X152.500 Y94.000 E12.7368
G1 X152.500 Y94.500 E12.7510
G1 X152.000 Y94.500 E12.7651
G0 F1200 E11.7651
G0 X152.000 Y99.000 F5400
G0 F1200 E12.7651
G1 X152.500 Y99.000 E12.7792 F4500
G1 X152.000 Y99.500 E12.7992
G1 X152.500 Y99.500 E12.8134
G1 X152.500 Y100.000 E12.8275
G1 X152.000 Y100.000 E12.8416
G0 F1200 E11.8416
G0 X152.000 Y101.500 F5400
G0 F1200 E12.8416
G1 X152.500 Y101.500 E12.8558 F4500
G1 X152.500 Y102.000 E12.8699
G1 X152.000 Y102.000 E12.8840
G0 F1200 E11.8840
G0 X152.000 Y103.500 F5400
G0 F1200 E12.8840
G1 X152.500 Y103.500 E12.8982 F4500
G0 X152.500 Y104.500 F5400
G1 X152.000 Y104.500 E12.9123 F4500
G0 F1200 E11.9123
G0 X152.000 Y107.000 F5400
G0 F1200 E12.9123
G1 X152.500 Y107.000 E12.9264 F4500
G1 X152.000 Y107.500 E12.9464
G1 X152.500 Y107.500 E12.9606
G0 F1200 E11.9606
G0 X152.000 Y109.500 F5400
G0 F1200 E12.9606
G1 X152.500 Y109.500 E12.9747 F4500
G0 F1200 E11.9747
G0 X152.500 Y111.500 F5400
G0 F1200 E12.9747
G1 X152.000 Y111.500 E12.9888 F4500
G1 X152.000 Y112.000 E13.0030
G1 X152.500 Y112.000 E13.0171
G0 X152.500 Y113.000 F5400
G1 X152.000 Y113.000 E13.0312 F4500
G0 X152.000 Y114.000 F5400
G1 X152.500 Y114.000 E13.0454 F4500
G0 F1200 E12.0454
G0 X152.500 Y115.500 F5400
G0 F1200 E13.0454
G1 X152.000 Y115.500 E13.0595 F4500
G0 F1200 E12.0595
G0 X149.561 Y115.756 F5400
G0 X108.100 Y120.115
G0 F1200 E13.0595
;segType:Loop
G1 X108.100 Y97.748 E13.8034 F3000
G1 X127.748 Y78.100 E14.7276
G1 X150.736 Y78.100 E15.4922
G1 X150.736 Y120.447 E16.9007
G1 X150.712 Y120.546 E16.9041
G1 X150.524 Y120.726 E16.9127
G1 X150.462 Y120.736 E16.9148
G1 X108.100 Y120.736 E18.3238
G1 X108.100 Y120.301 E18.3383
;segType:Perimeter
G0 X108.318 Y120.825 F5400
G1 X107.700 Y121.081 E18.3605 F2100
G1 X107.700 Y97.583 E19.1420
G1 X127.583 Y77.700 E20.0773
G1 X151.136 Y77.700 E20.8607
G1 X151.136 Y120.495 E22.2840
G1 X151.073 Y120.754 E22.2929
G1 X150.712 Y121.100 E22.3095
G1 X150.495 Y121.136 E22.3168
G1 X107.756 Y121.136 E23.7384
G1 X108.012 Y120.519
;segType:Loop
G0 X108.500 Y119.093 F5400
G1 X108.500 Y97.914 E24.4428 F3000
G1 X127.914 Y78.500 E25.3559
G1 X150.336 Y78.500 E26.1017
G1 X150.336 Y120.336 E27.4932
G1 X108.500 Y120.336 E28.8847
G1 X108.500 Y119.279 E28.9198
G0 X117.864 Y109.188 F5400
G1 X117.645 Y108.843 E28.9334 F3000
G1 X117.401 Y108.091 E28.9597
G1 X117.351 Y107.302 E28.9860
G1 X117.500 Y106.525 E29.0123
G1 X117.837 Y105.810 E29.0386
G1 X118.340 Y105.201 E29.0649
G1 X118.980 Y104.736 E29.0912
G1 X119.715 Y104.444 E29.1175
G1 X120.500 Y104.345 E29.1438
G1 X121.284 Y104.444 E29.1701
G1 X122.020 Y104.736 E29.1964
G1 X122.659 Y105.201 E29.2227
G1 X123.147 Y105.790 E29.2482
G1 X123.505 Y106.550 E29.2761
G1 X123.648 Y107.302 E29.3016
G1 X123.599 Y108.091 E29.3279
G1 X123.354 Y108.843 E29.3542
G1 X122.931 Y109.511 E29.3805
G1 X122.354 Y110.052 E29.4068
G1 X121.661 Y110.433 E29.4331
G1 X120.895 Y110.630 E29.4594
G1 X120.104 Y110.630 E29.4857
G1 X119.339 Y110.433 E29.5120
G1 X118.645 Y110.052 E29.5383
G1 X118.069 Y109.511 E29.5646
G1 X117.964 Y109.345 E29.5711
;segType:Perimeter
G0 X118.988 Y110.341 F5400
G1 X118.842 Y109.688 E29.5934 F2100
G1 X118.380 Y109.254 E29.6145
G1 X118.010 Y108.672 E29.6374
G1 X117.797 Y108.015 E29.6603
G1 X117.754 Y107.327 E29.6833
G1 X117.883 Y106.650 E29.7062
G1 X118.177 Y106.026 E29.7292
G1 X118.616 Y105.494 E29.7521
G1 X119.174 Y105.089 E29.7750
G1 X119.816 Y104.835 E29.7980
G1 X120.500 Y104.749 E29.8209
G1 X121.184 Y104.835 E29.8439
G1 X121.826 Y105.089 E29.8668
G1 X122.383 Y105.494 E29.8897
G1 X122.807 Y106.006 E29.9118
G1 X123.122 Y106.675 E29.9364
G1 X123.246 Y107.327 E29.9585
G1 X123.203 Y108.015 E29.9814
G1 X122.990 Y108.672 E30.0044
G1 X122.620 Y109.254 E30.0273
G1 X122.117 Y109.726 E30.0503
G1 X121.513 Y110.058 E30.0732
G1 X120.845 Y110.230 E30.0961
G1 X120.155 Y110.230 E30.1191
G1 X119.487 Y110.058 E30.1420
G1 X118.931 Y109.753 E30.1631
G1 X118.266 Y109.816
;segType:Loop
G0 X117.076 Y108.384 F5400
G1 X117.005 Y108.167 E30.1707 F3000
G1 X116.949 Y107.277 E30.2004
G1 X117.116 Y106.400 E30.2300
G1 X117.496 Y105.594 E30.2597
G1 X118.064 Y104.907 E30.2894
G1 X118.786 Y104.382 E30.3190
G1 X119.615 Y104.054 E30.3487
G1 X120.500 Y103.942 E30.3784
G1 X121.385 Y104.054 E30.4080
G1 X122.214 Y104.382 E30.4377
G1 X122.935 Y104.907 E30.4673
G1 X123.488 Y105.573 E30.4961
G1 X123.889 Y106.425 E30.5275
G1 X124.051 Y107.277 E30.5563
G1 X123.995 Y108.167 E30.5859
G1 X123.719 Y109.015 E30.6156
G1 X123.242 Y109.768 E30.6453
G1 X122.591 Y110.378 E30.6749
G1 X121.810 Y110.808 E30.7046
G1 X120.946 Y111.030 E30.7343
G1 X120.054 Y111.030 E30.7639
G1 X119.191 Y110.808 E30.7936
G1 X118.408 Y110.378 E30.8233
G1 X117.759 Y109.768 E30.8529
G1 X117.281 Y109.015 E30.8826
G1 X117.133 Y108.560 E30.8985
G0 X118.489 Y105.359 F5400
G0 X134.864 Y92.188
G1 X134.646 Y91.843 E30.9121 F3000
G1 X134.401 Y91.091 E30.9384
G1 X134.351 Y90.302 E30.9647
G1 X134.500 Y89.525 E30.9910
G1 X134.836 Y88.809 E31.0173
G1 X135.341 Y88.201 E31.0436
G1 X135.980 Y87.735 E31.0699
G1 X136.716 Y87.444 E31.0962
G1 X137.500 Y87.345 E31.1225
G1 X138.284 Y87.444 E31.1488
G1 X139.020 Y87.735 E31.1751
G1 X139.659 Y88.201 E31.2014
G1 X140.147 Y88.790 E31.2268
G1 X140.505 Y89.550 E31.2548
G1 X140.649 Y90.302 E31.2802
G1 X140.599 Y91.091 E31.3065
G1 X140.354 Y91.843 E31.3328
G1 X139.931 Y92.511 E31.3591
G1 X139.354 Y93.052 E31.3854
G1 X138.661 Y93.433 E31.4117
G1 X137.895 Y93.630 E31.4380
G1 X137.104 Y93.630 E31.4644
G1 X136.339 Y93.433 E31.4906
G1 X135.645 Y93.052 E31.5170
G1 X135.069 Y92.511 E31.5433
G1 X134.964 Y92.345 E31.5498
;segType:Perimeter
G0 X135.988 Y93.341 F5400
G1 X135.842 Y92.688 E31.5720 F2100
G1 X135.380 Y92.254 E31.5931
G1 X135.010 Y91.672 E31.6161
G1 X134.797 Y91.015 E31.6390
G1 X134.754 Y90.327 E31.6619
G1 X134.883 Y89.650 E31.6849
G1 X135.177 Y89.026 E31.7078
G1 X135.616 Y88.494 E31.7308
G1 X136.174 Y88.089 E31.7537
G1 X136.816 Y87.835 E31.7767
G1 X137.500 Y87.749 E31.7996
G1 X138.184 Y87.835 E31.8225
G1 X138.826 Y88.089 E31.8455
G1 X139.383 Y88.494 E31.8684
G1 X139.807 Y89.006 E31.8905
G1 X140.122 Y89.675 E31.9151
G1 X140.246 Y90.327 E31.9372
G1 X140.203 Y91.015 E31.9601
G1 X139.990 Y91.672 E31.9831
G1 X139.620 Y92.254 E32.0060
G1 X139.117 Y92.726 E32.0289
G1 X138.513 Y93.058 E32.0519
G1 X137.845 Y93.230 E32.0748
G1 X137.155 Y93.230 E32.0978
G1 X136.487 Y93.058 E32.1207
G1 X135.931 Y92.753 E32.1418
G1 X135.266 Y92.816
;segType:Loop
G0 X134.076 Y91.384 F5400
G1 X134.005 Y91.167 E32.1494 F3000
G1 X133.949 Y90.277 E32.1790
G1 X134.116 Y89.400 E32.2087
G1 X134.496 Y88.593 E32.2384
G1 X135.065 Y87.907 E32.2680
G1 X135.786 Y87.382 E32.2977
G1 X136.615 Y87.054 E32.3274
G1 X137.500 Y86.942 E32.3570
G1 X138.385 Y87.054 E32.3867
G1 X139.214 Y87.382 E32.4164
G1 X139.935 Y87.907 E32.4460
G1 X140.488 Y88.573 E32.4748
G1 X140.889 Y89.425 E32.5061
G1 X141.051 Y90.277 E32.5349
G1 X140.995 Y91.167 E32.5646
G1 X140.719 Y92.015 E32.5943
G1 X140.242 Y92.768 E32.6239
G1 X139.591 Y93.378 E32.6536
G1 X138.810 Y93.808 E32.6833
G1 X137.946 Y94.030 E32.7129
G1 X137.054 Y94.030 E32.7426
G1 X136.191 Y93.808 E32.7723
G1 X135.408 Y93.378 E32.8019
G1 X134.759 Y92.768 E32.8316
G1 X134.281 Y92.015 E32.8612
G1 X134.133 Y91.560 E32.8772
;segType:HShell
G0 X124.213 Y107.889 F5400
G1 X137.871 Y94.230 E33.5196 F3000
G1 X137.346 Y94.230
G1 X124.248 Y107.328 E34.1357
G1 X124.178 Y106.873
G1 X136.863 Y94.188 E34.7324
G1 X136.445 Y94.080
G1 X124.094 Y106.432 E35.3134
G1 X123.938 Y106.062
G1 X136.044 Y93.956 E35.8828
G1 X135.705 Y93.770
G1 X123.770 Y105.704 E36.4441
G1 X123.579 Y105.370
G1 X135.366 Y93.583 E36.9986
G1 X135.080 Y93.344
G1 X123.341 Y105.083 E37.5507
G1 X123.103 Y104.796
G1 X134.809 Y93.090 E38.1013
G1 X134.554 Y92.819
G1 X122.807 Y104.566 E38.6539
G1 X122.503 Y104.345
G1 X134.350 Y92.498 E39.2112
G1 X134.146 Y92.176
G1 X122.172 Y104.151 E39.7744
G1 X121.796 Y104.002
G1 X134.000 Y91.798 E40.3484
G1 X133.871 Y91.401
G1 X121.416 Y103.856 E40.9343
G1 X120.949 Y103.797
G1 X133.791 Y90.955 E41.5383
G1 X133.760 Y90.461
G1 X120.478 Y103.743 E42.1631
G1 X119.877 Y103.819
G1 X133.822 Y89.874 E42.8190
G1 X134.006 Y89.165
G1 X119.146 Y104.025 E43.5180
G0 X117.006 Y106.165 F5400
G1 X108.700 Y114.470 E43.9087 F3000
G1 X108.700 Y113.945
G1 X143.945 Y78.700 E45.5665
G1 X143.420 Y78.700
G1 X108.700 Y113.420 E47.1996
G1 X108.700 Y112.894
G1 X142.894 Y78.700 E48.8080
G1 X142.369 Y78.700
G1 X108.700 Y112.369 E50.3916
G1 X108.700 Y111.844
G1 X141.844 Y78.700 E51.9506
G1 X141.318 Y78.700
G1 X108.700 Y111.318 E53.4849
G1 X108.700 Y110.793
G1 X140.793 Y78.700 E54.9944
G1 X140.268 Y78.700
G1 X108.700 Y110.268 E56.4792
G1 X108.700 Y109.742
G1 X139.743 Y78.700 E57.9394
G1 X139.217 Y78.700
G1 X108.700 Y109.217 E59.3748
G1 X108.700 Y108.692
G1 X138.692 Y78.700 E60.7855
G1 X138.166 Y78.700
G1 X108.700 Y108.166 E62.1715
G1 X108.700 Y107.641
G1 X137.641 Y78.700 E63.5328
G1 X137.116 Y78.700
G1 X108.700 Y107.116 E64.8694
G1 X108.700 Y106.590
G1 X136.591 Y78.700 E66.1812
G1 X136.065 Y78.700
G1 X108.700 Y106.065 E67.4684
G1 X108.700 Y105.540
G1 X135.540 Y78.700 E68.7308
G1 X135.015 Y78.700
G1 X108.700 Y105.014 E69.9686
G1 X108.700 Y104.489
G1 X134.489 Y78.700 E71.1816
G1 X133.964 Y78.700
G1 X108.700 Y103.964 E72.3699
G1 X108.700 Y103.438
G1 X133.439 Y78.700 E73.5335
G1 X132.913 Y78.700
G1 X108.700 Y102.913 E74.6724
G1 X108.700 Y102.388
G1 X132.388 Y78.700 E75.7866
G1 X131.863 Y78.700
G1 X108.700 Y101.862 E76.8761
G1 X108.700 Y101.337
G1 X131.337 Y78.700 E77.9409
G1 X130.812 Y78.700
G1 X108.700 Y100.812 E78.9809
G1 X108.700 Y100.286
G1 X130.287 Y78.700 E79.9963
G1 X129.761 Y78.700
G1 X108.700 Y99.761 E80.9869
G1 X108.700 Y99.236
G1 X129.236 Y78.700 E81.9528
G1 X128.711 Y78.700
G1 X108.700 Y98.710 E82.8940
G1 X108.700 Y98.185
G1 X128.185 Y78.700 E83.8106
G0 X136.146 Y87.025 F5400
G1 X144.470 Y78.700 E84.2021 F3000
G1 X144.996 Y78.700
G1 X136.877 Y86.819 E84.5840
G1 X137.478 Y86.743
G1 X145.521 Y78.700 E84.9623
G1 X146.046 Y78.700
G1 X137.949 Y86.797 E85.3432
G1 X138.416 Y86.856
G1 X146.572 Y78.700 E85.7268
G1 X147.097 Y78.700
G1 X138.796 Y87.002 E86.1173
G1 X139.172 Y87.151
G1 X147.622 Y78.700 E86.5148
G1 X148.148 Y78.700
G1 X139.503 Y87.345 E86.9214
G1 X139.807 Y87.566
G1 X148.673 Y78.700 E87.3384
G1 X149.198 Y78.700
G1 X140.103 Y87.796 E87.7663
G1 X140.341 Y88.083
G1 X149.724 Y78.700 E88.2076
G1 X150.136 Y78.813
G1 X140.579 Y88.370 E88.6572
G1 X140.770 Y88.704
G1 X150.136 Y79.338 E89.0977
G1 X150.136 Y79.864
G1 X140.938 Y89.062 E89.5303
G1 X141.094 Y89.432
G1 X150.136 Y80.389 E89.9557
G1 X150.136 Y80.914
G1 X141.178 Y89.873 E90.3771
G1 X141.248 Y90.328
G1 X150.136 Y81.440 E90.7951
G1 X150.136 Y81.965
G1 X141.213 Y90.888 E91.2148
G0 X139.489 Y93.663 F5400
G1 X123.642 Y109.510 E91.9602 F3000
G0 X121.543 Y111.083 F5400
G1 X112.491 Y120.136 E92.3861 F3000
G1 X111.965 Y120.136
G1 X120.871 Y111.230 E92.8050
G1 X120.346 Y111.230
G1 X111.440 Y120.136 E93.2239
G1 X110.915 Y120.136
G1 X119.863 Y111.188 E93.6448
G1 X119.445 Y111.080
G1 X110.389 Y120.136 E94.0708
G1 X109.864 Y120.136
G1 X119.044 Y110.956 E94.5026
G1 X118.705 Y110.770
G1 X109.339 Y120.136 E94.9431
G1 X108.813 Y120.136
G1 X118.366 Y110.583 E95.3925
G1 X118.080 Y110.344
G1 X108.700 Y119.724 E95.8337
G1 X108.700 Y119.198
G1 X117.809 Y110.090 E96.2621
G1 X117.554 Y109.819
G1 X108.700 Y118.673 E96.6786
G1 X108.700 Y118.148
G1 X117.350 Y109.498 E97.0854
G1 X117.146 Y109.176
G1 X108.700 Y117.622 E97.4827
G1 X108.700 Y117.097
G1 X117.000 Y108.798 E97.8731
G1 X116.871 Y108.401
G1 X108.700 Y116.572 E98.2574
G1 X108.700 Y116.046
G1 X116.791 Y107.955 E98.6380
G1 X116.760 Y107.461
G1 X108.700 Y115.521 E99.0171
G1 X108.700 Y114.996
G1 X116.822 Y106.874 E99.3991
G0 X118.237 Y109.372 F5400
G0 X119.419 Y110.231
G0 X120.868 Y110.414
G0 X122.226 Y109.876
G0 X124.083 Y108.544
G1 X138.543 Y94.083 E100.0793 F3000
G0 X140.642 Y92.510 F5400
G1 X150.136 Y83.016 E100.5259 F3000
G1 X150.136 Y82.490
G1 X141.083 Y91.544 E100.9517
G0 X122.489 Y110.663 F5400
G1 X113.016 Y120.136 E101.3973 F3000
G1 X113.541 Y120.136
G1 X150.136 Y83.541 E103.1186
G1 X150.136 Y84.066
G1 X114.067 Y120.136 E104.8152
G1 X114.592 Y120.136
G1 X150.136 Y84.592 E106.4871
G1 X150.136 Y85.117
G1 X115.117 Y120.136 E108.1343
G1 X115.643 Y120.136
G1 X150.136 Y85.642 E109.7568
G1 X150.136 Y86.168
G1 X116.168 Y120.136 E111.3546
G1 X116.693 Y120.136
G1 X150.136 Y86.693 E112.9276
G1 X150.136 Y87.218
G1 X117.219 Y120.136 E114.4760
G1 X117.744 Y120.136
G1 X150.136 Y87.744 E115.9996
G1 X150.136 Y88.269
G1 X118.269 Y120.136 E117.4986
G1 X118.794 Y120.136
G1 X150.136 Y88.794 E118.9728
G1 X150.136 Y89.320
G1 X119.320 Y120.136 E120.4223
G1 X119.845 Y120.136
G1 X150.136 Y89.845 E121.8471
G1 X150.136 Y90.370
G1 X120.370 Y120.136 E123.2472
G1 X120.896 Y120.136
G1 X150.136 Y90.896 E124.6226
G1 X150.136 Y91.421
G1 X121.421 Y120.136 E125.9732
G1 X121.946 Y120.136
G1 X150.136 Y91.946 E127.2992
G1 X150.136 Y92.472
G1 X122.472 Y120.136 E128.6004
G1 X122.997 Y120.136
G1 X150.136 Y92.997 E129.8770
G1 X150.136 Y93.522
G1 X123.522 Y120.136 E131.1288
G1 X124.048 Y120.136
G1 X150.136 Y94.048 E132.3559
G1 X150.136 Y94.573
G1 X124.573 Y120.136 E133.5583
G1 X125.098 Y120.136
G1 X150.136 Y95.098 E134.7360
G1 X150.136 Y95.624
G1 X125.624 Y120.136 E135.8890
G1 X126.149 Y120.136
G1 X150.136 Y96.149 E137.0173
G1 X150.136 Y96.674
G1 X126.674 Y120.136 E138.1209
G1 X127.200 Y120.136
G1 X150.136 Y97.200 E139.1997
G1 X150.136 Y97.725
G1 X127.725 Y120.136 E140.2539
G1 X128.250 Y120.136
G1 X150.136 Y98.250 E141.2833
G1 X150.136 Y98.776
G1 X128.776 Y120.136 E142.2881
G1 X129.301 Y120.136
G1 X150.136 Y99.301 E143.2681
G1 X150.136 Y99.826
G1 X129.826 Y120.136 E144.2234
G1 X130.352 Y120.136
G1 X150.136 Y100.352 E145.1540
G1 X150.136 Y100.877
G1 X130.877 Y120.136 E146.0599
G1 X131.402 Y120.136
G1 X150.136 Y101.402 E146.9411
G1 X150.136 Y101.928
G1 X131.928 Y120.136 E147.7975
G1 X132.453 Y120.136
G1 X150.136 Y102.453 E148.6293
G1 X150.136 Y102.978
G1 X132.978 Y120.136 E149.4363
G1 X133.504 Y120.136
G1 X150.136 Y103.504 E150.2187
G1 X150.136 Y104.029
G1 X134.029 Y120.136 E150.9763
G1 X134.554 Y120.136
G1 X150.136 Y104.554 E151.7092
G1 X150.136 Y105.080
G1 X135.080 Y120.136 E152.4174
G1 X135.605 Y120.136
G1 X150.136 Y105.605 E153.1009
G1 X150.136 Y106.130
G1 X136.130 Y120.136 E153.7597
G1 X136.656 Y120.136
G1 X150.136 Y106.656 E154.3938
G1 X150.136 Y107.181
G1 X137.181 Y120.136 E155.0032
G1 X137.706 Y120.136
G1 X150.136 Y107.706 E155.5878
G1 X150.136 Y108.232
G1 X138.232 Y120.136 E156.1478
G1 X138.757 Y120.136
G1 X150.136 Y108.757 E156.6830
G1 X150.136 Y109.282
G1 X139.282 Y120.136 E157.1936
G1 X139.808 Y120.136
G1 X150.136 Y109.808 E157.6794
G1 X150.136 Y110.333
G1 X140.333 Y120.136 E158.1405
G1 X140.858 Y120.136
G1 X150.136 Y110.858 E158.5769
G1 X150.136 Y111.384
G1 X141.384 Y120.136 E158.9886
G1 X141.909 Y120.136
G1 X150.136 Y111.909 E159.3756
G1 X150.136 Y112.434
G1 X142.434 Y120.136 E159.7378
G1 X142.960 Y120.136
G1 X150.136 Y112.960 E160.0754
G1 X150.136 Y113.485
G1 X143.485 Y120.136 E160.3883
G1 X144.010 Y120.136
G1 X150.136 Y114.010 E160.6764
G1 X150.136 Y114.536
G1 X144.536 Y120.136 E160.9398
G1 X145.061 Y120.136
G1 X150.136 Y115.061 E161.1785
G1 X150.136 Y115.586
G1 X145.586 Y120.136 E161.3926
G1 X146.112 Y120.136
G1 X150.136 Y116.112 E161.5819
G1 X150.136 Y116.637
G1 X146.637 Y120.136 E161.7465
G1 X147.162 Y120.136
G1 X150.136 Y117.162 E161.8863
G1 X150.136 Y117.688
G1 X147.688 Y120.136 E162.0015
G1 X148.213 Y120.136
G1 X150.136 Y118.213 E162.0920
G1 X150.136 Y118.738
G1 X148.738 Y120.136 E162.1577
G1 X149.264 Y120.136
G1 X150.136 Y119.264 E162.1988
G1 X150.136 Y119.789
G1 X149.789 Y120.136 E162.2151
;segType:Support
G0 F1200 E161.2151
G0 X118.000 Y123.000 F5400
G0 F1200 E162.2151
G1 X122.500 Y123.000 E162.3423 F4500
G0 F1200 E161.3423
G0 X139.500 Y122.500 F5400
G0 F1200 E162.3423
G1 X135.000 Y122.500 E162.4695 F4500
G0 F1200 E161.4695
G0 X139.500 Y123.000 F5400
G0 F1200 E162.4695
G1 X135.000 Y123.000 E162.5967 F4500
G0 F1200 E161.5967
G0 X122.500 Y122.500 F5400
G0 F1200 E162.5967
G1 X118.000 Y122.500 E162.7239 F4500
G0 F1200 E161.7239
G0 X107.032 Y121.968 F5400
G0 F1200 E162.7239
G1 X150.468 Y121.968 E163.9519 F4500
G1 X152.500 Y122.000 E164.0094
G0 X152.500 Y121.000 F5400
G1 X151.845 Y120.986 E164.0279 F4500
G1 X151.433 Y121.517 E164.0469
G1 X152.500 Y121.500 E164.0770
G0 F1200 E163.0770
G0 X151.936 Y120.512 F5400
G0 F1200 E164.0770
G1 X152.500 Y120.500 E164.0930 F4500
G1 X152.500 Y120.000 E164.1071
G1 X152.000 Y120.000 E164.1213
G1 X152.000 Y119.500 E164.1354
G1 X152.500 Y119.500 E164.1495
G0 F1200 E163.1495
G0 X152.000 Y118.500 F5400
G0 F1200 E164.1495
G1 X152.500 Y118.500 E164.1636 F4500
G1 X152.000 Y119.000 E164.1836
G1 X152.500 Y119.000 E164.1978
G0 F1200 E163.1978
G0 X152.000 Y118.000 F5400
G0 F1200 E164.1978
G1 X152.500 Y118.000 E164.2119 F4500
G0 X152.500 Y117.000 F5400
G1 X152.000 Y117.000 E164.2260 F4500
G1 X152.000 Y117.500 E164.2401
G1 X152.500 Y117.500 E164.2543
G0 F1200 E163.2543
G0 X152.000 Y116.500 F5400
G0 F1200 E164.2543
G1 X152.500 Y116.500 E164.2684 F4500
G1 X152.500 Y116.000 E164.2825
G1 X152.000 Y116.000 E164.2967
G0 X152.000 Y115.000 F5400
G1 X152.500 Y115.000 E164.3108 F4500
G1 X152.500 Y114.500 E164.3249
G1 X152.000 Y114.500 E164.3391
G0 F1200 E163.3391
G0 X152.500 Y113.500 F5400
G0 F1200 E164.3391
G1 X152.000 Y113.500 E164.3532 F4500
G0 F1200 E163.3532
G0 X152.500 Y112.500 F5400
G0 F1200 E164.3532
G1 X152.000 Y112.500 E164.3673 F4500
G0 F1200 E163.3673
G0 X152.000 Y111.000 F5400
G0 F1200 E164.3673
G1 X152.500 Y111.000 E164.3814 F4500
G1 X152.500 Y110.500 E164.3956
G1 X152.000 Y110.500 E164.4097
G1 X152.000 Y110.000 E164.4238
G1 X152.500 Y110.000 E164.4380
G0 F1200 E163.4380
G0 X152.500 Y108.500 F5400
G0 F1200 E164.4380
G1 X152.000 Y108.500 E164.4521 F4500
G1 X152.000 Y108.000 E164.4662
G1 X152.500 Y108.000 E164.4804
G0 F1200 E163.4804
G0 X152.000 Y109.000 F5400
G0 F1200 E164.4804
G1 X152.500 Y109.000 E164.4945 F4500
G0 F1200 E163.4945
G0 X152.500 Y106.500 F5400
G0 F1200 E164.4945
G1 X152.000 Y106.500 E164.5086 F4500
G1 X152.500 Y106.000 E164.5286
G1 X152.000 Y106.000 E164.5427
G1 X152.000 Y105.500 E164.5569
G1 X152.500 Y105.500 E164.5710
G1 X152.500 Y105.000 E164.5851
G1 X152.000 Y105.000 E164.5992
G0 X152.000 Y104.000 F5400
G1 X152.500 Y104.000 E164.6134 F4500
G0 X152.500 Y103.000 F5400
G1 X152.000 Y103.000 E164.6275 F4500
G1 X152.000 Y102.500 E164.6416
G1 X152.500 Y102.500 E164.6558
G0 F1200 E163.6558
G0 X152.500 Y101.000 F5400
G0 F1200 E164.6558
G1 X152.000 Y101.000 E164.6699 F4500
G1 X152.000 Y100.500 E164.6840
G1 X152.500 Y100.500 E164.6982
G0 F1200 E163.6982
G0 X152.000 Y98.500 F5400
G0 F1200 E164.6982
G1 X152.500 Y98.500 E164.7123 F4500
G1 X152.500 Y98.000 E164.7264
G1 X152.000 Y98.000 E164.7405
G1 X152.000 Y97.500 E164.7547
G1 X152.500 Y97.500 E164.7688
G1 X152.000 Y97.000 E164.7888
G1 X152.500 Y97.000 E164.8029
G1 X152.500 Y96.500 E164.8171
G1 X152.000 Y96.500 E164.8312
G1 X152.000 Y96.000 E164.8453
G1 X152.500 Y96.000 E164.8594
G1 X152.500 Y95.500 E164.8736
G1 X152.000 Y95.500 E164.8877
G1 X152.000 Y95.000 E164.9018
G1 X152.500 Y95.000 E164.9160
G0 F1200 E163.9160
G0 X152.500 Y92.000 F5400
G0 F1200 E164.9160
G1 X152.000 Y92.000 E164.9301 F4500
G0 X152.000 Y93.000 F5400
G1 X152.500 Y93.000 E164.9442 F4500
G0 F1200 E163.9442
G0 X152.500 Y90.500 F5400
G0 F1200 E164.9442
G1 X152.000 Y90.500 E164.9583 F4500
G0 F1200 E163.9583
G0 X152.000 Y89.000 F5400
G0 F1200 E164.9583
G1 X152.500 Y89.000 E164.9725 F4500
G0 F1200 E163.9725
G0 X152.500 Y87.500 F5400
G0 F1200 E164.9725
G1 X152.000 Y87.500 E164.9866 F4500
; ------------------------------------
; Layer #1
; ------------------------------------
G21 ; mm
G90 ; abs
G92 E0 ; reset extr
M73 S0
M106 S0
;segType:Support
G0 F1200 E-1.0000
G0 F300 Z0.400
G0 X152.500 Y88.000 F5400
G0 F1200 E0.0000
G1 X152.272 Y88.000 E0.0063 F4050
G1 X152.272 Y87.500 E0.0202
G1 X152.500 Y87.500 E0.0265
G1 X152.500 Y87.000 E0.0403
G1 X152.272 Y87.000 E0.0466
G0 F1200 E-0.9534
G0 X152.500 Y94.500 F5400
G0 F1200 E0.0466
G1 X152.272 Y94.500 E0.0530 F4050
G1 X152.272 Y94.000 E0.0668
G1 X152.500 Y94.000 E0.0731
G0 F1200 E-0.9269
G0 X152.500 Y92.000 F5400
G0 F1200 E0.0731
G1 X152.272 Y92.000 E0.0794 F4050
G1 X152.500 Y92.500 E0.0946
G1 X152.272 Y92.500 E0.1010
G0 F1200 E-0.8990
G0 X152.272 Y95.000 F5400
G0 F1200 E0.1010
G1 X152.500 Y95.000 E0.1073 F4050
G0 F1200 E-0.8927
G0 X152.500 Y99.000 F5400
G0 F1200 E0.1073
G1 X152.272 Y99.000 E0.1136 F4050
G0 F1200 E-0.8864
G0 X152.272 Y97.500 F5400
G0 F1200 E0.1136
G1 X152.500 Y97.500 E0.1199 F4050
G0 F1200 E-0.8801
G0 X152.500 Y100.500 F5400
G0 F1200 E0.1199
G1 X152.272 Y100.500 E0.1262 F4050
G0 X152.272 Y99.500 F5400
G1 X152.500 Y99.500 E0.1325 F4050
G0 F1200 E-0.8675
G0 X152.272 Y105.500 F5400
G0 F1200 E0.1325
G1 X152.500 Y105.500 E0.1388 F4050
G0 F1200 E-0.8612
G0 X152.272 Y108.500 F5400
G0 F1200 E0.1388
G1 X152.500 Y108.500 E0.1451 F4050
G1 X152.500 Y109.000 E0.1590
G1 X152.272 Y109.000 E0.1653
G0 X152.272 Y110.000 F5400
G1 X152.500 Y110.000 E0.1716 F4050
G1 X152.500 Y110.500 E0.1855
G1 X152.272 Y110.500 E0.1918
G0 X152.272 Y111.500 F5400
G1 X152.500 Y111.500 E0.1981 F4050
G0 F1200 E-0.8019
G0 X152.500 Y114.000 F5400
G0 F1200 E0.1981
G1 X152.272 Y114.000 E0.2044 F4050
G1 X152.272 Y114.500 E0.2183
G1 X152.500 Y114.500 E0.2246
G0 F1200 E-0.7754
G0 X151.539 Y120.921 F5400
G0 X150.921 Y121.539
G0 X150.506 Y121.656
G0 X122.500 Y122.500
G0 F1200 E0.2246
G1 X118.000 Y122.500 E0.3492 F4050
G0 F1200 E-0.6508
G0 X115.525 Y121.988 F5400
G0 X113.050 Y121.475
G0 X110.575 Y120.963
G0 X108.100 Y120.451
G0 F1200 E0.3492
;segType:Loop
G1 X108.100 Y97.748 E1.0892 F2700
G1 X127.748 Y78.100 E1.9949
G1 X151.072 Y78.100 E2.7552
G1 X151.072 Y120.425 E4.1348
G1 X151.003 Y120.674 E4.1432
G1 X150.815 Y120.909 E4.1530
G1 X150.674 Y121.003 E4.1585
G1 X150.425 Y121.072 E4.1669
G1 X108.100 Y121.072 E5.5465
G1 X108.100 Y120.637 E5.5607
;segType:Perimeter
G0 X108.318 Y121.161 F5400
G1 X107.700 Y121.417 E5.5825 F1890
G1 X107.700 Y97.583 E6.3594
G1 X127.583 Y77.700 E7.2759
G1 X151.472 Y77.700 E8.0546
G1 X151.472 Y120.480 E9.4490
G1 X151.371 Y120.843 E9.4613
G1 X151.219 Y121.070 E9.4701
G1 X151.070 Y121.219 E9.4770
G1 X150.843 Y121.370 E9.4859
G1 X150.480 Y121.472 E9.4982
G1 X107.756 Y121.472 E10.8908
G1 X108.012 Y120.855
;segType:Loop
G0 X108.500 Y119.429 F5400
G1 X108.500 Y97.914 E11.5921 F2700
G1 X127.914 Y78.500 E12.4870
G1 X150.672 Y78.500 E13.2288
G1 X150.672 Y120.370 E14.5935
G1 X150.639 Y120.488 E14.5975
G1 X150.505 Y120.635 E14.6040
G1 X150.370 Y120.672 E14.6086
G1 X108.500 Y120.672 E15.9733
G1 X108.500 Y119.615 E16.0078
G0 X117.864 Y109.188 F5400
G1 X117.645 Y108.843 E16.0211 F2700
G1 X117.401 Y108.091 E16.0469
G1 X117.351 Y107.302 E16.0726
G1 X117.500 Y106.525 E16.0984
G1 X117.837 Y105.810 E16.1242
G1 X118.340 Y105.201 E16.1500
G1 X118.980 Y104.736 E16.1757
G1 X119.715 Y104.444 E16.2015
G1 X120.500 Y104.345 E16.2273
G1 X121.284 Y104.444 E16.2531
G1 X122.020 Y104.736 E16.2788
G1 X122.659 Y105.201 E16.3046
G1 X123.164 Y105.810 E16.3304
G1 X123.500 Y106.525 E16.3562
G1 X123.649 Y107.302 E16.3819
G1 X123.599 Y108.091 E16.4077
G1 X123.354 Y108.843 E16.4335
G1 X122.931 Y109.511 E16.4593
G1 X122.354 Y110.052 E16.4851
G1 X121.661 Y110.433 E16.5108
G1 X120.895 Y110.630 E16.5366
G1 X120.104 Y110.630 E16.5624
G1 X119.339 Y110.433 E16.5881
G1 X118.645 Y110.052 E16.6139
G1 X118.069 Y109.511 E16.6397
G1 X117.964 Y109.345 E16.6461
;segType:Perimeter
G0 X118.988 Y110.341 F5400
G1 X118.842 Y109.688 E16.6679 F1890
G1 X118.380 Y109.254 E16.6886
G1 X118.010 Y108.672 E16.7111
G1 X117.797 Y108.015 E16.7335
G1 X117.754 Y107.327 E16.7560
G1 X117.883 Y106.650 E16.7785
G1 X118.177 Y106.026 E16.8010
G1 X118.616 Y105.494 E16.8235
G1 X119.174 Y105.089 E16.8459
G1 X119.816 Y104.835 E16.8684
G1 X120.500 Y104.749 E16.8909
G1 X121.184 Y104.835 E16.9134
G1 X121.826 Y105.089 E16.9359
G1 X122.383 Y105.494 E16.9584
G1 X122.823 Y106.026 E16.9808
G1 X123.117 Y106.650 E17.0033
G1 X123.246 Y107.327 E17.0258
G1 X123.203 Y108.015 E17.0483
G1 X122.990 Y108.672 E17.0708
G1 X122.620 Y109.254 E17.0932
G1 X122.117 Y109.726 E17.1157
G1 X121.513 Y110.058 E17.1382
G1 X120.845 Y110.230 E17.1607
G1 X120.155 Y110.230 E17.1832
G1 X119.487 Y110.058 E17.2057
G1 X118.931 Y109.753 E17.2263
G1 X118.266 Y109.816
;segType:Loop
G0 X117.076 Y108.384 F5400
G1 X117.005 Y108.167 E17.2338 F2700
G1 X116.949 Y107.277 E17.2628
G1 X117.116 Y106.400 E17.2919
G1 X117.496 Y105.594 E17.3210
G1 X118.064 Y104.907 E17.3500
G1 X118.786 Y104.382 E17.3791
G1 X119.615 Y104.054 E17.4082
G1 X120.500 Y103.942 E17.4373
G1 X121.385 Y104.054 E17.4663
G1 X122.214 Y104.382 E17.4954
G1 X122.935 Y104.907 E17.5245
G1 X123.504 Y105.593 E17.5535
G1 X123.884 Y106.400 E17.5826
G1 X124.051 Y107.277 E17.6117
G1 X123.995 Y108.167 E17.6407
G1 X123.719 Y109.015 E17.6698
G1 X123.242 Y109.768 E17.6989
G1 X122.591 Y110.378 E17.7280
G1 X121.810 Y110.808 E17.7570
G1 X120.946 Y111.030 E17.7861
G1 X120.054 Y111.030 E17.8152
G1 X119.191 Y110.808 E17.8442
G1 X118.408 Y110.378 E17.8733
G1 X117.759 Y109.768 E17.9024
G1 X117.281 Y109.015 E17.9314
G1 X117.133 Y108.560 E17.9470
G0 X118.489 Y105.359 F5400
G0 X134.864 Y92.188
G1 X134.646 Y91.843 E17.9603 F2700
G1 X134.401 Y91.091 E17.9861
G1 X134.351 Y90.302 E18.0119
G1 X134.500 Y89.525 E18.0377
G1 X134.836 Y88.809 E18.0635
G1 X135.341 Y88.201 E18.0892
G1 X135.980 Y87.735 E18.1150
G1 X136.716 Y87.444 E18.1408
G1 X137.500 Y87.345 E18.1665
G1 X138.284 Y87.444 E18.1923
G1 X139.020 Y87.735 E18.2181
G1 X139.659 Y88.200 E18.2439
G1 X140.164 Y88.810 E18.2697
G1 X140.500 Y89.525 E18.2954
G1 X140.649 Y90.302 E18.3212
G1 X140.599 Y91.091 E18.3470
G1 X140.354 Y91.843 E18.3728
G1 X139.931 Y92.511 E18.3985
G1 X139.354 Y93.052 E18.4243
G1 X138.661 Y93.433 E18.4501
G1 X137.895 Y93.630 E18.4759
G1 X137.104 Y93.630 E18.5016
G1 X136.339 Y93.433 E18.5274
G1 X135.645 Y93.052 E18.5532
G1 X135.069 Y92.511 E18.5790
G1 X134.964 Y92.345 E18.5854
;segType:Perimeter
G0 X135.988 Y93.341 F5400
G1 X135.842 Y92.688 E18.6072 F1890
G1 X135.380 Y92.254 E18.6278
G1 X135.010 Y91.672 E18.6503
G1 X134.797 Y91.015 E18.6728
G1 X134.754 Y90.327 E18.6953
G1 X134.883 Y89.650 E18.7178
G1 X135.177 Y89.026 E18.7402
G1 X135.616 Y88.494 E18.7627
G1 X136.174 Y88.089 E18.7852
G1 X136.816 Y87.835 E18.8077
G1 X137.500 Y87.749 E18.8302
G1 X138.184 Y87.835 E18.8526
G1 X138.826 Y88.089 E18.8751
G1 X139.383 Y88.494 E18.8976
G1 X139.823 Y89.026 E18.9201
G1 X140.117 Y89.650 E18.9426
G1 X140.246 Y90.327 E18.9651
G1 X140.203 Y91.015 E18.9875
G1 X139.990 Y91.672 E19.0100
G1 X139.620 Y92.254 E19.0325
G1 X139.117 Y92.726 E19.0550
G1 X138.513 Y93.058 E19.0775
G1 X137.845 Y93.230 E19.0999
G1 X137.155 Y93.230 E19.1224
G1 X136.487 Y93.058 E19.1449
G1 X135.931 Y92.753 E19.1656
G1 X135.266 Y92.816
;segType:Loop
G0 X134.076 Y91.384 F5400
G1 X134.005 Y91.167 E19.1730 F2700
G1 X133.949 Y90.277 E19.2021
G1 X134.116 Y89.400 E19.2312
G1 X134.496 Y88.593 E19.2602
G1 X135.065 Y87.907 E19.2893
G1 X135.786 Y87.382 E19.3184
G1 X136.615 Y87.054 E19.3474
G1 X137.500 Y86.942 E19.3765
G1 X138.385 Y87.054 E19.4056
G1 X139.214 Y87.382 E19.4346
G1 X139.935 Y87.906 E19.4637
G1 X140.504 Y88.594 E19.4928
G1 X140.884 Y89.400 E19.5218
G1 X141.051 Y90.277 E19.5509
G1 X140.995 Y91.167 E19.5800
G1 X140.719 Y92.015 E19.6091
G1 X140.242 Y92.768 E19.6381
G1 X139.591 Y93.378 E19.6672
G1 X138.810 Y93.808 E19.6963
G1 X137.946 Y94.030 E19.7254
G1 X137.054 Y94.030 E19.7544
G1 X136.191 Y93.808 E19.7835
G1 X135.408 Y93.378 E19.8126
G1 X134.759 Y92.768 E19.8416
G1 X134.281 Y92.015 E19.8707
G1 X134.133 Y91.560 E19.8863
G0 X135.489 Y88.359 F5400
G0 X136.770 Y87.655
G0 X138.920 Y87.051
;segType:HShell
G1 X130.569 Y78.700 E20.2712 F2700
G1 X131.095 Y78.700
G1 X150.466 Y98.072 E21.1642
G1 X150.466 Y97.547
G1 X131.620 Y78.700 E22.0329
G1 X132.145 Y78.700
G1 X150.467 Y97.022 E22.8775
G1 X150.467 Y96.496
G1 X132.671 Y78.700 E23.6978
G1 X133.196 Y78.700
G1 X150.467 Y95.971 E24.4939
G1 X150.467 Y95.446
G1 X133.721 Y78.700 E25.2659
G1 X134.247 Y78.700
G1 X150.467 Y94.921 E26.0136
G1 X150.467 Y94.396
G1 X134.772 Y78.700 E26.7371
G1 X135.297 Y78.700
G1 X150.468 Y93.871 E27.4364
G1 X150.468 Y93.345
G1 X135.823 Y78.700 E28.1115
G1 X136.348 Y78.700
G1 X150.468 Y92.820 E28.7623
G1 X150.468 Y92.295
G1 X136.873 Y78.700 E29.3890
G1 X137.399 Y78.700
G1 X150.468 Y91.770 E29.9915
G1 X150.468 Y91.245
G1 X137.924 Y78.700 E30.5697
G1 X138.449 Y78.700
G1 X150.469 Y90.720 E31.1238
G1 X150.469 Y90.194
G1 X138.975 Y78.700 E31.6536
G1 X139.500 Y78.700
G1 X150.469 Y89.669 E32.1592
G1 X150.469 Y89.144
G1 X140.025 Y78.700 E32.6406
G1 X140.551 Y78.700
G1 X150.469 Y88.619 E33.0978
G1 X150.469 Y88.094
G1 X141.076 Y78.700 E33.5308
G1 X141.601 Y78.700
G1 X150.469 Y87.568 E33.9396
G1 X150.470 Y87.043
G1 X142.127 Y78.700 E34.3242
G1 X142.652 Y78.700
G1 X150.470 Y86.518 E34.6846
G1 X150.470 Y85.993
G1 X143.177 Y78.700 E35.0207
G1 X143.703 Y78.700
G1 X150.470 Y85.468 E35.3327
G1 X150.470 Y84.943
G1 X144.228 Y78.700 E35.6205
G1 X144.753 Y78.700
G1 X150.470 Y84.417 E35.8840
G1 X150.471 Y83.892
G1 X145.279 Y78.700 E36.1233
G1 X145.804 Y78.700
G1 X150.471 Y83.367 E36.3384
G1 X150.471 Y82.842
G1 X146.329 Y78.700 E36.5294
G1 X146.855 Y78.700
G1 X150.471 Y82.317 E36.6961
G1 X150.471 Y81.792
G1 X147.380 Y78.700 E36.8386
G1 X147.905 Y78.700
G1 X150.471 Y81.266 E36.9568
G1 X150.471 Y80.741
G1 X148.431 Y78.700 E37.0509
G1 X148.956 Y78.700
G1 X150.472 Y80.216 E37.1208
G1 X150.472 Y79.691
G1 X149.481 Y78.700 E37.1665
G1 X150.007 Y78.700
G1 X150.472 Y79.166 E37.1879
G0 X139.763 Y92.372 F5400
G0 X138.159 Y93.341
G0 X137.169 Y94.230
G1 X150.464 Y107.525 E37.8008 F2700
G1 X150.464 Y107.000
G1 X137.694 Y94.230 E38.3894
G1 X138.169 Y94.179
G1 X150.464 Y106.475 E38.9562
G1 X150.464 Y105.950
G1 X138.587 Y94.072 E39.5037
G1 X138.982 Y93.942
G1 X150.464 Y105.424 E40.0330
G1 X150.464 Y104.899
G1 X139.321 Y93.756 E40.5467
G1 X139.660 Y93.569
G1 X150.464 Y104.374 E41.0447
G1 X150.465 Y103.849
G1 X139.941 Y93.325 E41.5298
G1 X140.212 Y93.070
G1 X150.465 Y103.324 E42.0025
G1 X150.465 Y102.799
G1 X140.461 Y92.795 E42.4636
G1 X140.665 Y92.473
G1 X150.465 Y102.273 E42.9153
G1 X150.465 Y101.748
G1 X140.869 Y92.152 E43.3577
G1 X141.010 Y91.768
G1 X150.465 Y101.223 E43.7935
G1 X150.466 Y100.698
G1 X141.139 Y91.371 E44.2235
G1 X141.211 Y90.918
G1 X150.466 Y100.173 E44.6501
G1 X150.466 Y99.647
G1 X141.242 Y90.424 E45.0752
G1 X141.169 Y89.825
G1 X150.466 Y99.122 E45.5038
G1 X150.466 Y98.597
G1 X140.959 Y89.090 E45.9421
G0 X138.230 Y87.655 F5400
G0 X136.770 Y87.655
G0 X135.489 Y88.359
G0 X134.706 Y89.592
G0 X133.898 Y91.485
G1 X124.555 Y82.142 E46.3727 F2700
G1 X124.818 Y81.879
G1 X133.784 Y90.846 E46.7861
G1 X133.749 Y90.286
G1 X125.080 Y81.617 E47.1857
G1 X125.343 Y81.354
G1 X133.829 Y89.840 E47.5768
G1 X133.913 Y89.398
G1 X125.606 Y81.091 E47.9598
G1 X125.868 Y80.829
G1 X134.069 Y89.030 E48.3378
G1 X134.238 Y88.673
G1 X126.131 Y80.566 E48.7115
G1 X126.394 Y80.303
G1 X134.439 Y88.349 E49.0824
G1 X134.677 Y88.061
G1 X126.656 Y80.041 E49.4521
G1 X126.919 Y79.778
G1 X134.915 Y87.774 E49.8207
G1 X135.216 Y87.550
G1 X127.182 Y79.515 E50.1910
G1 X127.444 Y79.253
G1 X135.520 Y87.328 E50.5633
G1 X135.856 Y87.139
G1 X127.707 Y78.990 E50.9389
G1 X127.970 Y78.727
G1 X136.233 Y86.990 E51.3198
G1 X136.620 Y86.852
G1 X128.468 Y78.700 E51.6956
G1 X128.993 Y78.700
G1 X137.086 Y86.793 E52.0686
G1 X137.568 Y86.749
G1 X129.519 Y78.700 E52.4397
G1 X130.044 Y78.700
G1 X138.169 Y86.825 E52.8142
G0 X135.489 Y88.359 F5400
G0 X134.706 Y89.592
G0 X134.615 Y91.050
G0 X135.599 Y93.712
G1 X150.463 Y108.575 E53.4993 F2700
G1 X150.463 Y108.050
G1 X136.510 Y94.097 E54.1425
G0 X122.833 Y104.585 F5400
G1 X112.472 Y94.225 E54.6201 F2700
G1 X112.735 Y93.962
G1 X139.245 Y120.472 E55.8422
G1 X139.771 Y120.472
G1 X112.998 Y93.699 E57.0763
G1 X113.260 Y93.437
G1 X140.296 Y120.472 E58.3225
G1 X140.821 Y120.472
G1 X113.523 Y93.174 E59.5809
G1 X113.786 Y92.911
G1 X141.347 Y120.472 E60.8513
G1 X141.872 Y120.472
G1 X114.048 Y92.649 E62.1339
G1 X114.311 Y92.386
G1 X142.397 Y120.472 E63.4286
G1 X142.923 Y120.472
G1 X114.574 Y92.123 E64.7353
G1 X114.836 Y91.861
G1 X143.448 Y120.472 E66.0542
G1 X143.973 Y120.472
G1 X115.099 Y91.598 E67.3852
G1 X115.362 Y91.335
G1 X144.499 Y120.472 E68.7283
G1 X145.024 Y120.472
G1 X115.624 Y91.073 E70.0835
G1 X115.887 Y90.810
G1 X145.549 Y120.472 E71.4509
G1 X146.075 Y120.472
G1 X116.150 Y90.547 E72.8303
G1 X116.412 Y90.285
G1 X146.600 Y120.472 E74.2218
G1 X147.125 Y120.472
G1 X116.675 Y90.022 E75.6255
G1 X116.938 Y89.759
G1 X147.651 Y120.472 E77.0412
G1 X148.176 Y120.472
G1 X117.200 Y89.497 E78.4691
G1 X117.463 Y89.234
G1 X148.701 Y120.472 E79.9090
G1 X149.227 Y120.472
G1 X117.726 Y88.971 E81.3611
G1 X117.988 Y88.709
G1 X149.752 Y120.472 E82.8253
G1 X150.277 Y120.472
G1 X118.251 Y88.446 E84.3016
G1 X118.514 Y88.183
G1 X150.460 Y120.129 E85.7742
G1 X150.460 Y119.604
G1 X118.776 Y87.921 E87.2347
G1 X119.039 Y87.658
G1 X150.460 Y119.079 E88.6830
G1 X150.460 Y118.554
G1 X119.302 Y87.395 E90.1193
G1 X119.564 Y87.133
G1 X150.460 Y118.029 E91.5435
G1 X150.461 Y117.503
G1 X119.827 Y86.870 E92.9556
G1 X120.090 Y86.607
G1 X150.461 Y116.978 E94.3556
G1 X150.461 Y116.453
G1 X120.352 Y86.345 E95.7435
G1 X120.615 Y86.082
G1 X150.461 Y115.928 E97.1193
G1 X150.461 Y115.403
G1 X120.878 Y85.819 E98.4830
G1 X121.140 Y85.557
G1 X150.461 Y114.878 E99.8346
G1 X150.462 Y114.352
G1 X121.403 Y85.294 E101.1740
G1 X121.666 Y85.031
G1 X150.462 Y113.827 E102.5014
G1 X150.462 Y113.302
G1 X121.928 Y84.769 E103.8167
G1 X122.191 Y84.506
G1 X150.462 Y112.777 E105.1199
G1 X150.462 Y112.252
G1 X122.454 Y84.243 E106.4110
G1 X122.716 Y83.981
G1 X150.462 Y111.727 E107.6900
G1 X150.462 Y111.201
G1 X122.979 Y83.718 E108.9569
G1 X123.242 Y83.455
G1 X150.463 Y110.676 E110.2116
G1 X150.463 Y110.151
G1 X123.504 Y83.193 E111.4543
G1 X123.767 Y82.930
G1 X150.463 Y109.626 E112.6849
G1 X150.463 Y109.101
G1 X124.030 Y82.667 E113.9034
G1 X124.292 Y82.405
G1 X134.289 Y92.401 E114.3642
G0 X124.079 Y106.357 F5400
G1 X138.195 Y120.472 E115.0148 F2700
G1 X138.720 Y120.472
G1 X123.389 Y105.142 E115.7215
G0 X120.500 Y104.563 F5400
G0 X119.085 Y104.926
G0 X118.020 Y105.926
G0 X116.794 Y108.002
G1 X108.700 Y99.908 E116.0946 F2700
G1 X108.700 Y99.383
G1 X116.759 Y107.442 E116.4661
G1 X116.805 Y106.963
G1 X108.700 Y98.858 E116.8397
G1 X108.700 Y98.332
G1 X116.889 Y106.521 E117.2172
G1 X117.023 Y106.129
G1 X108.795 Y97.902 E117.5964
G1 X109.058 Y97.639
G1 X117.191 Y105.772 E117.9714
G1 X117.373 Y105.429
G1 X109.320 Y97.377 E118.3426
G1 X109.583 Y97.114
G1 X117.611 Y105.141 E118.7126
G1 X117.848 Y104.854
G1 X109.846 Y96.851 E119.0815
G1 X110.108 Y96.589
G1 X118.131 Y104.611 E119.4513
G1 X118.435 Y104.390
G1 X110.371 Y96.326 E119.8230
G1 X110.634 Y96.063
G1 X118.751 Y104.181 E120.1972
G1 X119.128 Y104.032
G1 X110.896 Y95.801 E120.5767
G1 X111.159 Y95.538
G1 X119.504 Y103.883 E120.9613
G1 X119.956 Y103.809
G1 X111.422 Y95.275 E121.3547
G1 X111.684 Y95.013
G1 X120.422 Y103.750 E121.7575
G1 X121.001 Y103.804
G1 X111.947 Y94.750 E122.1749
G1 X112.210 Y94.487
G1 X121.677 Y103.955 E122.6113
G0 X119.085 Y104.926 F5400
G0 X118.020 Y105.926
G0 X117.568 Y107.316
G0 X117.842 Y108.751
G0 X119.313 Y111.046
G1 X128.739 Y120.472 E123.0458 F2700
G1 X129.264 Y120.472
G1 X120.020 Y111.228 E123.4719
G1 X120.547 Y111.230
G1 X129.789 Y120.472 E123.8979
G1 X130.315 Y120.472
G1 X121.052 Y111.209 E124.3249
G1 X121.470 Y111.102
G1 X130.840 Y120.472 E124.7568
G1 X131.365 Y120.472
G1 X121.887 Y110.994 E125.1937
G1 X122.226 Y110.808
G1 X131.891 Y120.472 E125.6393
G1 X132.416 Y120.472
G1 X122.565 Y110.621 E126.0933
G1 X122.865 Y110.396
G1 X132.941 Y120.472 E126.5578
G1 X133.467 Y120.472
G1 X123.136 Y110.141 E127.0340
G1 X123.404 Y109.885
G1 X133.992 Y120.472 E127.5221
G1 X134.517 Y120.472
G1 X123.608 Y109.563 E128.0250
G1 X123.812 Y109.242
G1 X135.043 Y120.472 E128.5426
G1 X135.568 Y120.472
G1 X123.974 Y108.878 E129.0771
G1 X124.103 Y108.482
G1 X136.093 Y120.472 E129.6298
G1 X136.619 Y120.472
G1 X124.202 Y108.056 E130.2021
G1 X124.234 Y107.562
G1 X137.144 Y120.472 E130.7973
G1 X137.669 Y120.472
G1 X124.203 Y107.006 E131.4180
G0 X122.763 Y109.372 F5400
G0 X121.581 Y110.231
G0 X120.132 Y110.414
G0 X117.543 Y109.802
G1 X108.700 Y100.959 E131.8256 F2700
G1 X108.700 Y100.434
G1 X116.969 Y108.702 E132.2068
G0 X108.700 Y120.396 F5400
G1 X108.776 Y120.472 E132.2103 F2700
G1 X109.302 Y120.472
G1 X108.700 Y119.871 E132.2380
G1 X108.700 Y119.346
G1 X109.827 Y120.472 E132.2899
G1 X110.352 Y120.472
G1 X108.700 Y118.820 E132.3660
G1 X108.700 Y118.295
G1 X110.877 Y120.472 E132.4664
G1 X111.403 Y120.472
G1 X108.700 Y117.770 E132.5910
G1 X108.700 Y117.244
G1 X111.928 Y120.472 E132.7398
G1 X112.453 Y120.472
G1 X108.700 Y116.719 E132.9128
G1 X108.700 Y116.194
G1 X112.979 Y120.472 E133.1100
G1 X113.504 Y120.472
G1 X108.700 Y115.668 E133.3314
G1 X108.700 Y115.143
G1 X114.029 Y120.472 E133.5771
G1 X114.555 Y120.472
G1 X108.700 Y114.618 E133.8469
G1 X108.700 Y114.092
G1 X115.080 Y120.472 E134.1410
G1 X115.605 Y120.472
G1 X108.700 Y113.567 E134.4593
G1 X108.700 Y113.042
G1 X116.131 Y120.472 E134.8018
G1 X116.656 Y120.472
G1 X108.700 Y112.516 E135.1686
G1 X108.700 Y111.991
G1 X117.181 Y120.472 E135.5595
G1 X117.707 Y120.472
G1 X108.700 Y111.466 E135.9747
G1 X108.700 Y110.940
G1 X118.232 Y120.472 E136.4140
G1 X118.757 Y120.472
G1 X108.700 Y110.415 E136.8776
G1 X108.700 Y109.890
G1 X119.283 Y120.472 E137.3654
G1 X119.808 Y120.472
G1 X108.700 Y109.364 E137.8775
G1 X108.700 Y108.839
G1 X120.333 Y120.472 E138.4137
G1 X120.859 Y120.472
G1 X108.700 Y108.314 E138.9742
G1 X108.700 Y107.788
G1 X121.384 Y120.472 E139.5588
G1 X121.909 Y120.472
G1 X108.700 Y107.263 E140.1677
G1 X108.700 Y106.738
G1 X122.435 Y120.472 E140.8008
G1 X122.960 Y120.472
G1 X108.700 Y106.212 E141.4581
G1 X108.700 Y105.687
G1 X123.485 Y120.472 E142.1397
G1 X124.011 Y120.472
G1 X108.700 Y105.162 E142.8454
G1 X108.700 Y104.636
G1 X124.536 Y120.472 E143.5754
G1 X125.061 Y120.472
G1 X108.700 Y104.111 E144.3296
G1 X108.700 Y103.586
G1 X125.587 Y120.472 E145.1080
G1 X126.112 Y120.472
G1 X108.700 Y103.060 E145.9106
G1 X108.700 Y102.535
G1 X126.637 Y120.472 E146.7374
G1 X127.163 Y120.472
G1 X108.700 Y102.010 E147.5884
G1 X108.700 Y101.484
G1 X127.688 Y120.472 E148.4637
G1 X128.213 Y120.472
G1 X118.171 Y110.429 E148.9266
;segType:Support
G0 F1200 E147.9266
G0 X122.500 Y123.000 F5400
G0 F1200 E148.9266
G1 X118.000 Y123.000 E149.0513 F4050
G0 F1200 E148.0513
G0 X150.506 Y121.656 F5400
G0 X151.188 Y121.363
G0 X151.539 Y120.921
G0 X152.272 Y115.500
G0 F1200 E149.0513
G1 X152.500 Y115.500 E149.0576 F4050
G0 F1200 E148.0576
G0 X152.272 Y118.500 F5400
G0 F1200 E149.0576
G1 X152.500 Y118.500 E149.0640 F4050
G0 F1200 E148.0640
G0 X151.363 Y121.187 F5400
G0 X150.921 Y121.539
G0 X139.500 Y122.500
G0 F1200 E149.0640
G1 X135.000 Y122.500 E149.1886 F4050
G0 F1200 E148.1886
G0 X150.921 Y121.539 F5400
G0 X152.272 Y120.500
G0 F1200 E149.1886
G1 X152.500 Y120.500 E149.1950 F4050
G0 F1200 E148.1950
G0 X152.500 Y119.000 F5400
G0 F1200 E149.1950
G1 X152.272 Y119.000 E149.2013 F4050
G1 X152.272 Y119.500 E149.2151
G1 X152.500 Y119.500 E149.2214
G0 F1200 E148.2214
G0 X152.500 Y121.000 F5400
G0 F1200 E149.2214
G1 X152.166 Y121.000 E149.2307 F4050
G0 F1200 E148.2307
G0 X152.500 Y122.000 F5400
G0 F1200 E149.2307
G1 X152.000 Y122.000 E149.2446 F4050
G1 X151.476 Y121.910 E149.2593
G0 F1200 E148.2593
G0 X152.272 Y120.000 F5400
G0 F1200 E149.2593
G1 X152.500 Y120.000 E149.2656 F4050
G0 F1200 E148.2656
G0 X152.000 Y121.500 F5400
G0 F1200 E149.2656
G1 X152.500 Y121.500 E149.2795 F4050
G0 F1200 E148.2795
G0 X152.500 Y117.000 F5400
G0 F1200 E149.2795
G1 X152.272 Y117.000 E149.2858 F4050
G1 X152.272 Y117.500 E149.2996
G1 X152.500 Y117.500 E149.3059
G1 X152.500 Y118.000 E149.3198
G1 X152.272 Y118.000 E149.3261
G0 F1200 E148.3261
G0 X152.500 Y116.500 F5400
G0 F1200 E149.3261
G1 X152.272 Y116.500 E149.3324 F4050
G1 X152.272 Y116.000 E149.3463
G1 X152.500 Y116.000 E149.3526
G0 F1200 E148.3526
G0 X151.539 Y120.921 F5400
G0 X150.921 Y121.539
G0 X139.500 Y123.000
G0 F1200 E149.3526
G1 X135.000 Y123.000 E149.4773 F4050
G0 F1200 E148.4773
G0 X150.921 Y121.539 F5400
G0 X151.539 Y120.921
G0 X152.500 Y115.000
G0 F1200 E149.4773
G1 X152.272 Y115.000 E149.4836 F4050
G0 F1200 E148.4836
G0 X152.272 Y113.000 F5400
G0 F1200 E149.4836
G1 X152.500 Y113.000 E149.4899 F4050
G1 X152.500 Y112.500 E149.5038
G1 X152.272 Y112.500 E149.5101
G1 X152.272 Y112.000 E149.5239
G1 X152.500 Y112.000 E149.5303
G0 F1200 E148.5303
G0 X152.272 Y113.500 F5400
G0 F1200 E149.5303
G1 X152.500 Y113.500 E149.5366 F4050
G0 F1200 E148.5366
G0 X152.500 Y111.000 F5400
G0 F1200 E149.5366
G1 X152.272 Y111.000 E149.5429 F4050
G0 F1200 E148.5429
G0 X152.272 Y109.500 F5400
G0 F1200 E149.5429
G1 X152.500 Y109.500 E149.5492 F4050
G0 F1200 E148.5492
G0 X152.500 Y108.000 F5400
G0 F1200 E149.5492
G1 X152.272 Y108.000 E149.5555 F4050
G0 X152.272 Y107.000 F5400
G1 X152.500 Y107.000 E149.5619 F4050
G1 X152.500 Y106.500 E149.5757
G1 X152.272 Y106.500 E149.5820
G0 F1200 E148.5820
G0 X152.272 Y105.000 F5400
G0 F1200 E149.5820
G1 X152.500 Y105.000 E149.5883 F4050
G0 F1200 E148.5883
G0 X152.272 Y106.000 F5400
G0 F1200 E149.5883
G1 X152.500 Y106.000 E149.5947 F4050
G0 F1200 E148.5947
G0 X152.272 Y103.000 F5400
G0 F1200 E149.5947
G1 X152.500 Y103.000 E149.6010 F4050
G0 X152.500 Y104.000 F5400
G1 X152.272 Y104.000 E149.6073 F4050
G1 X152.272 Y104.500 E149.6211
G1 X152.500 Y104.500 E149.6275
G0 F1200 E148.6275
G0 X152.500 Y102.500 F5400
G0 F1200 E149.6275
G1 X152.272 Y102.500 E149.6338 F4050
G1 X152.272 Y102.000 E149.6476
G1 X152.500 Y102.000 E149.6540
G0 F1200 E148.6540
G0 X152.272 Y107.500 F5400
G0 F1200 E149.6540
G1 X152.500 Y107.500 E149.6603 F4050
G0 F1200 E148.6603
G0 X152.272 Y101.500 F5400
G0 F1200 E149.6603
G1 X152.500 Y101.500 E149.6666 F4050
G0 F1200 E148.6666
G0 X152.500 Y103.500 F5400
G0 F1200 E149.6666
G1 X152.272 Y103.500 E149.6729 F4050
G0 F1200 E148.6729
G0 X152.272 Y101.000 F5400
G0 F1200 E149.6729
G1 X152.500 Y101.000 E149.6792 F4050
G0 X152.500 Y100.000 F5400
G1 X152.272 Y100.000 E149.6855 F4050
G0 F1200 E148.6855
G0 X152.272 Y96.500 F5400
G0 F1200 E149.6855
G1 X152.500 Y96.500 E149.6919 F4050
G1 X152.272 Y96.000 E149.7071
G1 X152.500 Y96.000 E149.7134
G1 X152.500 Y95.500 E149.7273
G1 X152.272 Y95.500 E149.7336
G0 F1200 E148.7336
G0 X152.500 Y98.000 F5400
G0 F1200 E149.7336
G1 X152.272 Y98.000 E149.7399 F4050
G1 X152.272 Y98.500 E149.7537
G1 X152.500 Y98.500 E149.7601
G0 F1200 E148.7601
G0 X152.500 Y97.000 F5400
G0 F1200 E149.7601
G1 X152.272 Y97.000 E149.7664 F4050
G0 F1200 E148.7664
G0 X152.500 Y93.000 F5400
G0 F1200 E149.7664
G1 X152.272 Y93.000 E149.7727 F4050
G1 X152.272 Y93.500 E149.7866
G1 X152.500 Y93.500 E149.7929
G0 F1200 E148.7929
G0 X152.500 Y91.500 F5400
G0 F1200 E149.7929
G1 X152.272 Y91.500 E149.7992 F4050
G0 F1200 E148.7992
G0 X152.272 Y88.500 F5400
G0 F1200 E149.7992
G1 X152.500 Y88.500 E149.8055 F4050
G1 X152.500 Y89.000 E149.8194
G1 X152.272 Y89.000 E149.8257
G1 X152.500 Y89.500 E149.8409
G1 X152.272 Y89.500 E149.8472
G1 X152.500 Y90.000 E149.8624
G1 X152.272 Y90.000 E149.8688
G1 X152.272 Y90.500 E149.8826
G1 X152.500 Y90.500 E149.8889
G1 X152.500 Y91.000 E149.9028
G1 X152.272 Y91.000 E149.9091
G0 F1200 E148.9091
G0 X152.272 Y86.500 F5400
G0 F1200 E149.9091
G1 X152.500 Y86.500 E149.9154 F4050
G0 F1200 E148.9154
G0 X152.500 Y84.500 F5400
G0 F1200 E149.9154
G1 X152.272 Y84.500 E149.9217 F4050
G1 X152.500 Y84.000 E149.9370
G1 X152.272 Y84.000 E149.9433
G0 F1200 E148.9433
G0 X152.500 Y83.000 F5400
G0 F1200 E149.9433
G1 X152.272 Y83.000 E149.9496 F4050
G1 X152.500 Y83.500 E149.9648
G1 X152.272 Y83.500 E149.9712
G0 X152.272 Y82.500 F5400
G1 X152.500 Y82.500 E149.9775 F4050
G0 F1200 E148.9775
G0 X152.272 Y81.500 F5400
G0 F1200 E149.9775
G1 X152.500 Y81.500 E149.9838 F4050
G1 X152.500 Y81.000 E149.9976
G1 X152.272 Y81.000 E150.0040
G0 X152.272 Y80.000 F5400
G1 X152.500 Y80.000 E150.0103 F4050
G0 F1200 E149.0103
G0 X152.272 Y79.000 F5400
G0 F1200 E150.0103
G1 X152.500 Y79.000 E150.0166 F4050
G1 X152.272 Y79.500 E150.0318
G1 X152.500 Y79.500 E150.0381
G0 F1200 E149.0381
G0 X152.500 Y77.500 F5400
G0 F1200 E150.0381
G1 X152.272 Y77.500 E150.0445 F4050
G0 F1200 E149.0445
G0 X152.500 Y78.500 F5400
G0 F1200 E150.0445
G1 X152.272 Y78.500 E150.0508 F4050
G1 X152.272 Y78.000 E150.0646
G1 X152.500 Y78.000 E150.0709
G0 F1200 E149.0709
G0 X152.500 Y80.500 F5400
G0 F1200 E150.0709
G1 X152.272 Y80.500 E150.0773 F4050
G0 F1200 E149.0773
G0 X152.500 Y82.000 F5400
G0 F1200 E150.0773
G1 X152.272 Y82.000 E150.0836 F4050
G0 F1200 E149.0836
G0 X152.500 Y85.000 F5400
G0 F1200 E150.0836
G1 X152.272 Y85.000 E150.0899 F4050
G1 X152.272 Y85.500 E150.1038
G1 X152.500 Y85.500 E150.1101
G1 X152.272 Y86.000 E150.1253
G1 X152.500 Y86.000 E150.1316
; ------------------------------------
; Layer #2
; ------------------------------------
G21 ; mm
G90 ; abs
G92 E0 ; reset extr
M73 S0
M106 S0
G0 F1200 E-1.0000
G0 F300 Z0.600
G0 X150.570 Y87.509 F5400
G0 X123.544 Y108.633
G0 X121.613 Y110.142
G0 X108.100 Y120.704
G0 F1200 E0.0000
;segType:Loop
G1 X108.100 Y97.748 E0.7482 F2700
G1 X127.748 Y78.100 E1.6539
G1 X151.324 Y78.100 E2.4224
G1 X151.325 Y78.996 E2.4516
G1 X151.325 Y120.441 E3.8025
G1 X151.256 Y120.791 E3.8141
G1 X151.066 Y121.080 E3.8253
G1 X150.805 Y121.253 E3.8356
G1 X150.441 Y121.325 E3.8477
G1 X108.100 Y121.325 E5.2278
G1 X108.100 Y120.889 E5.2420
;segType:Perimeter
G0 X108.318 Y121.414 F5400
G1 X107.700 Y121.669 E5.2637 F1890
G1 X107.700 Y97.583 E6.0489
G1 X127.583 Y77.700 E6.9654
G1 X151.723 Y77.700 E7.7522
G1 X151.725 Y78.996 E7.7945
G1 X151.725 Y120.480 E9.1466
G1 X151.633 Y120.945 E9.1621
G1 X151.356 Y121.368 E9.1786
G1 X150.960 Y121.629 E9.1940
G1 X150.480 Y121.725 E9.2100
G1 X107.756 Y121.725 E10.6026
G1 X108.012 Y121.107
;segType:Loop
G0 X108.500 Y119.682 F5400
G1 X108.500 Y97.914 E11.3121 F2700
G1 X127.914 Y78.500 E12.2070
G1 X150.924 Y78.500 E12.9570
G1 X150.925 Y78.997 E12.9732
G1 X150.925 Y120.402 E14.3228
G1 X150.878 Y120.637 E14.3306
G1 X150.777 Y120.791 E14.3366
G1 X150.649 Y120.876 E14.3416
G1 X150.401 Y120.925 E14.3499
G1 X108.500 Y120.925 E15.7156
G1 X108.500 Y119.868 E15.7501
G0 X117.864 Y109.188 F5400
G1 X117.645 Y108.843 E15.7634 F2700
G1 X117.401 Y108.091 E15.7892
G1 X117.351 Y107.302 E15.8149
G1 X117.500 Y106.525 E15.8407
G1 X117.837 Y105.810 E15.8665
G1 X118.340 Y105.201 E15.8923
G1 X118.980 Y104.736 E15.9180
G1 X119.715 Y104.444 E15.9438
G1 X120.500 Y104.345 E15.9696
G1 X121.284 Y104.444 E15.9954
G1 X122.020 Y104.736 E16.0211
G1 X122.659 Y105.201 E16.0469
G1 X123.164 Y105.810 E16.0727
G1 X123.500 Y106.525 E16.0985
G1 X123.649 Y107.302 E16.1242
G1 X123.599 Y108.091 E16.1500
G1 X123.354 Y108.843 E16.1758
G1 X122.931 Y109.511 E16.2016
G1 X122.354 Y110.052 E16.2274
G1 X121.661 Y110.433 E16.2531
G1 X120.895 Y110.630 E16.2789
G1 X120.104 Y110.630 E16.3047
G1 X119.339 Y110.433 E16.3305
G1 X118.645 Y110.052 E16.3562
G1 X118.069 Y109.511 E16.3820
G1 X117.964 Y109.345 E16.3884
;segType:Perimeter
G0 X118.988 Y110.341 F5400
G1 X118.842 Y109.688 E16.4102 F1890
G1 X118.380 Y109.254 E16.4309
G1 X118.010 Y108.672 E16.4534
G1 X117.797 Y108.015 E16.4758
G1 X117.754 Y107.327 E16.4983
G1 X117.883 Y106.650 E16.5208
G1 X118.177 Y106.026 E16.5433
G1 X118.616 Y105.494 E16.5658
G1 X119.174 Y105.089 E16.5882
G1 X119.816 Y104.835 E16.6107
G1 X120.500 Y104.749 E16.6332
G1 X121.184 Y104.835 E16.6557
G1 X121.826 Y105.089 E16.6782
G1 X122.383 Y105.494 E16.7007
G1 X122.823 Y106.026 E16.7231
G1 X123.117 Y106.650 E16.7456
G1 X123.246 Y107.327 E16.7681
G1 X123.203 Y108.015 E16.7906
G1 X122.990 Y108.672 E16.8131
G1 X122.620 Y109.254 E16.8355
G1 X122.117 Y109.726 E16.8580
G1 X121.513 Y110.058 E16.8805
G1 X120.845 Y110.230 E16.9030
G1 X120.155 Y110.230 E16.9255
G1 X119.487 Y110.058 E16.9480
G1 X118.931 Y109.753 E16.9686
G1 X118.266 Y109.816
;segType:Loop
G0 X117.076 Y108.384 F5400
G1 X117.005 Y108.167 E16.9761 F2700
G1 X116.949 Y107.277 E17.0051
G1 X117.116 Y106.400 E17.0342
G1 X117.496 Y105.594 E17.0633
G1 X118.064 Y104.907 E17.0923
G1 X118.786 Y104.382 E17.1214
G1 X119.615 Y104.054 E17.1505
G1 X120.500 Y103.942 E17.1796
G1 X121.385 Y104.054 E17.2086
G1 X122.214 Y104.382 E17.2377
G1 X122.935 Y104.907 E17.2668
G1 X123.504 Y105.593 E17.2958
G1 X123.884 Y106.400 E17.3249
G1 X124.051 Y107.277 E17.3540
G1 X123.995 Y108.167 E17.3830
G1 X123.719 Y109.015 E17.4121
G1 X123.242 Y109.768 E17.4412
G1 X122.591 Y110.378 E17.4703
G1 X121.810 Y110.808 E17.4993
G1 X120.946 Y111.030 E17.5284
G1 X120.054 Y111.030 E17.5575
G1 X119.191 Y110.808 E17.5865
G1 X118.408 Y110.378 E17.6156
G1 X117.759 Y109.768 E17.6447
G1 X117.281 Y109.015 E17.6737
G1 X117.133 Y108.560 E17.6893
G0 X118.489 Y105.359 F5400
G0 X134.864 Y92.188
G1 X134.646 Y91.843 E17.7026 F2700
G1 X134.401 Y91.091 E17.7284
G1 X134.351 Y90.302 E17.7542
G1 X134.500 Y89.525 E17.7800
G1 X134.836 Y88.809 E17.8058
G1 X135.341 Y88.201 E17.8315
G1 X135.980 Y87.735 E17.8573
G1 X136.716 Y87.444 E17.8831
G1 X137.500 Y87.345 E17.9088
G1 X138.284 Y87.444 E17.9346
G1 X139.020 Y87.735 E17.9604
G1 X139.659 Y88.200 E17.9862
G1 X140.164 Y88.810 E18.0120
G1 X140.500 Y89.525 E18.0377
G1 X140.649 Y90.302 E18.0635
G1 X140.599 Y91.091 E18.0893
G1 X140.354 Y91.843 E18.1151
G1 X139.931 Y92.511 E18.1408
G1 X139.354 Y93.052 E18.1666
G1 X138.661 Y93.433 E18.1924
G1 X137.895 Y93.630 E18.2182
G1 X137.104 Y93.630 E18.2439
G1 X136.339 Y93.433 E18.2697
G1 X135.645 Y93.052 E18.2955
G1 X135.069 Y92.511 E18.3213
G1 X134.964 Y92.345 E18.3277
;segType:Perimeter
G0 X135.988 Y93.341 F5400
G1 X135.842 Y92.688 E18.3495 F1890
G1 X135.380 Y92.254 E18.3701
G1 X135.010 Y91.672 E18.3926
G1 X134.797 Y91.015 E18.4151
G1 X134.754 Y90.327 E18.4376
G1 X134.883 Y89.650 E18.4601
G1 X135.177 Y89.026 E18.4825
G1 X135.616 Y88.494 E18.5050
G1 X136.174 Y88.089 E18.5275
G1 X136.816 Y87.835 E18.5500
G1 X137.500 Y87.749 E18.5725
G1 X138.184 Y87.835 E18.5949
G1 X138.826 Y88.089 E18.6174
G1 X139.383 Y88.494 E18.6399
G1 X139.823 Y89.026 E18.6624
G1 X140.117 Y89.650 E18.6849
G1 X140.246 Y90.327 E18.7074
G1 X140.203 Y91.015 E18.7298
G1 X139.990 Y91.672 E18.7523
G1 X139.620 Y92.254 E18.7748
G1 X139.117 Y92.726 E18.7973
G1 X138.513 Y93.058 E18.8198
G1 X137.845 Y93.230 E18.8422
G1 X137.155 Y93.230 E18.8647
G1 X136.487 Y93.058 E18.8872
G1 X135.931 Y92.753 E18.9079
G1 X135.266 Y92.816
;segType:Loop
G0 X134.076 Y91.384 F5400
G1 X134.005 Y91.167 E18.9153 F2700
G1 X133.949 Y90.277 E18.9444
G1 X134.116 Y89.400 E18.9735
G1 X134.496 Y88.593 E19.0025
G1 X135.065 Y87.907 E19.0316
G1 X135.786 Y87.382 E19.0607
G1 X136.615 Y87.054 E19.0897
G1 X137.500 Y86.942 E19.1188
G1 X138.385 Y87.054 E19.1479
G1 X139.214 Y87.382 E19.1770
G1 X139.935 Y87.906 E19.2060
G1 X140.504 Y88.594 E19.2351
G1 X140.884 Y89.400 E19.2641
G1 X141.051 Y90.277 E19.2932
G1 X140.995 Y91.167 E19.3223
G1 X140.719 Y92.015 E19.3514
G1 X140.242 Y92.768 E19.3804
G1 X139.591 Y93.378 E19.4095
G1 X138.810 Y93.808 E19.4386
G1 X137.946 Y94.030 E19.4677
G1 X137.054 Y94.030 E19.4967
G1 X136.191 Y93.808 E19.5258
G1 X135.408 Y93.378 E19.5549
G1 X134.759 Y92.768 E19.5839
G1 X134.281 Y92.015 E19.6130
G1 X134.133 Y91.560 E19.6286
;segType:HShell
G0 X133.822 Y89.874 F5400
G1 X119.877 Y103.819 E20.2714 F2700
G1 X120.478 Y103.743
G1 X133.760 Y90.461 E20.8837
G1 X133.791 Y90.955
G1 X120.949 Y103.797 E21.4757
G1 X121.416 Y103.856
G1 X133.871 Y91.401 E22.0498
G1 X134.000 Y91.798
G1 X121.796 Y104.002 E22.6123
G1 X122.172 Y104.151
G1 X134.146 Y92.176 E23.1643
G1 X134.350 Y92.498
G1 X122.503 Y104.345 E23.7104
G1 X122.807 Y104.566
G1 X134.554 Y92.819 E24.2519
G1 X134.809 Y93.090
G1 X123.103 Y104.796 E24.7915
G1 X123.341 Y105.083
G1 X135.080 Y93.344 E25.3326
G1 X135.366 Y93.583
G1 X123.579 Y105.370 E25.8760
G1 X123.775 Y105.700
G1 X135.705 Y93.770 E26.4259
G1 X136.044 Y93.956
G1 X123.943 Y106.057 E26.9837
G1 X124.094 Y106.432
G1 X136.445 Y94.080 E27.5531
G1 X136.863 Y94.188
G1 X124.178 Y106.873 E28.1378
G1 X124.248 Y107.328
G1 X137.346 Y94.230 E28.7416
G1 X137.871 Y94.230
G1 X124.213 Y107.888 E29.3711
G0 X139.489 Y93.663 F5400
G1 X123.642 Y109.510 E30.1016 F2700
G0 X138.543 Y94.083 F5400
G1 X124.083 Y108.544 E30.7682 F2700
G0 X122.489 Y110.663 F5400
G1 X112.427 Y120.725 E31.2320 F2700
G1 X112.952 Y120.725
G1 X150.725 Y82.952 E32.9732
G1 X150.725 Y83.478
G1 X113.478 Y120.725 E34.6902
G1 X114.003 Y120.725
G1 X150.725 Y84.003 E36.3829
G1 X150.725 Y84.528
G1 X114.528 Y120.725 E38.0514
G1 X115.054 Y120.725
G1 X150.725 Y85.054 E39.6957
G1 X150.725 Y85.579
G1 X115.579 Y120.725 E41.3158
G1 X116.104 Y120.725
G1 X150.725 Y86.104 E42.9117
G1 X150.725 Y86.630
G1 X116.630 Y120.725 E44.4834
G1 X117.155 Y120.725
G1 X150.725 Y87.155 E46.0308
G1 X150.725 Y87.680
G1 X117.680 Y120.725 E47.5541
G1 X118.206 Y120.725
G1 X150.725 Y88.206 E49.0531
G1 X150.725 Y88.731
G1 X118.731 Y120.725 E50.5279
G1 X119.256 Y120.725
G1 X150.725 Y89.256 E51.9785
G1 X150.725 Y89.782
G1 X119.782 Y120.725 E53.4048
G1 X120.307 Y120.725
G1 X150.725 Y90.307 E54.8070
G1 X150.725 Y90.832
G1 X120.832 Y120.725 E56.1849
G1 X121.358 Y120.725
G1 X150.725 Y91.358 E57.5386
G1 X150.725 Y91.883
G1 X121.883 Y120.725 E58.8682
G1 X122.408 Y120.725
G1 X150.725 Y92.408 E60.1734
G1 X150.725 Y92.934
G1 X122.934 Y120.725 E61.4545
G1 X123.459 Y120.725
G1 X150.725 Y93.459 E62.7114
G1 X150.725 Y93.984
G1 X123.984 Y120.725 E63.9440
G1 X124.510 Y120.725
G1 X150.725 Y94.510 E65.1524
G1 X150.725 Y95.035
G1 X125.035 Y120.725 E66.3367
G1 X125.560 Y120.725
G1 X150.725 Y95.560 E67.4967
G1 X150.725 Y96.086
G1 X126.086 Y120.725 E68.6324
G1 X126.611 Y120.725
G1 X150.725 Y96.611 E69.7440
G1 X150.725 Y97.136
G1 X127.136 Y120.725 E70.8313
G1 X127.662 Y120.725
G1 X150.725 Y97.662 E71.8945
G1 X150.725 Y98.187
G1 X128.187 Y120.725 E72.9334
G1 X128.712 Y120.725
G1 X150.725 Y98.712 E73.9481
G1 X150.725 Y99.238
G1 X129.238 Y120.725 E74.9386
G1 X129.763 Y120.725
G1 X150.725 Y99.763 E75.9049
G1 X150.725 Y100.288
G1 X130.288 Y120.725 E76.8469
G1 X130.814 Y120.725
G1 X150.725 Y100.814 E77.7648
G1 X150.725 Y101.339
G1 X131.339 Y120.725 E78.6584
G1 X131.864 Y120.725
G1 X150.725 Y101.864 E79.5278
G1 X150.725 Y102.390
G1 X132.390 Y120.725 E80.3730
G1 X132.915 Y120.725
G1 X150.725 Y102.915 E81.1939
G1 X150.725 Y103.440
G1 X133.440 Y120.725 E81.9907
G1 X133.966 Y120.725
G1 X150.725 Y103.966 E82.7633
G1 X150.725 Y104.491
G1 X134.491 Y120.725 E83.5116
G1 X135.016 Y120.725
G1 X150.725 Y105.016 E84.2357
G1 X150.725 Y105.542
G1 X135.542 Y120.725 E84.9356
G1 X136.067 Y120.725
G1 X150.725 Y106.067 E85.6113
G1 X150.725 Y106.592
G1 X136.592 Y120.725 E86.2627
G1 X137.118 Y120.725
G1 X150.725 Y107.118 E86.8900
G1 X150.725 Y107.643
G1 X137.643 Y120.725 E87.4930
G1 X138.168 Y120.725
G1 X150.725 Y108.168 E88.0718
G1 X150.725 Y108.694
G1 X138.694 Y120.725 E88.6265
G1 X139.219 Y120.725
G1 X150.725 Y109.219 E89.1568
G1 X150.725 Y109.744
G1 X139.744 Y120.725 E89.6630
G1 X140.270 Y120.725
G1 X150.725 Y110.270 E90.1450
G1 X150.725 Y110.795
G1 X140.795 Y120.725 E90.6027
G1 X141.320 Y120.725
G1 X150.725 Y111.320 E91.0362
G1 X150.725 Y111.846
G1 X141.846 Y120.725 E91.4455
G1 X142.371 Y120.725
G1 X150.725 Y112.371 E91.8306
G1 X150.725 Y112.896
G1 X142.896 Y120.725 E92.1915
G1 X143.422 Y120.725
G1 X150.725 Y113.422 E92.5282
G1 X150.725 Y113.947
G1 X143.947 Y120.725 E92.8406
G1 X144.472 Y120.725
G1 X150.725 Y114.472 E93.1288
G1 X150.725 Y114.998
G1 X144.998 Y120.725 E93.3928
G1 X145.523 Y120.725
G1 X150.725 Y115.523 E93.6326
G1 X150.725 Y116.048
G1 X146.048 Y120.725 E93.8482
G1 X146.574 Y120.725
G1 X150.725 Y116.574 E94.0396
G1 X150.725 Y117.099
G1 X147.099 Y120.725 E94.2067
G1 X147.624 Y120.725
G1 X150.725 Y117.624 E94.3497
G1 X150.725 Y118.150
G1 X148.150 Y120.725 E94.4684
G1 X148.675 Y120.725
G1 X150.725 Y118.675 E94.5629
G1 X150.725 Y119.200
G1 X149.200 Y120.725 E94.6331
G1 X149.726 Y120.725
G1 X150.725 Y119.725 E94.6792
G1 X150.725 Y120.251
G1 X150.251 Y120.725 E94.7011
G0 X119.419 Y110.231 F5400
G0 X118.237 Y109.372
G0 X116.822 Y106.874
G1 X108.700 Y114.996 E95.0755 F2700
G1 X108.700 Y115.521
G1 X116.760 Y107.461 E95.4470
G1 X116.791 Y107.955
G1 X108.700 Y116.046 E95.8199
G1 X108.700 Y116.572
G1 X116.871 Y108.401 E96.1966
G1 X117.000 Y108.798
G1 X108.700 Y117.097 E96.5792
G1 X108.700 Y117.622
G1 X117.146 Y109.176 E96.9685
G1 X117.350 Y109.498
G1 X108.700 Y118.148 E97.3672
G1 X108.700 Y118.673
G1 X117.554 Y109.819 E97.7753
G1 X117.809 Y110.090
G1 X108.700 Y119.198 E98.1952
G1 X108.700 Y119.724
G1 X118.080 Y110.344 E98.6276
G1 X118.366 Y110.583
G1 X108.700 Y120.249 E99.0731
G1 X108.750 Y120.725
G1 X118.705 Y110.770 E99.5320
G1 X119.044 Y110.956
G1 X109.275 Y120.725 E99.9823
G1 X109.800 Y120.725
G1 X119.445 Y111.080 E100.4269
G1 X119.863 Y111.188
G1 X110.326 Y120.725 E100.8665
G1 X110.851 Y120.725
G1 X120.346 Y111.230 E101.3042
G1 X120.871 Y111.230
G1 X111.376 Y120.725 E101.7419
G1 X111.902 Y120.725
G1 X121.543 Y111.083 E102.1863
G0 X123.158 Y108.751 F5400
G0 X123.432 Y107.316
G0 X128.185 Y78.700
G1 X108.700 Y98.185 E103.0845 F2700
G1 X108.700 Y98.710
G1 X128.711 Y78.700 E104.0069
G1 X129.236 Y78.700
G1 X108.700 Y99.236 E104.9535
G1 X108.700 Y99.761
G1 X129.761 Y78.700 E105.9243
G1 X130.287 Y78.700
G1 X108.700 Y100.286 E106.9194
G1 X108.700 Y100.812
G1 X130.812 Y78.700 E107.9386
G1 X131.337 Y78.700
G1 X108.700 Y101.337 E108.9821
G1 X108.700 Y101.862
G1 X131.863 Y78.700 E110.0498
G1 X132.388 Y78.700
G1 X108.700 Y102.388 E111.1417
G1 X108.700 Y102.913
G1 X132.913 Y78.700 E112.2578
G1 X133.439 Y78.700
G1 X108.700 Y103.438 E113.3982
G1 X108.700 Y103.964
G1 X133.964 Y78.700 E114.5627
G1 X134.489 Y78.700
G1 X108.700 Y104.489 E115.7515
G1 X108.700 Y105.014
G1 X135.015 Y78.700 E116.9645
G1 X135.540 Y78.700
G1 X108.700 Y105.540 E118.2017
G1 X108.700 Y106.065
G1 X136.065 Y78.700 E119.4631
G1 X136.591 Y78.700
G1 X108.700 Y106.590 E120.7487
G1 X108.700 Y107.116
G1 X137.116 Y78.700 E122.0585
G1 X137.641 Y78.700
G1 X108.700 Y107.641 E123.3926
G1 X108.700 Y108.166
G1 X138.166 Y78.700 E124.7509
G1 X138.692 Y78.700
G1 X108.700 Y108.692 E126.1334
G1 X108.700 Y109.217
G1 X139.217 Y78.700 E127.5401
G1 X139.743 Y78.700
G1 X108.700 Y109.742 E128.9710
G1 X108.700 Y110.268
G1 X140.268 Y78.700 E130.4262
G1 X140.793 Y78.700
G1 X108.700 Y110.793 E131.9055
G1 X108.700 Y111.318
G1 X141.318 Y78.700 E133.4091
G1 X141.844 Y78.700
G1 X108.700 Y111.844 E134.9369
G1 X108.700 Y112.369
G1 X142.369 Y78.700 E136.4889
G1 X142.894 Y78.700
G1 X108.700 Y112.894 E138.0651
G1 X108.700 Y113.420
G1 X143.420 Y78.700 E139.6655
G1 X143.945 Y78.700
G1 X108.700 Y113.945 E141.2902
G1 X108.700 Y114.470
G1 X117.006 Y106.165 E141.6730
G0 X119.146 Y104.025 F5400
G1 X134.006 Y89.165 E142.3580 F2700
G0 X136.146 Y87.025 F5400
G1 X144.470 Y78.700 E142.7417 F2700
G1 X144.996 Y78.700
G1 X136.877 Y86.819 E143.1160
G1 X137.478 Y86.743
G1 X145.521 Y78.700 E143.4867
G1 X146.046 Y78.700
G1 X137.949 Y86.797 E143.8600
G1 X138.416 Y86.856
G1 X146.572 Y78.700 E144.2360
G1 X147.097 Y78.700
G1 X138.796 Y87.002 E144.6186
G1 X139.172 Y87.151
G1 X147.622 Y78.700 E145.0081
G1 X148.148 Y78.700
G1 X139.503 Y87.345 E145.4066
G1 X139.807 Y87.566
G1 X148.673 Y78.700 E145.8153
G1 X149.198 Y78.700
G1 X140.103 Y87.796 E146.2346
G1 X140.341 Y88.083
G1 X149.724 Y78.700 E146.6671
G1 X150.249 Y78.700
G1 X140.579 Y88.370 E147.1128
G1 X140.775 Y88.700
G1 X150.725 Y78.750 E147.5715
G1 X150.725 Y79.275
G1 X140.943 Y89.057 E148.0224
G1 X141.094 Y89.432
G1 X150.725 Y79.800 E148.4663
G1 X150.725 Y80.326
G1 X141.178 Y89.873 E148.9064
G1 X141.248 Y90.328
G1 X150.725 Y80.851 E149.3433
G1 X150.725 Y81.376
G1 X141.213 Y90.888 E149.7817
G1 X141.083 Y91.544
G1 X150.725 Y81.902 E150.2262
G1 X150.725 Y82.427
G1 X140.642 Y92.510 E150.6910
;segType:Support
G0 F1200 E149.6910
G0 X152.497 Y120.997 F5400
G0 F1200 E150.6910
G1 X152.438 Y120.997 E150.6926 F4050
G1 X152.500 Y121.500 E150.7067
G1 X152.226 Y121.500 E150.7143
G1 X152.500 Y122.000 E150.7301
G1 X152.000 Y122.000 E150.7439
G0 F1200 E149.7439
G0 X139.500 Y123.000 F5400
G0 F1200 E150.7439
G1 X135.000 Y123.000 E150.8686 F4050
G0 F1200 E149.8686
G0 X122.500 Y123.000 F5400
G0 F1200 E150.8686
G1 X118.000 Y123.000 E150.9933 F4050
; ------------------------------------
; Layer #3
; ------------------------------------
G21 ; mm
G90 ; abs
G92 E0 ; reset extr
M73 S1
M106 S255
;segType:Support
G0 F1200 E-1.0000
G0 F300 Z0.800
G0 X118.000 Y123.000 F5400
G0 F1200 E0.0000
G1 X122.500 Y123.000 E0.1247 F4050
G0 F1200 E-0.8753
G0 X152.035 Y122.000 F5400
G0 F1200 E0.1247
G1 X152.500 Y122.000 E0.1376 F4050
G1 X152.405 Y121.500 E0.1517
G1 X152.500 Y121.500 E0.1543
G0 F1200 E-0.8457
G0 X150.498 Y122.063 F5400
G0 X139.500 Y123.000
G0 F1200 E0.1543
G1 X135.000 Y123.000 E0.2790 F4050
G0 F1200 E-0.7210
G0 X125.218 Y122.221 F5400
G0 X122.773 Y122.026
G0 X117.882 Y121.636
G0 X115.437 Y121.442
G0 X108.100 Y120.857
G0 F1200 E0.2790
;segType:Loop
G1 X108.100 Y97.748 E1.0322 F2700
G1 X127.748 Y78.100 E1.9379
G1 X151.439 Y78.100 E2.7101
G1 X151.479 Y99.759 E3.4161
G1 X151.479 Y120.435 E4.0900
G1 X151.399 Y120.801 E4.1023
G1 X151.211 Y121.126 E4.1145
G1 X150.918 Y121.351 E4.1265
G1 X150.801 Y121.399 E4.1306
G1 X150.435 Y121.479 E4.1428
G1 X108.100 Y121.479 E5.5228
G1 X108.100 Y121.043 E5.5370
;segType:Perimeter
G0 X108.318 Y121.567 F5400
G1 X107.700 Y121.823 E5.5588 F1890
G1 X107.700 Y97.583 E6.3489
G1 X127.583 Y77.700 E7.2654
G1 X151.838 Y77.700 E8.0560
G1 X151.879 Y99.759 E8.7750
G1 X151.879 Y120.478 E9.4504
G1 X151.782 Y120.922 E9.4651
G1 X151.705 Y121.107 E9.4717
G1 X151.522 Y121.381 E9.4824
G1 X151.381 Y121.522 E9.4889
G1 X151.107 Y121.705 E9.4997
G1 X150.921 Y121.782 E9.5062
G1 X150.479 Y121.879 E9.5210
G1 X107.756 Y121.879 E10.9135
G1 X108.012 Y121.261
;segType:Loop
G0 X108.500 Y119.836 F5400
G1 X108.500 Y97.914 E11.6281 F2700
G1 X127.914 Y78.500 E12.5230
G1 X151.040 Y78.500 E13.2768
G1 X151.078 Y99.759 E13.9697
G1 X151.078 Y120.392 E14.6422
G1 X151.021 Y120.655 E14.6510
G1 X150.905 Y120.857 E14.6586
G1 X150.681 Y121.016 E14.6675
G1 X150.392 Y121.079 E14.6772
G1 X108.500 Y121.079 E16.0426
G1 X108.500 Y120.021 E16.0771
G0 X117.864 Y109.188 F5400
G1 X117.645 Y108.843 E16.0904 F2700
G1 X117.401 Y108.091 E16.1162
G1 X117.351 Y107.302 E16.1420
G1 X117.500 Y106.525 E16.1677
G1 X117.837 Y105.810 E16.1935
G1 X118.340 Y105.201 E16.2193
G1 X118.980 Y104.736 E16.2451
G1 X119.715 Y104.444 E16.2708
G1 X120.500 Y104.345 E16.2966
G1 X121.284 Y104.444 E16.3224
G1 X122.020 Y104.736 E16.3482
G1 X122.659 Y105.201 E16.3739
G1 X123.164 Y105.810 E16.3997
G1 X123.500 Y106.525 E16.4255
G1 X123.649 Y107.302 E16.4513
G1 X123.599 Y108.091 E16.4770
G1 X123.354 Y108.843 E16.5028
G1 X122.931 Y109.511 E16.5286
G1 X122.354 Y110.052 E16.5544
G1 X121.661 Y110.433 E16.5802
G1 X120.895 Y110.630 E16.6059
G1 X120.104 Y110.630 E16.6317
G1 X119.339 Y110.433 E16.6575
G1 X118.645 Y110.052 E16.6833
G1 X118.069 Y109.511 E16.7090
G1 X117.964 Y109.345 E16.7154
;segType:Perimeter
G0 X118.988 Y110.341 F5400
G1 X118.842 Y109.688 E16.7372 F1890
G1 X118.380 Y109.254 E16.7579
G1 X118.010 Y108.672 E16.7804
G1 X117.797 Y108.015 E16.8029
G1 X117.754 Y107.327 E16.8253
G1 X117.883 Y106.650 E16.8478
G1 X118.177 Y106.026 E16.8703
G1 X118.616 Y105.494 E16.8928
G1 X119.174 Y105.089 E16.9153
G1 X119.816 Y104.835 E16.9378
G1 X120.500 Y104.749 E16.9602
G1 X121.184 Y104.835 E16.9827
G1 X121.826 Y105.089 E17.0052
G1 X122.383 Y105.494 E17.0277
G1 X122.823 Y106.026 E17.0502
G1 X123.117 Y106.650 E17.0726
G1 X123.246 Y107.327 E17.0951
G1 X123.203 Y108.015 E17.1176
G1 X122.990 Y108.672 E17.1401
G1 X122.620 Y109.254 E17.1626
G1 X122.117 Y109.726 E17.1851
G1 X121.513 Y110.058 E17.2075
G1 X120.845 Y110.230 E17.2300
G1 X120.155 Y110.230 E17.2525
G1 X119.487 Y110.058 E17.2750
G1 X118.931 Y109.753 E17.2957
G1 X118.266 Y109.816
;segType:Loop
G0 X117.076 Y108.384 F5400
G1 X117.005 Y108.167 E17.3031 F2700
G1 X116.949 Y107.277 E17.3322
G1 X117.116 Y106.400 E17.3612
G1 X117.496 Y105.594 E17.3903
G1 X118.064 Y104.907 E17.4194
G1 X118.786 Y104.382 E17.4484
G1 X119.615 Y104.054 E17.4775
G1 X120.500 Y103.942 E17.5066
G1 X121.385 Y104.054 E17.5356
G1 X122.214 Y104.382 E17.5647
G1 X122.935 Y104.907 E17.5938
G1 X123.504 Y105.593 E17.6229
G1 X123.884 Y106.400 E17.6519
G1 X124.051 Y107.277 E17.6810
G1 X123.995 Y108.167 E17.7101
G1 X123.719 Y109.015 E17.7391
G1 X123.242 Y109.768 E17.7682
G1 X122.591 Y110.378 E17.7973
G1 X121.810 Y110.808 E17.8264
G1 X120.946 Y111.030 E17.8554
G1 X120.054 Y111.030 E17.8845
G1 X119.191 Y110.808 E17.9136
G1 X118.408 Y110.378 E17.9426
G1 X117.759 Y109.768 E17.9717
G1 X117.281 Y109.015 E18.0008
G1 X117.133 Y108.560 E18.0164
G0 X118.489 Y105.359 F5400
G0 X134.864 Y92.188
G1 X134.646 Y91.843 E18.0297 F2700
G1 X134.401 Y91.091 E18.0554
G1 X134.351 Y90.302 E18.0812
G1 X134.500 Y89.525 E18.1070
G1 X134.836 Y88.809 E18.1328
G1 X135.341 Y88.201 E18.1585
G1 X135.980 Y87.735 E18.1843
G1 X136.716 Y87.444 E18.2101
G1 X137.500 Y87.345 E18.2359
G1 X138.284 Y87.444 E18.2616
G1 X139.020 Y87.735 E18.2874
G1 X139.659 Y88.200 E18.3132
G1 X140.164 Y88.810 E18.3390
G1 X140.500 Y89.525 E18.3647
G1 X140.649 Y90.302 E18.3905
G1 X140.599 Y91.091 E18.4163
G1 X140.354 Y91.843 E18.4421
G1 X139.931 Y92.511 E18.4679
G1 X139.354 Y93.052 E18.4936
G1 X138.661 Y93.433 E18.5194
G1 X137.895 Y93.630 E18.5452
G1 X137.104 Y93.630 E18.5710
G1 X136.339 Y93.433 E18.5967
G1 X135.645 Y93.052 E18.6225
G1 X135.069 Y92.511 E18.6483
G1 X134.964 Y92.345 E18.6547
;segType:Perimeter
G0 X135.988 Y93.341 F5400
G1 X135.842 Y92.688 E18.6765 F1890
G1 X135.380 Y92.254 E18.6972
G1 X135.010 Y91.672 E18.7196
G1 X134.797 Y91.015 E18.7421
G1 X134.754 Y90.327 E18.7646
G1 X134.883 Y89.650 E18.7871
G1 X135.177 Y89.026 E18.8096
G1 X135.616 Y88.494 E18.8320
G1 X136.174 Y88.089 E18.8545
G1 X136.816 Y87.835 E18.8770
G1 X137.500 Y87.749 E18.8995
G1 X138.184 Y87.835 E18.9220
G1 X138.826 Y88.089 E18.9445
G1 X139.383 Y88.494 E18.9669
G1 X139.823 Y89.026 E18.9894
G1 X140.117 Y89.650 E19.0119
G1 X140.246 Y90.327 E19.0344
G1 X140.203 Y91.015 E19.0569
G1 X139.990 Y91.672 E19.0794
G1 X139.620 Y92.254 E19.1018
G1 X139.117 Y92.726 E19.1243
G1 X138.513 Y93.058 E19.1468
G1 X137.845 Y93.230 E19.1693
G1 X137.155 Y93.230 E19.1918
G1 X136.487 Y93.058 E19.2142
G1 X135.931 Y92.753 E19.2349
G1 X135.266 Y92.816
;segType:Loop
G0 X134.076 Y91.384 F5400
G1 X134.005 Y91.167 E19.2424 F2700
G1 X133.949 Y90.277 E19.2714
G1 X134.116 Y89.400 E19.3005
G1 X134.496 Y88.593 E19.3296
G1 X135.065 Y87.907 E19.3586
G1 X135.786 Y87.382 E19.3877
G1 X136.615 Y87.054 E19.4168
G1 X137.500 Y86.942 E19.4458
G1 X138.385 Y87.054 E19.4749
G1 X139.214 Y87.382 E19.5040
G1 X139.935 Y87.906 E19.5330
G1 X140.504 Y88.594 E19.5621
G1 X140.884 Y89.400 E19.5912
G1 X141.051 Y90.277 E19.6203
G1 X140.995 Y91.167 E19.6493
G1 X140.719 Y92.015 E19.6784
G1 X140.242 Y92.768 E19.7075
G1 X139.591 Y93.378 E19.7365
G1 X138.810 Y93.808 E19.7656
G1 X137.946 Y94.030 E19.7947
G1 X137.054 Y94.030 E19.8238
G1 X136.191 Y93.808 E19.8528
G1 X135.408 Y93.378 E19.8819
G1 X134.759 Y92.768 E19.9110
G1 X134.281 Y92.015 E19.9400
G1 X134.133 Y91.560 E19.9556
;segType:Infill
G0 X121.515 Y85.182 F5400
G1 X150.136 Y85.182 E20.8885 F3375
G1 X150.136 Y85.553 E20.9006
G1 X121.144 Y85.553 E21.8456
G1 X121.087 Y85.610 E21.8482
G1 X108.700 Y107.065 E22.6557
G0 X108.700 Y109.327 F5400
G1 X117.242 Y109.327 E22.9341 F3375
G1 X117.051 Y108.956 E22.9478
G1 X108.700 Y108.956 E23.2200
G0 X108.700 Y101.121 F5400
G1 X112.968 Y93.729 E23.4982 F3375
G0 X123.909 Y105.984 F5400
G1 X150.136 Y105.984 E24.3531 F3375
G1 X150.136 Y106.355 E24.3652
G1 X124.079 Y106.355 E25.2145
G0 X123.758 Y109.327 F5400
G1 X150.136 Y109.327 E26.0743 F3375
G1 X150.136 Y108.956 E26.0864
G1 X123.949 Y108.956 E26.9400
G0 X125.603 Y120.136 F5400
G1 X149.526 Y78.700 E28.4995 F3375
G1 X149.097 Y78.700 E28.5135
G1 X125.174 Y120.136 E30.0730
G0 X127.087 Y79.610 F5400
G1 X150.136 Y79.610 E30.8243 F3375
G1 X150.136 Y79.238 E30.8364
G1 X127.459 Y79.238 E31.5756
G0 X124.487 Y82.210 F5400
G1 X150.136 Y82.210 E32.4117 F3375
G1 X150.136 Y82.582 E32.4238
G1 X124.115 Y82.582 E33.2719
G0 X148.164 Y120.136 F5400
G1 X125.615 Y81.082 E34.7418 F3375
G1 X125.887 Y80.810 E34.7544
G1 X148.593 Y120.136 E36.2345
G0 X145.762 Y120.136 F5400
G1 X150.136 Y112.560 E36.5197 F3375
G0 X150.136 Y110.923 F5400
G1 X139.963 Y93.303 E37.1828 F3375
G1 X139.681 Y93.557 E37.1952
G1 X150.136 Y111.666 E37.8768
G0 X150.136 Y106.617 F5400
G1 X142.331 Y120.136 E38.3856 F3375
G0 X145.161 Y120.136 F5400
G1 X123.712 Y82.985 E39.7839 F3375
G1 X123.440 Y83.257 E39.7964
G1 X144.732 Y120.136 E41.1844
G0 X141.301 Y120.136 F5400
G1 X121.264 Y85.432 E42.4906 F3375
G1 X121.536 Y85.161 E42.5031
G1 X141.730 Y120.136 E43.8195
G0 X139.328 Y120.136 F5400
G1 X150.136 Y101.416 E44.5241 F3375
G1 X150.136 Y100.673 E44.5483
G1 X138.899 Y120.136 E45.2808
G0 X135.897 Y120.136 F5400
G1 X150.136 Y95.473 E46.2091 F3375
G1 X150.136 Y94.730 E46.2333
G1 X135.468 Y120.136 E47.1895
G0 X138.298 Y120.136 F5400
G1 X119.361 Y87.336 E48.4240 F3375
G1 X119.089 Y87.608 E48.4366
G1 X137.869 Y120.136 E49.6609
G0 X111.877 Y120.136 F5400
G1 X117.723 Y110.009 E50.0420 F3375
G1 X117.476 Y109.696 E50.0550
G1 X111.448 Y120.136 E50.4480
G0 X108.700 Y114.899 F5400
G1 X150.136 Y114.899 E51.7986 F3375
G1 X150.136 Y115.271 E51.8107
G1 X108.700 Y115.271 E53.1613
;segType:HShell
G0 X108.700 Y120.396 F5400
G1 X109.183 Y120.879 E53.1835 F2700
G1 X109.708 Y120.879
G1 X108.965 Y120.136 E53.2178
G1 X109.491 Y120.136
G1 X110.233 Y120.879 E53.2520
G1 X110.759 Y120.879
G1 X110.016 Y120.136 E53.2862
G1 X110.541 Y120.136
G1 X111.284 Y120.879 E53.3204
G1 X111.809 Y120.879
G1 X111.067 Y120.136 E53.3546
G1 X111.592 Y120.136
G1 X112.335 Y120.879 E53.3889
G1 X112.860 Y120.879
G1 X112.117 Y120.136 E53.4231
G1 X112.643 Y120.136
G1 X113.385 Y120.879 E53.4573
G1 X113.911 Y120.879
G1 X113.168 Y120.136 E53.4915
G1 X113.693 Y120.136
G1 X114.436 Y120.879 E53.5257
G1 X114.961 Y120.879
G1 X114.219 Y120.136 E53.5600
G1 X114.744 Y120.136
G1 X115.487 Y120.879 E53.5942
G1 X116.012 Y120.879
G1 X115.269 Y120.136 E53.6284
G1 X115.795 Y120.136
G1 X116.537 Y120.879 E53.6626
G1 X117.063 Y120.879
G1 X116.320 Y120.136 E53.6969
G1 X116.845 Y120.136
G1 X117.588 Y120.879 E53.7311
G1 X118.113 Y120.879
G1 X117.371 Y120.136 E53.7653
G1 X117.896 Y120.136
G1 X118.639 Y120.879 E53.7995
G1 X119.164 Y120.879
G1 X118.421 Y120.136 E53.8337
G1 X118.947 Y120.136
G1 X119.689 Y120.879 E53.8680
G1 X120.214 Y120.879
G1 X119.472 Y120.136 E53.9022
G1 X119.997 Y120.136
G1 X120.740 Y120.879 E53.9364
G1 X121.265 Y120.879
G1 X120.523 Y120.136 E53.9706
G1 X121.048 Y120.136
G1 X121.790 Y120.879 E54.0049
G1 X122.316 Y120.879
G1 X121.573 Y120.136 E54.0391
G1 X122.099 Y120.136
G1 X122.841 Y120.879 E54.0733
G1 X123.366 Y120.879
G1 X122.624 Y120.136 E54.1075
G1 X123.149 Y120.136
G1 X123.892 Y120.879 E54.1417
G1 X124.417 Y120.879
G1 X123.675 Y120.136 E54.1760
G1 X124.200 Y120.136
G1 X124.942 Y120.879 E54.2102
G1 X125.468 Y120.879
G1 X124.725 Y120.136 E54.2444
G1 X125.251 Y120.136
G1 X125.993 Y120.879 E54.2786
G1 X126.518 Y120.879
G1 X125.776 Y120.136 E54.3128
G1 X126.301 Y120.136
G1 X127.044 Y120.879 E54.3471
G1 X127.569 Y120.879
G1 X126.827 Y120.136 E54.3813
G1 X127.352 Y120.136
G1 X128.094 Y120.879 E54.4155
G1 X128.620 Y120.879
G1 X127.877 Y120.136 E54.4497
G1 X128.403 Y120.136
G1 X129.145 Y120.879 E54.4840
G1 X129.670 Y120.879
G1 X128.928 Y120.136 E54.5182
G1 X129.453 Y120.136
G1 X130.196 Y120.879 E54.5524
G1 X130.721 Y120.879
G1 X129.979 Y120.136 E54.5866
G1 X130.504 Y120.136
G1 X131.246 Y120.879 E54.6208
G1 X131.772 Y120.879
G1 X131.029 Y120.136 E54.6551
G1 X131.555 Y120.136
G1 X132.297 Y120.879 E54.6893
G1 X132.822 Y120.879
G1 X132.080 Y120.136 E54.7235
G1 X132.605 Y120.136
G1 X133.348 Y120.879 E54.7577
G1 X133.873 Y120.879
G1 X133.131 Y120.136 E54.7919
G1 X133.656 Y120.136
G1 X134.398 Y120.879 E54.8262
G1 X134.924 Y120.879
G1 X134.181 Y120.136 E54.8604
G1 X134.707 Y120.136
G1 X135.449 Y120.879 E54.8946
G1 X135.974 Y120.879
G1 X135.232 Y120.136 E54.9288
G1 X135.757 Y120.136
G1 X136.500 Y120.879 E54.9631
G1 X137.025 Y120.879
G1 X136.283 Y120.136 E54.9973
G1 X136.808 Y120.136
G1 X137.550 Y120.879 E55.0315
G1 X138.076 Y120.879
G1 X137.333 Y120.136 E55.0657
G1 X137.859 Y120.136
G1 X138.601 Y120.879 E55.0999
G1 X139.126 Y120.879
G1 X138.384 Y120.136 E55.1342
G1 X138.909 Y120.136
G1 X139.652 Y120.879 E55.1684
G1 X140.177 Y120.879
G1 X139.435 Y120.136 E55.2026
G1 X139.960 Y120.136
G1 X140.702 Y120.879 E55.2368
G1 X141.228 Y120.879
G1 X140.485 Y120.136 E55.2711
G1 X141.011 Y120.136
G1 X141.753 Y120.879 E55.3053
G1 X142.278 Y120.879
G1 X141.536 Y120.136 E55.3395
G1 X142.061 Y120.136
G1 X142.804 Y120.879 E55.3737
G1 X143.329 Y120.879
G1 X142.587 Y120.136 E55.4079
G1 X143.112 Y120.136
G1 X143.854 Y120.879 E55.4422
G1 X144.380 Y120.879
G1 X143.637 Y120.136 E55.4764
G1 X144.163 Y120.136
G1 X144.905 Y120.879 E55.5106
G1 X145.430 Y120.879
G1 X144.688 Y120.136 E55.5448
G1 X145.213 Y120.136
G1 X145.956 Y120.879 E55.5790
G1 X146.481 Y120.879
G1 X145.739 Y120.136 E55.6133
G1 X146.264 Y120.136
G1 X147.006 Y120.879 E55.6475
G1 X147.532 Y120.879
G1 X146.789 Y120.136 E55.6817
G1 X147.315 Y120.136
G1 X148.057 Y120.879 E55.7159
G1 X148.582 Y120.879
G1 X147.840 Y120.136 E55.7502
G1 X148.365 Y120.136
G1 X149.108 Y120.879 E55.7844
G1 X149.633 Y120.879
G1 X148.891 Y120.136 E55.8186
G1 X149.416 Y120.136
G1 X150.158 Y120.879 E55.8528
G1 X150.620 Y120.814
G1 X149.941 Y120.136 E55.8841
G1 X150.136 Y119.806
G1 X150.847 Y120.516 E55.9168
G1 X150.878 Y120.023
G1 X150.136 Y119.280 E55.9511
G1 X150.136 Y118.755
G1 X150.878 Y119.497 E55.9853
G1 X150.878 Y118.972
G1 X150.136 Y118.230 E56.0195
G1 X150.136 Y117.704
G1 X150.878 Y118.447 E56.0537
G1 X150.878 Y117.921
G1 X150.136 Y117.179 E56.0879
G1 X150.136 Y116.654
G1 X150.878 Y117.396 E56.1221
G1 X150.878 Y116.871
G1 X150.136 Y116.128 E56.1563
G1 X150.136 Y115.603
G1 X150.878 Y116.345 E56.1905
G1 X150.878 Y115.820
G1 X150.136 Y115.078 E56.2247
G1 X150.136 Y114.552
G1 X150.878 Y115.295 E56.2589
G1 X150.878 Y114.769
G1 X150.136 Y114.027 E56.2932
G1 X150.136 Y113.502
G1 X150.878 Y114.244 E56.3274
G1 X150.878 Y113.719
G1 X150.136 Y112.976 E56.3616
G1 X150.136 Y112.451
G1 X150.878 Y113.193 E56.3958
G1 X150.878 Y112.668
G1 X150.136 Y111.926 E56.4300
G1 X150.136 Y111.400
G1 X150.878 Y112.143 E56.4642
G1 X150.878 Y111.617
G1 X150.136 Y110.875 E56.4984
G1 X150.136 Y110.350
G1 X150.878 Y111.092 E56.5326
G1 X150.878 Y110.567
G1 X150.136 Y109.824 E56.5668
G1 X150.136 Y109.299
G1 X150.878 Y110.041 E56.6011
G1 X150.878 Y109.516
G1 X150.136 Y108.774 E56.6353
G1 X150.136 Y108.249
G1 X150.878 Y108.991 E56.6695
G1 X150.878 Y108.465
G1 X150.136 Y107.723 E56.7037
G1 X150.136 Y107.198
G1 X150.878 Y107.940 E56.7379
G1 X150.878 Y107.415
G1 X150.136 Y106.673 E56.7721
G1 X150.136 Y106.147
G1 X150.878 Y106.889 E56.8063
G1 X150.878 Y106.364
G1 X150.136 Y105.622 E56.8405
G1 X150.136 Y105.097
G1 X150.878 Y105.839 E56.8747
G1 X150.878 Y105.313
G1 X150.136 Y104.571 E56.9089
G1 X150.136 Y104.046
G1 X150.878 Y104.788 E56.9432
G1 X150.878 Y104.263
G1 X150.136 Y103.521 E56.9774
G1 X150.136 Y102.995
G1 X150.878 Y103.737 E57.0116
G1 X150.878 Y103.212
G1 X150.136 Y102.470 E57.0458
G1 X150.136 Y101.945
G1 X150.878 Y102.687 E57.0800
G1 X150.878 Y102.161
G1 X150.136 Y101.419 E57.1142
G1 X150.136 Y100.894
G1 X150.878 Y101.636 E57.1484
G1 X150.878 Y101.111
G1 X150.136 Y100.369 E57.1826
G1 X150.136 Y99.843
G1 X150.878 Y100.585 E57.2168
G1 X150.878 Y100.060
G1 X150.136 Y99.318 E57.2511
G1 X150.136 Y98.793
G1 X150.878 Y99.534 E57.2852
G1 X150.877 Y99.008
G1 X150.136 Y98.267 E57.3194
G1 X150.136 Y97.742
G1 X150.876 Y98.482 E57.3535
G1 X150.875 Y97.955
G1 X150.136 Y97.217 E57.3876
G1 X150.136 Y96.691
G1 X150.874 Y97.429 E57.4216
G1 X150.873 Y96.903
G1 X150.136 Y96.166 E57.4556
G1 X150.136 Y95.641
G1 X150.872 Y96.377 E57.4895
G1 X150.871 Y95.850
G1 X150.136 Y95.115 E57.5234
G1 X150.136 Y94.590
G1 X150.870 Y95.324 E57.5572
G1 X150.869 Y94.798
G1 X150.136 Y94.065 E57.5910
G1 X150.136 Y93.539
G1 X150.868 Y94.271 E57.6248
G1 X150.868 Y93.745
G1 X150.136 Y93.014 E57.6585
G1 X150.136 Y92.489
G1 X150.867 Y93.219 E57.6921
G1 X150.866 Y92.693
G1 X150.136 Y91.963 E57.7257
G1 X150.136 Y91.438
G1 X150.865 Y92.166 E57.7593
G1 X150.864 Y91.640
G1 X150.136 Y90.913 E57.7928
G1 X150.136 Y90.387
G1 X150.863 Y91.114 E57.8263
G1 X150.862 Y90.587
G1 X150.136 Y89.862 E57.8598
G1 X150.136 Y89.337
G1 X150.861 Y90.061 E57.8932
G1 X150.860 Y89.535
G1 X150.136 Y88.811 E57.9265
G1 X150.136 Y88.286
G1 X150.859 Y89.009 E57.9598
G1 X150.858 Y88.482
G1 X150.136 Y87.761 E57.9931
G1 X150.136 Y87.235
G1 X150.857 Y87.956 E58.0263
G1 X150.856 Y87.430
G1 X150.136 Y86.710 E58.0595
G1 X150.136 Y86.185
G1 X150.855 Y86.903 E58.0927
G1 X150.854 Y86.377
G1 X150.136 Y85.659 E58.1257
G1 X150.136 Y85.134
G1 X150.853 Y85.851 E58.1588
G1 X150.852 Y85.325
G1 X150.136 Y84.609 E58.1918
G1 X150.136 Y84.083
G1 X150.851 Y84.798 E58.2247
G1 X150.850 Y84.272
G1 X150.136 Y83.558 E58.2577
G1 X150.136 Y83.033
G1 X150.849 Y83.746 E58.2905
G1 X150.848 Y83.219
G1 X150.136 Y82.507 E58.3234
G1 X150.136 Y81.982
G1 X150.847 Y82.693 E58.3561
G1 X150.846 Y82.167
G1 X150.136 Y81.457 E58.3889
G1 X150.136 Y80.931
G1 X150.845 Y81.641 E58.4216
G1 X150.845 Y81.114
G1 X150.136 Y80.406 E58.4542
G1 X150.136 Y79.881
G1 X150.844 Y80.588 E58.4868
G1 X150.843 Y80.062
G1 X150.136 Y79.355 E58.5194
G1 X150.136 Y78.830
G1 X150.842 Y79.535 E58.5519
G1 X150.841 Y79.009
G1 X150.532 Y78.700 E58.5661
;segType:Infill
G0 X150.136 Y93.093 F5400
G1 X141.827 Y78.700 E59.1078 F3375
G1 X141.398 Y78.700 E59.1218
G1 X150.136 Y93.836 E59.6915
G0 X132.465 Y120.136 F5400
G1 X150.136 Y89.529 E60.8434 F3375
G0 X150.136 Y107.360 F5400
G1 X142.760 Y120.136 E61.3243 F3375
G0 X134.867 Y120.136 F5400
G1 X117.186 Y89.511 E62.4769 F3375
G1 X116.914 Y89.783 E62.4895
G1 X134.438 Y120.136 E63.6319
G0 X110.418 Y120.136 F5400
G1 X108.700 Y117.162 E63.7438 F3375
G1 X108.700 Y116.419 E63.7680
G1 X110.847 Y120.136 E63.9079
G0 X113.849 Y120.136 F5400
G1 X108.700 Y111.218 E64.2436 F3375
G0 X114.278 Y120.136 F5400
G1 X108.700 Y110.475 E64.6072 F3375
G0 X108.700 Y105.984 F5400
G1 X117.091 Y105.984 E64.8807 F3375
G1 X116.921 Y106.355 E64.8940
G1 X108.700 Y106.355 E65.1620
G0 X108.700 Y100.041 F5400
G1 X150.136 Y100.041 E66.5126 F3375
G1 X150.136 Y100.412 E66.5247
G1 X108.700 Y100.412 E67.8753
G0 X108.700 Y98.588 F5400
G1 X121.141 Y120.136 E68.6863 F3375
G0 X115.308 Y120.136 F5400
G1 X120.450 Y111.230 E69.0215 F3375
G1 X120.022 Y111.228 E69.0354
G1 X114.879 Y120.136 E69.3707
G0 X139.763 Y92.372 F5400
G0 X140.385 Y91.050
G0 X140.400 Y88.154
G1 X150.136 Y88.154 E69.6881 F3375
G1 X150.136 Y88.525 E69.7002
G1 X140.693 Y88.525 E70.0080
G0 X138.230 Y87.655 F5400
G0 X136.770 Y87.655
G0 X135.489 Y88.359
G0 X133.897 Y89.482
G1 X127.791 Y78.906 E70.4060 F3375
G1 X128.101 Y78.700 E70.4181
G1 X134.067 Y89.034 E70.8071
G0 X134.842 Y91.751 F5400
G0 X146.191 Y120.136
G1 X150.136 Y113.303 E71.0643 F3375
G0 X150.136 Y116.867 F5400
G1 X137.067 Y94.230 E71.9162 F3375
G1 X136.570 Y94.112 E71.9329
G1 X150.136 Y117.609 E72.8173
G0 X149.194 Y120.136 F5400
G1 X150.136 Y118.504 E72.8787 F3375
G1 X150.136 Y119.247 E72.9029
G1 X149.623 Y120.136 E72.9364
G0 X150.136 Y87.892 F5400
G1 X144.829 Y78.700 E73.2824 F3375
G1 X145.258 Y78.700 E73.2963
G1 X150.136 Y87.149 E73.6143
G0 X127.575 Y120.136 F5400
G1 X122.198 Y110.823 E73.9649 F3375
G1 X122.523 Y110.644 E73.9770
G1 X128.004 Y120.136 E74.3342
G0 X131.435 Y120.136 F5400
G1 X124.228 Y107.653 E74.8041 F3375
G1 X124.166 Y108.288 E74.8249
G1 X131.006 Y120.136 E75.2708
G0 X134.706 Y89.592 F5400
G0 X135.954 Y87.101
G1 X131.103 Y78.700 E75.5870 F3375
G1 X131.532 Y78.700 E75.6010
G1 X136.303 Y86.963 E75.9120
G0 X138.915 Y87.926 F5400
G0 X139.980 Y88.926
G0 X150.136 Y104.980
G1 X140.944 Y89.058 E76.5112 F3375
G0 X150.136 Y99.779 F5400
G1 X137.966 Y78.700 E77.3046 F3375
G1 X138.395 Y78.700 E77.3185
G1 X150.136 Y99.036 E78.0839
G0 X136.511 Y94.097 F5400
G1 X112.600 Y94.097 E78.8633 F3375
G0 X123.476 Y105.246 F5400
G1 X138.802 Y78.700 E79.8624 F3375
G1 X139.231 Y78.700 E79.8764
G1 X123.716 Y105.574 E80.8878
G0 X121.660 Y103.948 F5400
G1 X114.738 Y91.959 E81.3391 F3375
G1 X115.010 Y91.687 E81.3516
G1 X122.216 Y104.168 E81.8214
G0 X119.770 Y104.655 F5400
G0 X118.489 Y105.359
G0 X117.706 Y106.592
G0 X117.615 Y108.050
G0 X118.750 Y110.794
G1 X124.143 Y120.136 E82.1730 F3375
G0 X119.326 Y111.050 F5400
G1 X124.572 Y120.136 E82.5149 F3375
G0 X116.752 Y107.334 F5400
G1 X110.387 Y96.310 E82.9299 F3375
G1 X110.659 Y96.038 E82.9424
G1 X116.845 Y106.753 E83.3457
G0 X120.712 Y120.136 F5400
G1 X108.700 Y99.331 E84.1287 F3375
G0 X108.700 Y101.864 F5400
G1 X113.983 Y92.714 E84.4731 F3375
G0 X118.469 Y104.365 F5400
G1 X112.563 Y94.134 E84.8582 F3375
G1 X112.835 Y93.862 E84.8707
G1 X118.784 Y104.168 E85.2586
G0 X138.489 Y94.097 F5400
G1 X150.136 Y94.097 E85.6382 F3375
G1 X150.136 Y94.469 E85.6503
G1 X112.228 Y94.469 E86.8859
G0 X137.868 Y93.414 F5400
G0 X139.226 Y92.876
G0 X140.158 Y91.751
G0 X141.248 Y90.328
G1 X150.136 Y105.723 E87.4653 F3375
G0 X139.980 Y88.926 F5400
G0 X137.985 Y86.802
G1 X142.663 Y78.700 E87.7703 F3375
G1 X142.234 Y78.700 E87.7842
G1 X137.585 Y86.751 E88.0873
G0 X140.286 Y88.017 F5400
G1 X145.665 Y78.700 E88.4379 F3375
G1 X146.094 Y78.700 E88.4519
G1 X140.539 Y88.322 E88.8140
G0 X139.543 Y87.374 F5400
G1 X134.535 Y78.700 E89.1405 F3375
G1 X134.964 Y78.700 E89.1545
G1 X140.473 Y88.242 E89.5136
G0 X150.136 Y88.786 F5400
G1 X132.036 Y120.136 E90.6935 F3375
G0 X141.098 Y91.497 F5400
G1 X150.136 Y91.497 E90.9881 F3375
G1 X150.136 Y91.125 E91.0002
G1 X141.198 Y91.125 E91.2915
G0 X150.136 Y81.949 F5400
G1 X148.261 Y78.700 E91.4138 F3375
G1 X148.690 Y78.700 E91.4278
G1 X150.136 Y81.206 E91.5221
G0 X129.034 Y120.136 F5400
G1 X150.136 Y83.586 E92.8978 F3375
G1 X150.136 Y82.843 E92.9220
G1 X128.605 Y120.136 E94.3256
G0 X108.700 Y118.242 F5400
G1 X150.136 Y118.242 E95.6762 F3375
G1 X150.136 Y117.871 E95.6883
G1 X108.700 Y117.871 E97.0389
G0 X108.700 Y118.951 F5400
G1 X131.939 Y78.700 E98.5539 F3375
G1 X132.368 Y78.700 E98.5678
G1 X108.700 Y119.694 E100.1107
G0 X108.700 Y103.384 F5400
G1 X150.136 Y103.384 E101.4613 F3375
G1 X150.136 Y103.012 E101.4734
G1 X108.700 Y103.012 E102.8240
G0 X108.700 Y104.532 F5400
G1 X117.709 Y120.136 E103.4113 F3375
G1 X118.311 Y120.136 E103.4309
G1 X134.307 Y92.430 E104.4737
G1 X134.532 Y92.784 E104.4874
G1 X118.740 Y120.136 E105.5169
G0 X117.281 Y120.136 F5400
G1 X108.700 Y105.275 E106.0762 F3375
G0 X108.700 Y113.751 F5400
G1 X128.937 Y78.700 E107.3954 F3375
G1 X128.508 Y78.700 E107.4094
G1 X108.700 Y113.008 E108.7007
G0 X108.700 Y111.927 F5400
G1 X150.136 Y111.927 E110.0513 F3375
G1 X150.136 Y112.299 E110.0634
G1 X108.700 Y112.299 E111.4140
G0 X109.257 Y97.440 F5400
G1 X150.136 Y97.440 E112.7465 F3375
G1 X150.136 Y97.069 E112.7586
G1 X109.628 Y97.069 E114.0789
G0 X115.200 Y91.497 F5400
G1 X133.902 Y91.497 E114.6885 F3375
G1 X133.802 Y91.125 E114.7010
G1 X115.572 Y91.125 E115.2952
G0 X120.886 Y103.789 F5400
G1 X135.371 Y78.700 E116.2395 F3375
G1 X135.800 Y78.700 E116.2535
G1 X121.285 Y103.840 E117.1997
G0 X122.980 Y105.926 F5400
G0 X123.432 Y107.316
G0 X122.171 Y120.136
G1 X137.128 Y94.230 E118.1747 F3375
G1 X136.742 Y94.156 E118.1876
G1 X121.742 Y120.136 E119.1654
G0 X108.700 Y107.807 F5400
G1 X122.102 Y84.595 E120.0390 F3375
G0 X118.543 Y88.154 F5400
G1 X134.601 Y88.154 E120.5624 F3375
G1 X134.307 Y88.525 E120.5779
G1 X118.172 Y88.525 E121.1038
; ------------------------------------
; Layer #4
; ------------------------------------
G21 ; mm
G90 ; abs
G92 E0 ; reset extr
M73 S1
M106 S255
G0 F1200 E-1.0000
G0 F300 Z1.000
G0 X118.012 Y120.538 F5400
G0 X118.000 Y123.000
G0 F1200 E0.0000
;segType:Support
G1 X122.500 Y123.000 E0.1247 F4050
G0 F1200 E-0.8753
G0 X135.000 Y123.000 F5400
G0 F1200 E0.1247
G1 X139.500 Y123.000 E0.2494 F4050
G0 F1200 E-0.7506
G0 X152.208 Y122.000 F5400
G0 F1200 E0.2494
G1 X152.500 Y122.000 E0.2574 F4050
G0 F1200 E-0.7426
G0 X150.033 Y121.945 F5400
G0 X142.633 Y121.780
G0 X140.167 Y121.725
G0 X108.100 Y121.011
G0 F1200 E0.2574
;segType:Loop
G1 X108.100 Y97.748 E1.0157 F2700
G1 X127.748 Y78.100 E1.9214
G1 X151.632 Y78.100 E2.6999
G1 X151.632 Y120.429 E4.0796
G1 X151.557 Y120.739 E4.0900
G1 X151.377 Y121.134 E4.1041
G1 X151.067 Y121.422 E4.1179
G1 X150.740 Y121.557 E4.1295
G1 X150.429 Y121.632 E4.1399
G1 X108.100 Y121.632 E5.5196
G1 X108.100 Y121.196 E5.5338
;segType:Perimeter
G0 X108.318 Y121.721 F5400
G1 X107.700 Y121.976 E5.5556 F1890
G1 X107.700 Y97.583 E6.3507
G1 X127.583 Y77.700 E7.2672
G1 X151.799 Y77.700 E8.0565
G1 X152.032 Y77.709 E8.0641
G1 X152.032 Y120.477 E9.4581
G1 X151.939 Y120.864 E9.4711
G1 X151.776 Y121.256 E9.4850
G1 X151.687 Y121.389 E9.4902
G1 X151.389 Y121.687 E9.5039
G1 X151.257 Y121.776 E9.5091
G1 X150.864 Y121.939 E9.5230
G1 X150.476 Y122.032 E9.5360
G1 X107.756 Y122.032 E10.9284
G1 X108.012 Y121.414
;segType:Loop
G0 X108.500 Y119.989 F5400
G1 X108.500 Y97.914 E11.6480 F2700
G1 X127.914 Y78.500 E12.5429
G1 X151.232 Y78.500 E13.3029
G1 X151.232 Y120.382 E14.6680
G1 X151.178 Y120.608 E14.6756
G1 X151.046 Y120.895 E14.6859
G1 X150.848 Y121.080 E14.6947
G1 X150.615 Y121.176 E14.7029
G1 X150.381 Y121.232 E14.7108
G1 X108.500 Y121.232 E16.0759
G1 X108.500 Y120.175 E16.1104
G0 X117.864 Y109.188 F5400
G1 X117.645 Y108.843 E16.1237 F2700
G1 X117.401 Y108.091 E16.1494
G1 X117.351 Y107.302 E16.1752
G1 X117.500 Y106.525 E16.2010
G1 X117.837 Y105.810 E16.2268
G1 X118.340 Y105.201 E16.2525
G1 X118.980 Y104.736 E16.2783
G1 X119.715 Y104.444 E16.3041
G1 X120.500 Y104.345 E16.3299
G1 X121.284 Y104.444 E16.3556
G1 X122.020 Y104.736 E16.3814
G1 X122.659 Y105.201 E16.4072
G1 X123.164 Y105.810 E16.4330
G1 X123.500 Y106.525 E16.4587
G1 X123.649 Y107.302 E16.4845
G1 X123.599 Y108.091 E16.5103
G1 X123.354 Y108.843 E16.5361
G1 X122.931 Y109.511 E16.5619
G1 X122.354 Y110.052 E16.5876
G1 X121.661 Y110.433 E16.6134
G1 X120.895 Y110.630 E16.6392
G1 X120.104 Y110.630 E16.6650
G1 X119.339 Y110.433 E16.6907
G1 X118.645 Y110.052 E16.7165
G1 X118.069 Y109.511 E16.7423
G1 X117.964 Y109.345 E16.7487
;segType:Perimeter
G0 X118.988 Y110.341 F5400
G1 X118.842 Y109.688 E16.7705 F1890
G1 X118.380 Y109.254 E16.7912
G1 X118.010 Y108.672 E16.8136
G1 X117.797 Y108.015 E16.8361
G1 X117.754 Y107.327 E16.8586
G1 X117.883 Y106.650 E16.8811
G1 X118.177 Y106.026 E16.9036
G1 X118.616 Y105.494 E16.9260
G1 X119.174 Y105.089 E16.9485
G1 X119.816 Y104.835 E16.9710
G1 X120.500 Y104.749 E16.9935
G1 X121.184 Y104.835 E17.0160
G1 X121.826 Y105.089 E17.0385
G1 X122.383 Y105.494 E17.0609
G1 X122.823 Y106.026 E17.0834
G1 X123.117 Y106.650 E17.1059
G1 X123.246 Y107.327 E17.1284
G1 X123.203 Y108.015 E17.1509
G1 X122.990 Y108.672 E17.1733
G1 X122.620 Y109.254 E17.1958
G1 X122.117 Y109.726 E17.2183
G1 X121.513 Y110.058 E17.2408
G1 X120.845 Y110.230 E17.2633
G1 X120.155 Y110.230 E17.2858
G1 X119.487 Y110.058 E17.3082
G1 X118.931 Y109.753 E17.3289
G1 X118.266 Y109.816
;segType:Loop
G0 X117.076 Y108.384 F5400
G1 X117.005 Y108.167 E17.3363 F2700
G1 X116.949 Y107.277 E17.3654
G1 X117.116 Y106.400 E17.3945
G1 X117.496 Y105.594 E17.4236
G1 X118.064 Y104.907 E17.4526
G1 X118.786 Y104.382 E17.4817
G1 X119.615 Y104.054 E17.5108
G1 X120.500 Y103.942 E17.5398
G1 X121.385 Y104.054 E17.5689
G1 X122.214 Y104.382 E17.5980
G1 X122.935 Y104.907 E17.6270
G1 X123.504 Y105.593 E17.6561
G1 X123.884 Y106.400 E17.6852
G1 X124.051 Y107.277 E17.7143
G1 X123.995 Y108.167 E17.7433
G1 X123.719 Y109.015 E17.7724
G1 X123.242 Y109.768 E17.8015
G1 X122.591 Y110.378 E17.8305
G1 X121.810 Y110.808 E17.8596
G1 X120.946 Y111.030 E17.8887
G1 X120.054 Y111.030 E17.9177
G1 X119.191 Y110.808 E17.9468
G1 X118.408 Y110.378 E17.9759
G1 X117.759 Y109.768 E18.0050
G1 X117.281 Y109.015 E18.0340
G1 X117.133 Y108.560 E18.0496
G0 X118.489 Y105.359 F5400
G0 X134.864 Y92.188
G1 X134.646 Y91.843 E18.0629 F2700
G1 X134.401 Y91.091 E18.0887
G1 X134.351 Y90.302 E18.1145
G1 X134.500 Y89.525 E18.1403
G1 X134.836 Y88.809 E18.1660
G1 X135.341 Y88.201 E18.1918
G1 X135.980 Y87.735 E18.2176
G1 X136.716 Y87.444 E18.2434
G1 X137.500 Y87.345 E18.2691
G1 X138.284 Y87.444 E18.2949
G1 X139.020 Y87.735 E18.3207
G1 X139.659 Y88.200 E18.3464
G1 X140.164 Y88.810 E18.3722
G1 X140.500 Y89.525 E18.3980
G1 X140.649 Y90.302 E18.4238
G1 X140.599 Y91.091 E18.4496
G1 X140.354 Y91.843 E18.4753
G1 X139.931 Y92.511 E18.5011
G1 X139.354 Y93.052 E18.5269
G1 X138.661 Y93.433 E18.5527
G1 X137.895 Y93.630 E18.5784
G1 X137.104 Y93.630 E18.6042
G1 X136.339 Y93.433 E18.6300
G1 X135.645 Y93.052 E18.6558
G1 X135.069 Y92.511 E18.6815
G1 X134.964 Y92.345 E18.6880
;segType:Perimeter
G0 X135.988 Y93.341 F5400
G1 X135.842 Y92.688 E18.7098 F1890
G1 X135.380 Y92.254 E18.7304
G1 X135.010 Y91.672 E18.7529
G1 X134.797 Y91.015 E18.7754
G1 X134.754 Y90.327 E18.7979
G1 X134.883 Y89.650 E18.8203
G1 X135.177 Y89.026 E18.8428
G1 X135.616 Y88.494 E18.8653
G1 X136.174 Y88.089 E18.8878
G1 X136.816 Y87.835 E18.9103
G1 X137.500 Y87.749 E18.9327
G1 X138.184 Y87.835 E18.9552
G1 X138.826 Y88.089 E18.9777
G1 X139.383 Y88.494 E19.0002
G1 X139.823 Y89.026 E19.0227
G1 X140.117 Y89.650 E19.0452
G1 X140.246 Y90.327 E19.0676
G1 X140.203 Y91.015 E19.0901
G1 X139.990 Y91.672 E19.1126
G1 X139.620 Y92.254 E19.1351
G1 X139.117 Y92.726 E19.1576
G1 X138.513 Y93.058 E19.1800
G1 X137.845 Y93.230 E19.2025
G1 X137.155 Y93.230 E19.2250
G1 X136.487 Y93.058 E19.2475
G1 X135.931 Y92.753 E19.2682
G1 X135.266 Y92.816
;segType:Loop
G0 X134.076 Y91.384 F5400
G1 X134.005 Y91.167 E19.2756 F2700
G1 X133.949 Y90.277 E19.3047
G1 X134.116 Y89.400 E19.3337
G1 X134.496 Y88.593 E19.3628
G1 X135.065 Y87.907 E19.3919
G1 X135.786 Y87.382 E19.4209
G1 X136.615 Y87.054 E19.4500
G1 X137.500 Y86.942 E19.4791
G1 X138.385 Y87.054 E19.5082
G1 X139.214 Y87.382 E19.5372
G1 X139.935 Y87.906 E19.5663
G1 X140.504 Y88.594 E19.5954
G1 X140.884 Y89.400 E19.6244
G1 X141.051 Y90.277 E19.6535
G1 X140.995 Y91.167 E19.6826
G1 X140.719 Y92.015 E19.7116
G1 X140.242 Y92.768 E19.7407
G1 X139.591 Y93.378 E19.7698
G1 X138.810 Y93.808 E19.7989
G1 X137.946 Y94.030 E19.8279
G1 X137.054 Y94.030 E19.8570
G1 X136.191 Y93.808 E19.8861
G1 X135.408 Y93.378 E19.9152
G1 X134.759 Y92.768 E19.9442
G1 X134.281 Y92.015 E19.9733
G1 X134.133 Y91.560 E19.9889
;segType:Infill
G0 X121.285 Y103.840 F5400
G1 X135.800 Y78.700 E20.9351 F3375
G1 X135.371 Y78.700 E20.9490
G1 X120.886 Y103.789 E21.8933
G0 X123.909 Y105.984 F5400
G1 X150.464 Y105.984 E22.7589 F3375
G1 X150.464 Y106.355 E22.7710
G1 X124.079 Y106.355 E23.6310
G0 X118.117 Y120.472 F5400
G1 X134.307 Y92.430 E24.6865 F3375
G1 X134.532 Y92.784 E24.7001
G1 X118.546 Y120.472 E25.7422
G1 X117.903 Y120.472 E25.7632
G1 X108.700 Y104.532 E26.3631
G0 X138.581 Y93.231 F5400
G0 X140.146 Y91.771
G0 X141.198 Y91.125
G1 X150.468 Y91.125 E26.6653 F3375
G1 X150.468 Y91.497 E26.6774
G1 X141.098 Y91.497 E26.9828
G0 X140.286 Y88.017 F5400
G1 X145.665 Y78.700 E27.3335 F3375
G1 X146.094 Y78.700 E27.3474
G1 X140.539 Y88.322 E27.7096
G0 X150.464 Y105.548 F5400
G1 X140.944 Y89.058 E28.3302 F3375
G0 X141.248 Y90.328 F5400
G1 X150.464 Y106.290 E28.9310 F3375
G1 X150.464 Y106.792 E28.9473
G1 X142.566 Y120.472 E29.4622
G0 X127.087 Y79.610 F5400
G1 X150.472 Y79.610 E30.2244 F3375
G1 X150.472 Y79.238 E30.2365
G1 X127.459 Y79.238 E30.9867
G0 X144.926 Y120.472 F5400
G1 X123.440 Y83.257 E32.3873 F3375
G1 X123.712 Y82.985 E32.3999
G1 X145.355 Y120.472 E33.8108
G0 X132.271 Y120.472 F5400
G1 X150.469 Y88.953 E34.9971 F3375
G0 X123.949 Y108.956 F5400
G1 X150.463 Y108.956 E35.8613 F3375
G1 X150.463 Y109.327 E35.8734
G1 X123.758 Y109.327 E36.7439
G0 X150.462 Y111.488 F5400
G1 X139.963 Y93.303 E37.4283 F3375
G1 X139.681 Y93.557 E37.4407
G1 X150.462 Y112.231 E38.1435
G0 X131.842 Y120.472 F5400
G1 X150.469 Y88.210 E39.3578 F3375
G0 X140.693 Y88.525 F5400
G1 X150.469 Y88.525 E39.6764 F3375
G1 X150.469 Y88.154 E39.6885
G1 X140.400 Y88.154 E40.0168
G0 X137.585 Y86.751 F5400
G1 X142.234 Y78.700 E40.3198 F3375
