; GCode generated by CraftWare

G28 X0 Y0
G28 Z0

M190 S65 ;set bed temp (wait)
M109 S240 ;set head temp (wait)
; ------------------------------------
; Layer #0
; ------------------------------------
G21 ; mm
G90 ; abs
G92 E0 ; reset extr
M106 S0
;segType:Skirt
G0 F1200 E-1.0000
G0 F300 Z0.200
G0 X80.801 Y166.406 F5400
G0 F1200 E0.0000
G1 X81.000 Y166.600 E0.0093 F3000
G1 X81.200 Y166.795 E0.0185
G1 X81.666 Y166.859 E0.0342
G1 X178.601 Y166.859 E3.2582
G1 X180.198 Y165.306 E3.3324
G1 X180.398 Y164.982 E3.3450
G1 X180.398 Y79.018 E6.2042
G1 X178.534 Y77.205 E6.2907
G1 X178.068 Y77.141 E6.3063
G1 X81.399 Y77.141 E9.5215
G1 X79.535 Y78.953 E9.6080
G1 X79.469 Y79.406 E9.6232
G1 X79.469 Y165.112 E12.4738
G1 X80.801 Y166.406 E12.5355
G1 X80.801 Y166.795 E12.5485
G1 X81.000 Y166.989 E12.5577
G1 X81.200 Y167.183 E12.5670
G1 X81.666 Y167.248 E12.5826
G1 X178.601 Y167.248 E15.8067
G1 X180.731 Y165.176 E15.9055
G1 X180.797 Y164.723 E15.9208
G1 X180.797 Y79.018 E18.7713
G1 X178.667 Y76.946 E18.8702
G1 X178.334 Y76.752 E18.8830
G1 X81.399 Y76.752 E22.1070
G1 X79.269 Y78.824 E22.2059
G1 X79.070 Y79.147 E22.2185
G1 X79.070 Y165.112 E25.0777
G1 X80.801 Y166.795 E25.1580
G1 X80.801 Y167.183 E25.1709
G0 F1200 E24.1709
G0 X81.700 Y165.210 F5400
G0 X82.600 Y163.236
G0 F1200 E25.1709
;segType:Loop
G1 X82.600 Y80.083 E27.9366 F3000
G1 X177.400 Y80.083 E31.0896
G1 X177.400 Y163.917 E33.8779
G1 X82.600 Y163.917 E37.0310
G1 X82.600 Y163.431 E37.0472
;segType:Perimeter
G0 X82.865 Y163.979 F5400
G1 X82.200 Y164.247 E37.0710 F2100
G1 X82.200 Y79.695 E39.8832
G1 X177.800 Y79.695 E43.0629
G1 X177.800 Y164.306 E45.8771
G1 X82.260 Y164.306 E49.0548
G1 X82.535 Y163.659
;segType:Loop
G0 X83.000 Y162.167 F5400
G1 X83.000 Y80.472 E51.7720 F3000
G1 X177.000 Y80.472 E54.8984
G1 X177.000 Y163.528 E57.6608
G1 X83.000 Y163.528 E60.7873
G1 X83.000 Y162.362 E60.8261
;segType:HShell
G0 X176.533 Y163.333 F5400
G1 X176.800 Y163.074 E60.8385 F3000
G1 X176.800 Y162.524
G1 X175.968 Y163.333 E60.8771
G1 X175.402 Y163.333
G1 X176.800 Y161.974 E60.9420
G1 X176.800 Y161.424
G1 X174.837 Y163.333 E61.0330
G1 X174.271 Y163.333
G1 X176.800 Y160.874 E61.1504
G1 X176.800 Y160.324
G1 X173.706 Y163.333 E61.2939
G1 X173.140 Y163.333
G1 X176.800 Y159.775 E61.4637
G1 X176.800 Y159.225
G1 X172.575 Y163.333 E61.6597
G1 X172.009 Y163.333
G1 X176.800 Y158.675 E61.8820
G1 X176.800 Y158.125
G1 X171.444 Y163.333 E62.1305
G1 X170.878 Y163.333
G1 X176.800 Y157.575 E62.4052
G1 X176.800 Y157.026
G1 X170.313 Y163.333 E62.7061
G1 X169.747 Y163.333
G1 X176.800 Y156.476 E63.0333
G1 X176.800 Y155.926
G1 X169.182 Y163.333 E63.3867
G1 X168.616 Y163.333
G1 X176.800 Y155.376 E63.7664
G1 X176.800 Y154.826
G1 X168.051 Y163.333 E64.1723
G1 X167.485 Y163.333
G1 X176.800 Y154.276 E64.6044
G1 X176.800 Y153.727
G1 X166.920 Y163.333 E65.0627
G1 X166.354 Y163.333
G1 X176.800 Y153.177 E65.5473
G1 X176.800 Y152.627
G1 X165.789 Y163.333 E66.0581
G1 X165.223 Y163.333
G1 X176.800 Y152.077 E66.5952
G1 X176.800 Y151.527
G1 X164.658 Y163.333 E67.1584
G1 X164.092 Y163.333
G1 X176.800 Y150.978 E67.7480
G1 X176.800 Y150.428
G1 X163.527 Y163.333 E68.3637
G1 X162.961 Y163.333
G1 X176.800 Y149.878 E69.0057
G1 X176.800 Y149.328
G1 X162.396 Y163.333 E69.6739
G1 X161.831 Y163.333
G1 X176.800 Y148.778 E70.3683
G1 X176.800 Y148.228
G1 X161.265 Y163.333 E71.0890
G1 X160.700 Y163.333
G1 X176.800 Y147.679 E71.8359
G1 X176.800 Y147.129
G1 X160.134 Y163.333 E72.6091
G1 X159.569 Y163.333
G1 X176.800 Y146.579 E73.4084
G1 X176.800 Y146.029
G1 X159.003 Y163.333 E74.2340
G1 X158.438 Y163.333
G1 X176.800 Y145.479 E75.0859
G1 X176.800 Y144.930
G1 X157.872 Y163.333 E75.9639
G1 X157.307 Y163.333
G1 X176.800 Y144.380 E76.8682
G1 X176.800 Y143.830
G1 X156.741 Y163.333 E77.7988
G1 X156.176 Y163.333
G1 X176.800 Y143.280 E78.7555
G1 X176.800 Y142.730
G1 X155.610 Y163.333 E79.7386
G1 X155.045 Y163.333
G1 X176.800 Y142.180 E80.7478
G1 X176.800 Y141.631
G1 X154.479 Y163.333 E81.7833
G1 X153.914 Y163.333
G1 X176.800 Y141.081 E82.8450
G1 X176.800 Y140.531
G1 X153.348 Y163.333 E83.9329
G1 X152.783 Y163.333
G1 X176.800 Y139.981 E85.0471
G1 X176.800 Y139.431
G1 X152.217 Y163.333 E86.1875
G1 X151.652 Y163.333
G1 X176.800 Y138.881 E87.3541
G1 X176.800 Y138.332
G1 X151.086 Y163.333 E88.5470
G1 X150.521 Y163.333
G1 X176.800 Y137.782 E89.7661
G1 X176.800 Y137.232
G1 X149.955 Y163.333 E91.0114
G1 X149.390 Y163.333
G1 X176.800 Y136.682 E92.2830
G1 X176.800 Y136.132
G1 X148.824 Y163.333 E93.5808
G1 X148.259 Y163.333
G1 X176.800 Y135.583 E94.9048
G1 X176.800 Y135.033
G1 X147.693 Y163.333 E96.2550
G1 X147.128 Y163.333
G1 X176.800 Y134.483 E97.6315
G1 X176.800 Y133.933
G1 X146.563 Y163.333 E99.0343
G1 X145.997 Y163.333
G1 X176.800 Y133.383 E100.4632
G1 X176.800 Y132.833
G1 X145.432 Y163.333 E101.9184
G1 X144.866 Y163.333
G1 X176.800 Y132.284 E103.3998
G1 X176.800 Y131.734
G1 X144.301 Y163.333 E104.9075
G1 X143.735 Y163.333
G1 X176.800 Y131.184 E106.4414
G1 X176.800 Y130.634
G1 X143.170 Y163.333 E108.0015
G1 X142.604 Y163.333
G1 X176.800 Y130.084 E109.5879
G1 X176.800 Y129.535
G1 X142.039 Y163.333 E111.2005
G1 X141.473 Y163.333
G1 X176.800 Y128.985 E112.8393
G1 X176.800 Y128.435
G1 X140.908 Y163.333 E114.5043
G1 X140.342 Y163.333
G1 X176.800 Y127.885 E116.1956
G1 X176.800 Y127.335
G1 X139.777 Y163.333 E117.9132
G1 X139.211 Y163.333
G1 X176.800 Y126.785 E119.6569
G1 X176.800 Y126.236
G1 X138.646 Y163.333 E121.4269
G1 X138.080 Y163.333
G1 X176.800 Y125.686 E123.2231
G1 X176.800 Y125.136
G1 X137.515 Y163.333 E125.0456
G1 X136.949 Y163.333
G1 X176.800 Y124.586 E126.8943
G1 X176.800 Y124.036
G1 X136.384 Y163.333 E128.7692
G1 X135.818 Y163.333
G1 X176.800 Y123.487 E130.6703
G1 X176.800 Y122.937
G1 X135.253 Y163.333 E132.5977
G1 X134.687 Y163.333
G1 X176.800 Y122.387 E134.5513
G1 X176.800 Y121.837
G1 X134.122 Y163.333 E136.5312
G1 X133.556 Y163.333
G1 X176.800 Y121.287 E138.5373
G1 X176.800 Y120.737
G1 X132.991 Y163.333 E140.5696
G1 X132.425 Y163.333
G1 X176.800 Y120.188 E142.6281
G1 X176.800 Y119.638
G1 X131.860 Y163.333 E144.7129
G1 X131.294 Y163.333
G1 X176.800 Y119.088 E146.8239
G1 X176.800 Y118.538
G1 X130.729 Y163.333 E148.9612
G1 X130.164 Y163.333
G1 X176.800 Y117.988 E151.1246
G1 X176.800 Y117.438
G1 X129.598 Y163.333 E153.3144
G1 X129.033 Y163.333
G1 X176.800 Y116.889 E155.5303
G1 X176.800 Y116.339
G1 X128.467 Y163.333 E157.7725
G1 X127.902 Y163.333
G1 X176.800 Y115.789 E160.0409
G1 X176.800 Y115.239
G1 X127.336 Y163.333 E162.3355
G1 X126.771 Y163.333
G1 X176.800 Y114.689 E164.6564
G1 X176.800 Y114.140
G1 X126.205 Y163.333 E167.0035
G1 X125.640 Y163.333
G1 X176.800 Y113.590 E169.3769
G1 X176.800 Y113.040
G1 X125.074 Y163.333 E171.7764
G1 X124.509 Y163.333
G1 X176.800 Y112.490 E174.2022
G1 X176.800 Y111.940
G1 X123.943 Y163.333 E176.6543
G1 X123.378 Y163.333
G1 X176.800 Y111.390 E179.1325
G1 X176.800 Y110.841
G1 X122.812 Y163.333 E181.6370
G1 X122.247 Y163.333
G1 X176.800 Y110.291 E184.1678
G1 X176.800 Y109.741
G1 X121.681 Y163.333 E186.7248
G1 X121.116 Y163.333
G1 X176.800 Y109.191 E189.3080
G1 X176.800 Y108.641
G1 X120.550 Y163.333 E191.9174
G1 X119.985 Y163.333
G1 X176.800 Y108.092 E194.5531
G1 X176.800 Y107.542
G1 X119.419 Y163.333 E197.2150
G1 X118.854 Y163.333
G1 X176.800 Y106.992 E199.9031
G1 X176.800 Y106.442
G1 X118.288 Y163.333 E202.6175
G1 X117.723 Y163.333
G1 X176.800 Y105.892 E205.3581
G1 X176.800 Y105.342
G1 X117.157 Y163.333 E208.1249
G1 X116.592 Y163.333
G1 X176.800 Y104.793 E210.9180
G1 X176.800 Y104.243
G1 X116.026 Y163.333 E213.7373
G1 X115.461 Y163.333
G1 X176.800 Y103.693 E216.5828
G1 X176.800 Y103.143
G1 X114.895 Y163.333 E219.4546
G1 X114.330 Y163.333
G1 X176.800 Y102.593 E222.3526
G1 X176.800 Y102.044
G1 X113.765 Y163.333 E225.2768
G1 X113.199 Y163.333
G1 X176.800 Y101.494 E228.2273
G1 X176.800 Y100.944
G1 X112.634 Y163.333 E231.2040
G1 X112.068 Y163.333
G1 X176.800 Y100.394 E234.2069
G1 X176.800 Y99.844
G1 X111.503 Y163.333 E237.2361
G1 X110.937 Y163.333
G1 X176.800 Y99.294 E240.2914
G1 X176.800 Y98.745
G1 X110.372 Y163.333 E243.3731
G1 X109.806 Y163.333
G1 X176.800 Y98.195 E246.4809
G1 X176.800 Y97.645
G1 X109.241 Y163.333 E249.6150
G1 X108.675 Y163.333
G1 X176.800 Y97.095 E252.7753
G1 X176.800 Y96.545
G1 X108.110 Y163.333 E255.9619
G1 X107.544 Y163.333
G1 X176.800 Y95.996 E259.1747
G1 X176.800 Y95.446
G1 X106.979 Y163.333 E262.4137
G1 X106.413 Y163.333
G1 X176.800 Y94.896 E265.6790
G1 X176.800 Y94.346
G1 X105.848 Y163.333 E268.9705
G1 X105.282 Y163.333
G1 X176.800 Y93.796 E272.2882
G1 X176.800 Y93.246
G1 X104.717 Y163.333 E275.6322
G1 X104.151 Y163.333
G1 X176.800 Y92.697 E279.0023
G1 X176.800 Y92.147
G1 X103.586 Y163.333 E282.3988
G1 X103.020 Y163.333
G1 X176.800 Y91.597 E285.8214
G1 X176.800 Y91.047
G1 X102.455 Y163.333 E289.2703
G1 X101.889 Y163.333
G1 X176.800 Y90.497 E292.7454
G1 X176.800 Y89.947
G1 X101.324 Y163.333 E296.2468
G1 X100.758 Y163.333
G1 X176.800 Y89.398 E299.7744
G1 X176.800 Y88.848
G1 X100.193 Y163.333 E303.3282
G1 X99.627 Y163.333
G1 X176.800 Y88.298 E306.9082
G1 X176.800 Y87.748
G1 X99.062 Y163.333 E310.5145
G1 X98.497 Y163.333
G1 X176.800 Y87.198 E314.1470
G1 X176.800 Y86.649
G1 X97.931 Y163.333 E317.8058
G1 X97.366 Y163.333
G1 X176.800 Y86.099 E321.4907
G1 X176.800 Y85.549
G1 X96.800 Y163.333 E325.2019
G1 X96.235 Y163.333
G1 X176.800 Y84.999 E328.9394
G1 X176.800 Y84.449
G1 X95.669 Y163.333 E332.7031
G1 X95.104 Y163.333
G1 X176.800 Y83.899 E336.4930
G1 X176.800 Y83.350
G1 X94.538 Y163.333 E340.3091
G1 X93.973 Y163.333
G1 X176.800 Y82.800 E344.1515
G1 X176.800 Y82.250
G1 X93.407 Y163.333 E348.0201
G1 X92.842 Y163.333
G1 X176.800 Y81.700 E351.9150
G1 X176.800 Y81.150
G1 X92.276 Y163.333 E355.8360
G1 X91.711 Y163.333
G1 X176.732 Y80.667 E359.7802
G1 X176.167 Y80.667
G1 X91.145 Y163.333 E363.7243
G1 X90.580 Y163.333
G1 X175.601 Y80.667 E367.6685
G1 X175.036 Y80.667
G1 X90.014 Y163.333 E371.6127
G1 X89.449 Y163.333
G1 X174.470 Y80.667 E375.5568
G1 X173.905 Y80.667
G1 X88.883 Y163.333 E379.5010
G1 X88.318 Y163.333
G1 X173.339 Y80.667 E383.4451
G1 X172.774 Y80.667
G1 X87.752 Y163.333 E387.3893
G1 X87.187 Y163.333
G1 X172.208 Y80.667 E391.3334
G1 X171.643 Y80.667
G1 X86.621 Y163.333 E395.2776
G1 X86.056 Y163.333
G1 X171.077 Y80.667 E399.2217
G1 X170.512 Y80.667
G1 X85.490 Y163.333 E403.1659
G1 X84.925 Y163.333
G1 X169.946 Y80.667 E407.1100
G1 X169.381 Y80.667
G1 X84.359 Y163.333 E411.0542
G1 X83.794 Y163.333
G1 X168.815 Y80.667 E414.9983
G1 X168.250 Y80.667
G1 X83.228 Y163.333 E418.9425
G1 X83.200 Y162.811
G1 X167.684 Y80.667 E422.8617
G1 X167.119 Y80.667
G1 X83.200 Y162.261 E426.7548
G1 X83.200 Y161.712
G1 X166.553 Y80.667 E430.6215
G1 X165.988 Y80.667
G1 X83.200 Y161.162 E434.4621
G1 X83.200 Y160.612
G1 X165.422 Y80.667 E438.2764
G1 X164.857 Y80.667
G1 X83.200 Y160.062 E442.0645
G1 X83.200 Y159.512
G1 X164.291 Y80.667 E445.8263
G1 X163.726 Y80.667
G1 X83.200 Y158.963 E449.5619
G1 X83.200 Y158.413
G1 X163.160 Y80.667 E453.2713
G1 X162.595 Y80.667
G1 X83.200 Y157.863 E456.9545
G1 X83.200 Y157.313
G1 X162.029 Y80.667 E460.6114
G1 X161.464 Y80.667
G1 X83.200 Y156.763 E464.2421
G1 X83.200 Y156.213
G1 X160.899 Y80.667 E467.8465
G1 X160.333 Y80.667
G1 X83.200 Y155.664 E471.4247
G1 X83.200 Y155.114
G1 X159.768 Y80.667 E474.9767
G1 X159.202 Y80.667
G1 X83.200 Y154.564 E478.5025
G1 X83.200 Y154.014
G1 X158.637 Y80.667 E482.0020
G1 X158.071 Y80.667
G1 X83.200 Y153.464 E485.4753
G1 X83.200 Y152.914
G1 X157.506 Y80.667 E488.9223
G1 X156.940 Y80.667
G1 X83.200 Y152.365 E492.3431
G1 X83.200 Y151.815
G1 X156.375 Y80.667 E495.7377
G1 X155.809 Y80.667
G1 X83.200 Y151.265 E499.1061
G1 X83.200 Y150.715
G1 X155.244 Y80.667 E502.4482
G1 X154.678 Y80.667
G1 X83.200 Y150.165 E505.7641
G1 X83.200 Y149.616
G1 X154.113 Y80.667 E509.0537
G1 X153.547 Y80.667
G1 X83.200 Y149.066 E512.3172
G1 X83.200 Y148.516
G1 X152.982 Y80.667 E515.5543
G1 X152.416 Y80.667
G1 X83.200 Y147.966 E518.7653
G1 X83.200 Y147.416
G1 X151.851 Y80.667 E521.9500
G1 X151.285 Y80.667
G1 X83.200 Y146.866 E525.1085
G1 X83.200 Y146.317
G1 X150.720 Y80.667 E528.2408
G1 X150.154 Y80.667
G1 X83.200 Y145.767 E531.3468
G1 X83.200 Y145.217
G1 X149.589 Y80.667 E534.4266
G1 X149.023 Y80.667
G1 X83.200 Y144.667 E537.4802
G1 X83.200 Y144.117
G1 X148.458 Y80.667 E540.5075
G1 X147.892 Y80.667
G1 X83.200 Y143.568 E543.5086
G1 X83.200 Y143.018
G1 X147.327 Y80.667 E546.4835
G1 X146.761 Y80.667
G1 X83.200 Y142.468 E549.4321
G1 X83.200 Y141.918
G1 X146.196 Y80.667 E552.3545
G1 X145.631 Y80.667
G1 X83.200 Y141.368 E555.2507
G1 X83.200 Y140.818
G1 X145.065 Y80.667 E558.1206
G1 X144.500 Y80.667
G1 X83.200 Y140.269 E560.9643
G1 X83.200 Y139.719
G1 X143.934 Y80.667 E563.7818
G1 X143.369 Y80.667
G1 X83.200 Y139.169 E566.5730
G1 X83.200 Y138.619
G1 X142.803 Y80.667 E569.3380
G1 X142.238 Y80.667
G1 X83.200 Y138.069 E572.0768
G1 X83.200 Y137.520
G1 X141.672 Y80.667 E574.7893
G1 X141.107 Y80.667
G1 X83.200 Y136.970 E577.4756
G1 X83.200 Y136.420
G1 X140.541 Y80.667 E580.1357
G1 X139.976 Y80.667
G1 X83.200 Y135.870 E582.7696
G1 X83.200 Y135.320
G1 X139.410 Y80.667 E585.3772
G1 X138.845 Y80.667
G1 X83.200 Y134.770 E587.9585
G1 X83.200 Y134.221
G1 X138.279 Y80.667 E590.5136
G1 X137.714 Y80.667
G1 X83.200 Y133.671 E593.0426
G1 X83.200 Y133.121
G1 X137.148 Y80.667 E595.5453
G1 X136.583 Y80.667
G1 X83.200 Y132.571 E598.0217
G1 X83.200 Y132.021
G1 X136.017 Y80.667 E600.4719
G1 X135.452 Y80.667
G1 X83.200 Y131.471 E602.8958
G1 X83.200 Y130.922
G1 X134.886 Y80.667 E605.2936
G1 X134.321 Y80.667
G1 X83.200 Y130.372 E607.6651
G1 X83.200 Y129.822
G1 X133.755 Y80.667 E610.0104
G1 X133.190 Y80.667
G1 X83.200 Y129.272 E612.3294
G1 X83.200 Y128.722
G1 X132.624 Y80.667 E614.6222
G1 X132.059 Y80.667
G1 X83.200 Y128.173 E616.8888
G1 X83.200 Y127.623
G1 X131.493 Y80.667 E619.1292
G1 X130.928 Y80.667
G1 X83.200 Y127.073 E621.3433
G1 X83.200 Y126.523
G1 X130.362 Y80.667 E623.5312
G1 X129.797 Y80.667
G1 X83.200 Y125.973 E625.6928
G1 X83.200 Y125.423
G1 X129.232 Y80.667 E627.8282
G1 X128.666 Y80.667
G1 X83.200 Y124.874 E629.9374
G1 X83.200 Y124.324
G1 X128.101 Y80.667 E632.0203
G1 X127.535 Y80.667
G1 X83.200 Y123.774 E634.0771
G1 X83.200 Y123.224
G1 X126.970 Y80.667 E636.1075
G1 X126.404 Y80.667
G1 X83.200 Y122.674 E638.1118
G1 X83.200 Y122.125
G1 X125.839 Y80.667 E640.0898
G1 X125.273 Y80.667
G1 X83.200 Y121.575 E642.0416
G1 X83.200 Y121.025
G1 X124.708 Y80.667 E643.9671
G1 X124.142 Y80.667
G1 X83.200 Y120.475 E645.8664
G1 X83.200 Y119.925
G1 X123.577 Y80.667 E647.7395
G1 X123.011 Y80.667
G1 X83.200 Y119.375 E649.5864
G1 X83.200 Y118.826
G1 X122.446 Y80.667 E651.4070
G1 X121.880 Y80.667
G1 X83.200 Y118.276 E653.2014
G1 X83.200 Y117.726
G1 X121.315 Y80.667 E654.9695
G1 X120.749 Y80.667
G1 X83.200 Y117.176 E656.7115
G1 X83.200 Y116.626
G1 X120.184 Y80.667 E658.4271
G1 X119.618 Y80.667
G1 X83.200 Y116.077 E660.1166
G1 X83.200 Y115.527
G1 X119.053 Y80.667 E661.7798
G1 X118.487 Y80.667
G1 X83.200 Y114.977 E663.4168
G1 X83.200 Y114.427
G1 X117.922 Y80.667 E665.0276
G1 X117.356 Y80.667
G1 X83.200 Y113.877 E666.6121
G1 X83.200 Y113.327
G1 X116.791 Y80.667 E668.1704
G1 X116.225 Y80.667
G1 X83.200 Y112.778 E669.7024
G1 X83.200 Y112.228
G1 X115.660 Y80.667 E671.2082
G1 X115.094 Y80.667
G1 X83.200 Y111.678 E672.6878
G1 X83.200 Y111.128
G1 X114.529 Y80.667 E674.1412
G1 X113.963 Y80.667
G1 X83.200 Y110.578 E675.5683
G1 X83.200 Y110.028
G1 X113.398 Y80.667 E676.9692
G1 X112.833 Y80.667
G1 X83.200 Y109.479 E678.3438
G1 X83.200 Y108.929
G1 X112.267 Y80.667 E679.6923
G1 X111.702 Y80.667
G1 X83.200 Y108.379 E681.0145
G1 X83.200 Y107.829
G1 X111.136 Y80.667 E682.3104
G1 X110.571 Y80.667
G1 X83.200 Y107.279 E683.5802
G1 X83.200 Y106.730
G1 X110.005 Y80.667 E684.8236
G1 X109.440 Y80.667
G1 X83.200 Y106.180 E686.0409
G1 X83.200 Y105.630
G1 X108.874 Y80.667 E687.2320
G1 X108.309 Y80.667
G1 X83.200 Y105.080 E688.3968
G1 X83.200 Y104.530
G1 X107.743 Y80.667 E689.5353
G1 X107.178 Y80.667
G1 X83.200 Y103.980 E690.6476
G1 X83.200 Y103.431
G1 X106.612 Y80.667 E691.7337
G1 X106.047 Y80.667
G1 X83.200 Y102.881 E692.7936
G1 X83.200 Y102.331
G1 X105.481 Y80.667 E693.8272
G1 X104.916 Y80.667
G1 X83.200 Y101.781 E694.8346
G1 X83.200 Y101.231
G1 X104.350 Y80.667 E695.8158
G1 X103.785 Y80.667
G1 X83.200 Y100.682 E696.7707
G1 X83.200 Y100.132
G1 X103.219 Y80.667 E697.6994
G1 X102.654 Y80.667
G1 X83.200 Y99.582 E698.6019
G1 X83.200 Y99.032
G1 X102.088 Y80.667 E699.4781
G1 X101.523 Y80.667
G1 X83.200 Y98.482 E700.3281
G1 X83.200 Y97.932
G1 X100.957 Y80.667 E701.1519
G1 X100.392 Y80.667
G1 X83.200 Y97.383 E701.9494
G1 X83.200 Y96.833
G1 X99.826 Y80.667 E702.7207
G1 X99.261 Y80.667
G1 X83.200 Y96.283 E703.4658
G1 X83.200 Y95.733
G1 X98.695 Y80.667 E704.1847
G1 X98.130 Y80.667
G1 X83.200 Y95.183 E704.8773
G1 X83.200 Y94.634
G1 X97.564 Y80.667 E705.5437
G1 X96.999 Y80.667
G1 X83.200 Y94.084 E706.1838
G1 X83.200 Y93.534
G1 X96.434 Y80.667 E706.7977
G1 X95.868 Y80.667
G1 X83.200 Y92.984 E707.3854
G1 X83.200 Y92.434
G1 X95.303 Y80.667 E707.9469
G1 X94.737 Y80.667
G1 X83.200 Y91.884 E708.4821
G1 X83.200 Y91.335
G1 X94.172 Y80.667 E708.9911
G1 X93.606 Y80.667
G1 X83.200 Y90.785 E709.4738
G1 X83.200 Y90.235
G1 X93.041 Y80.667 E709.9303
G1 X92.475 Y80.667
G1 X83.200 Y89.685 E710.3606
G1 X83.200 Y89.135
G1 X91.910 Y80.667 E710.7647
G1 X91.344 Y80.667
G1 X83.200 Y88.586 E711.1425
G1 X83.200 Y88.036
G1 X90.779 Y80.667 E711.4940
G1 X90.213 Y80.667
G1 X83.200 Y87.486 E711.8194
G1 X83.200 Y86.936
G1 X89.648 Y80.667 E712.1186
G1 X89.082 Y80.667
G1 X83.200 Y86.386 E712.3914
G1 X83.200 Y85.836
G1 X88.517 Y80.667 E712.6381
G1 X87.951 Y80.667
G1 X83.200 Y85.287 E712.8585
G1 X83.200 Y84.737
G1 X87.386 Y80.667 E713.0527
G1 X86.820 Y80.667
G1 X83.200 Y84.187 E713.2207
G1 X83.200 Y83.637
G1 X86.255 Y80.667 E713.3624
G1 X85.689 Y80.667
G1 X83.200 Y83.087 E713.4779
G1 X83.200 Y82.537
G1 X85.124 Y80.667 E713.5671
G1 X84.558 Y80.667
G1 X83.200 Y81.988 E713.6302
G1 X83.200 Y81.438
G1 X83.993 Y80.667 E713.6670
G1 X83.427 Y80.667
G1 X83.200 Y80.888 E713.6775
; ------------------------------------
; Layer #1
; ------------------------------------
G21 ; mm
G90 ; abs
G92 E0 ; reset extr
M106 S0
G0 F1200 E-1.0000
G0 F300 Z0.400
G0 X109.645 Y92.362 F5400
G0 X140.359 Y105.406
G0 X141.634 Y106.793
G0 F1200 E0.0000
;segType:HShell
G1 X148.188 Y113.165 E0.3040 F3000
;segType:Loop
G0 X140.763 Y106.178 F5400
G1 X140.944 Y106.519 E0.3169 F3000
G1 X141.081 Y107.047 E0.3350
G1 X141.081 Y107.617 E0.3540
G1 X140.939 Y108.169 E0.3729
G1 X140.663 Y108.670 E0.3920
G1 X140.269 Y109.090 E0.4111
G1 X139.781 Y109.399 E0.4303
G1 X139.229 Y109.579 E0.4496
G1 X138.648 Y109.616 E0.4690
G1 X138.077 Y109.506 E0.4883
G1 X137.553 Y109.260 E0.5076
G1 X137.108 Y108.892 E0.5268
G1 X136.771 Y108.428 E0.5459
G1 X136.561 Y107.897 E0.5649
G1 X136.489 Y107.332 E0.5838
G1 X136.561 Y106.766 E0.6028
G1 X136.771 Y106.235 E0.6218
G1 X137.108 Y105.771 E0.6408
G1 X137.552 Y105.404 E0.6600
G1 X138.077 Y105.157 E0.6793
G1 X138.648 Y105.048 E0.6986
G1 X139.207 Y105.083 E0.7173
G1 X139.803 Y105.277 E0.7381
G1 X140.289 Y105.594 E0.7574
G1 X140.668 Y106.008 E0.7761
;segType:Perimeter
G0 X147.869 Y113.549 F5400
G1 X147.594 Y114.196 E0.7994 F2100
G1 X147.594 Y156.137 E2.1944
G1 X86.994 Y156.137 E4.2100
G1 X86.994 Y133.484 E4.9634
G1 X87.047 Y131.031 E5.0450
G1 X87.206 Y128.736 E5.1216
G1 X87.471 Y126.450 E5.1981
G1 X87.842 Y124.179 E5.2746
G1 X88.317 Y121.927 E5.3512
G1 X88.895 Y119.700 E5.4277
G1 X89.576 Y117.502 E5.5042
G1 X90.358 Y115.338 E5.5808
G1 X91.238 Y113.212 E5.6573
G1 X92.216 Y111.130 E5.7338
G1 X93.288 Y109.094 E5.8103
G1 X94.454 Y107.111 E5.8869
G1 X95.710 Y105.183 E5.9634
G1 X97.054 Y103.315 E6.0399
G1 X98.483 Y101.512 E6.1165
G1 X99.993 Y99.776 E6.1930
G1 X101.582 Y98.112 E6.2695
G1 X103.246 Y96.523 E6.3460
G1 X104.981 Y95.013 E6.4225
G1 X106.785 Y93.585 E6.4991
G1 X108.652 Y92.241 E6.5756
G1 X110.580 Y90.985 E6.6521
G1 X112.563 Y89.819 E6.7286
G1 X114.598 Y88.747 E6.8051
G1 X116.680 Y87.769 E6.8816
G1 X118.806 Y86.889 E6.9581
G1 X120.969 Y86.108 E7.0346
G1 X123.167 Y85.427 E7.1112
G1 X125.394 Y84.849 E7.1877
G1 X127.644 Y84.374 E7.2642
G1 X129.914 Y84.004 E7.3407
G1 X132.199 Y83.739 E7.4172
G1 X134.494 Y83.579 E7.4937
G1 X136.796 Y83.526 E7.5703
G1 X170.594 Y83.526 E8.6944
G1 X170.594 Y114.137 E9.7125
G1 X147.654 Y114.137 E10.4755
G1 X146.989 Y114.405
;segType:Loop
G0 X146.794 Y116.276 F5400
G1 X146.794 Y155.360 E11.7754 F3000
G1 X87.794 Y155.360 E13.7378
G1 X87.794 Y133.492 E14.4651
G1 X87.847 Y131.066 E14.5458
G1 X88.003 Y128.806 E14.6212
G1 X88.265 Y126.555 E14.6965
G1 X88.629 Y124.318 E14.7719
G1 X89.097 Y122.101 E14.8473
G1 X89.667 Y119.908 E14.9227
G1 X90.337 Y117.744 E14.9980
G1 X91.107 Y115.612 E15.0734
G1 X91.973 Y113.519 E15.1487
G1 X92.936 Y111.468 E15.2241
G1 X93.992 Y109.465 E15.2994
G1 X95.140 Y107.512 E15.3747
G1 X96.376 Y105.614 E15.4501
G1 X97.699 Y103.776 E15.5254
G1 X99.106 Y102.000 E15.6007
G1 X100.592 Y100.292 E15.6761
G1 X102.156 Y98.654 E15.7514
G1 X103.793 Y97.091 E15.8267
G1 X105.501 Y95.605 E15.9020
G1 X107.276 Y94.199 E15.9773
G1 X109.113 Y92.877 E16.0526
G1 X111.009 Y91.641 E16.1278
G1 X112.961 Y90.494 E16.2031
G1 X114.963 Y89.439 E16.2784
G1 X117.011 Y88.478 E16.3537
G1 X119.102 Y87.612 E16.4289
G1 X121.230 Y86.843 E16.5042
G1 X123.392 Y86.174 E16.5794
G1 X125.582 Y85.605 E16.6547
G1 X127.795 Y85.138 E16.7299
G1 X130.028 Y84.774 E16.8052
G1 X132.275 Y84.514 E16.8804
G1 X134.532 Y84.357 E16.9557
G1 X136.806 Y84.304 E17.0313
G1 X169.794 Y84.304 E18.1285
G1 X169.794 Y113.360 E19.0949
G1 X146.794 Y113.360 E19.8599
G1 X146.794 Y116.081 E19.9504
G0 X147.194 Y115.206 F5400
G1 X147.194 Y155.748 E21.2988 F3000
G1 X87.394 Y155.748 E23.2878
G1 X87.394 Y133.488 E24.0282
G1 X87.447 Y131.048 E24.1093
G1 X87.605 Y128.771 E24.1853
G1 X87.868 Y126.502 E24.2612
G1 X88.236 Y124.249 E24.3372
G1 X88.707 Y122.014 E24.4131
G1 X89.281 Y119.804 E24.4891
G1 X89.956 Y117.623 E24.5650
G1 X90.732 Y115.475 E24.6410
G1 X91.606 Y113.366 E24.7169
G1 X92.576 Y111.299 E24.7928
G1 X93.640 Y109.279 E24.8688
G1 X94.797 Y107.311 E24.9447
G1 X96.043 Y105.398 E25.0206
G1 X97.377 Y103.546 E25.0966
G1 X98.794 Y101.756 E25.1725
G1 X100.293 Y100.034 E25.2484
G1 X101.869 Y98.383 E25.3243
G1 X103.519 Y96.807 E25.4002
G1 X105.241 Y95.309 E25.4761
G1 X107.030 Y93.892 E25.5521
G1 X108.883 Y92.559 E25.6280
G1 X110.794 Y91.313 E25.7038
G1 X112.762 Y90.157 E25.7798
G1 X114.780 Y89.093 E25.8556
G1 X116.846 Y88.123 E25.9315
G1 X118.954 Y87.250 E26.0074
G1 X121.100 Y86.475 E26.0833
G1 X123.279 Y85.801 E26.1592
G1 X125.488 Y85.227 E26.2351
G1 X127.720 Y84.756 E26.3109
G1 X129.971 Y84.389 E26.3868
G1 X132.237 Y84.126 E26.4627
G1 X134.513 Y83.968 E26.5386
G1 X136.801 Y83.915 E26.6147
G1 X170.194 Y83.915 E27.7253
G1 X170.194 Y113.748 E28.7176
G1 X147.194 Y113.748 E29.4826
G1 X147.194 Y115.012 E29.5246
G0 X146.196 Y114.049 F5400
G0 X140.313 Y105.912
G0 X139.397 Y105.016
;segType:Perimeter
G1 X139.674 Y105.661 E29.5480 F2100
G1 X140.024 Y105.890 E29.5619
G1 X140.345 Y106.240 E29.5777
G1 X140.568 Y106.657 E29.5934
G1 X140.681 Y107.095 E29.6084
G1 X140.681 Y107.569 E29.6242
G1 X140.562 Y108.028 E29.6400
G1 X140.334 Y108.444 E29.6558
G1 X140.008 Y108.791 E29.6716
G1 X139.606 Y109.046 E29.6875
G1 X139.151 Y109.194 E29.7033
G1 X138.674 Y109.224 E29.7192
G1 X138.204 Y109.134 E29.7351
G1 X137.773 Y108.931 E29.7510
G1 X137.406 Y108.628 E29.7669
G1 X137.127 Y108.243 E29.7827
G1 X136.952 Y107.802 E29.7984
G1 X136.892 Y107.332 E29.8142
G1 X136.952 Y106.862 E29.8300
G1 X137.127 Y106.420 E29.8458
G1 X137.406 Y106.036 E29.8616
G1 X137.773 Y105.732 E29.8774
G1 X138.204 Y105.529 E29.8933
G1 X138.674 Y105.439 E29.9092
G1 X139.130 Y105.468 E29.9244
G1 X139.568 Y105.610 E29.9397
G1 X140.263 Y105.430
;segType:Loop
G0 X141.480 Y107.188 F5400
G1 X141.480 Y107.665 E29.9555 F3000
G1 X141.315 Y108.310 E29.9777
G1 X140.992 Y108.897 E30.0000
G1 X140.530 Y109.388 E30.0224
G1 X139.957 Y109.752 E30.0450
G1 X139.306 Y109.964 E30.0677
G1 X138.622 Y110.007 E30.0905
G1 X137.949 Y109.878 E30.1133
G1 X137.332 Y109.588 E30.1360
G1 X136.811 Y109.157 E30.1585
G1 X136.416 Y108.613 E30.1809
G1 X136.170 Y107.992 E30.2031
G1 X136.086 Y107.332 E30.2252
G1 X136.170 Y106.671 E30.2474
G1 X136.416 Y106.051 E30.2696
G1 X136.811 Y105.507 E30.2919
G1 X137.332 Y105.075 E30.3144
G1 X137.949 Y104.785 E30.3371
G1 X138.622 Y104.657 E30.3599
G1 X139.285 Y104.699 E30.3820
G1 X139.981 Y104.924 E30.4063
G1 X140.554 Y105.299 E30.4291
G1 X141.010 Y105.795 E30.4515
G1 X141.321 Y106.380 E30.4736
G1 X141.479 Y106.994 E30.4946
;segType:HShell
G0 X164.586 Y113.165 F5400
G1 X156.781 Y105.576 E30.8567 F3000
;segType:Perimeter
G0 X156.736 Y105.105 F5400
G1 X156.339 Y104.521 E30.8802 F2100
G1 X155.091 Y104.004 E30.9251
G1 X153.972 Y103.146 E30.9720
G1 X153.115 Y102.028 E31.0189
G1 X152.576 Y100.727 E31.0657
G1 X152.392 Y99.332 E31.1125
G1 X152.576 Y97.936 E31.1593
G1 X153.115 Y96.636 E31.2062
G1 X153.972 Y95.518 E31.2530
G1 X155.091 Y94.660 E31.2999
G1 X156.394 Y94.120 E31.3468
G1 X157.780 Y93.937 E31.3933
G1 X162.807 Y93.937 E31.5605
G1 X164.193 Y94.120 E31.6070
G1 X165.497 Y94.660 E31.6539
G1 X166.615 Y95.518 E31.7008
G1 X167.473 Y96.636 E31.7477
G1 X167.955 Y97.800 E31.7896
G1 X168.031 Y98.084 E31.7994
G1 X168.195 Y99.332 E31.8413
G1 X168.012 Y100.727 E31.8881
G1 X167.473 Y102.028 E31.9349
G1 X166.615 Y103.146 E31.9817
G1 X165.497 Y104.004 E32.0286
G1 X164.193 Y104.544 E32.0756
G1 X162.807 Y104.726 E32.1221
G1 X157.780 Y104.726 E32.2893
G1 X156.454 Y104.552 E32.3338
G1 X155.806 Y104.856
;segType:Loop
G0 X155.226 Y104.483 F5400
G1 X154.885 Y104.341 E32.3460 F3000
G1 X153.683 Y103.419 E32.3964
G1 X152.763 Y102.220 E32.4467
G1 X152.186 Y100.826 E32.4969
G1 X151.989 Y99.332 E32.5470
G1 X152.186 Y97.837 E32.5971
G1 X152.763 Y96.443 E32.6473
G1 X153.683 Y95.244 E32.6976
G1 X154.885 Y94.322 E32.7480
G1 X156.287 Y93.742 E32.7984
G1 X157.753 Y93.548 E32.8476
G1 X162.835 Y93.548 E33.0166
G1 X164.300 Y93.742 E33.0658
G1 X165.703 Y94.322 E33.1163
G1 X166.904 Y95.244 E33.1667
G1 X167.825 Y96.443 E33.2169
G1 X168.336 Y97.677 E33.2614
G1 X168.425 Y98.010 E33.2728
G1 X168.599 Y99.332 E33.3172
G1 X168.402 Y100.826 E33.3673
G1 X167.825 Y102.220 E33.4175
G1 X166.904 Y103.419 E33.4677
G1 X165.703 Y104.341 E33.5181
G1 X164.300 Y104.922 E33.5686
G1 X162.835 Y105.115 E33.6178
G1 X157.753 Y105.115 E33.7868
G1 X156.287 Y104.922 E33.8360
G1 X155.410 Y104.559 E33.8675
G0 X154.065 Y104.208 F5400
G1 X153.394 Y103.693 E33.8957 F3000
G1 X152.411 Y102.412 E33.9494
G1 X151.795 Y100.925 E34.0029
G1 X151.585 Y99.332 E34.0563
G1 X151.795 Y97.739 E34.1098
G1 X152.411 Y96.251 E34.1633
G1 X153.394 Y94.971 E34.2170
G1 X154.679 Y93.985 E34.2709
G1 X156.180 Y93.363 E34.3249
G1 X157.726 Y93.160 E34.3768
G1 X162.862 Y93.160 E34.5476
G1 X164.408 Y93.363 E34.5995
G1 X165.909 Y93.985 E34.6535
G1 X167.194 Y94.971 E34.7074
G1 X168.176 Y96.251 E34.7611
G1 X168.716 Y97.555 E34.8080
G1 X168.818 Y97.936 E34.8211
G1 X169.002 Y99.332 E34.8679
G1 X168.792 Y100.925 E34.9214
G1 X168.176 Y102.412 E34.9749
G1 X167.194 Y103.693 E35.0286
G1 X165.909 Y104.679 E35.0825
G1 X164.408 Y105.300 E35.1365
G1 X162.862 Y105.504 E35.1884
G1 X157.726 Y105.504 E35.3592
G1 X156.180 Y105.300 E35.4110
G1 X154.679 Y104.679 E35.4651
G1 X154.222 Y104.328 E35.4842
G0 X147.452 Y114.000 F5400
G0 X146.594 Y141.856
;segType:HShell
G1 X134.374 Y129.974 E36.0511 F3000
G1 X134.147 Y130.304
G1 X139.585 Y135.591 E36.3034
;segType:Perimeter
G0 X139.397 Y136.016 F5400
G1 X139.674 Y136.661 E36.3268 F2100
G1 X140.025 Y136.890 E36.3407
G1 X140.345 Y137.240 E36.3565
G1 X140.568 Y137.658 E36.3723
G1 X140.681 Y138.117 E36.3880
G1 X140.681 Y138.569 E36.4030
G1 X140.562 Y139.028 E36.4188
G1 X140.334 Y139.444 E36.4345
G1 X140.008 Y139.791 E36.4504
G1 X139.605 Y140.047 E36.4662
G1 X139.151 Y140.194 E36.4821
G1 X138.674 Y140.224 E36.4980
G1 X138.204 Y140.135 E36.5139
G1 X137.773 Y139.931 E36.5298
G1 X137.406 Y139.628 E36.5456
G1 X137.127 Y139.243 E36.5614
G1 X136.952 Y138.802 E36.5772
G1 X136.892 Y138.332 E36.5930
G1 X136.952 Y137.861 E36.6088
G1 X137.127 Y137.420 E36.6245
G1 X137.406 Y137.036 E36.6403
G1 X137.773 Y136.732 E36.6562
G1 X138.204 Y136.529 E36.6720
G1 X138.674 Y136.440 E36.6879
G1 X139.130 Y136.468 E36.7031
G1 X139.568 Y136.610 E36.7185
G1 X140.263 Y136.430
;segType:Loop
G0 X140.763 Y137.178 F5400
G1 X140.946 Y137.522 E36.7314 F3000
G1 X141.081 Y138.072 E36.7502
G1 X141.081 Y138.617 E36.7684
G1 X140.939 Y139.169 E36.7873
G1 X140.663 Y139.670 E36.8064
G1 X140.269 Y140.090 E36.8255
G1 X139.781 Y140.400 E36.8447
G1 X139.229 Y140.579 E36.8640
G1 X138.648 Y140.616 E36.8834
G1 X138.077 Y140.507 E36.9027
G1 X137.553 Y140.260 E36.9220
G1 X137.108 Y139.892 E36.9412
G1 X136.771 Y139.428 E36.9603
G1 X136.561 Y138.897 E36.9793
G1 X136.489 Y138.332 E36.9982
G1 X136.561 Y137.766 E37.0172
G1 X136.771 Y137.236 E37.0362
G1 X137.108 Y136.771 E37.0552
G1 X137.553 Y136.404 E37.0744
G1 X138.077 Y136.157 E37.0937
G1 X138.648 Y136.048 E37.1130
G1 X139.207 Y136.083 E37.1317
G1 X139.803 Y136.277 E37.1525
G1 X140.290 Y136.595 E37.1718
G1 X140.668 Y137.007 E37.1905
G0 X141.480 Y138.123 F5400
G1 X141.480 Y138.664 E37.2085 F3000
G1 X141.315 Y139.310 E37.2306
G1 X140.992 Y139.897 E37.2529
G1 X140.530 Y140.388 E37.2753
G1 X139.957 Y140.753 E37.2979
G1 X139.306 Y140.964 E37.3207
G1 X138.622 Y141.007 E37.3435
G1 X137.949 Y140.879 E37.3663
G1 X137.332 Y140.588 E37.3889
G1 X136.811 Y140.157 E37.4114
G1 X136.416 Y139.613 E37.4338
G1 X136.170 Y138.992 E37.4560
G1 X136.086 Y138.332 E37.4781
G1 X136.170 Y137.671 E37.5003
G1 X136.416 Y137.051 E37.5225
G1 X136.811 Y136.507 E37.5448
G1 X137.332 Y136.075 E37.5674
G1 X137.949 Y135.785 E37.5900
G1 X138.622 Y135.657 E37.6128
G1 X139.285 Y135.698 E37.6349
G1 X139.981 Y135.925 E37.6592
G1 X140.555 Y136.299 E37.6820
G1 X141.010 Y136.796 E37.7044
G1 X141.324 Y137.385 E37.7267
G1 X141.457 Y137.932 E37.7454
G0 X145.679 Y145.198 F5400
G0 X145.871 Y146.718
G0 X145.306 Y148.144
G0 X143.255 Y150.156
;segType:HShell
G1 X146.594 Y153.402 E37.9002 F3000
G1 X146.594 Y153.952
G1 X142.724 Y150.189 E38.0797
;segType:Perimeter
G0 X143.061 Y149.706 F5400
G1 X142.552 Y149.211 E38.1033 F2100
G1 X141.896 Y149.086 E38.1256
G1 X141.237 Y148.776 E38.1498
G1 X140.677 Y148.312 E38.1740
G1 X140.250 Y147.725 E38.1981
G1 X139.983 Y147.051 E38.2222
G1 X139.892 Y146.332 E38.2464
G1 X139.983 Y145.613 E38.2705
G1 X140.250 Y144.938 E38.2946
G1 X140.677 Y144.351 E38.3187
G1 X141.237 Y143.888 E38.3429
G1 X141.896 Y143.578 E38.3671
G1 X142.611 Y143.442 E38.3913
G1 X143.339 Y143.487 E38.4156
G1 X144.031 Y143.712 E38.4398
G1 X144.645 Y144.102 E38.4640
G1 X145.143 Y144.632 E38.4882
G1 X145.492 Y145.267 E38.5123
G1 X145.672 Y145.969 E38.5364
G1 X145.672 Y146.694 E38.5605
G1 X145.492 Y147.396 E38.5846
G1 X145.143 Y148.032 E38.6087
G1 X144.645 Y148.562 E38.6329
G1 X144.031 Y148.951 E38.6571
G1 X143.339 Y149.176 E38.6813
G1 X142.671 Y149.218 E38.7036
G1 X142.101 Y149.646
;segType:Loop
G0 X141.388 Y149.279 F5400
G1 X141.017 Y149.104 E38.7172 F3000
G1 X140.379 Y148.577 E38.7447
G1 X139.895 Y147.910 E38.7722
G1 X139.592 Y147.146 E38.7995
G1 X139.489 Y146.332 E38.8268
G1 X139.592 Y145.518 E38.8541
G1 X139.895 Y144.754 E38.8814
G1 X140.379 Y144.087 E38.9088
G1 X141.017 Y143.560 E38.9363
G1 X141.768 Y143.206 E38.9640
G1 X142.585 Y143.050 E38.9916
G1 X143.416 Y143.102 E39.0193
G1 X144.207 Y143.359 E39.0470
G1 X144.907 Y143.803 E39.0745
G1 X145.472 Y144.405 E39.1020
G1 X145.868 Y145.127 E39.1294
G1 X146.072 Y145.922 E39.1567
G1 X146.072 Y146.742 E39.1840
G1 X145.868 Y147.537 E39.2113
G1 X145.472 Y148.258 E39.2386
G1 X144.907 Y148.860 E39.2661
G1 X144.207 Y149.304 E39.2937
G1 X143.416 Y149.561 E39.3213
G1 X142.585 Y149.614 E39.3490
G1 X141.768 Y149.458 E39.3767
G1 X141.568 Y149.364 E39.3840
G0 X140.234 Y148.967 F5400
G1 X140.082 Y148.841 E39.3906 F3000
G1 X139.539 Y148.095 E39.4213
G1 X139.201 Y147.241 E39.4519
G1 X139.086 Y146.332 E39.4823
G1 X139.201 Y145.423 E39.5128
G1 X139.539 Y144.569 E39.5434
G1 X140.082 Y143.822 E39.5741
G1 X140.796 Y143.231 E39.6049
G1 X141.640 Y142.834 E39.6359
G1 X142.559 Y142.659 E39.6670
G1 X143.494 Y142.718 E39.6982
G1 X144.383 Y143.006 E39.7293
G1 X145.168 Y143.505 E39.7602
G1 X145.801 Y144.179 E39.7910
G1 X146.244 Y144.986 E39.8216
G1 X146.472 Y145.874 E39.8521
G1 X146.472 Y146.790 E39.8825
G1 X146.244 Y147.678 E39.9130
G1 X145.801 Y148.485 E39.9436
G1 X145.168 Y149.159 E39.9744
G1 X144.383 Y149.657 E40.0053
G1 X143.494 Y149.946 E40.0364
G1 X142.559 Y150.005 E40.0676
G1 X141.640 Y149.830 E40.0987
G1 X140.796 Y149.433 E40.1297
G1 X140.386 Y149.093 E40.1474
G0 X122.176 Y135.364 F5400
G1 X122.130 Y135.362 E40.1490 F3000
G1 X120.976 Y135.201 E40.1877
G1 X119.841 Y134.934 E40.2265
G1 X118.737 Y134.564 E40.2652
G1 X117.671 Y134.093 E40.3040
G1 X116.654 Y133.527 E40.3427
G1 X115.694 Y132.869 E40.3814
G1 X114.799 Y132.126 E40.4201
G1 X113.976 Y131.303 E40.4588
G1 X113.233 Y130.409 E40.4974
G1 X112.577 Y129.450 E40.5361
G1 X112.011 Y128.435 E40.5748
G1 X111.542 Y127.373 E40.6134
G1 X111.173 Y126.272 E40.6520
G1 X110.907 Y125.141 E40.6906
G1 X110.747 Y123.991 E40.7292
G1 X110.693 Y122.832 E40.7678
G1 X110.747 Y121.672 E40.8065
G1 X110.907 Y120.522 E40.8451
G1 X111.173 Y119.392 E40.8837
G1 X111.542 Y118.291 E40.9223
G1 X112.011 Y117.228 E40.9610
G1 X112.577 Y116.214 E40.9996
G1 X113.233 Y115.254 E41.0383
G1 X113.976 Y114.360 E41.0769
G1 X114.799 Y113.538 E41.1156
G1 X115.694 Y112.794 E41.1543
G1 X116.654 Y112.137 E41.1930
G1 X117.671 Y111.570 E41.2317
G1 X118.737 Y111.100 E41.2705
G1 X119.841 Y110.729 E41.3092
G1 X120.976 Y110.463 E41.3480
G1 X122.130 Y110.302 E41.3867
G1 X123.294 Y110.248 E41.4255
G1 X124.458 Y110.302 E41.4643
G1 X125.612 Y110.463 E41.5030
G1 X126.746 Y110.729 E41.5418
G1 X127.851 Y111.100 E41.5805
G1 X128.917 Y111.570 E41.6192
G1 X129.934 Y112.137 E41.6580
G1 X130.894 Y112.794 E41.6967
G1 X131.789 Y113.538 E41.7354
G1 X132.611 Y114.360 E41.7741
G1 X133.354 Y115.254 E41.8127
G1 X134.011 Y116.214 E41.8514
G1 X134.577 Y117.228 E41.8900
G1 X135.045 Y118.291 E41.9287
G1 X135.415 Y119.392 E41.9673
G1 X135.668 Y120.468 E42.0041
G1 X135.843 Y121.728 E42.0464
G1 X135.895 Y122.832 E42.0831
G1 X135.841 Y123.991 E42.1217
G1 X135.680 Y125.141 E42.1603
G1 X135.415 Y126.272 E42.1990
G1 X135.045 Y127.373 E42.2376
G1 X134.577 Y128.435 E42.2762
G1 X134.011 Y129.450 E42.3149
G1 X133.354 Y130.409 E42.3535
G1 X132.611 Y131.303 E42.3922
G1 X131.789 Y132.126 E42.4309
G1 X130.894 Y132.869 E42.4696
G1 X129.933 Y133.527 E42.5083
G1 X128.917 Y134.093 E42.5470
G1 X127.851 Y134.564 E42.5857
G1 X126.746 Y134.934 E42.6245
G1 X125.612 Y135.201 E42.6632
G1 X124.458 Y135.362 E42.7020
G1 X123.294 Y135.416 E42.7408
G1 X122.376 Y135.373 E42.7713
;segType:Perimeter
G0 X123.755 Y135.507 F5400
G1 X123.234 Y135.024 E42.7949 F2100
G1 X122.168 Y134.974 E42.8304
G1 X121.051 Y134.819 E42.8679
G1 X119.954 Y134.561 E42.9054
G1 X118.885 Y134.202 E42.9429
G1 X117.854 Y133.747 E42.9804
G1 X116.869 Y133.198 E43.0179
G1 X115.939 Y132.562 E43.0554
G1 X115.072 Y131.842 E43.0929
G1 X114.276 Y131.045 E43.1303
G1 X113.556 Y130.179 E43.1678
G1 X112.920 Y129.250 E43.2053
G1 X112.372 Y128.265 E43.2427
G1 X111.917 Y127.235 E43.2802
G1 X111.559 Y126.168 E43.3176
G1 X111.301 Y125.072 E43.3551
G1 X111.145 Y123.956 E43.3925
G1 X111.094 Y122.832 E43.4300
G1 X111.145 Y121.707 E43.4674
G1 X111.301 Y120.592 E43.5049
G1 X111.559 Y119.496 E43.5423
G1 X111.917 Y118.428 E43.5798
G1 X112.372 Y117.398 E43.6172
G1 X112.920 Y116.414 E43.6547
G1 X113.556 Y115.485 E43.6921
G1 X114.276 Y114.618 E43.7296
G1 X115.072 Y113.822 E43.7671
G1 X115.939 Y113.102 E43.8046
G1 X116.869 Y112.465 E43.8420
G1 X117.854 Y111.917 E43.8795
G1 X118.885 Y111.461 E43.9170
G1 X119.954 Y111.103 E43.9545
G1 X121.051 Y110.845 E43.9920
G1 X122.168 Y110.689 E44.0295
G1 X123.294 Y110.637 E44.0670
G1 X124.420 Y110.689 E44.1045
G1 X125.537 Y110.845 E44.1420
G1 X126.634 Y111.103 E44.1795
G1 X127.703 Y111.461 E44.2170
G1 X128.734 Y111.917 E44.2545
G1 X129.719 Y112.465 E44.2920
G1 X130.648 Y113.102 E44.3294
G1 X131.515 Y113.822 E44.3669
G1 X132.312 Y114.618 E44.4044
G1 X133.032 Y115.485 E44.4418
G1 X133.668 Y116.414 E44.4793
G1 X134.216 Y117.398 E44.5168
G1 X134.671 Y118.428 E44.5542
G1 X135.029 Y119.496 E44.5917
G1 X135.274 Y120.538 E44.6273
G1 X135.445 Y121.763 E44.6684
G1 X135.494 Y122.832 E44.7040
G1 X135.442 Y123.956 E44.7414
G1 X135.286 Y125.072 E44.7789
G1 X135.029 Y126.168 E44.8163
G1 X134.671 Y127.235 E44.8538
G1 X134.216 Y128.266 E44.8913
G1 X133.668 Y129.250 E44.9287
G1 X133.032 Y130.179 E44.9662
G1 X132.312 Y131.045 E45.0036
G1 X131.515 Y131.842 E45.0411
G1 X130.648 Y132.562 E45.0786
G1 X129.718 Y133.198 E45.1161
G1 X128.734 Y133.747 E45.1536
G1 X127.703 Y134.202 E45.1910
G1 X126.634 Y134.561 E45.2285
G1 X125.537 Y134.819 E45.2660
G1 X124.420 Y134.974 E45.3035
G1 X123.354 Y135.024 E45.3390
G1 X122.833 Y135.507
;segType:Loop
G0 X121.031 Y135.602 F5400
G1 X120.900 Y135.583 E45.3434 F3000
G1 X119.729 Y135.308 E45.3834
G1 X118.588 Y134.925 E45.4234
G1 X117.489 Y134.440 E45.4634
G1 X116.439 Y133.855 E45.5034
G1 X115.448 Y133.177 E45.5433
G1 X114.525 Y132.410 E45.5833
G1 X113.677 Y131.562 E45.6232
G1 X112.911 Y130.639 E45.6630
G1 X112.234 Y129.651 E45.7029
G1 X111.651 Y128.605 E45.7427
G1 X111.168 Y127.510 E45.7825
G1 X110.787 Y126.375 E45.8223
G1 X110.513 Y125.211 E45.8621
G1 X110.348 Y124.026 E45.9019
G1 X110.293 Y122.832 E45.9417
G1 X110.348 Y121.637 E45.9814
G1 X110.513 Y120.453 E46.0212
G1 X110.787 Y119.288 E46.0610
G1 X111.168 Y118.154 E46.1008
G1 X111.651 Y117.059 E46.1406
G1 X112.234 Y116.013 E46.1804
G1 X112.911 Y115.024 E46.2203
G1 X113.677 Y114.102 E46.2602
G1 X114.525 Y113.254 E46.3001
G1 X115.448 Y112.487 E46.3400
G1 X116.439 Y111.808 E46.3799
G1 X117.489 Y111.224 E46.4199
G1 X118.588 Y110.738 E46.4599
G1 X119.729 Y110.356 E46.4999
G1 X120.900 Y110.080 E46.5399
G1 X122.092 Y109.914 E46.5799
G1 X123.294 Y109.858 E46.6199
G1 X124.496 Y109.914 E46.6600
G1 X125.687 Y110.080 E46.7000
G1 X126.859 Y110.356 E46.7400
G1 X127.999 Y110.738 E46.7800
G1 X129.099 Y111.224 E46.8200
G1 X130.149 Y111.808 E46.8600
G1 X131.139 Y112.487 E46.8999
G1 X132.063 Y113.254 E46.9398
G1 X132.911 Y114.102 E46.9797
G1 X133.677 Y115.024 E47.0196
G1 X134.354 Y116.013 E47.0595
G1 X134.937 Y117.059 E47.0993
G1 X135.420 Y118.154 E47.1391
G1 X135.801 Y119.288 E47.1789
G1 X136.062 Y120.399 E47.2168
G1 X136.242 Y121.693 E47.2603
G1 X136.295 Y122.832 E47.2982
G1 X136.239 Y124.026 E47.3380
G1 X136.074 Y125.211 E47.3778
G1 X135.801 Y126.375 E47.4176
G1 X135.420 Y127.510 E47.4573
G1 X134.937 Y128.605 E47.4972
G1 X134.354 Y129.651 E47.5370
G1 X133.677 Y130.640 E47.5768
G1 X132.911 Y131.562 E47.6167
G1 X132.063 Y132.410 E47.6566
G1 X131.139 Y133.177 E47.6965
G1 X130.149 Y133.855 E47.7365
G1 X129.099 Y134.440 E47.7764
G1 X127.999 Y134.925 E47.8164
G1 X126.859 Y135.308 E47.8564
G1 X125.688 Y135.583 E47.8964
G1 X124.496 Y135.750 E47.9365
G1 X123.294 Y135.805 E47.9765
G1 X122.092 Y135.750 E48.0165
G1 X121.229 Y135.629 E48.0455
;segType:HShell
G0 X90.449 Y118.056 F5400
G1 X108.433 Y135.542 E48.8798 F3000
;segType:Perimeter
G0 X108.397 Y136.016 F5400
G1 X108.674 Y136.661 E48.9032 F2100
G1 X109.025 Y136.890 E48.9171
G1 X109.345 Y137.240 E48.9329
G1 X109.569 Y137.658 E48.9486
G1 X109.681 Y138.117 E48.9643
G1 X109.681 Y138.569 E48.9794
G1 X109.562 Y139.028 E48.9951
G1 X109.334 Y139.444 E49.0109
G1 X109.008 Y139.791 E49.0268
G1 X108.605 Y140.047 E49.0426
G1 X108.151 Y140.194 E49.0585
G1 X107.674 Y140.224 E49.0744
G1 X107.204 Y140.135 E49.0903
G1 X106.773 Y139.931 E49.1062
G1 X106.406 Y139.628 E49.1220
G1 X106.126 Y139.243 E49.1378
G1 X105.952 Y138.802 E49.1536
G1 X105.892 Y138.332 E49.1694
G1 X105.952 Y137.861 E49.1851
G1 X106.126 Y137.420 E49.2009
G1 X106.406 Y137.036 E49.2167
G1 X106.773 Y136.732 E49.2326
G1 X107.204 Y136.529 E49.2484
G1 X107.674 Y136.440 E49.2643
G1 X108.130 Y136.468 E49.2795
G1 X108.568 Y136.610 E49.2948
G1 X109.263 Y136.430
;segType:Loop
G0 X109.763 Y137.178 F5400
G1 X109.947 Y137.522 E49.3078 F3000
G1 X110.080 Y138.072 E49.3266
G1 X110.080 Y138.617 E49.3448
G1 X109.938 Y139.169 E49.3637
G1 X109.663 Y139.670 E49.3828
G1 X109.269 Y140.090 E49.4019
G1 X108.781 Y140.400 E49.4211
G1 X108.229 Y140.579 E49.4404
G1 X107.648 Y140.616 E49.4598
G1 X107.077 Y140.507 E49.4791
G1 X106.553 Y140.260 E49.4984
G1 X106.108 Y139.892 E49.5176
G1 X105.771 Y139.428 E49.5367
G1 X105.561 Y138.897 E49.5557
G1 X105.489 Y138.332 E49.5746
G1 X105.561 Y137.766 E49.5936
G1 X105.771 Y137.236 E49.6125
G1 X106.108 Y136.771 E49.6316
G1 X106.552 Y136.404 E49.6508
G1 X107.077 Y136.157 E49.6701
G1 X107.648 Y136.048 E49.6894
G1 X108.207 Y136.083 E49.7081
G1 X108.803 Y136.277 E49.7289
G1 X109.290 Y136.595 E49.7482
G1 X109.668 Y137.007 E49.7668
G0 X110.480 Y138.123 F5400
G1 X110.480 Y138.664 E49.7848 F3000
G1 X110.315 Y139.310 E49.8070
G1 X109.992 Y139.897 E49.8293
G1 X109.530 Y140.388 E49.8517
G1 X108.957 Y140.753 E49.8743
G1 X108.306 Y140.964 E49.8970
G1 X107.622 Y141.007 E49.9198
G1 X106.949 Y140.879 E49.9426
G1 X106.332 Y140.588 E49.9653
G1 X105.811 Y140.157 E49.9878
G1 X105.415 Y139.613 E50.0102
G1 X105.170 Y138.992 E50.0324
G1 X105.086 Y138.332 E50.0545
G1 X105.170 Y137.671 E50.0767
G1 X105.415 Y137.051 E50.0989
G1 X105.811 Y136.507 E50.1212
G1 X106.332 Y136.075 E50.1437
G1 X106.949 Y135.785 E50.1664
G1 X107.622 Y135.657 E50.1892
G1 X108.285 Y135.698 E50.2113
G1 X108.981 Y135.925 E50.2356
G1 X109.555 Y136.299 E50.2584
G1 X110.009 Y136.796 E50.2808
G1 X110.324 Y137.385 E50.3030
G1 X110.457 Y137.932 E50.3217
;segType:HShell
G0 X97.514 Y155.165 F5400
G1 X94.873 Y152.597 E50.4442 F3000
G1 X95.531 Y152.687
G1 X98.079 Y155.165 E50.5625
G1 X98.645 Y155.165
G1 X96.062 Y152.654 E50.6823
;segType:Perimeter
G0 X95.904 Y152.201 F5400
G1 X95.395 Y151.706 E50.7059 F2100
G1 X94.123 Y151.463 E50.7490
G1 X92.897 Y150.886 E50.7941
G1 X91.855 Y150.024 E50.8391
G1 X91.059 Y148.930 E50.8841
G1 X90.562 Y147.673 E50.9290
G1 X90.392 Y146.332 E50.9740
G1 X90.562 Y144.991 E51.0189
G1 X91.059 Y143.734 E51.0639
G1 X91.855 Y142.640 E51.1089
G1 X92.898 Y141.777 E51.1539
G1 X94.123 Y141.200 E51.1990
G1 X95.454 Y140.946 E51.2440
G1 X96.807 Y141.032 E51.2891
G1 X98.096 Y141.450 E51.3342
G1 X99.239 Y142.176 E51.3792
G1 X100.165 Y143.162 E51.4242
G1 X100.748 Y144.222 E51.4645
G1 X100.852 Y144.485 E51.4739
G1 X101.153 Y145.656 E51.5141
G1 X101.153 Y147.008 E51.5590
G1 X100.817 Y148.317 E51.6040
G1 X100.165 Y149.501 E51.6489
G1 X99.239 Y150.488 E51.6940
G1 X98.096 Y151.213 E51.7390
G1 X96.807 Y151.632 E51.7841
G1 X95.514 Y151.714 E51.8271
G1 X94.944 Y152.141
;segType:Loop
G0 X94.298 Y151.893 F5400
G1 X93.995 Y151.835 E51.8374 F3000
G1 X92.677 Y151.215 E51.8859
G1 X91.557 Y150.288 E51.9342
G1 X90.704 Y149.114 E51.9825
G1 X90.171 Y147.768 E52.0306
G1 X89.989 Y146.332 E52.0788
G1 X90.171 Y144.896 E52.1269
G1 X90.704 Y143.549 E52.1751
G1 X91.557 Y142.375 E52.2234
G1 X92.677 Y141.449 E52.2717
G1 X93.995 Y140.828 E52.3202
G1 X95.428 Y140.555 E52.3687
G1 X96.884 Y140.647 E52.4172
G1 X98.271 Y141.097 E52.4657
G1 X99.500 Y141.877 E52.5141
G1 X100.495 Y142.936 E52.5624
G1 X101.112 Y144.060 E52.6051
G1 X101.234 Y144.368 E52.6161
G1 X101.553 Y145.608 E52.6587
G1 X101.553 Y147.055 E52.7068
G1 X101.193 Y148.457 E52.7550
G1 X100.495 Y149.728 E52.8032
G1 X99.500 Y150.787 E52.8515
G1 X98.271 Y151.566 E52.8999
G1 X96.884 Y152.017 E52.9484
G1 X95.428 Y152.109 E52.9969
G1 X94.494 Y151.931 E53.0286
G0 X93.109 Y151.850 F5400
G1 X92.457 Y151.543 E53.0525 F3000
G1 X91.259 Y150.553 E53.1042
G1 X90.348 Y149.299 E53.1558
G1 X89.780 Y147.863 E53.2071
G1 X89.586 Y146.332 E53.2585
G1 X89.780 Y144.801 E53.3098
G1 X90.348 Y143.364 E53.3612
G1 X91.259 Y142.111 E53.4127
G1 X92.457 Y141.120 E53.4644
G1 X93.868 Y140.456 E53.5163
G1 X95.402 Y140.163 E53.5682
G1 X96.962 Y140.262 E53.6202
G1 X98.447 Y140.744 E53.6721
G1 X99.761 Y141.578 E53.7239
G1 X100.824 Y142.710 E53.7755
G1 X101.477 Y143.898 E53.8206
G1 X101.616 Y144.251 E53.8333
G1 X101.953 Y145.560 E53.8782
G1 X101.953 Y147.103 E53.9295
G1 X101.569 Y148.598 E53.9809
G1 X100.824 Y149.954 E54.0323
G1 X99.761 Y151.085 E54.0840
G1 X98.447 Y151.919 E54.1357
G1 X96.962 Y152.402 E54.1877
G1 X95.402 Y152.500 E54.2396
G1 X93.868 Y152.207 E54.2916
G1 X93.289 Y151.935 E54.3129
G0 X90.368 Y147.720 F5400
G0 X90.192 Y146.332
G0 X90.368 Y144.944
G0 X90.883 Y143.642
G0 X91.707 Y142.509
G0 X92.788 Y141.614
G0 X94.060 Y141.016
G0 X109.879 Y107.593
G0 X109.763 Y106.178
G1 X109.947 Y106.522 E54.3258 F3000
G1 X110.080 Y107.072 E54.3447
G1 X110.080 Y107.617 E54.3628
G1 X109.938 Y108.169 E54.3818
G1 X109.663 Y108.670 E54.4008
G1 X109.269 Y109.090 E54.4199
G1 X108.781 Y109.399 E54.4391
G1 X108.229 Y109.579 E54.4585
G1 X107.648 Y109.616 E54.4778
G1 X107.077 Y109.506 E54.4972
G1 X106.552 Y109.260 E54.5164
G1 X106.108 Y108.892 E54.5356
G1 X105.771 Y108.428 E54.5547
G1 X105.561 Y107.897 E54.5737
G1 X105.489 Y107.332 E54.5926
G1 X105.561 Y106.766 E54.6116
G1 X105.771 Y106.235 E54.6306
G1 X106.108 Y105.771 E54.6497
G1 X106.552 Y105.404 E54.6688
G1 X107.077 Y105.157 E54.6881
G1 X107.648 Y105.048 E54.7075
G1 X108.207 Y105.083 E54.7261
G1 X108.803 Y105.277 E54.7469
G1 X109.289 Y105.594 E54.7662
G1 X109.668 Y106.007 E54.7849
;segType:Perimeter
G0 X108.397 Y105.016 F5400
G1 X108.674 Y105.661 E54.8082 F2100
G1 X109.024 Y105.890 E54.8221
G1 X109.345 Y106.240 E54.8379
G1 X109.569 Y106.658 E54.8537
G1 X109.681 Y107.117 E54.8694
G1 X109.681 Y107.569 E54.8845
G1 X109.562 Y108.028 E54.9002
G1 X109.334 Y108.444 E54.9160
G1 X109.008 Y108.791 E54.9318
G1 X108.606 Y109.046 E54.9477
G1 X108.151 Y109.194 E54.9636
G1 X107.674 Y109.224 E54.9795
G1 X107.204 Y109.134 E54.9954
G1 X106.773 Y108.931 E55.0113
G1 X106.406 Y108.628 E55.0271
G1 X106.126 Y108.243 E55.0429
G1 X105.952 Y107.802 E55.0587
G1 X105.892 Y107.332 E55.0745
G1 X105.952 Y106.862 E55.0902
G1 X106.126 Y106.420 E55.1060
G1 X106.406 Y106.036 E55.1218
G1 X106.773 Y105.732 E55.1377
G1 X107.204 Y105.529 E55.1535
G1 X107.674 Y105.439 E55.1694
G1 X108.130 Y105.468 E55.1846
G1 X108.568 Y105.610 E55.1999
G1 X109.263 Y105.430
;segType:Loop
G0 X110.480 Y107.124 F5400
G1 X110.480 Y107.665 E55.2179 F3000
G1 X110.315 Y108.310 E55.2401
G1 X109.992 Y108.897 E55.2624
G1 X109.530 Y109.388 E55.2848
G1 X108.957 Y109.752 E55.3074
G1 X108.306 Y109.964 E55.3301
G1 X107.622 Y110.007 E55.3529
G1 X106.949 Y109.878 E55.3757
G1 X106.332 Y109.588 E55.3984
G1 X105.811 Y109.157 E55.4209
G1 X105.415 Y108.613 E55.4433
G1 X105.170 Y107.992 E55.4655
G1 X105.086 Y107.332 E55.4876
G1 X105.170 Y106.671 E55.5098
G1 X105.415 Y106.051 E55.5320
G1 X105.811 Y105.507 E55.5543
G1 X106.332 Y105.075 E55.5768
G1 X106.949 Y104.785 E55.5995
G1 X107.622 Y104.657 E55.6223
G1 X108.285 Y104.699 E55.6444
G1 X108.980 Y104.924 E55.6687
G1 X109.554 Y105.299 E55.6915
G1 X110.009 Y105.795 E55.7139
G1 X110.324 Y106.385 E55.7361
G1 X110.457 Y106.932 E55.7548
G0 X108.693 Y109.222 F5400
G0 X107.661 Y109.418
G0 X105.454 Y109.003
;segType:HShell
G1 X98.877 Y102.608 E56.0600 F3000
G1 X99.123 Y102.297
G1 X104.967 Y107.979 E56.3311
G1 X104.887 Y107.352
G1 X99.375 Y101.992 E56.5868
G1 X99.634 Y101.694
G1 X104.945 Y106.858 E56.8332
G1 X105.056 Y106.417
G1 X99.893 Y101.397 E57.0727
G1 X100.152 Y101.099
G1 X105.213 Y106.020 E57.3075
G1 X105.436 Y105.686
G1 X100.411 Y100.801 E57.5406
G1 X100.670 Y100.503
G1 X105.672 Y105.366 E57.7726
G1 X105.978 Y105.113
G1 X100.939 Y100.214 E58.0064
G1 X101.211 Y99.929
G1 X106.298 Y104.875 E58.2423
G1 X106.679 Y104.696
G1 X101.483 Y99.644 E58.4834
G1 X101.756 Y99.359
G1 X107.102 Y104.558 E58.7314
G1 X107.575 Y104.467
G1 X102.028 Y99.074 E58.9888
G1 X102.300 Y98.789
G1 X108.170 Y104.496 E59.2611
G1 X108.957 Y104.712
G1 X102.585 Y98.516 E59.5567
G1 X102.871 Y98.244
G1 X116.536 Y111.530 E60.1906
G1 X116.895 Y111.330
G1 X103.156 Y97.971 E60.8280
G1 X103.441 Y97.699
G1 X117.255 Y111.130 E61.4688
G1 X117.632 Y110.947
G1 X103.727 Y97.427 E62.1138
G1 X104.016 Y97.158
G1 X118.021 Y110.775 E62.7635
G1 X118.410 Y110.603
G1 X104.314 Y96.898 E63.4174
G1 X104.612 Y96.639
G1 X118.822 Y110.454 E64.0766
G1 X119.242 Y110.313
G1 X104.911 Y96.379 E64.7414
G1 X105.209 Y96.119
G1 X119.663 Y110.172 E65.4119
G1 X120.117 Y110.064
G1 X105.508 Y95.860 E66.0897
G1 X105.814 Y95.607
G1 X120.573 Y109.957 E66.7743
G1 X121.042 Y109.864
G1 X106.126 Y95.361 E67.4663
G1 X106.437 Y95.114
G1 X121.537 Y109.795 E68.1668
G1 X122.031 Y109.726
G1 X106.749 Y94.867 E68.8757
G1 X107.061 Y94.620
G1 X122.567 Y109.697 E69.5951
G1 X123.107 Y109.672
G1 X107.372 Y94.374 E70.3250
G1 X107.696 Y94.139
G1 X123.682 Y109.682 E71.0666
G1 X124.276 Y109.709
G1 X108.021 Y93.905 E71.8207
G1 X108.346 Y93.671
G1 X124.909 Y109.775 E72.5890
G1 X125.570 Y109.868
G1 X108.671 Y93.437 E73.3730
G1 X108.996 Y93.203
G1 X126.295 Y110.023 E74.1755
G1 X127.061 Y110.218
G1 X109.325 Y92.973 E74.9982
G1 X109.664 Y92.753
G1 X127.924 Y110.507 E75.8453
G0 X128.930 Y110.935 F5400
G1 X110.002 Y92.532 E76.7234 F3000
G1 X110.341 Y92.311
G1 X130.181 Y111.602 E77.6438
G0 X137.424 Y109.847 F5400
G1 X146.594 Y118.763 E78.0692 F3000
G1 X146.594 Y118.213
G1 X138.293 Y110.142 E78.4543
G1 X138.902 Y110.184
G1 X146.594 Y117.664 E78.8111
G1 X146.594 Y117.114
G1 X139.415 Y110.134 E79.1442
G1 X139.839 Y109.996
G1 X146.594 Y116.564 E79.4575
G1 X146.594 Y116.014
G1 X140.221 Y109.817 E79.7532
G1 X140.563 Y109.600
G1 X146.594 Y115.464 E80.0330
G1 X146.594 Y114.914
G1 X140.853 Y109.333 E80.2993
G1 X141.123 Y109.046
G1 X146.594 Y114.365 E80.5531
G1 X146.594 Y113.815
G1 X141.329 Y108.696 E80.7973
G1 X141.516 Y108.328
G1 X146.594 Y113.265 E81.0328
G1 X147.057 Y113.165
G1 X141.629 Y107.888 E81.2846
G1 X141.680 Y107.388
G1 X147.622 Y113.165 E81.5602
G0 X165.152 Y113.165 F5400
G1 X157.435 Y105.662 E81.9182 F3000
G1 X158.038 Y105.699
G1 X165.717 Y113.165 E82.2745
G1 X166.283 Y113.165
G1 X158.604 Y105.699 E82.6307
G1 X159.169 Y105.699
G1 X166.848 Y113.165 E82.9869
G1 X167.414 Y113.165
G1 X159.735 Y105.699 E83.3432
G1 X160.300 Y105.699
G1 X167.979 Y113.165 E83.6994
G1 X168.545 Y113.165
G1 X160.866 Y105.699 E84.0557
G1 X161.431 Y105.699
G1 X169.110 Y113.165 E84.4119
G1 X169.594 Y113.085
G1 X161.997 Y105.699 E84.7643
G1 X162.562 Y105.699
G1 X169.594 Y112.536 E85.0905
G1 X169.594 Y111.986
G1 X163.098 Y105.669 E85.3919
G1 X163.595 Y105.604
G1 X169.594 Y111.436 E85.6702
G1 X169.594 Y110.886
G1 X164.093 Y105.538 E85.9253
G1 X164.565 Y105.447
G1 X169.594 Y110.336 E86.1586
G1 X169.594 Y109.786
G1 X164.961 Y105.282 E86.3735
G1 X165.358 Y105.118
G1 X169.594 Y109.237 E86.5700
G1 X169.594 Y108.687
G1 X165.755 Y104.954 E86.7481
G1 X166.123 Y104.762
G1 X169.594 Y108.137 E86.9091
G1 X169.594 Y107.587
G1 X166.439 Y104.520 E87.0555
G1 X166.755 Y104.277
G1 X169.594 Y107.037 E87.1872
G1 X169.594 Y106.487
G1 X167.071 Y104.035 E87.3042
G1 X167.376 Y103.781
G1 X169.594 Y105.938 E87.4071
G1 X169.594 Y105.388
G1 X167.617 Y103.466 E87.4988
G1 X167.859 Y103.151
G1 X169.594 Y104.838 E87.5793
G1 X169.594 Y104.288
G1 X168.100 Y102.836 E87.6486
G1 X168.342 Y102.521
G1 X169.594 Y103.738 E87.7066
G1 X169.594 Y103.189
G1 X168.508 Y102.132 E87.7570
G1 X168.670 Y101.741
G1 X169.594 Y102.639 E87.7999
G1 X169.594 Y102.089
G1 X168.832 Y101.349 E87.8352
G1 X168.990 Y100.952
G1 X169.594 Y101.539 E87.8632
G1 X169.594 Y100.989
G1 X169.054 Y100.465 E87.8882
G1 X169.119 Y99.977
G1 X169.594 Y100.439 E87.9103
G1 X169.594 Y99.890
G1 X169.183 Y99.490 E87.9293
G1 X169.148 Y98.906
G1 X169.594 Y99.340 E87.9500
G1 X169.594 Y98.790
G1 X169.065 Y98.276 E87.9746
G1 X168.935 Y97.599
G1 X169.594 Y98.240 E88.0051
G1 X169.594 Y97.690
G1 X168.579 Y96.704 E88.0522
G0 X167.681 Y95.281 F5400
G1 X169.594 Y97.141 E88.1409 F3000
G1 X169.594 Y96.591
G1 X157.157 Y84.499 E88.7179
G1 X157.723 Y84.499
G1 X169.594 Y96.041 E89.2686
G1 X169.594 Y95.491
G1 X158.288 Y84.499 E89.7930
G1 X158.854 Y84.499
G1 X169.594 Y94.941 E90.2913
G1 X169.594 Y94.391
G1 X159.419 Y84.499 E90.7633
G1 X159.985 Y84.499
G1 X169.594 Y93.842 E91.2090
G1 X169.594 Y93.292
G1 X160.550 Y84.499 E91.6286
G1 X161.116 Y84.499
G1 X169.594 Y92.742 E92.0219
G1 X169.594 Y92.192
G1 X161.681 Y84.499 E92.3890
G1 X162.247 Y84.499
G1 X169.594 Y91.642 E92.7298
G1 X169.594 Y91.093
G1 X162.812 Y84.499 E93.0444
G1 X163.378 Y84.499
G1 X169.594 Y90.543 E93.3328
G1 X169.594 Y89.993
G1 X163.943 Y84.499 E93.5949
G1 X164.509 Y84.499
G1 X169.594 Y89.443 E93.8308
G1 X169.594 Y88.893
G1 X165.074 Y84.499 E94.0405
G1 X165.639 Y84.499
G1 X169.594 Y88.343 E94.2239
G1 X169.594 Y87.794
G1 X166.205 Y84.499 E94.3812
G1 X166.770 Y84.499
G1 X169.594 Y87.244 E94.5121
G1 X169.594 Y86.694
G1 X167.336 Y84.499 E94.6169
G1 X167.901 Y84.499
G1 X169.594 Y86.144 E94.6954
G1 X169.594 Y85.594
G1 X168.467 Y84.499 E94.7477
G1 X169.032 Y84.499
G1 X169.594 Y85.044 E94.7737
G0 X166.784 Y94.409 F5400
G1 X156.592 Y84.499 E95.2465 F3000
G1 X156.026 Y84.499
G1 X165.311 Y93.526 E95.6772
G0 X164.371 Y93.162 F5400
G1 X155.461 Y84.499 E96.0906 F3000
G1 X154.895 Y84.499
G1 X163.717 Y93.076 E96.4999
G1 X163.063 Y92.990
G1 X154.330 Y84.499 E96.9050
G1 X153.764 Y84.499
G1 X162.472 Y92.965 E97.3089
G1 X161.907 Y92.965
G1 X153.199 Y84.499 E97.7129
G1 X152.633 Y84.499
G1 X161.341 Y92.965 E98.1169
G1 X160.776 Y92.965
G1 X152.068 Y84.499 E98.5208
G1 X151.502 Y84.499
G1 X160.210 Y92.965 E98.9248
G1 X159.645 Y92.965
G1 X150.937 Y84.499 E99.3287
G1 X150.371 Y84.499
G1 X159.079 Y92.965 E99.7327
G1 X158.514 Y92.965
G1 X149.806 Y84.499 E100.1366
G1 X149.240 Y84.499
G1 X157.948 Y92.965 E100.5406
G1 X157.422 Y93.003
G1 X148.675 Y84.499 E100.9464
G1 X148.110 Y84.499
G1 X156.924 Y93.069 E101.3553
G1 X156.426 Y93.135
G1 X147.544 Y84.499 E101.7673
G1 X146.979 Y84.499
G1 X155.969 Y93.240 E102.1844
G1 X155.572 Y93.404
G1 X146.413 Y84.499 E102.6092
G1 X145.848 Y84.499
G1 X155.175 Y93.568 E103.0419
G1 X154.779 Y93.732
G1 X145.282 Y84.499 E103.4825
G1 X144.717 Y84.499
G1 X154.421 Y93.935 E103.9327
G1 X154.105 Y94.177
G1 X144.151 Y84.499 E104.3945
G1 X143.586 Y84.499
G1 X153.789 Y94.420 E104.8678
G1 X153.473 Y94.662
G1 X143.020 Y84.499 E105.3527
G1 X142.455 Y84.499
G1 X153.179 Y94.926 E105.8502
G1 X152.937 Y95.241
G1 X141.889 Y84.499 E106.3628
G1 X141.324 Y84.499
G1 X152.696 Y95.556 E106.8903
G1 X152.454 Y95.871
G1 X140.758 Y84.499 E107.4329
G1 X140.193 Y84.499
G1 X152.220 Y96.193 E107.9908
G1 X152.058 Y96.585
G1 X139.627 Y84.499 E108.5675
G1 X139.062 Y84.499
G1 X151.895 Y96.977 E109.1628
G1 X151.733 Y97.369
G1 X138.496 Y84.499 E109.7769
G1 X137.931 Y84.499
G1 X151.589 Y97.778 E110.4105
G1 X151.524 Y98.265
G1 X137.365 Y84.499 E111.0673
G1 X136.800 Y84.499
G1 X151.460 Y98.753 E111.7474
G1 X151.396 Y99.240
G1 X136.248 Y84.512 E112.4501
G1 X135.695 Y84.524
G1 X151.451 Y99.844 E113.1810
G1 X151.534 Y100.475
G1 X135.143 Y84.537 E113.9414
G1 X134.591 Y84.550
G1 X151.679 Y101.165 E114.7342
G0 X155.142 Y105.082 F5400
G1 X163.456 Y113.165 E115.1198 F3000
G1 X164.021 Y113.165
G1 X156.127 Y105.490 E115.4861
G0 X153.435 Y103.972 F5400
G1 X162.890 Y113.165 E115.9247 F3000
G1 X162.325 Y113.165
G1 X133.005 Y84.658 E117.2848
G1 X132.477 Y84.694
G1 X161.759 Y113.165 E118.6432
G1 X161.194 Y113.165
G1 X131.964 Y84.745 E119.9991
G1 X131.459 Y84.804
G1 X160.628 Y113.165 E121.3523
G1 X160.063 Y113.165
G1 X130.954 Y84.862 E122.7027
G1 X130.449 Y84.921
G1 X159.497 Y113.165 E124.0502
G1 X158.932 Y113.165
G1 X129.948 Y84.984 E125.3948
G1 X129.464 Y85.063
G1 X158.366 Y113.165 E126.7356
G1 X157.801 Y113.165
G1 X128.980 Y85.142 E128.0726
G1 X128.495 Y85.221
G1 X157.235 Y113.165 E129.4058
G1 X156.670 Y113.165
G1 X128.011 Y85.300 E130.7353
G1 X127.539 Y85.391
G1 X156.104 Y113.165 E132.0605
G1 X155.539 Y113.165
G1 X127.075 Y85.489 E133.3809
G1 X126.610 Y85.587
G1 X154.973 Y113.165 E134.6967
G1 X154.408 Y113.165
G1 X126.145 Y85.685 E136.0078
G1 X125.681 Y85.783
G1 X153.842 Y113.165 E137.3142
G1 X153.277 Y113.165
G1 X125.232 Y85.897 E138.6152
G1 X124.786 Y86.013
G1 X152.711 Y113.165 E139.9107
G1 X152.146 Y113.165
G1 X124.340 Y86.129 E141.2006
G1 X123.893 Y86.245
G1 X151.580 Y113.165 E142.4851
G1 X151.015 Y113.165
G1 X123.447 Y86.361 E143.7639
G1 X123.018 Y86.494
G1 X150.449 Y113.165 E145.0365
G1 X149.884 Y113.165
G1 X122.589 Y86.626 E146.3027
G1 X122.160 Y86.759
G1 X149.318 Y113.165 E147.5625
G1 X148.753 Y113.165
G1 X141.300 Y105.919 E147.9083
G0 X140.151 Y104.801 F5400
G1 X121.731 Y86.892 E148.7627 F3000
G1 X121.302 Y87.025
G1 X139.279 Y104.503 E149.5967
G1 X138.674 Y104.465
G1 X120.890 Y87.173 E150.4217
G1 X120.478 Y87.322
G1 X138.187 Y104.541 E151.2432
G1 X137.748 Y104.664
G1 X120.065 Y87.471 E152.0635
G1 X119.653 Y87.620
G1 X137.367 Y104.843 E152.8853
G1 X137.032 Y105.068
G1 X119.241 Y87.769 E153.7106
G1 X118.842 Y87.931
G1 X136.727 Y105.321 E154.5403
G1 X136.478 Y105.628
G1 X118.445 Y88.095 E155.3769
G1 X118.048 Y88.259
G1 X136.243 Y105.950 E156.2209
G1 X136.085 Y106.346
G1 X117.652 Y88.424 E157.0760
G1 X117.255 Y88.588
G1 X135.956 Y106.770 E157.9435
G1 X135.894 Y107.260
G1 X116.868 Y88.761 E158.8262
G1 X116.486 Y88.940
G1 X135.952 Y107.867 E159.7292
G0 X137.258 Y105.905 F5400
G0 X138.141 Y105.345
G0 X152.061 Y102.086
G1 X134.061 Y84.584 E160.5642 F3000
G1 X133.533 Y84.621
G1 X153.134 Y103.680 E161.4735
G0 X139.190 Y109.385 F5400
G0 X138.141 Y109.319
G0 X136.230 Y108.687
G1 X116.105 Y89.119 E162.4072 F3000
G1 X115.724 Y89.298
G1 X146.594 Y119.313 E163.8392
G1 X146.594 Y119.863
G1 X115.342 Y89.477 E165.2890
G1 X114.965 Y89.659
G1 X146.594 Y120.413 E166.7563
G1 X146.594 Y120.962
G1 X114.598 Y89.853 E168.2406
G1 X114.231 Y90.046
G1 X146.594 Y121.512 E169.7419
G1 X146.594 Y122.062
G1 X113.864 Y90.239 E171.2602
G1 X113.498 Y90.433
G1 X146.594 Y122.612 E172.7956
G1 X146.594 Y123.162
G1 X113.131 Y90.626 E174.3479
G1 X112.776 Y90.830
G1 X146.594 Y123.712 E175.9167
G1 X146.594 Y124.261
G1 X112.423 Y91.037 E177.5019
G1 X112.071 Y91.245
G1 X146.594 Y124.811 E179.1034
G1 X146.594 Y125.361
G1 X111.719 Y91.452 E180.7213
G1 X111.366 Y91.659
G1 X146.594 Y125.911 E182.3555
G1 X146.594 Y126.461
G1 X111.018 Y91.870 E184.0059
G1 X110.679 Y92.091
G1 X146.594 Y127.011 E185.6720
G1 X146.594 Y127.560
G1 X134.350 Y115.655 E186.2400
G0 X135.090 Y116.925 F5400
G1 X146.594 Y128.110 E186.7736 F3000
G1 X146.594 Y128.660
G1 X135.525 Y117.897 E187.2871
G0 X136.060 Y119.517 F5400
G1 X146.594 Y129.760 E187.7758 F3000
G1 X146.594 Y129.210
G1 X135.828 Y118.742 E188.2752
G0 X136.758 Y138.849 F5400
G0 X137.843 Y141.044
G1 X140.274 Y143.408 E188.3880 F3000
G1 X140.579 Y143.155
G1 X138.562 Y141.194 E188.4816
G1 X139.104 Y141.171
G1 X140.934 Y142.950 E188.5665
G1 X141.315 Y142.771
G1 X139.577 Y141.081 E188.6471
G1 X140.001 Y140.943
G1 X141.725 Y142.620 E188.7271
G1 X142.197 Y142.529
G1 X140.351 Y140.734 E188.8127
G1 X140.687 Y140.511
G1 X142.705 Y142.473 E188.9063
G1 X143.310 Y142.511
G1 X140.956 Y140.223 E189.0155
G1 X141.208 Y139.918
G1 X144.069 Y142.699 E189.1482
G0 X140.156 Y136.743 F5400
G0 X138.905 Y135.480
G1 X133.921 Y130.634 E189.3794 F3000
G1 X133.678 Y130.947
G1 X138.368 Y135.507 E189.5970
G1 X137.895 Y135.597
G1 X133.426 Y131.252 E189.8043
G1 X133.173 Y131.556
G1 X137.512 Y135.775 E190.0056
G1 X137.149 Y135.972
G1 X132.906 Y131.846 E190.2024
G1 X132.627 Y132.125
G1 X136.844 Y136.224 E190.3980
G1 X136.567 Y136.505
G1 X132.348 Y132.403 E190.5937
G1 X132.057 Y132.670
G1 X136.333 Y136.827 E190.7921
G1 X136.145 Y137.194
G1 X131.752 Y132.923 E190.9958
G1 X131.447 Y133.177
G1 X135.987 Y137.591 E191.2065
G1 X135.917 Y138.073
G1 X131.132 Y133.420 E191.4285
G1 X130.800 Y133.647
G1 X135.922 Y138.627 E191.6661
G0 X139.127 Y145.372 F5400
G0 X140.195 Y147.620
G0 X141.263 Y149.869
G1 X146.594 Y155.051 E191.9134 F3000
G1 X146.594 Y154.502
G1 X142.079 Y150.112 E192.1228
G0 X140.074 Y147.817 F5400
G0 X136.096 Y139.346
G1 X130.468 Y133.874 E192.3839 F3000
G1 X130.126 Y134.092
G1 X139.968 Y143.661 E192.8404
G1 X139.726 Y143.975
G1 X129.767 Y134.292 E193.3024
G1 X129.407 Y134.492
G1 X139.492 Y144.297 E193.7702
G1 X139.292 Y144.653
G1 X129.036 Y134.681 E194.2460
G1 X128.647 Y134.853
G1 X139.134 Y145.049 E194.7325
G1 X138.994 Y145.463
G1 X128.258 Y135.025 E195.2305
G1 X127.853 Y135.180
G1 X138.932 Y145.953 E195.7445
G1 X138.902 Y146.473
G1 X127.433 Y135.321 E196.2766
G1 X127.012 Y135.462
G1 X138.981 Y147.100 E196.8318
G0 X120.447 Y135.677 F5400
G1 X140.491 Y155.165 E197.7616 F3000
G1 X139.925 Y155.165
G1 X119.701 Y135.502 E198.6998
G0 X125.574 Y135.010 F5400
G0 X129.826 Y133.362
G0 X133.193 Y130.294
G0 X135.222 Y126.219
G0 X136.227 Y120.230
G1 X146.594 Y130.309 E199.1807 F3000
G1 X146.594 Y130.859
G1 X136.331 Y120.880 E199.6568
G1 X136.419 Y121.516
G1 X146.594 Y131.409 E200.1288
G1 X146.594 Y131.959
G1 X136.462 Y122.107 E200.5989
G1 X136.488 Y122.683
G1 X146.594 Y132.509 E201.0676
G1 X146.594 Y133.059
G1 X136.477 Y123.222 E201.5370
G1 X136.453 Y123.748
G1 X146.594 Y133.608 E202.0074
G1 X146.594 Y134.158
G1 X136.409 Y124.256 E202.4799
G1 X136.342 Y124.740
G1 X146.594 Y134.708 E202.9555
G1 X146.594 Y135.258
G1 X136.274 Y125.224 E203.4342
G1 X136.171 Y125.673
G1 X146.594 Y135.808 E203.9177
G1 X146.594 Y136.357
G1 X136.066 Y126.121 E204.4061
G1 X135.950 Y126.558
G1 X146.594 Y136.907 E204.8999
G1 X146.594 Y137.457
G1 X135.811 Y126.973 E205.4001
G1 X135.672 Y127.387
G1 X146.594 Y138.007 E205.9068
G1 X146.594 Y138.557
G1 X135.516 Y127.786 E206.4207
G1 X135.346 Y128.171
G1 X146.594 Y139.107 E206.9425
G1 X146.594 Y139.656
G1 X135.177 Y128.555 E207.4721
G1 X134.988 Y128.922
G1 X146.594 Y140.206 E208.0105
G1 X146.594 Y140.756
G1 X134.789 Y129.278 E208.5581
G1 X134.591 Y129.635
G1 X146.594 Y141.306 E209.1150
G0 X141.560 Y137.512 F5400
G1 X146.594 Y142.405 E209.3485 F3000
G1 X146.594 Y142.955
G1 X141.680 Y138.178 E209.5764
G1 X141.672 Y138.720
G1 X146.594 Y143.505 E209.8047
G1 X146.594 Y144.055
G1 X141.559 Y139.160 E210.0383
G1 X141.404 Y139.559
G1 X146.594 Y144.605 E210.2790
G1 X146.594 Y145.155
G1 X146.460 Y145.025 E210.2852
G0 X146.433 Y147.747 F5400
G1 X146.594 Y147.904 E210.2927 F3000
G1 X146.594 Y148.454
G1 X146.236 Y148.106 E210.3093
G1 X146.039 Y148.464
G1 X146.594 Y149.003 E210.3350
G1 X146.594 Y149.553
G1 X145.796 Y148.778 E210.3720
G1 X145.527 Y149.065
G1 X146.594 Y150.103 E210.4215
G1 X146.594 Y150.653
G1 X145.246 Y149.342 E210.4840
G1 X144.903 Y149.559
G1 X146.594 Y151.203 E210.5625
G1 X146.594 Y151.752
G1 X144.561 Y149.776 E210.6568
G1 X144.159 Y149.935
G1 X146.594 Y152.302 E210.7697
G1 X146.594 Y152.852
G1 X143.735 Y150.073 E210.9023
G0 X141.494 Y148.993 F5400
G0 X139.253 Y147.914
G1 X126.565 Y135.577 E211.4909 F3000
G1 X126.110 Y135.684
G1 X146.145 Y155.165 E212.4204
G1 X145.580 Y155.165
G1 X125.648 Y135.785 E213.3450
G1 X125.153 Y135.854
G1 X145.014 Y155.165 E214.2664
G1 X144.449 Y155.165
G1 X124.659 Y135.923 E215.1844
G1 X124.132 Y135.961
G1 X143.883 Y155.165 E216.1007
G1 X143.318 Y155.165
G1 X123.593 Y135.986 E217.0158
G1 X123.029 Y135.988
G1 X142.752 Y155.165 E217.9307
G1 X142.187 Y155.165
G1 X122.435 Y135.960 E218.8470
G1 X121.815 Y135.907
G1 X141.621 Y155.165 E219.7659
G1 X141.056 Y155.165
G1 X121.155 Y135.815 E220.6891
G0 X113.757 Y131.921 F5400
G1 X93.020 Y111.758 E221.6511 F3000
G1 X92.843 Y112.136
G1 X137.098 Y155.165 E223.7041
G1 X136.532 Y155.165
G1 X92.665 Y112.513 E225.7390
G1 X92.488 Y112.891
G1 X135.967 Y155.165 E227.7560
G1 X135.401 Y155.165
G1 X92.311 Y113.268 E229.7550
G1 X92.136 Y113.648
G1 X134.836 Y155.165 E231.7358
G1 X134.270 Y155.165
G1 X91.973 Y114.040 E233.6980
G1 X91.811 Y114.432
G1 X133.705 Y155.165 E235.6414
G1 X133.139 Y155.165
G1 X91.649 Y114.824 E237.5662
G1 X91.486 Y115.216
G1 X132.574 Y155.165 E239.4722
G1 X132.008 Y155.165
G1 X91.324 Y115.608 E241.3596
G1 X91.174 Y116.012
G1 X131.443 Y155.165 E243.2276
G1 X130.877 Y155.165
G1 X91.027 Y116.419 E245.0763
G1 X90.880 Y116.826
G1 X130.312 Y155.165 E246.9055
G1 X129.746 Y155.165
G1 X90.733 Y117.233 E248.7154
G1 X90.586 Y117.639
G1 X109.500 Y136.029 E249.5928
G0 X110.977 Y127.569 F5400
G1 X93.587 Y110.660 E250.3995 F3000
G1 X93.778 Y110.297
G1 X110.703 Y126.753 E251.1847
G0 X106.227 Y109.755 F5400
G1 X112.261 Y115.622 E251.4646 F3000
G1 X112.038 Y115.955
G1 X98.631 Y102.918 E252.0866
G1 X98.385 Y103.229
G1 X111.840 Y116.311 E252.7107
G1 X111.641 Y116.668
G1 X98.139 Y103.540 E253.3371
G1 X97.893 Y103.850
G1 X111.446 Y117.029 E253.9659
G1 X111.277 Y117.413
G1 X97.658 Y104.172 E254.5976
G1 X97.425 Y104.496
G1 X111.107 Y117.798 E255.2323
G1 X110.945 Y118.191
G1 X97.193 Y104.819 E255.8703
G1 X96.960 Y105.143
G1 X110.806 Y118.605 E256.5126
G1 X110.667 Y119.020
G1 X96.727 Y105.466 E257.1593
G1 X96.497 Y105.792
G1 X110.544 Y119.450 E257.8109
G1 X110.439 Y119.898
G1 X96.278 Y106.129 E258.4678
G1 X96.058 Y106.465
G1 X110.333 Y120.345 E259.1301
G1 X110.260 Y120.823
G1 X95.839 Y106.802 E259.7991
G1 X95.620 Y107.139
G1 X110.192 Y121.307 E260.4751
G1 X110.140 Y121.806
G1 X95.401 Y107.475 E261.1589
G1 X95.189 Y107.820
G1 X110.116 Y122.333 E261.8513
G1 X110.094 Y122.861
G1 X94.984 Y108.170 E262.5523
G1 X94.778 Y108.519
G1 X110.121 Y123.437 E263.2640
G1 X110.147 Y124.013
G1 X94.572 Y108.869 E263.9865
G1 X94.367 Y109.219
G1 X110.233 Y124.646 E264.7225
G1 X110.326 Y125.286
G1 X94.162 Y109.570 E265.4724
G1 X93.970 Y109.933
G1 X110.493 Y125.999 E266.2389
G0 X105.159 Y139.506 F5400
G1 X88.954 Y123.750 E266.9907 F3000
G1 X89.050 Y123.293
G1 X104.936 Y138.740 E267.7276
G1 X104.906 Y138.161
G1 X89.146 Y122.837 E268.4588
G1 X89.242 Y122.381
G1 X104.968 Y137.671 E269.1883
G1 X105.116 Y137.265
G1 X89.347 Y121.933 E269.9198
G1 X89.461 Y121.494
G1 X105.291 Y136.885 E270.6542
G1 X105.525 Y136.563
G1 X89.575 Y121.055 E271.3941
G1 X89.689 Y120.616
G1 X105.789 Y136.270 E272.1410
G1 X106.094 Y136.017
G1 X89.803 Y120.177 E272.8967
G1 X89.925 Y119.746
G1 X106.444 Y135.807 E273.6630
G1 X106.825 Y135.627
G1 X90.056 Y119.323 E274.4409
G1 X90.187 Y118.901
G1 X107.283 Y135.523 E275.2340
G1 X107.797 Y135.473
G1 X90.318 Y118.478 E276.0448
G0 X110.176 Y136.687 F5400
G1 X129.181 Y155.165 E276.9264 F3000
G1 X128.615 Y155.165
G1 X110.592 Y137.641 E277.7625
G1 X110.680 Y138.277
G1 X128.050 Y155.165 E278.5683
G1 X127.484 Y155.165
G1 X110.652 Y138.799 E279.3492
G1 X110.539 Y139.239
G1 X126.919 Y155.165 E280.1090
G1 X126.353 Y155.165
G1 X110.369 Y139.623 E280.8505
G1 X110.172 Y139.982
G1 X125.788 Y155.165 E281.5750
G1 X125.223 Y155.165
G1 X109.908 Y140.275 E282.2854
G1 X109.632 Y140.556
G1 X124.657 Y155.165 E282.9824
G1 X124.092 Y155.165
G1 X109.290 Y140.773 E283.6691
G1 X108.924 Y140.968
G1 X123.526 Y155.165 E284.3464
G1 X122.961 Y155.165
G1 X108.501 Y141.106 E285.0173
G1 X108.009 Y141.177
G1 X122.395 Y155.165 E285.6846
G1 X121.830 Y155.165
G1 X107.435 Y141.170 E286.3524
G0 X100.991 Y142.601 F5400
G1 X113.913 Y155.165 E286.9519 F3000
G1 X114.478 Y155.165
G1 X88.151 Y129.567 E288.1732
G1 X88.187 Y129.052
G1 X115.044 Y155.165 E289.4191
G1 X115.609 Y155.165
G1 X88.234 Y128.548 E290.6890
G1 X88.292 Y128.054
G1 X116.175 Y155.165 E291.9825
G1 X116.740 Y155.165
G1 X88.349 Y127.560 E293.2996
G1 X88.406 Y127.066
G1 X117.306 Y155.165 E294.6402
G1 X117.871 Y155.165
G1 X88.464 Y126.572 E296.0044
G1 X88.542 Y126.098
G1 X118.437 Y155.165 E297.3913
G1 X119.002 Y155.165
G1 X88.619 Y125.623 E298.8008
G1 X88.696 Y125.149
G1 X119.568 Y155.165 E300.2329
G1 X120.133 Y155.165
G1 X88.774 Y124.674 E301.6877
G1 X88.857 Y124.206
G1 X120.699 Y155.165 E303.1648
G1 X121.264 Y155.165
G1 X106.646 Y140.952 E303.8429
G0 X100.329 Y149.614 F5400
G0 X98.183 Y151.388
G0 X94.170 Y152.463
G1 X96.948 Y155.165 E303.9718 F3000
G0 X96.593 Y152.620 F5400
G1 X99.210 Y155.165 E304.0932 F3000
G1 X99.776 Y155.165
G1 X97.099 Y152.562 E304.2174
G1 X97.523 Y152.425
G1 X100.341 Y155.165 E304.3482
G1 X100.907 Y155.165
G1 X97.947 Y152.287 E304.4855
G1 X98.370 Y152.149
G1 X101.472 Y155.165 E304.6294
G1 X102.038 Y155.165
G1 X98.744 Y151.963 E304.7821
G1 X99.086 Y151.746
G1 X102.603 Y155.165 E304.9453
G1 X103.169 Y155.165
G1 X99.429 Y151.529 E305.1188
G1 X99.771 Y151.311
G1 X103.734 Y155.165 E305.3027
G1 X104.300 Y155.165
G1 X100.066 Y151.049 E305.4990
G1 X100.336 Y150.762
G1 X104.865 Y155.165 E305.7091
G1 X105.431 Y155.165
G1 X100.606 Y150.474 E305.9330
G1 X100.876 Y150.187
G1 X105.996 Y155.165 E306.1705
G1 X106.562 Y155.165
G1 X101.103 Y149.858 E306.4237
G1 X101.300 Y149.500
G1 X107.127 Y155.165 E306.6940
G1 X107.693 Y155.165
G1 X101.497 Y149.141 E306.9814
G1 X101.694 Y148.783
G1 X108.258 Y155.165 E307.2859
G1 X108.824 Y155.165
G1 X101.834 Y148.369 E307.6102
G1 X101.947 Y147.929
G1 X109.389 Y155.165 E307.9554
G1 X109.954 Y155.165
G1 X102.060 Y147.489 E308.3216
G1 X102.153 Y147.030
G1 X110.520 Y155.165 E308.7098
G1 X111.085 Y155.165
G1 X102.153 Y146.480 E309.1242
G1 X102.153 Y145.930
G1 X111.651 Y155.165 E309.5648
G1 X112.216 Y155.165
G1 X102.099 Y145.328 E310.0341
G1 X101.911 Y144.595
G1 X112.782 Y155.165 E310.5384
G1 X113.347 Y155.165
G1 X101.640 Y143.782 E311.0815
G0 X101.351 Y147.031 F5400
G0 X101.003 Y148.387
G0 X98.183 Y151.388
G0 X96.845 Y151.823
G0 X95.441 Y151.911
G0 X94.060 Y151.648
G0 X92.788 Y151.049
G0 X89.999 Y148.958
G1 X87.994 Y147.008 E311.1745 F3000
G1 X87.994 Y146.459
G1 X89.645 Y148.064 E311.2512
G0 X90.368 Y144.944 F5400
G0 X90.883 Y143.642
G0 X91.707 Y142.509
G0 X92.788 Y141.614
G0 X94.060 Y141.016
G0 X97.384 Y140.194
G1 X88.046 Y131.114 E311.6844 F3000
G1 X88.034 Y131.652
G1 X96.669 Y140.048 E312.0850
G1 X96.064 Y140.010
G1 X88.022 Y132.191 E312.4581
G1 X88.010 Y132.729
G1 X95.460 Y139.972 E312.8037
G1 X94.972 Y140.047
G1 X87.999 Y133.268 E313.1271
G1 X87.994 Y133.813
G1 X94.499 Y140.138 E313.4289
G1 X94.026 Y140.228
G1 X87.994 Y134.363 E313.7087
G1 X87.994 Y134.912
G1 X93.602 Y140.365 E313.9689
G1 X93.221 Y140.545
G1 X87.994 Y135.462 E314.2114
G1 X87.994 Y136.012
G1 X92.840 Y140.724 E314.4362
G1 X92.459 Y140.903
G1 X87.994 Y136.562 E314.6434
G1 X87.994 Y137.112
G1 X92.131 Y141.134 E314.8353
G1 X91.826 Y141.387
G1 X87.994 Y137.661 E315.0130
G1 X87.994 Y138.211
G1 X91.520 Y141.640 E315.1766
G1 X91.215 Y141.893
G1 X87.994 Y138.761 E315.3260
G1 X87.994 Y139.311
G1 X90.956 Y142.191 E315.4635
G1 X90.722 Y142.513
G1 X87.994 Y139.861 E315.5900
G1 X87.994 Y140.411
G1 X90.488 Y142.836 E315.7057
G1 X90.254 Y143.158
G1 X87.994 Y140.960 E315.8105
G1 X87.994 Y141.510
G1 X90.069 Y143.528 E315.9068
G1 X89.912 Y143.925
G1 X87.994 Y142.060 E315.9958
G1 X87.994 Y142.610
G1 X89.755 Y144.322 E316.0775
G1 X89.598 Y144.719
G1 X87.994 Y143.160 E316.1519
G1 X87.994 Y143.710
G1 X89.528 Y145.201 E316.2231
G1 X89.466 Y145.690
G1 X87.994 Y144.259 E316.2913
G1 X87.994 Y144.809
G1 X89.404 Y146.180 E316.3567
G1 X89.439 Y146.764
G1 X87.994 Y145.359 E316.4238
G1 X87.994 Y145.909
G1 X89.519 Y147.391 E316.4945
G0 X93.278 Y152.146 F5400
G1 X96.383 Y155.165 E316.6386 F3000
G1 X95.817 Y155.165
G1 X91.775 Y151.234 E316.8261
G0 X90.872 Y150.357 F5400
G1 X87.994 Y147.558 E316.9597 F3000
G1 X87.994 Y148.108
G1 X95.252 Y155.165 E317.2964
G1 X94.686 Y155.165
G1 X87.994 Y148.658 E317.6068
G1 X87.994 Y149.208
G1 X94.121 Y155.165 E317.8911
G1 X93.555 Y155.165
G1 X87.994 Y149.758 E318.1491
G1 X87.994 Y150.307
G1 X92.990 Y155.165 E318.3808
G1 X92.425 Y155.165
G1 X87.994 Y150.857 E318.5864
G1 X87.994 Y151.407
G1 X91.859 Y155.165 E318.7657
G1 X91.294 Y155.165
G1 X87.994 Y151.957 E318.9187
G1 X87.994 Y152.507
G1 X90.728 Y155.165 E319.0456
G1 X90.163 Y155.165
G1 X87.994 Y153.056 E319.1462
G1 X87.994 Y153.606
G1 X89.597 Y155.165 E319.2206
G1 X89.032 Y155.165
G1 X87.994 Y154.156 E319.2687
G1 X87.994 Y154.706
G1 X88.466 Y155.165 E319.2906
G0 X90.368 Y144.944 F5400
G0 X90.883 Y143.642
G0 X91.707 Y142.509
G0 X92.788 Y141.614
G0 X94.060 Y141.016
G0 X98.234 Y140.470
G1 X88.079 Y130.597 E319.7617 F3000
G1 X88.115 Y130.082
G1 X99.586 Y141.235 E320.2938
G0 X111.400 Y128.530 F5400
G1 X93.395 Y111.024 E321.1290 F3000
G1 X93.204 Y111.387
G1 X112.029 Y129.691 E322.0023
G0 X110.946 Y123.974 F5400
G0 X110.410 Y106.124
G1 X116.188 Y111.742 E322.2703 F3000
G1 X115.856 Y111.970
G1 X110.659 Y106.916 E322.5114
G1 X110.680 Y107.487
G1 X115.525 Y112.197 E322.7362
G1 X115.204 Y112.434
G1 X110.609 Y107.967 E322.9493
G1 X110.491 Y108.402
G1 X114.898 Y112.688 E323.1538
G1 X114.593 Y112.941
G1 X110.294 Y108.760 E323.3533
G1 X110.075 Y109.097
G1 X114.297 Y113.202 E323.5491
G1 X114.018 Y113.481
G1 X109.805 Y109.385 E323.7446
G1 X109.501 Y109.639
G1 X113.739 Y113.760 E323.9412
G1 X113.467 Y114.045
G1 X109.159 Y109.856 E324.1410
G1 X108.763 Y110.021
G1 X113.214 Y114.349 E324.3475
G1 X112.962 Y114.653
G1 X108.337 Y110.157 E324.5621
G1 X107.806 Y110.190
G1 X112.713 Y114.962 E324.7897
G1 X112.487 Y115.292
G1 X107.166 Y110.118 E325.0365
G0 X111.730 Y127.304 F5400
G0 X112.749 Y129.350
G0 X116.681 Y134.214
G1 X138.229 Y155.165 E326.0361 F3000
G1 X137.663 Y155.165
G1 X114.512 Y132.656 E327.1101
G0 X117.872 Y134.823 F5400
G1 X138.794 Y155.165 E328.0807 F3000
G1 X139.360 Y155.165
G1 X118.843 Y135.216 E329.0325
G0 F1200 E328.0325
G0 X125.650 Y135.391 F5400
G0 X130.041 Y133.690
G0 X160.819 Y103.772
G0 X167.000 Y99.000
G0 F1200 E329.0325
;segType:SoftSupport
G1 X166.000 Y99.000 E329.0474 F4500
G1 X167.000 Y100.000 E329.0686
G1 X166.000 Y100.000 E329.0835
G0 F1200 E328.0835
G0 X167.000 Y98.000 F5400
G0 F1200 E329.0835
G1 X164.000 Y98.000 E329.1284 F4500
G0 F1200 E328.1284
G0 X166.754 Y97.000 F5400
G0 F1200 E329.1284
G1 X164.000 Y97.000 E329.1697 F4500
G0 F1200 E328.1697
G0 X164.277 Y95.000 F5400
G0 F1200 E329.1697
G1 X156.310 Y95.000 E329.2889 F4500
G0 F1200 E328.2889
G0 X165.000 Y103.000 F5400
G0 F1200 E329.2889
G1 X156.000 Y103.000 E329.4236 F4500
G0 F1200 E328.4236
G0 X165.000 Y96.000 F5400
G0 F1200 E329.4236
G1 X154.636 Y96.000 E329.5787 F4500
G0 F1200 E328.5787
G0 X166.496 Y102.000 F5400
G0 F1200 E329.5787
G1 X154.091 Y102.000 E329.7644 F4500
G0 F1200 E328.7644
G0 X157.000 Y98.000 F5400
G0 F1200 E329.7644
G1 X154.000 Y98.000 E329.8093 F4500
G0 F1200 E328.8093
G0 X155.000 Y100.000 F5400
G0 F1200 E329.8093
G1 X154.000 Y100.000 E329.8242 F4500
G1 X155.000 Y99.000 E329.8454
G1 X154.000 Y99.000 E329.8604
G0 F1200 E328.8604
G0 X167.000 Y101.000 F5400
G0 F1200 E329.8604
G1 X154.000 Y101.000 E330.0549 F4500
G0 F1200 E329.0549
G0 X157.000 Y97.000 F5400
G0 F1200 E330.0549
G1 X154.000 Y97.000 E330.0998 F4500
G0 F1200 E329.0998
G0 X151.064 Y111.856 F5400
G0 X150.574 Y114.332
G0 X147.794 Y129.049
G0 X147.229 Y131.707
G0 X144.405 Y145.000
G0 F1200 E330.0998
G1 X144.000 Y145.000 E330.1059 F4500
G1 X144.856 Y146.000 E330.1256
G1 X144.000 Y146.000 E330.1384
G0 F1200 E329.1384
G0 X144.067 Y148.000 F5400
G0 F1200 E330.1384
G1 X141.534 Y148.000 E330.1763 F4500
G0 F1200 E329.1763
G0 X144.769 Y147.000 F5400
G0 F1200 E330.1763
G1 X140.820 Y147.000 E330.2355 F4500
G1 X141.000 Y146.000 E330.2507
G1 X140.740 Y146.000 E330.2545
G0 F1200 E329.2545
G0 X100.330 Y147.000 F5400
G0 F1200 E330.2545
G1 X98.000 Y147.000 E330.2894 F4500
G0 F1200 E329.2894
G0 X100.074 Y148.000 F5400
G0 F1200 E330.2894
G1 X98.000 Y148.000 E330.3204 F4500
G0 F1200 E329.3204
G0 X100.353 Y146.000 F5400
G0 F1200 E330.3204
G1 X98.000 Y146.000 E330.3557 F4500
G0 F1200 E329.3557
G0 X100.160 Y145.000 F5400
G0 F1200 E330.3557
G1 X98.000 Y145.000 E330.3880 F4500
G0 F1200 E329.3880
G0 X97.000 Y142.000 F5400
G0 F1200 E330.3880
G1 X94.260 Y142.000 E330.4290 F4500
G0 F1200 E329.4290
G0 X98.544 Y150.000 F5400
G0 F1200 E330.4290
G1 X93.060 Y150.000 E330.5111 F4500
G0 F1200 E329.5111
G0 X98.930 Y143.000 F5400
G0 F1200 E330.5111
G1 X92.654 Y143.000 E330.6050 F4500
G0 F1200 E329.6050
G0 X99.000 Y149.000 F5400
G0 F1200 E330.6050
G1 X92.090 Y149.000 E330.7084 F4500
G0 F1200 E329.7084
G0 X93.000 Y147.000 F5400
G0 F1200 E330.7084
G1 X92.000 Y147.000 E330.7234 F4500
G1 X93.000 Y146.000 E330.7445
G1 X92.000 Y146.000 E330.7595
G1 X93.000 Y145.000 E330.7807
G1 X92.000 Y145.000 E330.7956
G0 F1200 E329.7956
G0 X99.000 Y144.000 F5400
G0 F1200 E330.7956
G1 X92.000 Y144.000 E330.9004 F4500
G0 F1200 E329.9004
G0 X93.000 Y148.000 F5400
G0 F1200 E330.9004
G1 X92.000 Y148.000 E330.9154 F4500
; ------------------------------------
; Layer #2
; ------------------------------------
G21 ; mm
G90 ; abs
G92 E0 ; reset extr
M106 S0
;segType:Support
G0 F1200 E-1.0000
G0 F300 Z0.600
G0 X92.000 Y148.000 F5400
G0 F1200 E0.0000
G1 X93.000 Y148.000 E0.0283 F4500
G0 F1200 E-0.9717
G0 X92.000 Y144.000 F5400
G0 F1200 E0.0283
G1 X99.000 Y144.000 E0.2262 F4500
G0 F1200 E-0.7738
G0 X92.000 Y145.000 F5400
G0 F1200 E0.2262
G1 X93.000 Y145.000 E0.2544 F4500
G1 X92.000 Y146.000 E0.2944
G1 X93.000 Y146.000 E0.3227
G1 X92.000 Y147.000 E0.3627
G1 X93.000 Y147.000 E0.3909
G0 F1200 E-0.6091
G0 X92.090 Y149.000 F5400
G0 F1200 E0.3909
G1 X99.000 Y149.000 E0.5863 F4500
G0 F1200 E-0.4137
G0 X92.654 Y143.000 F5400
G0 F1200 E0.5863
G1 X98.930 Y143.000 E0.7637 F4500
G0 F1200 E-0.2363
G0 X93.060 Y150.000 F5400
G0 F1200 E0.7637
G1 X98.544 Y150.000 E0.9187 F4500
G0 F1200 E-0.0813
G0 X94.260 Y142.000 F5400
G0 F1200 E0.9187
G1 X97.000 Y142.000 E0.9962 F4500
G0 F1200 E-0.0038
G0 X98.000 Y145.000 F5400
G0 F1200 E0.9962
G1 X100.160 Y145.000 E1.0573 F4500
G0 F1200 E0.0573
G0 X98.000 Y146.000 F5400
G0 F1200 E1.0573
G1 X100.353 Y146.000 E1.1238 F4500
G0 F1200 E0.1238
G0 X98.000 Y148.000 F5400
G0 F1200 E1.1238
G1 X100.074 Y148.000 E1.1824 F4500
G0 F1200 E0.1824
G0 X98.000 Y147.000 F5400
G0 F1200 E1.1824
G1 X100.330 Y147.000 E1.2483 F4500
G0 F1200 E0.2483
G0 X140.740 Y146.000 F5400
G0 F1200 E1.2483
G1 X141.000 Y146.000 E1.2556 F4500
G1 X140.820 Y147.000 E1.2844
G1 X144.769 Y147.000 E1.3960
G0 F1200 E0.3960
G0 X141.534 Y148.000 F5400
G0 F1200 E1.3960
G1 X144.067 Y148.000 E1.4676 F4500
G0 F1200 E0.4676
G0 X144.000 Y146.000 F5400
G0 F1200 E1.4676
G1 X144.856 Y146.000 E1.4918 F4500
G1 X144.000 Y145.000 E1.5290
G1 X144.405 Y145.000 E1.5405
G0 F1200 E0.5405
G0 X147.229 Y131.707 F5400
G0 X147.794 Y129.049
G0 X150.574 Y114.332
G0 X151.064 Y111.856
G0 X154.000 Y97.000
G0 F1200 E1.5405
G1 X157.000 Y97.000 E1.6253 F4500
G0 F1200 E0.6253
G0 X154.000 Y101.000 F5400
G0 F1200 E1.6253
G1 X167.000 Y101.000 E1.9928 F4500
G0 F1200 E0.9928
G0 X154.000 Y99.000 F5400
G0 F1200 E1.9928
G1 X155.000 Y99.000 E2.0211 F4500
G1 X154.000 Y100.000 E2.0611
G1 X155.000 Y100.000 E2.0893
G0 F1200 E1.0893
G0 X154.000 Y98.000 F5400
G0 F1200 E2.0893
G1 X157.000 Y98.000 E2.1741 F4500
G0 F1200 E1.1741
G0 X154.091 Y102.000 F5400
G0 F1200 E2.1741
G1 X166.496 Y102.000 E2.5248 F4500
G0 F1200 E1.5248
G0 X154.636 Y96.000 F5400
G0 F1200 E2.5248
G1 X165.000 Y96.000 E2.8179 F4500
G0 F1200 E1.8179
G0 X156.000 Y103.000 F5400
G0 F1200 E2.8179
G1 X165.000 Y103.000 E3.0723 F4500
G0 F1200 E2.0723
G0 X156.310 Y95.000 F5400
G0 F1200 E3.0723
G1 X164.277 Y95.000 E3.2975 F4500
G0 F1200 E2.2975
G0 X164.000 Y97.000 F5400
G0 F1200 E3.2975
G1 X166.754 Y97.000 E3.3754 F4500
G0 F1200 E2.3754
G0 X164.000 Y98.000 F5400
G0 F1200 E3.3754
G1 X167.000 Y98.000 E3.4602 F4500
G0 F1200 E2.4602
G0 X166.000 Y100.000 F5400
G0 F1200 E3.4602
G1 X167.000 Y100.000 E3.4885 F4500
G1 X166.000 Y99.000 E3.5285
G1 X167.000 Y99.000 E3.5567
G0 F1200 E2.5567
G0 X158.077 Y104.099 F5400
G0 X155.846 Y105.373
G0 F1200 E3.5567
;segType:HShell
G1 X147.832 Y113.165 E3.9285 F3000
;segType:Perimeter
G0 X147.869 Y113.549 F5400
G1 X147.594 Y114.196 E3.9519 F2100
G1 X147.594 Y156.137 E5.3469
G1 X86.994 Y156.137 E7.3624
G1 X86.994 Y133.558 E8.1134
G1 X86.998 Y133.162 E8.1266
G1 X87.047 Y131.031 E8.1975
G1 X87.206 Y128.736 E8.2740
G1 X87.471 Y126.450 E8.3505
G1 X87.842 Y124.179 E8.4271
G1 X88.317 Y121.927 E8.5036
G1 X88.895 Y119.700 E8.5801
G1 X89.576 Y117.502 E8.6567
G1 X90.358 Y115.338 E8.7332
G1 X91.238 Y113.212 E8.8097
G1 X92.216 Y111.130 E8.8862
G1 X93.288 Y109.094 E8.9628
G1 X94.454 Y107.111 E9.0393
G1 X95.710 Y105.183 E9.1158
G1 X97.054 Y103.315 E9.1923
G1 X98.483 Y101.512 E9.2689
G1 X99.993 Y99.776 E9.3454
G1 X101.582 Y98.112 E9.4219
G1 X103.246 Y96.523 E9.4984
G1 X104.981 Y95.013 E9.5750
G1 X106.785 Y93.585 E9.6515
G1 X108.652 Y92.241 E9.7280
G1 X110.580 Y90.985 E9.8045
G1 X112.563 Y89.819 E9.8810
G1 X114.598 Y88.747 E9.9575
G1 X116.680 Y87.769 E10.0340
G1 X118.806 Y86.889 E10.1106
G1 X120.969 Y86.108 E10.1871
G1 X123.167 Y85.427 E10.2636
G1 X125.394 Y84.849 E10.3401
G1 X127.644 Y84.374 E10.4166
G1 X129.914 Y84.004 E10.4931
G1 X132.199 Y83.739 E10.5696
G1 X134.494 Y83.579 E10.6461
G1 X136.796 Y83.526 E10.7227
G1 X170.594 Y83.526 E11.8468
G1 X170.594 Y114.137 E12.8649
G1 X147.654 Y114.137 E13.6279
G1 X146.989 Y114.405
;segType:Loop
G0 X147.194 Y115.206 F5400
G1 X147.194 Y155.748 E14.9764 F3000
G1 X87.394 Y155.748 E16.9653
G1 X87.394 Y133.560 E17.7033
G1 X87.398 Y133.168 E17.7164
G1 X87.447 Y131.049 E17.7869
G1 X87.605 Y128.771 E17.8628
G1 X87.868 Y126.502 E17.9388
G1 X88.236 Y124.249 E18.0147
G1 X88.707 Y122.014 E18.0907
G1 X89.281 Y119.804 E18.1666
G1 X89.956 Y117.623 E18.2425
G1 X90.732 Y115.475 E18.3185
G1 X91.606 Y113.366 E18.3944
G1 X92.576 Y111.299 E18.4704
G1 X93.640 Y109.279 E18.5463
G1 X94.797 Y107.311 E18.6222
G1 X96.043 Y105.398 E18.6982
G1 X97.377 Y103.546 E18.7741
G1 X98.794 Y101.756 E18.8500
G1 X100.293 Y100.034 E18.9260
G1 X101.869 Y98.383 E19.0019
G1 X103.519 Y96.807 E19.0778
G1 X105.241 Y95.309 E19.1537
G1 X107.030 Y93.892 E19.2296
G1 X108.883 Y92.559 E19.3055
G1 X110.794 Y91.313 E19.3814
G1 X112.762 Y90.157 E19.4573
G1 X114.780 Y89.093 E19.5332
G1 X116.846 Y88.123 E19.6091
G1 X118.954 Y87.250 E19.6850
G1 X121.100 Y86.475 E19.7609
G1 X123.279 Y85.801 E19.8367
G1 X125.488 Y85.227 E19.9126
G1 X127.720 Y84.756 E19.9885
G1 X129.971 Y84.389 E20.0644
G1 X132.237 Y84.126 E20.1402
G1 X134.513 Y83.968 E20.2161
G1 X136.801 Y83.915 E20.2922
G1 X170.194 Y83.915 E21.4029
G1 X170.194 Y113.748 E22.3951
G1 X147.194 Y113.748 E23.1601
G1 X147.194 Y115.012 E23.2021
G0 X146.794 Y116.276 F5400
G1 X146.794 Y155.360 E24.5021 F3000
G1 X87.794 Y155.360 E26.4644
G1 X87.794 Y133.562 E27.1894
G1 X87.798 Y133.174 E27.2023
G1 X87.846 Y131.066 E27.2724
G1 X88.003 Y128.806 E27.3478
G1 X88.265 Y126.555 E27.4232
G1 X88.629 Y124.318 E27.4986
G1 X89.097 Y122.101 E27.5739
G1 X89.667 Y119.908 E27.6493
G1 X90.337 Y117.744 E27.7246
G1 X91.107 Y115.612 E27.8000
G1 X91.973 Y113.519 E27.8754
G1 X92.936 Y111.468 E27.9507
G1 X93.992 Y109.465 E28.0260
G1 X95.140 Y107.512 E28.1014
G1 X96.376 Y105.614 E28.1767
G1 X97.699 Y103.776 E28.2520
G1 X99.106 Y102.000 E28.3274
G1 X100.592 Y100.292 E28.4027
G1 X102.156 Y98.654 E28.4780
G1 X103.793 Y97.091 E28.5533
G1 X105.501 Y95.605 E28.6286
G1 X107.276 Y94.199 E28.7039
G1 X109.113 Y92.877 E28.7792
G1 X111.009 Y91.641 E28.8545
G1 X112.961 Y90.494 E28.9298
G1 X114.963 Y89.439 E29.0050
G1 X117.011 Y88.478 E29.0803
G1 X119.102 Y87.612 E29.1556
G1 X121.230 Y86.843 E29.2308
G1 X123.392 Y86.174 E29.3061
G1 X125.582 Y85.605 E29.3813
G1 X127.795 Y85.138 E29.4566
G1 X130.028 Y84.774 E29.5318
G1 X132.275 Y84.514 E29.6071
G1 X134.532 Y84.357 E29.6823
G1 X136.806 Y84.304 E29.7580
G1 X169.794 Y84.304 E30.8551
G1 X169.794 Y113.360 E31.8215
G1 X146.794 Y113.360 E32.5865
G1 X146.794 Y116.081 E32.6770
G0 X147.452 Y114.000 F5400
G0 X152.383 Y97.887
G0 X152.940 Y96.540
G0 X160.350 Y84.499
;segType:HShell
G1 X139.658 Y104.618 E33.6369 F3000
;segType:Perimeter
G0 X139.407 Y105.021 F5400
G1 X139.684 Y105.667 E33.6603 F2100
G1 X140.033 Y105.898 E33.6742
G1 X140.351 Y106.250 E33.6900
G1 X140.571 Y106.668 E33.7057
G1 X140.681 Y107.095 E33.7204
G1 X140.681 Y107.569 E33.7361
G1 X140.562 Y108.028 E33.7519
G1 X140.334 Y108.444 E33.7677
G1 X140.008 Y108.791 E33.7835
G1 X139.606 Y109.046 E33.7994
G1 X139.151 Y109.194 E33.8153
G1 X138.674 Y109.224 E33.8312
G1 X138.204 Y109.134 E33.8471
G1 X137.773 Y108.931 E33.8629
G1 X137.406 Y108.628 E33.8788
G1 X137.127 Y108.243 E33.8946
G1 X136.952 Y107.802 E33.9104
G1 X136.892 Y107.332 E33.9261
G1 X136.952 Y106.862 E33.9419
G1 X137.127 Y106.420 E33.9577
G1 X137.406 Y106.036 E33.9735
G1 X137.773 Y105.732 E33.9893
G1 X138.204 Y105.529 E34.0052
G1 X138.674 Y105.439 E34.0211
G1 X139.119 Y105.468 E34.0359
G1 X139.577 Y105.616 E34.0520
G1 X140.274 Y105.439
;segType:Loop
G0 X140.769 Y106.190 F5400
G1 X140.948 Y106.531 E34.0648 F3000
G1 X141.081 Y107.047 E34.0825
G1 X141.081 Y107.617 E34.1014
G1 X140.939 Y108.169 E34.1204
G1 X140.663 Y108.670 E34.1394
G1 X140.269 Y109.090 E34.1586
G1 X139.781 Y109.399 E34.1778
G1 X139.229 Y109.579 E34.1971
G1 X138.648 Y109.616 E34.2164
G1 X138.077 Y109.506 E34.2358
G1 X137.553 Y109.260 E34.2551
G1 X137.108 Y108.892 E34.2742
G1 X136.771 Y108.428 E34.2933
G1 X136.561 Y107.897 E34.3123
G1 X136.489 Y107.332 E34.3313
G1 X136.561 Y106.766 E34.3502
G1 X136.771 Y106.235 E34.3692
G1 X137.108 Y105.771 E34.3883
G1 X137.552 Y105.404 E34.4075
G1 X138.077 Y105.157 E34.4267
G1 X138.648 Y105.048 E34.4461
G1 X139.197 Y105.083 E34.4644
G1 X139.813 Y105.283 E34.4859
G1 X140.300 Y105.605 E34.5053
G1 X140.675 Y106.019 E34.5239
G0 X141.480 Y107.202 F5400
G1 X141.480 Y107.665 E34.5393 F3000
G1 X141.315 Y108.310 E34.5615
G1 X140.992 Y108.897 E34.5838
G1 X140.530 Y109.388 E34.6062
G1 X139.957 Y109.752 E34.6288
G1 X139.306 Y109.964 E34.6515
G1 X138.622 Y110.007 E34.6743
G1 X137.949 Y109.878 E34.6971
G1 X137.332 Y109.588 E34.7198
G1 X136.811 Y109.157 E34.7423
G1 X136.416 Y108.613 E34.7647
G1 X136.170 Y107.992 E34.7869
G1 X136.086 Y107.332 E34.8090
G1 X136.170 Y106.671 E34.8312
G1 X136.416 Y106.051 E34.8534
G1 X136.811 Y105.507 E34.8757
G1 X137.332 Y105.075 E34.8982
G1 X137.949 Y104.785 E34.9209
G1 X138.622 Y104.657 E34.9437
G1 X139.274 Y104.698 E34.9654
G1 X139.993 Y104.931 E34.9906
G1 X140.566 Y105.311 E35.0134
G1 X141.018 Y105.809 E35.0358
G1 X141.325 Y106.393 E35.0578
G1 X141.480 Y106.999 E35.0786
G1 X141.480 Y107.008 E35.0788
;segType:HShell
G0 X148.963 Y113.165 F5400
G1 X156.770 Y105.574 E35.4410 F3000
;segType:Perimeter
G0 X156.736 Y105.105 F5400
G1 X156.339 Y104.521 E35.4645 F2100
G1 X155.091 Y104.004 E35.5094
G1 X153.972 Y103.146 E35.5563
G1 X153.115 Y102.028 E35.6032
G1 X152.576 Y100.727 E35.6500
G1 X152.392 Y99.332 E35.6968
G1 X152.576 Y97.936 E35.7436
G1 X153.115 Y96.636 E35.7904
G1 X153.972 Y95.518 E35.8373
G1 X155.091 Y94.660 E35.8842
G1 X156.394 Y94.120 E35.9311
G1 X157.780 Y93.937 E35.9776
G1 X162.807 Y93.937 E36.1448
G1 X164.193 Y94.120 E36.1913
G1 X165.497 Y94.660 E36.2382
G1 X166.615 Y95.518 E36.2851
G1 X167.473 Y96.636 E36.3320
G1 X168.012 Y97.936 E36.3788
G1 X168.195 Y99.332 E36.4256
G1 X168.012 Y100.727 E36.4724
G1 X167.473 Y102.028 E36.5193
G1 X166.615 Y103.146 E36.5661
G1 X165.497 Y104.004 E36.6130
G1 X164.193 Y104.544 E36.6599
G1 X162.807 Y104.726 E36.7064
G1 X157.780 Y104.726 E36.8736
G1 X156.454 Y104.552 E36.9181
G1 X155.806 Y104.856
;segType:Loop
G0 X155.226 Y104.483 F5400
G1 X154.885 Y104.341 E36.9304 F3000
G1 X153.683 Y103.419 E36.9808
G1 X152.763 Y102.220 E37.0311
G1 X152.186 Y100.826 E37.0812
G1 X151.989 Y99.332 E37.1314
G1 X152.186 Y97.837 E37.1815
G1 X152.763 Y96.443 E37.2317
G1 X153.683 Y95.244 E37.2820
G1 X154.885 Y94.322 E37.3323
G1 X156.287 Y93.742 E37.3828
G1 X157.753 Y93.548 E37.4320
G1 X162.835 Y93.548 E37.6010
G1 X164.300 Y93.742 E37.6502
G1 X165.703 Y94.322 E37.7007
G1 X166.904 Y95.244 E37.7510
G1 X167.825 Y96.443 E37.8013
G1 X168.402 Y97.837 E37.8515
G1 X168.599 Y99.332 E37.9016
G1 X168.402 Y100.826 E37.9517
G1 X167.825 Y102.220 E38.0019
G1 X166.904 Y103.419 E38.0522
G1 X165.703 Y104.341 E38.1026
G1 X164.300 Y104.922 E38.1531
G1 X162.835 Y105.115 E38.2022
G1 X157.753 Y105.115 E38.3712
G1 X156.287 Y104.922 E38.4204
G1 X155.410 Y104.559 E38.4520
G0 X154.065 Y104.208 F5400
G1 X153.394 Y103.693 E38.4801 F3000
G1 X152.411 Y102.412 E38.5338
G1 X151.795 Y100.925 E38.5874
G1 X151.585 Y99.332 E38.6408
G1 X151.795 Y97.739 E38.6943
G1 X152.411 Y96.251 E38.7478
G1 X153.394 Y94.971 E38.8015
G1 X154.679 Y93.985 E38.8554
G1 X156.180 Y93.363 E38.9094
G1 X157.726 Y93.160 E38.9613
G1 X162.862 Y93.160 E39.1321
G1 X164.408 Y93.363 E39.1839
G1 X165.909 Y93.985 E39.2380
G1 X167.194 Y94.971 E39.2918
G1 X168.176 Y96.251 E39.3455
G1 X168.792 Y97.739 E39.3991
G1 X169.002 Y99.332 E39.4525
G1 X168.792 Y100.925 E39.5060
G1 X168.176 Y102.412 E39.5595
G1 X167.194 Y103.693 E39.6132
G1 X165.909 Y104.679 E39.6671
G1 X164.408 Y105.300 E39.7211
G1 X162.862 Y105.504 E39.7730
G1 X157.726 Y105.504 E39.9438
G1 X156.180 Y105.300 E39.9956
G1 X154.679 Y104.679 E40.0497
G1 X154.222 Y104.328 E40.0688
G0 X147.452 Y114.000 F5400
G0 X146.594 Y128.664
;segType:HShell
G1 X139.496 Y135.565 E40.3981 F3000
;segType:Perimeter
G0 X139.407 Y136.021 F5400
G1 X139.684 Y136.668 E40.4214 F2100
G1 X140.033 Y136.898 E40.4354
G1 X140.351 Y137.250 E40.4511
G1 X140.572 Y137.670 E40.4669
G1 X140.681 Y138.129 E40.4826
G1 X140.681 Y138.569 E40.4972
G1 X140.562 Y139.028 E40.5130
G1 X140.334 Y139.444 E40.5288
G1 X140.008 Y139.791 E40.5446
G1 X139.605 Y140.047 E40.5605
G1 X139.151 Y140.194 E40.5764
G1 X138.674 Y140.224 E40.5923
G1 X138.204 Y140.135 E40.6082
G1 X137.773 Y139.931 E40.6240
G1 X137.406 Y139.628 E40.6399
G1 X137.127 Y139.243 E40.6557
G1 X136.952 Y138.802 E40.6715
G1 X136.892 Y138.332 E40.6872
G1 X136.952 Y137.861 E40.7030
G1 X137.127 Y137.420 E40.7188
G1 X137.406 Y137.036 E40.7346
G1 X137.773 Y136.732 E40.7504
G1 X138.204 Y136.529 E40.7663
G1 X138.674 Y136.440 E40.7822
G1 X139.119 Y136.467 E40.7970
G1 X139.577 Y136.616 E40.8131
G1 X140.274 Y136.439
;segType:Loop
G0 X140.769 Y137.191 F5400
G1 X140.950 Y137.536 E40.8260 F3000
G1 X141.081 Y138.084 E40.8448
G1 X141.081 Y138.617 E40.8625
G1 X140.939 Y139.169 E40.8814
G1 X140.663 Y139.670 E40.9005
G1 X140.269 Y140.090 E40.9196
G1 X139.781 Y140.400 E40.9388
G1 X139.229 Y140.579 E40.9582
G1 X138.648 Y140.616 E40.9775
G1 X138.077 Y140.507 E40.9969
G1 X137.553 Y140.260 E41.0161
G1 X137.108 Y139.892 E41.0353
G1 X136.771 Y139.428 E41.0544
G1 X136.561 Y138.897 E41.0734
G1 X136.489 Y138.332 E41.0923
G1 X136.561 Y137.766 E41.1113
G1 X136.771 Y137.236 E41.1303
G1 X137.108 Y136.771 E41.1494
G1 X137.553 Y136.404 E41.1685
G1 X138.077 Y136.157 E41.1878
G1 X138.648 Y136.048 E41.2072
G1 X139.197 Y136.083 E41.2254
G1 X139.813 Y136.283 E41.2470
G1 X140.300 Y136.604 E41.2664
G1 X140.675 Y137.019 E41.2850
G0 X141.480 Y138.137 F5400
G1 X141.480 Y138.664 E41.3025 F3000
G1 X141.315 Y139.310 E41.3247
G1 X140.992 Y139.897 E41.3470
G1 X140.530 Y140.388 E41.3694
G1 X139.957 Y140.753 E41.3920
G1 X139.306 Y140.964 E41.4148
G1 X138.622 Y141.007 E41.4375
G1 X137.949 Y140.879 E41.4603
G1 X137.332 Y140.588 E41.4830
G1 X136.811 Y140.157 E41.5055
G1 X136.416 Y139.613 E41.5279
G1 X136.170 Y138.992 E41.5501
G1 X136.086 Y138.332 E41.5722
G1 X136.170 Y137.671 E41.5944
G1 X136.416 Y137.051 E41.6166
G1 X136.811 Y136.507 E41.6389
G1 X137.332 Y136.075 E41.6614
G1 X137.949 Y135.785 E41.6841
G1 X138.622 Y135.657 E41.7069
G1 X139.274 Y135.698 E41.7286
G1 X139.993 Y135.931 E41.7538
G1 X140.566 Y136.311 E41.7766
G1 X141.018 Y136.810 E41.7990
G1 X141.329 Y137.401 E41.8213
G1 X141.458 Y137.945 E41.8398
G0 X139.789 Y145.566 F5400
G0 X139.789 Y147.098
G0 X140.529 Y148.444
G0 X142.540 Y150.200
;segType:HShell
G1 X137.433 Y155.165 E42.0768 F3000
G1 X137.999 Y155.165
G1 X143.143 Y150.163 E42.3154
;segType:Perimeter
G0 X143.061 Y149.706 F5400
G1 X142.552 Y149.211 E42.3390 F2100
G1 X141.896 Y149.086 E42.3613
G1 X141.237 Y148.776 E42.3855
G1 X140.677 Y148.312 E42.4097
G1 X140.250 Y147.725 E42.4338
G1 X139.983 Y147.051 E42.4579
G1 X139.892 Y146.332 E42.4820
G1 X139.983 Y145.613 E42.5061
G1 X140.250 Y144.938 E42.5303
G1 X140.677 Y144.351 E42.5544
G1 X141.237 Y143.888 E42.5786
G1 X141.896 Y143.578 E42.6028
G1 X142.611 Y143.442 E42.6270
G1 X143.339 Y143.487 E42.6513
G1 X144.031 Y143.712 E42.6755
G1 X144.645 Y144.102 E42.6997
G1 X145.143 Y144.632 E42.7238
G1 X145.492 Y145.267 E42.7480
G1 X145.672 Y145.969 E42.7721
G1 X145.672 Y146.694 E42.7962
G1 X145.492 Y147.396 E42.8203
G1 X145.143 Y148.032 E42.8444
G1 X144.645 Y148.562 E42.8686
G1 X144.031 Y148.951 E42.8928
G1 X143.339 Y149.176 E42.9170
G1 X142.671 Y149.218 E42.9393
G1 X142.101 Y149.646
;segType:Loop
G0 X141.388 Y149.279 F5400
G1 X141.017 Y149.104 E42.9529 F3000
G1 X140.379 Y148.577 E42.9804
G1 X139.895 Y147.910 E43.0078
G1 X139.592 Y147.146 E43.0352
G1 X139.489 Y146.332 E43.0625
G1 X139.592 Y145.518 E43.0897
G1 X139.895 Y144.754 E43.1171
G1 X140.379 Y144.087 E43.1445
G1 X141.017 Y143.560 E43.1720
G1 X141.768 Y143.206 E43.1996
G1 X142.585 Y143.050 E43.2273
G1 X143.416 Y143.102 E43.2550
G1 X144.207 Y143.359 E43.2827
G1 X144.907 Y143.803 E43.3102
G1 X145.472 Y144.405 E43.3377
G1 X145.868 Y145.127 E43.3651
G1 X146.072 Y145.922 E43.3924
G1 X146.072 Y146.742 E43.4196
G1 X145.868 Y147.537 E43.4469
G1 X145.472 Y148.258 E43.4743
G1 X144.907 Y148.860 E43.5018
G1 X144.207 Y149.304 E43.5293
G1 X143.416 Y149.561 E43.5570
G1 X142.585 Y149.614 E43.5847
G1 X141.768 Y149.458 E43.6124
G1 X141.568 Y149.364 E43.6197
G0 X140.234 Y148.967 F5400
G1 X140.082 Y148.841 E43.6263 F3000
G1 X139.539 Y148.095 E43.6570
G1 X139.201 Y147.241 E43.6875
G1 X139.086 Y146.332 E43.7180
G1 X139.201 Y145.423 E43.7485
G1 X139.539 Y144.569 E43.7790
G1 X140.082 Y143.822 E43.8097
G1 X140.796 Y143.231 E43.8406
G1 X141.640 Y142.834 E43.8716
G1 X142.559 Y142.659 E43.9027
G1 X143.494 Y142.718 E43.9339
G1 X144.383 Y143.006 E43.9649
G1 X145.168 Y143.505 E43.9959
G1 X145.801 Y144.179 E44.0266
G1 X146.244 Y144.986 E44.0573
G1 X146.472 Y145.874 E44.0877
G1 X146.472 Y146.790 E44.1182
G1 X146.244 Y147.678 E44.1487
G1 X145.801 Y148.485 E44.1793
G1 X145.168 Y149.159 E44.2101
G1 X144.383 Y149.657 E44.2410
G1 X143.494 Y149.946 E44.2721
G1 X142.559 Y150.005 E44.3032
G1 X141.640 Y149.830 E44.3344
G1 X140.796 Y149.433 E44.3654
G1 X140.386 Y149.093 E44.3831
;segType:HShell
G0 X104.070 Y155.165 F5400
G1 X123.805 Y135.976 E45.2986 F3000
;segType:Perimeter
G0 X123.755 Y135.507 F5400
G1 X123.234 Y135.024 E45.3222 F2100
G1 X122.168 Y134.974 E45.3577
G1 X121.051 Y134.819 E45.3952
G1 X119.954 Y134.561 E45.4327
G1 X118.885 Y134.202 E45.4702
G1 X117.854 Y133.747 E45.5077
G1 X116.869 Y133.198 E45.5452
G1 X115.939 Y132.562 E45.5827
G1 X115.072 Y131.842 E45.6202
G1 X114.276 Y131.045 E45.6576
G1 X113.556 Y130.179 E45.6951
G1 X112.920 Y129.250 E45.7326
G1 X112.372 Y128.265 E45.7700
G1 X111.917 Y127.235 E45.8075
G1 X111.559 Y126.168 E45.8449
G1 X111.301 Y125.072 E45.8824
G1 X111.145 Y123.956 E45.9198
G1 X111.094 Y122.832 E45.9573
G1 X111.145 Y121.707 E45.9947
G1 X111.301 Y120.592 E46.0322
G1 X111.559 Y119.496 E46.0696
G1 X111.917 Y118.428 E46.1071
G1 X112.372 Y117.398 E46.1445
G1 X112.920 Y116.414 E46.1820
G1 X113.556 Y115.485 E46.2194
G1 X114.276 Y114.618 E46.2569
G1 X115.072 Y113.822 E46.2944
G1 X115.939 Y113.102 E46.3319
G1 X116.869 Y112.465 E46.3693
G1 X117.854 Y111.917 E46.4068
G1 X118.885 Y111.461 E46.4443
G1 X119.954 Y111.103 E46.4818
G1 X121.051 Y110.845 E46.5193
G1 X122.168 Y110.689 E46.5568
G1 X123.294 Y110.637 E46.5943
G1 X124.420 Y110.689 E46.6318
G1 X125.537 Y110.845 E46.6693
G1 X126.634 Y111.103 E46.7068
G1 X127.703 Y111.461 E46.7443
G1 X128.734 Y111.917 E46.7818
G1 X129.719 Y112.465 E46.8193
G1 X130.648 Y113.102 E46.8567
G1 X131.515 Y113.822 E46.8942
G1 X132.312 Y114.618 E46.9317
G1 X133.032 Y115.485 E46.9691
G1 X133.668 Y116.414 E47.0066
G1 X134.216 Y117.398 E47.0441
G1 X134.671 Y118.428 E47.0815
G1 X135.029 Y119.496 E47.1190
G1 X135.286 Y120.592 E47.1564
G1 X135.442 Y121.707 E47.1939
G1 X135.494 Y122.832 E47.2313
G1 X135.442 Y123.956 E47.2688
G1 X135.286 Y125.072 E47.3062
G1 X135.029 Y126.168 E47.3437
G1 X134.671 Y127.235 E47.3811
G1 X134.216 Y128.266 E47.4186
G1 X133.668 Y129.250 E47.4560
G1 X133.032 Y130.179 E47.4935
G1 X132.312 Y131.045 E47.5310
G1 X131.515 Y131.842 E47.5684
G1 X130.648 Y132.562 E47.6059
G1 X129.718 Y133.198 E47.6434
G1 X128.734 Y133.747 E47.6809
G1 X127.703 Y134.202 E47.7184
G1 X126.634 Y134.561 E47.7559
G1 X125.537 Y134.819 E47.7934
G1 X124.420 Y134.974 E47.8308
G1 X123.354 Y135.024 E47.8663
G1 X122.833 Y135.507
;segType:Loop
G0 X122.176 Y135.364 F5400
G1 X122.130 Y135.362 E47.8679 F3000
G1 X120.976 Y135.201 E47.9067
G1 X119.841 Y134.934 E47.9454
G1 X118.737 Y134.564 E47.9842
G1 X117.671 Y134.093 E48.0229
G1 X116.654 Y133.527 E48.0616
G1 X115.694 Y132.869 E48.1003
G1 X114.799 Y132.126 E48.1390
G1 X113.976 Y131.303 E48.1777
G1 X113.233 Y130.409 E48.2164
G1 X112.577 Y129.450 E48.2550
G1 X112.011 Y128.435 E48.2937
G1 X111.542 Y127.373 E48.3323
G1 X111.173 Y126.272 E48.3709
G1 X110.907 Y125.141 E48.4096
G1 X110.747 Y123.991 E48.4482
G1 X110.693 Y122.832 E48.4868
G1 X110.747 Y121.672 E48.5254
G1 X110.907 Y120.522 E48.5640
G1 X111.173 Y119.392 E48.6026
G1 X111.542 Y118.291 E48.6413
G1 X112.011 Y117.228 E48.6799
G1 X112.577 Y116.214 E48.7185
G1 X113.233 Y115.254 E48.7572
G1 X113.976 Y114.360 E48.7959
G1 X114.799 Y113.538 E48.8345
G1 X115.694 Y112.794 E48.8732
G1 X116.654 Y112.137 E48.9120
G1 X117.671 Y111.570 E48.9507
G1 X118.737 Y111.100 E48.9894
G1 X119.841 Y110.729 E49.0282
G1 X120.976 Y110.463 E49.0669
G1 X122.130 Y110.302 E49.1057
G1 X123.294 Y110.248 E49.1444
G1 X124.458 Y110.302 E49.1832
G1 X125.612 Y110.463 E49.2219
G1 X126.746 Y110.729 E49.2607
G1 X127.851 Y111.100 E49.2995
G1 X128.917 Y111.570 E49.3382
G1 X129.934 Y112.137 E49.3769
G1 X130.894 Y112.794 E49.4156
G1 X131.789 Y113.538 E49.4543
G1 X132.611 Y114.360 E49.4930
G1 X133.354 Y115.254 E49.5317
G1 X134.011 Y116.214 E49.5703
G1 X134.577 Y117.228 E49.6090
G1 X135.045 Y118.291 E49.6476
G1 X135.415 Y119.392 E49.6862
G1 X135.680 Y120.522 E49.7248
G1 X135.841 Y121.672 E49.7635
G1 X135.895 Y122.832 E49.8021
G1 X135.841 Y123.991 E49.8407
G1 X135.680 Y125.141 E49.8793
G1 X135.415 Y126.272 E49.9179
G1 X135.045 Y127.373 E49.9565
G1 X134.577 Y128.435 E49.9952
G1 X134.011 Y129.450 E50.0338
G1 X133.354 Y130.409 E50.0725
