; GCode generated by CraftWare

G28 X0 Y0
G28 Z0

M190 S65 ;set bed temp (wait)
M109 S240 ;set head temp (wait)
; ------------------------------------
; Layer #0
; ------------------------------------
G21 ; mm
G90 ; abs
G92 E0 ; reset extr
M106 S0
;segType:Skirt
G0 F1200 E-1.0000
G0 F300 Z0.200
G0 X82.292 Y162.768 F5400
G0 F1200 E0.0000
G1 X82.485 Y162.960 E0.0091 F3000
G1 X83.001 Y163.344 E0.0305
G1 X176.999 Y163.344 E3.1568
G1 X178.548 Y161.808 E3.2294
G1 X178.741 Y161.488 E3.2418
G1 X178.741 Y76.512 E6.0681
G1 X178.548 Y76.192 E6.0806
G1 X176.999 Y74.656 E6.1531
G1 X83.001 Y74.656 E9.2795
G1 X82.679 Y74.848 E9.2919
G1 X81.130 Y76.384 E9.3645
G1 X81.130 Y161.616 E12.1993
G1 X82.292 Y162.768 E12.2538
G1 X82.292 Y163.152 E12.2665
G1 X82.485 Y163.344 E12.2756
G1 X83.001 Y163.727 E12.2970
G1 X176.999 Y163.727 E15.4233
G1 X179.064 Y161.680 E15.5201
G1 X179.129 Y161.232 E15.5351
G1 X179.129 Y76.768 E18.3444
G1 X179.064 Y76.320 E18.3595
G1 X176.999 Y74.273 E18.4562
G1 X83.001 Y74.273 E21.5826
G1 X82.679 Y74.464 E21.5950
G1 X80.742 Y76.384 E21.6857
G1 X80.742 Y161.616 E24.5206
G1 X82.292 Y163.152 E24.5931
G1 X82.292 Y163.536 E24.6059
G0 F1200 E23.6059
G0 X83.188 Y161.640 F5400
G0 X84.085 Y159.745
G0 F1200 E24.6059
;segType:Loop
G1 X84.085 Y77.595 E27.3382 F3000
G1 X175.915 Y77.595 E30.3925
G1 X175.915 Y160.405 E33.1468
G1 X84.085 Y160.405 E36.2011
G1 X84.085 Y159.937 E36.2167
;segType:Perimeter
G0 X84.330 Y160.479 F5400
G1 X83.685 Y160.744 E36.2399 F2100
G1 X83.685 Y77.198 E39.0186
G1 X176.315 Y77.198 E42.0995
G1 X176.315 Y160.802 E44.8802
G1 X83.743 Y160.802 E47.9591
G1 X84.010 Y160.163
;segType:Loop
G0 X84.485 Y158.688 F5400
G1 X84.485 Y77.991 E50.6431 F3000
G1 X175.515 Y77.991 E53.6708
G1 X175.515 Y160.009 E56.3987
G1 X84.485 Y160.009 E59.4264
G1 X84.485 Y158.880 E59.4639
;segType:HShell
G0 X175.171 Y159.811 F5400
G1 X175.315 Y159.667 E59.4707 F3000
G1 X175.315 Y159.124
G1 X174.622 Y159.811 E59.5032
G1 X174.074 Y159.811
G1 X175.315 Y158.580 E59.5613
G1 X175.315 Y158.037
G1 X173.526 Y159.811 E59.6451
G1 X172.977 Y159.811
G1 X175.315 Y157.493 E59.7546
G1 X175.315 Y156.950
G1 X172.429 Y159.811 E59.8897
G1 X171.881 Y159.811
G1 X175.315 Y156.406 E60.0506
G1 X175.315 Y155.863
G1 X171.332 Y159.811 E60.2371
G1 X170.784 Y159.811
G1 X175.315 Y155.319 E60.4493
G1 X175.315 Y154.776
G1 X170.236 Y159.811 E60.6871
G1 X169.687 Y159.811
G1 X175.315 Y154.232 E60.9507
G1 X175.315 Y153.689
G1 X169.139 Y159.811 E61.2399
G1 X168.591 Y159.811
G1 X175.315 Y153.145 E61.5548
G1 X175.315 Y152.602
G1 X168.042 Y159.811 E61.8954
G1 X167.494 Y159.811
G1 X175.315 Y152.058 E62.2617
G1 X175.315 Y151.515
G1 X166.946 Y159.811 E62.6536
G1 X166.397 Y159.811
G1 X175.315 Y150.971 E63.0713
G1 X175.315 Y150.428
G1 X165.849 Y159.811 E63.5146
G1 X165.301 Y159.811
G1 X175.315 Y149.884 E63.9836
G1 X175.315 Y149.341
G1 X164.752 Y159.811 E64.4782
G1 X164.204 Y159.811
G1 X175.315 Y148.797 E64.9986
G1 X175.315 Y148.254
G1 X163.656 Y159.811 E65.5446
G1 X163.107 Y159.811
G1 X175.315 Y147.710 E66.1163
G1 X175.315 Y147.167
G1 X162.559 Y159.811 E66.7137
G1 X162.010 Y159.811
G1 X175.315 Y146.623 E67.3367
G1 X175.315 Y146.080
G1 X161.462 Y159.811 E67.9854
G1 X160.914 Y159.811
G1 X175.315 Y145.536 E68.6599
G1 X175.315 Y144.993
G1 X160.365 Y159.811 E69.3600
G1 X159.817 Y159.811
G1 X175.315 Y144.449 E70.0857
G1 X175.315 Y143.906
G1 X159.269 Y159.811 E70.8372
G1 X158.720 Y159.811
G1 X175.315 Y143.362 E71.6143
G1 X175.315 Y142.819
G1 X158.172 Y159.811 E72.4171
G1 X157.624 Y159.811
G1 X175.315 Y142.275 E73.2456
G1 X175.315 Y141.732
G1 X157.075 Y159.811 E74.0998
G1 X156.527 Y159.811
G1 X175.315 Y141.188 E74.9796
G1 X175.315 Y140.645
G1 X155.979 Y159.811 E75.8851
G1 X155.430 Y159.811
G1 X175.315 Y140.101 E76.8163
G1 X175.315 Y139.558
G1 X154.882 Y159.811 E77.7732
G1 X154.334 Y159.811
G1 X175.315 Y139.014 E78.7558
G1 X175.315 Y138.471
G1 X153.785 Y159.811 E79.7640
G1 X153.237 Y159.811
G1 X175.315 Y137.927 E80.7979
G1 X175.315 Y137.384
G1 X152.689 Y159.811 E81.8575
G1 X152.140 Y159.811
G1 X175.315 Y136.840 E82.9428
G1 X175.315 Y136.297
G1 X151.592 Y159.811 E84.0538
G1 X151.044 Y159.811
G1 X175.315 Y135.753 E85.1904
G1 X175.315 Y135.210
G1 X150.495 Y159.811 E86.3527
G1 X149.947 Y159.811
G1 X175.315 Y134.666 E87.5407
G1 X175.315 Y134.123
G1 X149.399 Y159.811 E88.7544
G1 X148.850 Y159.811
G1 X175.315 Y133.579 E89.9937
G1 X175.315 Y133.036
G1 X148.302 Y159.811 E91.2587
G1 X147.754 Y159.811
G1 X175.315 Y132.492 E92.5494
G1 X175.315 Y131.949
G1 X147.205 Y159.811 E93.8658
G1 X146.657 Y159.811
G1 X175.315 Y131.405 E95.2079
G1 X175.315 Y130.862
G1 X146.108 Y159.811 E96.5756
G1 X145.560 Y159.811
G1 X175.315 Y130.318 E97.9691
G1 X175.315 Y129.775
G1 X145.012 Y159.811 E99.3881
G1 X144.463 Y159.811
G1 X175.315 Y129.231 E100.8329
G1 X175.315 Y128.688
G1 X143.915 Y159.811 E102.3034
G1 X143.367 Y159.811
G1 X175.315 Y128.144 E103.7995
G1 X175.315 Y127.601
G1 X142.818 Y159.811 E105.3213
G1 X142.270 Y159.811
G1 X175.315 Y127.057 E106.8688
G1 X175.315 Y126.514
G1 X141.722 Y159.811 E108.4420
G1 X141.173 Y159.811
G1 X175.315 Y125.970 E110.0409
G1 X175.315 Y125.427
G1 X140.625 Y159.811 E111.6654
G1 X140.077 Y159.811
G1 X175.315 Y124.883 E113.3156
G1 X175.315 Y124.340
G1 X139.528 Y159.811 E114.9915
G1 X138.980 Y159.811
G1 X175.315 Y123.796 E116.6930
G1 X175.315 Y123.253
G1 X138.432 Y159.811 E118.4203
G1 X137.883 Y159.811
G1 X175.315 Y122.709 E120.1732
G1 X175.315 Y122.166
G1 X137.335 Y159.811 E121.9518
G1 X136.787 Y159.811
G1 X175.315 Y121.622 E123.7561
G1 X175.315 Y121.079
G1 X136.238 Y159.811 E125.5861
G1 X135.690 Y159.811
G1 X175.315 Y120.535 E127.4417
G1 X175.315 Y119.992
G1 X135.142 Y159.811 E129.3230
G1 X134.593 Y159.811
G1 X175.315 Y119.448 E131.2300
G1 X175.315 Y118.905
G1 X134.045 Y159.811 E133.1627
G1 X133.497 Y159.811
G1 X175.315 Y118.361 E135.1210
G1 X175.315 Y117.818
G1 X132.948 Y159.811 E137.1051
G1 X132.400 Y159.811
G1 X175.315 Y117.274 E139.1148
G1 X175.315 Y116.731
G1 X131.852 Y159.811 E141.1502
G1 X131.303 Y159.811
G1 X175.315 Y116.187 E143.2112
G1 X175.315 Y115.644
G1 X130.755 Y159.811 E145.2980
G1 X130.206 Y159.811
G1 X175.315 Y115.100 E147.4104
G1 X175.315 Y114.557
G1 X129.658 Y159.811 E149.5485
G1 X129.110 Y159.811
G1 X175.315 Y114.013 E151.7123
G1 X175.315 Y113.470
G1 X128.561 Y159.811 E153.9018
G1 X128.013 Y159.811
G1 X175.315 Y112.926 E156.1169
G1 X175.315 Y112.383
G1 X127.465 Y159.811 E158.3577
G1 X126.916 Y159.811
G1 X175.315 Y111.839 E160.6242
G1 X175.315 Y111.296
G1 X126.368 Y159.811 E162.9164
G1 X125.820 Y159.811
G1 X175.315 Y110.752 E165.2343
G1 X175.315 Y110.209
G1 X125.271 Y159.811 E167.5778
G1 X124.723 Y159.811
G1 X175.315 Y109.665 E169.9470
G1 X175.315 Y109.122
G1 X124.175 Y159.811 E172.3419
G1 X123.626 Y159.811
G1 X175.315 Y108.578 E174.7625
G1 X175.315 Y108.035
G1 X123.078 Y159.811 E177.2087
G1 X122.530 Y159.811
G1 X175.315 Y107.491 E179.6807
G1 X175.315 Y106.948
G1 X121.981 Y159.811 E182.1783
G1 X121.433 Y159.811
G1 X175.315 Y106.404 E184.7015
G1 X175.315 Y105.861
G1 X120.885 Y159.811 E187.2505
G1 X120.336 Y159.811
G1 X175.315 Y105.317 E189.8252
G1 X175.315 Y104.774
G1 X119.788 Y159.811 E192.4255
G1 X119.240 Y159.811
G1 X175.315 Y104.230 E195.0515
G1 X175.315 Y103.687
G1 X118.691 Y159.811 E197.7032
G1 X118.143 Y159.811
G1 X175.315 Y103.143 E200.3805
G1 X175.315 Y102.600
G1 X117.595 Y159.811 E203.0836
G1 X117.046 Y159.811
G1 X175.315 Y102.056 E205.8123
G1 X175.315 Y101.513
G1 X116.498 Y159.811 E208.5667
G1 X115.950 Y159.811
G1 X175.315 Y100.969 E211.3468
G1 X175.315 Y100.426
G1 X115.401 Y159.811 E214.1525
G1 X114.853 Y159.811
G1 X175.315 Y99.882 E216.9839
G1 X175.315 Y99.339
G1 X114.304 Y159.811 E219.8411
G1 X113.756 Y159.811
G1 X175.315 Y98.795 E222.7239
G1 X175.315 Y98.252
G1 X113.208 Y159.811 E225.6323
G1 X112.659 Y159.811
G1 X175.315 Y97.708 E228.5665
G1 X175.315 Y97.165
G1 X112.111 Y159.811 E231.5263
G1 X111.563 Y159.811
G1 X175.315 Y96.621 E234.5118
G1 X175.315 Y96.078
G1 X111.014 Y159.811 E237.5230
G1 X110.466 Y159.811
G1 X175.315 Y95.534 E240.5598
G1 X175.315 Y94.991
G1 X109.918 Y159.811 E243.6224
G1 X109.369 Y159.811
G1 X175.315 Y94.447 E246.7106
G1 X175.315 Y93.904
G1 X108.821 Y159.811 E249.8245
G1 X108.273 Y159.811
G1 X175.315 Y93.360 E252.9641
G1 X175.315 Y92.817
G1 X107.724 Y159.811 E256.1293
G1 X107.176 Y159.811
G1 X175.315 Y92.273 E259.3203
G1 X175.315 Y91.730
G1 X106.628 Y159.811 E262.5369
G1 X106.079 Y159.811
G1 X175.315 Y91.186 E265.7792
G1 X175.315 Y90.643
G1 X105.531 Y159.811 E269.0472
G1 X104.983 Y159.811
G1 X175.315 Y90.099 E272.3408
G1 X175.315 Y89.556
G1 X104.434 Y159.811 E275.6601
G1 X103.886 Y159.811
G1 X175.315 Y89.012 E279.0051
G1 X175.315 Y88.469
G1 X103.338 Y159.811 E282.3758
G1 X102.789 Y159.811
G1 X175.315 Y87.925 E285.7722
G1 X175.315 Y87.382
G1 X102.241 Y159.811 E289.1943
G1 X101.693 Y159.811
G1 X175.315 Y86.838 E292.6420
G1 X175.315 Y86.295
G1 X101.144 Y159.811 E296.1154
G1 X100.596 Y159.811
G1 X175.315 Y85.751 E299.6145
G1 X175.315 Y85.208
G1 X100.048 Y159.811 E303.1392
G1 X99.499 Y159.811
G1 X175.315 Y84.664 E306.6896
G1 X175.315 Y84.121
G1 X98.951 Y159.811 E310.2658
G1 X98.402 Y159.811
G1 X175.315 Y83.577 E313.8676
G1 X175.315 Y83.034
G1 X97.854 Y159.811 E317.4950
G1 X97.306 Y159.811
G1 X175.315 Y82.490 E321.1482
G1 X175.315 Y81.947
G1 X96.757 Y159.811 E324.8270
G1 X96.209 Y159.811
G1 X175.315 Y81.403 E328.5315
G1 X175.315 Y80.860
G1 X95.661 Y159.811 E332.2617
G1 X95.112 Y159.811
G1 X175.315 Y80.316 E336.0176
G1 X175.315 Y79.773
G1 X94.564 Y159.811 E339.7991
G1 X94.016 Y159.811
G1 X175.315 Y79.229 E343.6064
G1 X175.315 Y78.686
G1 X93.467 Y159.811 E347.4393
G1 X92.919 Y159.811
G1 X175.268 Y78.189 E351.2956
G1 X174.720 Y78.189
G1 X92.371 Y159.811 E355.1520
G1 X91.822 Y159.811
G1 X174.171 Y78.189 E359.0083
G1 X173.623 Y78.189
G1 X91.274 Y159.811 E362.8647
G1 X90.726 Y159.811
G1 X173.074 Y78.189 E366.7211
G1 X172.526 Y78.189
G1 X90.177 Y159.811 E370.5774
G1 X89.629 Y159.811
G1 X171.978 Y78.189 E374.4338
G1 X171.429 Y78.189
G1 X89.081 Y159.811 E378.2901
G1 X88.532 Y159.811
G1 X170.881 Y78.189 E382.1465
G1 X170.333 Y78.189
G1 X87.984 Y159.811 E386.0028
G1 X87.436 Y159.811
G1 X169.784 Y78.189 E389.8592
G1 X169.236 Y78.189
G1 X86.887 Y159.811 E393.7155
G1 X86.339 Y159.811
G1 X168.688 Y78.189 E397.5719
G1 X168.139 Y78.189
G1 X85.791 Y159.811 E401.4282
G1 X85.242 Y159.811
G1 X167.591 Y78.189 E405.2846
G1 X167.043 Y78.189
G1 X84.694 Y159.811 E409.1409
G1 X84.685 Y159.276
G1 X166.494 Y78.189 E412.9721
G1 X165.946 Y78.189
G1 X84.685 Y158.733 E416.7775
G1 X84.685 Y158.189
G1 X165.398 Y78.189 E420.5572
G1 X164.849 Y78.189
G1 X84.685 Y157.646 E424.3113
G1 X84.685 Y157.102
G1 X164.301 Y78.189 E428.0397
G1 X163.753 Y78.189
G1 X84.685 Y156.559 E431.7425
G1 X84.685 Y156.015
G1 X163.204 Y78.189 E435.4195
G1 X162.656 Y78.189
G1 X84.685 Y155.472 E439.0709
G1 X84.685 Y154.928
G1 X162.108 Y78.189 E442.6965
G1 X161.559 Y78.189
G1 X84.685 Y154.385 E446.2965
G1 X84.685 Y153.841
G1 X161.011 Y78.189 E449.8708
G1 X160.463 Y78.189
G1 X84.685 Y153.298 E453.4195
G1 X84.685 Y152.754
G1 X159.914 Y78.189 E456.9425
G1 X159.366 Y78.189
G1 X84.685 Y152.211 E460.4398
G1 X84.685 Y151.667
G1 X158.818 Y78.189 E463.9114
G1 X158.269 Y78.189
G1 X84.685 Y151.124 E467.3573
G1 X84.685 Y150.580
G1 X157.721 Y78.189 E470.7776
G1 X157.172 Y78.189
G1 X84.685 Y150.037 E474.1721
G1 X84.685 Y149.493
G1 X156.624 Y78.189 E477.5410
G1 X156.076 Y78.189
G1 X84.685 Y148.950 E480.8842
G1 X84.685 Y148.406
G1 X155.527 Y78.189 E484.2017
G1 X154.979 Y78.189
G1 X84.685 Y147.863 E487.4936
G1 X84.685 Y147.319
G1 X154.431 Y78.189 E490.7598
G1 X153.882 Y78.189
G1 X84.685 Y146.776 E494.0003
G1 X84.685 Y146.232
G1 X153.334 Y78.189 E497.2151
G1 X152.786 Y78.189
G1 X84.685 Y145.689 E500.4043
G1 X84.685 Y145.145
G1 X152.237 Y78.189 E503.5677
G1 X151.689 Y78.189
G1 X84.685 Y144.602 E506.7055
G1 X84.685 Y144.058
G1 X151.141 Y78.189 E509.8176
G1 X150.592 Y78.189
G1 X84.685 Y143.515 E512.9040
G1 X84.685 Y142.971
G1 X150.044 Y78.189 E515.9647
G1 X149.496 Y78.189
G1 X84.685 Y142.428 E518.9998
G1 X84.685 Y141.884
G1 X148.947 Y78.189 E522.0092
G1 X148.399 Y78.189
G1 X84.685 Y141.341 E524.9929
G1 X84.685 Y140.797
G1 X147.851 Y78.189 E527.9510
G1 X147.302 Y78.189
G1 X84.685 Y140.254 E530.8833
G1 X84.685 Y139.710
G1 X146.754 Y78.189 E533.7900
G1 X146.206 Y78.189
G1 X84.685 Y139.167 E536.6710
G1 X84.685 Y138.623
G1 X145.657 Y78.189 E539.5263
G1 X145.109 Y78.189
G1 X84.685 Y138.080 E542.3560
G1 X84.685 Y137.536
G1 X144.561 Y78.189 E545.1599
G1 X144.012 Y78.189
G1 X84.685 Y136.993 E547.9382
G1 X84.685 Y136.449
G1 X143.464 Y78.189 E550.6908
G1 X142.916 Y78.189
G1 X84.685 Y135.906 E553.4177
G1 X84.685 Y135.362
G1 X142.367 Y78.189 E556.1190
G1 X141.819 Y78.189
G1 X84.685 Y134.819 E558.7945
G1 X84.685 Y134.275
G1 X141.270 Y78.189 E561.4444
G1 X140.722 Y78.189
G1 X84.685 Y133.732 E564.0686
G1 X84.685 Y133.188
G1 X140.174 Y78.189 E566.6671
G1 X139.625 Y78.189
G1 X84.685 Y132.645 E569.2400
G1 X84.685 Y132.101
G1 X139.077 Y78.189 E571.7872
G1 X138.529 Y78.189
G1 X84.685 Y131.558 E574.3087
G1 X84.685 Y131.014
G1 X137.980 Y78.189 E576.8045
G1 X137.432 Y78.189
G1 X84.685 Y130.471 E579.2746
G1 X84.685 Y129.927
G1 X136.884 Y78.189 E581.7191
G1 X136.335 Y78.189
G1 X84.685 Y129.384 E584.1378
G1 X84.685 Y128.840
G1 X135.787 Y78.189 E586.5310
G1 X135.239 Y78.189
G1 X84.685 Y128.297 E588.8984
G1 X84.685 Y127.753
G1 X134.690 Y78.189 E591.2401
G1 X134.142 Y78.189
G1 X84.685 Y127.210 E593.5562
G1 X84.685 Y126.666
G1 X133.594 Y78.189 E595.8466
G1 X133.045 Y78.189
G1 X84.685 Y126.123 E598.1113
G1 X84.685 Y125.579
G1 X132.497 Y78.189 E600.3503
G1 X131.949 Y78.189
G1 X84.685 Y125.036 E602.5636
G1 X84.685 Y124.492
G1 X131.400 Y78.189 E604.7513
G1 X130.852 Y78.189
G1 X84.685 Y123.949 E606.9133
G1 X84.685 Y123.405
G1 X130.304 Y78.189 E609.0496
G1 X129.755 Y78.189
G1 X84.685 Y122.862 E611.1602
G1 X84.685 Y122.318
G1 X129.207 Y78.189 E613.2452
G1 X128.659 Y78.189
G1 X84.685 Y121.775 E615.3045
G1 X84.685 Y121.231
G1 X128.110 Y78.189 E617.3380
G1 X127.562 Y78.189
G1 X84.685 Y120.688 E619.3460
G1 X84.685 Y120.144
G1 X127.014 Y78.189 E621.3282
G1 X126.465 Y78.189
G1 X84.685 Y119.601 E623.2848
G1 X84.685 Y119.057
G1 X125.917 Y78.189 E625.2157
G1 X125.368 Y78.189
G1 X84.685 Y118.514 E627.1209
G1 X84.685 Y117.970
G1 X124.820 Y78.189 E629.0004
G1 X124.272 Y78.189
G1 X84.685 Y117.427 E630.8542
G1 X84.685 Y116.883
G1 X123.723 Y78.189 E632.6824
G1 X123.175 Y78.189
G1 X84.685 Y116.340 E634.4849
G1 X84.685 Y115.796
G1 X122.627 Y78.189 E636.2617
G1 X122.078 Y78.189
G1 X84.685 Y115.253 E638.0128
G1 X84.685 Y114.709
G1 X121.530 Y78.189 E639.7383
G1 X120.982 Y78.189
G1 X84.685 Y114.166 E641.4381
G1 X84.685 Y113.622
G1 X120.433 Y78.189 E643.1121
G1 X119.885 Y78.189
G1 X84.685 Y113.079 E644.7606
G1 X84.685 Y112.535
G1 X119.337 Y78.189 E646.3833
G1 X118.788 Y78.189
G1 X84.685 Y111.992 E647.9804
G1 X84.685 Y111.448
G1 X118.240 Y78.189 E649.5517
G1 X117.692 Y78.189
G1 X84.685 Y110.905 E651.0974
G1 X84.685 Y110.361
G1 X117.143 Y78.189 E652.6175
G1 X116.595 Y78.189
G1 X84.685 Y109.818 E654.1118
G1 X84.685 Y109.274
G1 X116.047 Y78.189 E655.5805
G1 X115.498 Y78.189
G1 X84.685 Y108.731 E657.0235
G1 X84.685 Y108.187
G1 X114.950 Y78.189 E658.4408
G1 X114.402 Y78.189
G1 X84.685 Y107.644 E659.8324
G1 X84.685 Y107.100
G1 X113.853 Y78.189 E661.1983
G1 X113.305 Y78.189
G1 X84.685 Y106.557 E662.5386
G1 X84.685 Y106.013
G1 X112.757 Y78.189 E663.8532
G1 X112.208 Y78.189
G1 X84.685 Y105.470 E665.1421
G1 X84.685 Y104.926
G1 X111.660 Y78.189 E666.4054
G1 X111.111 Y78.189
G1 X84.685 Y104.383 E667.6429
G1 X84.685 Y103.839
G1 X110.563 Y78.189 E668.8548
G1 X110.015 Y78.189
G1 X84.685 Y103.296 E670.0410
G1 X84.685 Y102.752
G1 X109.466 Y78.189 E671.2015
G1 X108.918 Y78.189
G1 X84.685 Y102.209 E672.3363
G1 X84.685 Y101.665
G1 X108.370 Y78.189 E673.4455
G1 X107.821 Y78.189
G1 X84.685 Y101.122 E674.5290
G1 X84.685 Y100.578
G1 X107.273 Y78.189 E675.5868
G1 X106.725 Y78.189
G1 X84.685 Y100.035 E676.6189
G1 X84.685 Y99.491
G1 X106.176 Y78.189 E677.6253
G1 X105.628 Y78.189
G1 X84.685 Y98.948 E678.6061
G1 X84.685 Y98.404
G1 X105.080 Y78.189 E679.5612
G1 X104.531 Y78.189
G1 X84.685 Y97.861 E680.4906
G1 X84.685 Y97.317
G1 X103.983 Y78.189 E681.3943
G1 X103.435 Y78.189
G1 X84.685 Y96.774 E682.2724
G1 X84.685 Y96.230
G1 X102.886 Y78.189 E683.1247
G1 X102.338 Y78.189
G1 X84.685 Y95.687 E683.9514
G1 X84.685 Y95.143
G1 X101.790 Y78.189 E684.7525
G1 X101.241 Y78.189
G1 X84.685 Y94.600 E685.5278
G1 X84.685 Y94.056
G1 X100.693 Y78.189 E686.2774
G1 X100.145 Y78.189
G1 X84.685 Y93.513 E687.0014
G1 X84.685 Y92.969
G1 X99.596 Y78.189 E687.6997
G1 X99.048 Y78.189
G1 X84.685 Y92.426 E688.3723
G1 X84.685 Y91.882
G1 X98.500 Y78.189 E689.0193
G1 X97.951 Y78.189
G1 X84.685 Y91.339 E689.6405
G1 X84.685 Y90.795
G1 X97.403 Y78.189 E690.2361
G1 X96.855 Y78.189
G1 X84.685 Y90.252 E690.8060
G1 X84.685 Y89.708
G1 X96.306 Y78.189 E691.3502
G1 X95.758 Y78.189
G1 X84.685 Y89.165 E691.8688
G1 X84.685 Y88.621
G1 X95.210 Y78.189 E692.3617
G1 X94.661 Y78.189
G1 X84.685 Y88.078 E692.8288
G1 X84.685 Y87.534
G1 X94.113 Y78.189 E693.2703
G1 X93.564 Y78.189
G1 X84.685 Y86.991 E693.6862
G1 X84.685 Y86.447
G1 X93.016 Y78.189 E694.0763
G1 X92.468 Y78.189
G1 X84.685 Y85.904 E694.4408
G1 X84.685 Y85.360
G1 X91.919 Y78.189 E694.7796
G1 X91.371 Y78.189
G1 X84.685 Y84.817 E695.0927
G1 X84.685 Y84.273
G1 X90.823 Y78.189 E695.3802
G1 X90.274 Y78.189
G1 X84.685 Y83.730 E695.6419
G1 X84.685 Y83.186
G1 X89.726 Y78.189 E695.8780
G1 X89.178 Y78.189
G1 X84.685 Y82.643 E696.0884
G1 X84.685 Y82.099
G1 X88.629 Y78.189 E696.2732
G1 X88.081 Y78.189
G1 X84.685 Y81.556 E696.4322
G1 X84.685 Y81.012
G1 X87.533 Y78.189 E696.5656
G1 X86.984 Y78.189
G1 X84.685 Y80.469 E696.6732
G1 X84.685 Y79.925
G1 X86.436 Y78.189 E696.7553
G1 X85.888 Y78.189
G1 X84.685 Y79.382 E696.8116
G1 X84.685 Y78.838
G1 X85.339 Y78.189 E696.8422
G1 X84.791 Y78.189
G1 X84.685 Y78.295 E696.8472
; ------------------------------------
; Layer #1
; ------------------------------------
G21 ; mm
G90 ; abs
G92 E0 ; reset extr
M106 S0
;segType:SoftSupport
G0 F1200 E-1.0000
G0 F300 Z0.400
G0 X92.600 Y142.000 F5400
G0 F1200 E0.0000
G1 X95.000 Y142.000 E0.0359 F4500
G0 F1200 E-0.9641
G0 X92.679 Y143.000 F5400
G0 F1200 E0.0359
G1 X95.000 Y143.000 E0.0706 F4500
G0 F1200 E-0.9294
G0 X92.738 Y141.000 F5400
G0 F1200 E0.0706
G1 X95.000 Y141.000 E0.1045 F4500
G0 F1200 E-0.8955
G0 X92.986 Y144.000 F5400
G0 F1200 E0.1045
G1 X95.000 Y144.000 E0.1346 F4500
G0 F1200 E-0.8654
G0 X94.000 Y139.000 F5400
G0 F1200 E0.1346
G1 X100.436 Y139.000 E0.2310 F4500
G0 F1200 E-0.7690
G0 X94.000 Y145.000 F5400
G0 F1200 E0.2310
G1 X100.788 Y145.000 E0.3326 F4500
G0 F1200 E-0.6674
G0 X94.000 Y140.000 F5400
G0 F1200 E0.3326
G1 X101.000 Y140.000 E0.4374 F4500
G0 F1200 E-0.5626
G0 X94.623 Y146.000 F5400
G0 F1200 E0.4374
G1 X99.680 Y146.000 E0.5130 F4500
G0 F1200 E-0.4870
G0 X96.000 Y138.000 F5400
G0 F1200 E0.5130
G1 X99.000 Y138.000 E0.5579 F4500
G0 F1200 E-0.4421
G0 X100.000 Y142.000 F5400
G0 F1200 E0.5579
G1 X101.000 Y142.000 E0.5729 F4500
G1 X100.000 Y141.000 E0.5941
G1 X101.000 Y141.000 E0.6090
G0 F1200 E-0.3910
G0 X100.000 Y144.000 F5400
G0 F1200 E0.6090
G1 X101.000 Y144.000 E0.6240 F4500
G1 X100.000 Y143.000 E0.6452
G1 X101.000 Y143.000 E0.6601
G0 F1200 E-0.3399
G0 X142.100 Y142.000 F5400
G0 F1200 E0.6601
G1 X143.000 Y142.000 E0.6736 F4500
G1 X142.257 Y143.000 E0.6922
G1 X146.099 Y143.000 E0.7497
G0 F1200 E-0.2503
G0 X142.463 Y141.000 F5400
G0 F1200 E0.7497
G1 X143.000 Y141.000 E0.7578 F4500
G0 F1200 E-0.2422
G0 X143.131 Y144.000 F5400
G0 F1200 E0.7578
G1 X145.202 Y144.000 E0.7888 F4500
G0 F1200 E-0.2112
G0 X146.000 Y142.000 F5400
G0 F1200 E0.7888
G1 X146.245 Y142.000 E0.7924 F4500
G0 F1200 E-0.2076
G0 X148.679 Y129.218 F5400
G0 X149.166 Y126.661
G0 X151.937 Y110.182
G0 X152.381 Y107.651
G0 X154.602 Y95.000
G0 F1200 E0.7924
G1 X157.000 Y95.000 E0.8283 F4500
G0 F1200 E-0.1717
G0 X154.684 Y96.000 F5400
G0 F1200 E0.8283
G1 X157.000 Y96.000 E0.8630 F4500
G0 F1200 E-0.1370
G0 X154.733 Y94.000 F5400
G0 F1200 E0.8630
G1 X157.000 Y94.000 E0.8969 F4500
G0 F1200 E-0.1031
G0 X155.146 Y93.000 F5400
G0 F1200 E0.8969
G1 X157.000 Y93.000 E0.9247 F4500
G1 X156.000 Y92.000 E0.9458
G1 X167.000 Y92.000 E1.1105
G0 F1200 E0.1105
G0 X156.000 Y97.000 F5400
G0 F1200 E1.1105
G1 X168.353 Y97.000 E1.2954 F4500
G0 F1200 E0.2954
G0 X156.000 Y98.000 F5400
G0 F1200 E1.2954
G1 X167.758 Y98.000 E1.4713 F4500
G0 F1200 E0.4713
G0 X156.652 Y99.000 F5400
G0 F1200 E1.4713
G1 X166.692 Y99.000 E1.6216 F4500
G0 F1200 E0.6216
G0 X157.366 Y91.000 F5400
G0 F1200 E1.6216
G1 X165.978 Y91.000 E1.7505 F4500
G0 F1200 E0.7505
G0 X166.000 Y95.000 F5400
G0 F1200 E1.7505
G1 X168.742 Y95.000 E1.7916 F4500
G0 F1200 E0.7916
G0 X166.000 Y93.000 F5400
G0 F1200 E1.7916
G1 X168.198 Y93.000 E1.8245 F4500
G0 F1200 E0.8245
G0 X166.000 Y96.000 F5400
G0 F1200 E1.8245
G1 X168.660 Y96.000 E1.8643 F4500
G0 F1200 E0.8643
G0 X166.000 Y94.000 F5400
G0 F1200 E1.8643
G1 X168.598 Y94.000 E1.9032 F4500
G0 F1200 E0.9032
G0 X160.798 Y99.999 F5400
G0 X149.098 Y108.998
G0 F1200 E1.9032
;segType:HShell
G1 X143.054 Y103.007 E2.1862 F3000
G1 X143.057 Y103.554
G1 X148.550 Y108.998 E2.4434
;segType:Perimeter
G0 X149.239 Y109.408 F5400
G1 X148.972 Y110.047 E2.4665 F2100
G1 X148.972 Y151.989 E3.8615
G1 X88.372 Y151.989 E5.8771
G1 X88.372 Y132.386 E6.5291
G1 X94.185 Y132.386 E6.7224
G1 X95.519 Y132.210 E6.7672
G1 X96.774 Y131.690 E6.8123
G1 X97.851 Y130.864 E6.8575
G1 X98.677 Y129.787 E6.9027
G1 X99.197 Y128.533 E6.9478
G1 X99.372 Y127.200 E6.9925
G1 X99.372 Y114.190 E7.4252
G1 X99.427 Y112.236 E7.4902
G1 X99.591 Y110.291 E7.5552
G1 X99.864 Y108.358 E7.6201
G1 X100.245 Y106.443 E7.6850
G1 X100.732 Y104.553 E7.7500
G1 X101.325 Y102.693 E7.8149
G1 X102.021 Y100.869 E7.8798
G1 X102.819 Y99.087 E7.9447
G1 X103.715 Y97.353 E8.0097
G1 X104.707 Y95.671 E8.0746
G1 X105.791 Y94.048 E8.1395
G1 X106.965 Y92.488 E8.2045
G1 X108.224 Y90.997 E8.2694
G1 X109.566 Y89.578 E8.3343
G1 X110.984 Y88.237 E8.3992
G1 X112.475 Y86.978 E8.4642
G1 X114.035 Y85.804 E8.5291
G1 X115.658 Y84.720 E8.5940
G1 X117.339 Y83.728 E8.6589
G1 X119.073 Y82.832 E8.7239
G1 X120.855 Y82.035 E8.7888
G1 X122.679 Y81.339 E8.8537
G1 X124.539 Y80.746 E8.9186
G1 X126.429 Y80.258 E8.9835
G1 X128.343 Y79.878 E9.0485
G1 X130.276 Y79.605 E9.1134
G1 X132.221 Y79.441 E9.1783
G1 X134.175 Y79.386 E9.2433
G1 X171.972 Y79.386 E10.5005
G1 X171.972 Y109.989 E11.5184
G1 X149.030 Y109.989 E12.2814
G1 X148.385 Y110.254
;segType:Loop
G0 X148.572 Y111.046 F5400
G1 X148.572 Y151.593 E13.6300 F3000
G1 X88.772 Y151.593 E15.6190
G1 X88.772 Y132.782 E16.2446
G1 X94.212 Y132.782 E16.4255
G1 X95.624 Y132.596 E16.4729
G1 X96.977 Y132.036 E16.5216
G1 X98.137 Y131.145 E16.5703
G1 X99.027 Y129.985 E16.6189
G1 X99.586 Y128.636 E16.6675
G1 X99.772 Y127.226 E16.7148
G1 X99.772 Y114.196 E17.1482
G1 X99.826 Y112.258 E17.2126
G1 X99.988 Y110.335 E17.2768
G1 X100.258 Y108.423 E17.3410
G1 X100.635 Y106.531 E17.4052
G1 X101.117 Y104.662 E17.4694
G1 X101.703 Y102.823 E17.5336
G1 X102.391 Y101.020 E17.5978
G1 X103.180 Y99.258 E17.6620
G1 X104.066 Y97.543 E17.7262
G1 X105.046 Y95.881 E17.7904
G1 X106.118 Y94.276 E17.8546
G1 X107.279 Y92.734 E17.9188
G1 X108.524 Y91.260 E17.9829
G1 X109.850 Y89.857 E18.0471
G1 X111.252 Y88.532 E18.1113
G1 X112.726 Y87.287 E18.1755
G1 X114.268 Y86.127 E18.2397
G1 X115.872 Y85.055 E18.3038
G1 X117.534 Y84.074 E18.3680
G1 X119.248 Y83.189 E18.4322
G1 X121.009 Y82.401 E18.4964
G1 X122.812 Y81.712 E18.5605
G1 X124.650 Y81.127 E18.6247
G1 X126.518 Y80.645 E18.6889
G1 X128.411 Y80.268 E18.7531
G1 X130.321 Y79.999 E18.8172
G1 X132.244 Y79.837 E18.8814
G1 X134.180 Y79.782 E18.9458
G1 X171.572 Y79.782 E20.1895
G1 X171.572 Y109.593 E21.1810
G1 X148.572 Y109.593 E21.9460
G1 X148.572 Y110.854 E21.9879
G0 X148.172 Y112.103 F5400
G1 X148.172 Y151.197 E23.2882 F3000
G1 X89.172 Y151.197 E25.2505
G1 X89.172 Y133.179 E25.8498
G1 X94.238 Y133.179 E26.0183
G1 X95.729 Y132.982 E26.0683
G1 X97.180 Y132.382 E26.1206
G1 X98.424 Y131.427 E26.1727
G1 X99.377 Y130.184 E26.2248
G1 X99.976 Y128.738 E26.2769
G1 X100.172 Y127.252 E26.3267
G1 X100.172 Y114.201 E26.7608
G1 X100.226 Y112.280 E26.8247
G1 X100.386 Y110.379 E26.8882
G1 X100.653 Y108.489 E26.9517
G1 X101.025 Y106.618 E27.0151
G1 X101.502 Y104.771 E27.0786
G1 X102.081 Y102.953 E27.1420
G1 X102.762 Y101.170 E27.2055
G1 X103.541 Y99.429 E27.2689
G1 X104.417 Y97.733 E27.3324
G1 X105.386 Y96.091 E27.3959
G1 X106.446 Y94.505 E27.4593
G1 X107.593 Y92.980 E27.5228
G1 X108.824 Y91.523 E27.5862
G1 X110.134 Y90.137 E27.6496
G1 X111.519 Y88.827 E27.7131
G1 X112.977 Y87.596 E27.7765
G1 X114.501 Y86.449 E27.8399
G1 X116.086 Y85.390 E27.9034
G1 X117.729 Y84.421 E27.9668
G1 X119.423 Y83.545 E28.0302
G1 X121.164 Y82.766 E28.0937
G1 X122.945 Y82.086 E28.1571
G1 X124.762 Y81.508 E28.2205
G1 X126.608 Y81.031 E28.2839
G1 X128.478 Y80.659 E28.3473
G1 X130.366 Y80.393 E28.4107
G1 X132.266 Y80.232 E28.4742
G1 X134.186 Y80.178 E28.5380
G1 X171.172 Y80.178 E29.7682
G1 X171.172 Y109.197 E30.7333
G1 X148.172 Y109.197 E31.4983
G1 X148.172 Y111.911 E31.5886
G0 X141.972 Y104.607 F5400
G1 X141.643 Y104.958 E31.6046 F3000
G1 X141.155 Y105.267 E31.6238
G1 X140.605 Y105.446 E31.6431
G1 X140.027 Y105.483 E31.6623
G1 X139.458 Y105.374 E31.6816
G1 X138.935 Y105.128 E31.7008
G1 X138.490 Y104.760 E31.7200
G1 X138.151 Y104.293 E31.7392
G1 X137.939 Y103.758 E31.7583
G1 X137.868 Y103.187 E31.7775
G1 X137.939 Y102.617 E31.7966
G1 X138.151 Y102.082 E31.8157
G1 X138.490 Y101.615 E31.8349
G1 X138.935 Y101.248 E31.8541
G1 X139.458 Y101.001 E31.8733
G1 X140.027 Y100.892 E31.8926
G1 X140.605 Y100.929 E31.9119
G1 X141.155 Y101.108 E31.9311
G1 X141.643 Y101.417 E31.9503
G1 X142.038 Y101.838 E31.9695
G1 X142.316 Y102.343 E31.9887
G1 X142.452 Y102.876 E32.0070
G1 X142.459 Y103.472 E32.0268
G1 X142.316 Y104.032 E32.0460
G1 X142.085 Y104.453 E32.0620
;segType:Perimeter
G0 X142.564 Y103.018 F5400
G1 X142.044 Y103.480 E32.0851 F2100
G1 X141.940 Y103.886 E32.0991
G1 X141.711 Y104.303 E32.1149
G1 X141.385 Y104.651 E32.1308
G1 X140.982 Y104.906 E32.1466
G1 X140.529 Y105.054 E32.1625
G1 X140.052 Y105.084 E32.1783
G1 X139.584 Y104.994 E32.1942
G1 X139.152 Y104.791 E32.2101
G1 X138.785 Y104.487 E32.2259
G1 X138.505 Y104.102 E32.2417
G1 X138.330 Y103.660 E32.2576
G1 X138.271 Y103.187 E32.2734
G1 X138.330 Y102.716 E32.2892
G1 X138.505 Y102.273 E32.3051
G1 X138.785 Y101.888 E32.3209
G1 X139.152 Y101.584 E32.3367
G1 X139.584 Y101.381 E32.3526
G1 X140.052 Y101.291 E32.3685
G1 X140.529 Y101.322 E32.3843
G1 X140.982 Y101.469 E32.4002
G1 X141.385 Y101.724 E32.4161
G1 X141.711 Y102.072 E32.4319
G1 X141.940 Y102.489 E32.4477
G1 X142.053 Y102.928 E32.4628
G1 X142.058 Y103.367 E32.4774
G1 X142.453 Y103.937
;segType:Loop
G0 X141.367 Y105.603 F5400
G1 X141.328 Y105.628 E32.4790 F3000
G1 X140.681 Y105.838 E32.5016
G1 X140.002 Y105.881 E32.5242
G1 X139.333 Y105.754 E32.5469
G1 X138.718 Y105.464 E32.5695
G1 X138.195 Y105.032 E32.5921
G1 X137.797 Y104.485 E32.6146
G1 X137.549 Y103.857 E32.6370
G1 X137.465 Y103.187 E32.6595
G1 X137.549 Y102.519 E32.6819
G1 X137.797 Y101.890 E32.7043
G1 X138.195 Y101.343 E32.7269
G1 X138.718 Y100.911 E32.7494
G1 X139.332 Y100.621 E32.7720
G1 X140.002 Y100.493 E32.7947
G1 X140.681 Y100.537 E32.8173
G1 X141.328 Y100.746 E32.8399
G1 X141.901 Y101.111 E32.8625
G1 X142.365 Y101.605 E32.8851
G1 X142.691 Y102.197 E32.9075
G1 X142.852 Y102.824 E32.9291
G1 X142.860 Y103.519 E32.9522
G1 X142.691 Y104.178 E32.9748
G1 X142.365 Y104.770 E32.9973
G1 X141.901 Y105.265 E33.0199
G1 X141.531 Y105.500 E33.0345
G0 X142.251 Y103.447 F5400
G0 X148.187 Y80.377
;segType:HShell
G1 X157.076 Y89.186 E33.4507 F3000
;segType:Perimeter
G0 X157.204 Y89.660 F5400
G1 X157.831 Y89.964 E33.4739 F2100
G1 X159.159 Y89.789 E33.5184
G1 X164.185 Y89.789 E33.6856
G1 X165.571 Y89.972 E33.7321
G1 X166.874 Y90.512 E33.7790
G1 X167.992 Y91.370 E33.8259
G1 X168.850 Y92.488 E33.8727
G1 X169.333 Y93.653 E33.9147
G1 X169.409 Y93.938 E33.9245
G1 X169.574 Y95.187 E33.9664
G1 X169.390 Y96.585 E34.0133
G1 X168.850 Y97.887 E34.0602
G1 X167.992 Y99.005 E34.1070
G1 X166.874 Y99.864 E34.1539
G1 X165.571 Y100.403 E34.2008
G1 X164.185 Y100.586 E34.2473
G1 X159.159 Y100.586 E34.4145
G1 X157.774 Y100.403 E34.4610
G1 X156.471 Y99.864 E34.5079
G1 X155.352 Y99.005 E34.5548
G1 X154.494 Y97.887 E34.6017
G1 X153.954 Y96.585 E34.6485
G1 X153.770 Y95.187 E34.6954
G1 X153.954 Y93.790 E34.7423
G1 X154.494 Y92.488 E34.7892
G1 X155.352 Y91.370 E34.8360
G1 X156.470 Y90.512 E34.8829
G1 X157.720 Y89.994 E34.9279
G1 X158.107 Y89.418
;segType:Loop
G0 X158.778 Y89.440 F5400
G1 X159.133 Y89.393 E34.9398 F3000
G1 X164.212 Y89.393 E35.1088
G1 X165.676 Y89.585 E35.1579
G1 X167.077 Y90.166 E35.2083
G1 X168.279 Y91.088 E35.2587
G1 X169.200 Y92.289 E35.3091
G1 X169.713 Y93.526 E35.3536
G1 X169.802 Y93.861 E35.3651
G1 X169.977 Y95.187 E35.4096
G1 X169.780 Y96.687 E35.4599
G1 X169.200 Y98.085 E35.5103
G1 X168.279 Y99.287 E35.5606
G1 X167.077 Y100.209 E35.6110
G1 X165.676 Y100.789 E35.6614
G1 X164.212 Y100.982 E35.7106
G1 X159.133 Y100.982 E35.8795
G1 X157.668 Y100.789 E35.9286
G1 X156.268 Y100.209 E35.9790
G1 X155.065 Y99.287 E36.0294
G1 X154.144 Y98.085 E36.0798
G1 X153.564 Y96.687 E36.1301
G1 X153.367 Y95.187 E36.1805
G1 X153.564 Y93.688 E36.2308
G1 X154.144 Y92.289 E36.2811
G1 X155.065 Y91.088 E36.3315
G1 X156.267 Y90.166 E36.3819
G1 X157.668 Y89.585 E36.4323
G1 X158.586 Y89.465 E36.4631
G0 X159.841 Y88.997 F5400
G1 X164.238 Y88.997 E36.6093 F3000
G1 X165.781 Y89.199 E36.6611
G1 X167.280 Y89.820 E36.7150
G1 X168.565 Y90.807 E36.7689
G1 X169.550 Y92.091 E36.8228
G1 X170.092 Y93.400 E36.8699
G1 X170.195 Y93.784 E36.8831
G1 X170.381 Y95.187 E36.9302
G1 X170.169 Y96.790 E36.9840
G1 X169.550 Y98.284 E37.0377
G1 X168.565 Y99.568 E37.0916
G1 X167.280 Y100.555 E37.1455
G1 X165.781 Y101.176 E37.1994
G1 X164.238 Y101.379 E37.2512
G1 X159.106 Y101.379 E37.4219
G1 X157.563 Y101.176 E37.4736
G1 X156.065 Y100.555 E37.5276
G1 X154.779 Y99.568 E37.5815
G1 X153.794 Y98.284 E37.6353
G1 X153.174 Y96.790 E37.6891
G1 X152.963 Y95.187 E37.7429
G1 X153.174 Y93.585 E37.7966
G1 X153.794 Y92.091 E37.8504
G1 X154.779 Y90.807 E37.9043
G1 X156.064 Y89.820 E37.9582
G1 X157.563 Y89.199 E38.0121
G1 X159.106 Y88.997 E38.0639
G1 X159.647 Y88.997 E38.0819
G0 X111.435 Y103.568 F5400
G1 X111.315 Y104.032 E38.0978 F3000
G1 X111.038 Y104.537 E38.1170
G1 X110.643 Y104.958 E38.1362
G1 X110.155 Y105.267 E38.1554
G1 X109.605 Y105.446 E38.1746
G1 X109.027 Y105.483 E38.1939
G1 X108.458 Y105.374 E38.2131
G1 X107.935 Y105.128 E38.2324
G1 X107.490 Y104.760 E38.2516
G1 X107.151 Y104.293 E38.2707
G1 X106.939 Y103.758 E38.2899
G1 X106.868 Y103.187 E38.3090
G1 X106.939 Y102.617 E38.3281
G1 X107.151 Y102.081 E38.3473
G1 X107.490 Y101.615 E38.3665
G1 X107.935 Y101.248 E38.3857
G1 X108.458 Y101.001 E38.4049
G1 X109.027 Y100.892 E38.4241
G1 X109.605 Y100.929 E38.4434
G1 X110.155 Y101.108 E38.4626
G1 X110.643 Y101.418 E38.4819
G1 X111.038 Y101.838 E38.5011
G1 X111.317 Y102.346 E38.5203
G1 X111.459 Y102.924 E38.5401
G1 X111.459 Y103.379 E38.5553
;segType:Perimeter
G0 X111.195 Y101.896 F5400
G1 X110.954 Y102.546 E38.5783 F2100
G1 X111.059 Y102.972 E38.5929
G1 X111.059 Y103.426 E38.6080
G1 X110.940 Y103.886 E38.6238
G1 X110.711 Y104.303 E38.6396
G1 X110.385 Y104.651 E38.6555
G1 X109.982 Y104.906 E38.6713
G1 X109.529 Y105.054 E38.6872
G1 X109.052 Y105.084 E38.7031
G1 X108.584 Y104.994 E38.7189
G1 X108.153 Y104.791 E38.7348
G1 X107.785 Y104.487 E38.7506
G1 X107.505 Y104.102 E38.7665
G1 X107.330 Y103.660 E38.7823
G1 X107.271 Y103.187 E38.7981
G1 X107.330 Y102.716 E38.8140
G1 X107.505 Y102.273 E38.8298
G1 X107.785 Y101.888 E38.8456
G1 X108.153 Y101.584 E38.8615
G1 X108.584 Y101.381 E38.8774
G1 X109.052 Y101.291 E38.8932
G1 X109.529 Y101.322 E38.9091
G1 X109.982 Y101.469 E38.9250
G1 X110.385 Y101.724 E38.9408
G1 X110.711 Y102.072 E38.9567
G1 X110.913 Y102.439 E38.9706
G1 X111.531 Y102.760
;segType:Loop
G0 X111.387 Y104.730 F5400
G1 X111.365 Y104.770 E38.9721 F3000
G1 X110.901 Y105.265 E38.9947
G1 X110.328 Y105.628 E39.0173
G1 X109.681 Y105.838 E39.0399
G1 X109.001 Y105.881 E39.0625
G1 X108.333 Y105.754 E39.0852
G1 X107.718 Y105.464 E39.1078
G1 X107.195 Y105.032 E39.1303
G1 X106.797 Y104.485 E39.1529
G1 X106.549 Y103.857 E39.1753
G1 X106.465 Y103.187 E39.1978
G1 X106.549 Y102.519 E39.2202
G1 X106.797 Y101.890 E39.2427
G1 X107.195 Y101.343 E39.2652
G1 X107.718 Y100.911 E39.2877
G1 X108.333 Y100.621 E39.3103
G1 X109.001 Y100.493 E39.3330
G1 X109.681 Y100.537 E39.3556
G1 X110.328 Y100.746 E39.3782
G1 X110.902 Y101.111 E39.4008
G1 X111.365 Y101.605 E39.4234
G1 X111.693 Y102.202 E39.4460
G1 X111.859 Y102.877 E39.4692
G1 X111.859 Y103.525 E39.4907
G1 X111.691 Y104.178 E39.5131
G1 X111.480 Y104.561 E39.5277
G0 X111.435 Y134.568 F5400
G1 X111.315 Y135.032 E39.5436 F3000
G1 X111.038 Y135.537 E39.5627
G1 X110.643 Y135.958 E39.5819
G1 X110.155 Y136.267 E39.6012
G1 X109.605 Y136.446 E39.6204
G1 X109.027 Y136.483 E39.6397
G1 X108.458 Y136.374 E39.6589
G1 X107.935 Y136.128 E39.6782
G1 X107.490 Y135.760 E39.6973
G1 X107.151 Y135.294 E39.7165
G1 X106.939 Y134.758 E39.7357
G1 X106.868 Y134.187 E39.7548
G1 X106.939 Y133.617 E39.7739
G1 X107.151 Y133.081 E39.7931
G1 X107.490 Y132.615 E39.8123
G1 X107.935 Y132.248 E39.8315
G1 X108.458 Y132.001 E39.8507
G1 X109.027 Y131.893 E39.8699
G1 X109.605 Y131.929 E39.8892
G1 X110.155 Y132.108 E39.9084
G1 X110.643 Y132.417 E39.9277
G1 X111.030 Y132.830 E39.9465
G1 X111.319 Y133.356 E39.9664
G1 X111.459 Y133.913 E39.9856
G1 X111.459 Y134.379 E40.0011
;segType:Perimeter
G0 X111.197 Y132.907 F5400
G1 X110.957 Y133.557 E40.0241 F2100
G1 X111.059 Y133.962 E40.0380
G1 X111.059 Y134.426 E40.0534
G1 X110.940 Y134.886 E40.0692
G1 X110.711 Y135.303 E40.0851
G1 X110.385 Y135.651 E40.1009
G1 X109.982 Y135.906 E40.1168
G1 X109.529 Y136.054 E40.1326
G1 X109.052 Y136.084 E40.1485
G1 X108.584 Y135.994 E40.1644
G1 X108.153 Y135.791 E40.1802
G1 X107.785 Y135.487 E40.1961
G1 X107.505 Y135.102 E40.2119
G1 X107.330 Y134.660 E40.2278
G1 X107.271 Y134.187 E40.2436
G1 X107.330 Y133.716 E40.2594
G1 X107.505 Y133.273 E40.2752
G1 X107.785 Y132.888 E40.2911
G1 X108.153 Y132.584 E40.3069
G1 X108.584 Y132.381 E40.3228
G1 X109.052 Y132.292 E40.3386
G1 X109.529 Y132.322 E40.3545
G1 X109.982 Y132.469 E40.3704
G1 X110.385 Y132.724 E40.3862
G1 X110.703 Y133.063 E40.4017
G1 X110.916 Y133.450 E40.4164
G1 X111.535 Y133.769
;segType:Loop
G0 X111.387 Y135.730 F5400
G1 X111.365 Y135.770 E40.4179 F3000
G1 X110.901 Y136.265 E40.4405
G1 X110.328 Y136.628 E40.4631
G1 X109.681 Y136.838 E40.4857
G1 X109.001 Y136.881 E40.5083
G1 X108.333 Y136.754 E40.5310
G1 X107.718 Y136.464 E40.5536
G1 X107.195 Y136.032 E40.5761
G1 X106.797 Y135.485 E40.5986
G1 X106.549 Y134.856 E40.6211
G1 X106.465 Y134.187 E40.6435
G1 X106.549 Y133.519 E40.6660
G1 X106.797 Y132.890 E40.6884
G1 X107.195 Y132.343 E40.7110
G1 X107.718 Y131.911 E40.7335
G1 X108.333 Y131.621 E40.7561
G1 X109.001 Y131.494 E40.7787
G1 X109.681 Y131.537 E40.8014
G1 X110.328 Y131.746 E40.8240
G1 X110.902 Y132.111 E40.8466
G1 X111.357 Y132.596 E40.8688
G1 X111.695 Y133.211 E40.8921
G1 X111.859 Y133.865 E40.9145
G1 X111.859 Y134.525 E40.9365
G1 X111.691 Y135.178 E40.9589
G1 X111.480 Y135.561 E40.9734
G0 X123.588 Y131.233 F5400
G1 X123.509 Y131.229 E40.9761 F3000
G1 X122.356 Y131.068 E41.0148
G1 X121.222 Y130.802 E41.0535
G1 X120.119 Y130.432 E41.0922
G1 X119.054 Y129.961 E41.1310
G1 X118.037 Y129.395 E41.1697
G1 X117.076 Y128.737 E41.2084
G1 X116.181 Y127.994 E41.2471
G1 X115.358 Y127.171 E41.2858
G1 X114.615 Y126.276 E41.3245
G1 X113.957 Y125.316 E41.3632
G1 X113.391 Y124.300 E41.4019
G1 X112.922 Y123.236 E41.4406
G1 X112.552 Y122.133 E41.4792
G1 X112.286 Y121.001 E41.5179
G1 X112.125 Y119.849 E41.5566
G1 X112.071 Y118.688 E41.5953
G1 X112.125 Y117.526 E41.6340
G1 X112.286 Y116.374 E41.6726
G1 X112.552 Y115.242 E41.7113
G1 X112.922 Y114.139 E41.7500
G1 X113.391 Y113.075 E41.7887
G1 X113.957 Y112.059 E41.8274
G1 X114.615 Y111.099 E41.8661
G1 X115.358 Y110.204 E41.9048
G1 X116.181 Y109.381 E41.9435
G1 X117.076 Y108.638 E41.9822
G1 X118.037 Y107.980 E42.0209
G1 X119.054 Y107.414 E42.0596
G1 X120.119 Y106.944 E42.0983
G1 X121.222 Y106.574 E42.1371
G1 X122.356 Y106.307 E42.1758
G1 X123.509 Y106.146 E42.2145
G1 X124.672 Y106.092 E42.2532
G1 X125.835 Y106.146 E42.2920
G1 X126.988 Y106.307 E42.3307
G1 X128.122 Y106.574 E42.3694
G1 X129.226 Y106.944 E42.4081
G1 X130.291 Y107.414 E42.4469
G1 X131.308 Y107.980 E42.4856
G1 X132.268 Y108.638 E42.5243
G1 X133.163 Y109.381 E42.5630
G1 X133.986 Y110.204 E42.6017
G1 X134.729 Y111.099 E42.6404
G1 X135.387 Y112.059 E42.6791
G1 X135.953 Y113.075 E42.7178
G1 X136.422 Y114.139 E42.7565
G1 X136.792 Y115.242 E42.7952
G1 X137.046 Y116.320 E42.8320
G1 X137.221 Y117.581 E42.8743
G1 X137.273 Y118.688 E42.9112
G1 X137.219 Y119.849 E42.9498
G1 X137.058 Y121.001 E42.9885
G1 X136.792 Y122.133 E43.0272
G1 X136.422 Y123.236 E43.0659
G1 X135.953 Y124.300 E43.1046
G1 X135.387 Y125.316 E43.1433
G1 X134.729 Y126.276 E43.1820
G1 X133.986 Y127.171 E43.2207
G1 X133.163 Y127.994 E43.2594
G1 X132.268 Y128.737 E43.2981
G1 X131.308 Y129.395 E43.3368
G1 X130.291 Y129.961 E43.3755
G1 X129.226 Y130.432 E43.4142
G1 X128.122 Y130.802 E43.4529
G1 X126.988 Y131.068 E43.4917
G1 X125.835 Y131.229 E43.5304
G1 X124.672 Y131.283 E43.5691
G1 X123.782 Y131.242 E43.5988
;segType:Perimeter
G0 X125.119 Y131.361 F5400
G1 X124.614 Y130.883 E43.6219 F2100
G1 X123.546 Y130.834 E43.6574
G1 X122.430 Y130.678 E43.6949
G1 X121.333 Y130.420 E43.7324
G1 X120.264 Y130.062 E43.7699
G1 X119.233 Y129.607 E43.8074
G1 X118.249 Y129.058 E43.8449
G1 X117.319 Y128.421 E43.8823
G1 X116.452 Y127.702 E43.9198
G1 X115.655 Y126.905 E43.9573
G1 X114.935 Y126.038 E43.9948
G1 X114.299 Y125.108 E44.0322
G1 X113.750 Y124.124 E44.0697
G1 X113.296 Y123.094 E44.1072
G1 X112.937 Y122.025 E44.1447
G1 X112.679 Y120.929 E44.1821
G1 X112.524 Y119.813 E44.2196
G1 X112.472 Y118.688 E44.2571
G1 X112.524 Y117.562 E44.2945
G1 X112.679 Y116.446 E44.3320
G1 X112.937 Y115.350 E44.3695
G1 X113.296 Y114.281 E44.4070
G1 X113.750 Y113.251 E44.4444
G1 X114.299 Y112.267 E44.4819
G1 X114.935 Y111.337 E44.5194
G1 X115.655 Y110.470 E44.5569
G1 X116.452 Y109.673 E44.5943
G1 X117.319 Y108.954 E44.6318
G1 X118.249 Y108.317 E44.6693
G1 X119.233 Y107.768 E44.7068
G1 X120.264 Y107.313 E44.7443
G1 X121.333 Y106.955 E44.7818
G1 X122.430 Y106.697 E44.8192
G1 X123.546 Y106.541 E44.8567
G1 X124.672 Y106.489 E44.8942
G1 X125.798 Y106.541 E44.9317
G1 X126.914 Y106.697 E44.9692
G1 X128.011 Y106.955 E45.0067
G1 X129.080 Y107.313 E45.0442
G1 X130.111 Y107.768 E45.0816
G1 X131.095 Y108.317 E45.1191
G1 X132.025 Y108.954 E45.1566
G1 X132.892 Y109.673 E45.1941
G1 X133.689 Y110.470 E45.2316
G1 X134.409 Y111.337 E45.2690
G1 X135.045 Y112.267 E45.3065
G1 X135.594 Y113.251 E45.3440
G1 X136.049 Y114.281 E45.3815
G1 X136.407 Y115.350 E45.4189
G1 X136.652 Y116.392 E45.4546
G1 X136.823 Y117.618 E45.4957
G1 X136.872 Y118.688 E45.5313
G1 X136.820 Y119.813 E45.5688
G1 X136.665 Y120.929 E45.6063
G1 X136.407 Y122.025 E45.6437
G1 X136.049 Y123.094 E45.6812
G1 X135.594 Y124.124 E45.7187
G1 X135.045 Y125.108 E45.7562
G1 X134.409 Y126.038 E45.7936
G1 X133.689 Y126.905 E45.8311
G1 X132.892 Y127.702 E45.8686
G1 X132.025 Y128.421 E45.9061
G1 X131.095 Y129.058 E45.9435
G1 X130.111 Y129.607 E45.9810
G1 X129.080 Y130.062 E46.0185
G1 X128.011 Y130.420 E46.0560
G1 X126.914 Y130.678 E46.0935
G1 X125.798 Y130.834 E46.1310
G1 X124.730 Y130.883 E46.1665
G1 X124.225 Y131.361
;segType:Loop
G0 X122.476 Y131.485 F5400
G1 X122.282 Y131.458 E46.1730 F3000
G1 X121.112 Y131.183 E46.2130
G1 X119.973 Y130.801 E46.2530
G1 X118.874 Y130.316 E46.2929
G1 X117.824 Y129.732 E46.3329
G1 X116.834 Y129.053 E46.3728
G1 X115.910 Y128.286 E46.4128
G1 X115.061 Y127.437 E46.4527
G1 X114.294 Y126.514 E46.4926
G1 X113.616 Y125.523 E46.5325
G1 X113.032 Y124.475 E46.5724
G1 X112.548 Y123.378 E46.6123
G1 X112.167 Y122.241 E46.6522
G1 X111.892 Y121.073 E46.6921
G1 X111.726 Y119.886 E46.7320
G1 X111.671 Y118.688 E46.7719
G1 X111.726 Y117.490 E46.8118
G1 X111.892 Y116.302 E46.8517
G1 X112.167 Y115.134 E46.8915
G1 X112.548 Y113.997 E46.9314
G1 X113.032 Y112.899 E46.9713
G1 X113.616 Y111.851 E47.0113
G1 X114.294 Y110.861 E47.0512
G1 X115.061 Y109.938 E47.0911
G1 X115.910 Y109.089 E47.1310
G1 X116.834 Y108.322 E47.1709
G1 X117.824 Y107.643 E47.2109
G1 X118.874 Y107.059 E47.2508
G1 X119.973 Y106.574 E47.2908
G1 X121.112 Y106.192 E47.3307
G1 X122.282 Y105.917 E47.3707
G1 X123.472 Y105.751 E47.4107
G1 X124.672 Y105.695 E47.4506
G1 X125.873 Y105.751 E47.4906
G1 X127.062 Y105.917 E47.5306
G1 X128.232 Y106.192 E47.5705
G1 X129.371 Y106.574 E47.6105
G1 X130.470 Y107.059 E47.6505
G1 X131.520 Y107.643 E47.6904
G1 X132.510 Y108.322 E47.7303
G1 X133.434 Y109.089 E47.7703
G1 X134.283 Y109.938 E47.8102
G1 X135.050 Y110.861 E47.8501
G1 X135.728 Y111.851 E47.8900
G1 X136.312 Y112.899 E47.9299
G1 X136.796 Y113.997 E47.9698
G1 X137.177 Y115.134 E48.0097
G1 X137.439 Y116.248 E48.0478
G1 X137.620 Y117.545 E48.0913
G1 X137.673 Y118.688 E48.1294
G1 X137.618 Y119.886 E48.1693
G1 X137.452 Y121.073 E48.2092
G1 X137.177 Y122.241 E48.2490
G1 X136.796 Y123.378 E48.2889
G1 X136.312 Y124.475 E48.3288
G1 X135.728 Y125.523 E48.3687
G1 X135.050 Y126.514 E48.4087
G1 X134.283 Y127.437 E48.4486
G1 X133.434 Y128.286 E48.4885
G1 X132.510 Y129.053 E48.5284
G1 X131.520 Y129.732 E48.5684
G1 X130.470 Y130.316 E48.6083
G1 X129.371 Y130.801 E48.6483
G1 X128.232 Y131.183 E48.6882
G1 X127.062 Y131.458 E48.7282
G1 X125.873 Y131.624 E48.7682
G1 X124.672 Y131.680 E48.8081
G1 X123.472 Y131.624 E48.8481
G1 X122.668 Y131.512 E48.8751
G0 X138.434 Y135.682 F5400
G1 X138.151 Y135.293 E48.8911 F3000
G1 X137.939 Y134.758 E48.9102
G1 X137.868 Y134.187 E48.9294
G1 X137.939 Y133.617 E48.9485
G1 X138.151 Y133.082 E48.9676
G1 X138.490 Y132.615 E48.9868
G1 X138.935 Y132.248 E49.0060
G1 X139.458 Y132.001 E49.0252
G1 X140.027 Y131.893 E49.0445
G1 X140.605 Y131.929 E49.0638
G1 X141.155 Y132.108 E49.0830
G1 X141.643 Y132.417 E49.1022
G1 X142.038 Y132.838 E49.1214
G1 X142.316 Y133.343 E49.1406
G1 X142.459 Y133.900 E49.1597
G1 X142.459 Y134.475 E49.1788
G1 X142.316 Y135.032 E49.1980
G1 X142.038 Y135.537 E49.2171
G1 X141.643 Y135.958 E49.2363
G1 X141.155 Y136.267 E49.2555
G1 X140.605 Y136.446 E49.2748
G1 X140.027 Y136.483 E49.2940
G1 X139.458 Y136.374 E49.3133
G1 X138.935 Y136.128 E49.3325
G1 X138.565 Y135.821 E49.3485
;segType:Perimeter
G0 X139.885 Y136.566 F5400
G1 X139.531 Y135.970 E49.3716 F2100
G1 X139.152 Y135.791 E49.3855
G1 X138.785 Y135.487 E49.4014
G1 X138.505 Y135.102 E49.4172
G1 X138.330 Y134.660 E49.4330
G1 X138.271 Y134.187 E49.4489
G1 X138.330 Y133.716 E49.4647
G1 X138.505 Y133.273 E49.4805
G1 X138.785 Y132.888 E49.4964
G1 X139.152 Y132.584 E49.5122
G1 X139.584 Y132.381 E49.5281
G1 X140.052 Y132.292 E49.5439
G1 X140.529 Y132.322 E49.5598
G1 X140.982 Y132.469 E49.5757
G1 X141.385 Y132.724 E49.5915
G1 X141.711 Y133.072 E49.6074
G1 X141.940 Y133.489 E49.6232
G1 X142.059 Y133.950 E49.6390
G1 X142.059 Y134.425 E49.6548
G1 X141.940 Y134.886 E49.6707
G1 X141.711 Y135.303 E49.6865
G1 X141.385 Y135.651 E49.7024
G1 X140.982 Y135.906 E49.7182
G1 X140.529 Y136.054 E49.7341
G1 X140.052 Y136.084 E49.7499
G1 X139.641 Y136.005 E49.7639
G1 X139.000 Y136.278
;segType:Loop
G0 X137.566 Y134.900 F5400
G1 X137.549 Y134.857 E49.7654 F3000
G1 X137.465 Y134.187 E49.7878
G1 X137.549 Y133.519 E49.8103
G1 X137.797 Y132.890 E49.8327
G1 X138.195 Y132.343 E49.8552
G1 X138.718 Y131.911 E49.8778
G1 X139.333 Y131.621 E49.9004
G1 X140.002 Y131.494 E49.9231
G1 X140.681 Y131.537 E49.9457
G1 X141.328 Y131.746 E49.9683
G1 X141.901 Y132.111 E49.9909
G1 X142.365 Y132.605 E50.0135
G1 X142.691 Y133.197 E50.0359
G1 X142.858 Y133.850 E50.0584
G1 X142.858 Y134.525 E50.0808
G1 X142.691 Y135.178 E50.1032
G1 X142.365 Y135.770 E50.1257
G1 X141.901 Y136.265 E50.1483
G1 X141.328 Y136.628 E50.1709
G1 X140.681 Y136.838 E50.1935
G1 X140.002 Y136.881 E50.2161
G1 X139.333 Y136.754 E50.2388
G1 X138.718 Y136.464 E50.2614
G1 X138.195 Y136.032 E50.2839
G1 X137.797 Y135.485 E50.3064
G1 X137.637 Y135.079 E50.3210
G0 X141.065 Y142.645 F5400
G0 X142.101 Y144.726
G1 X141.761 Y144.445 E50.3356 F3000
G1 X141.275 Y143.775 E50.3631
G1 X140.971 Y143.007 E50.3906
G1 X140.868 Y142.187 E50.4181
G1 X140.971 Y141.368 E50.4456
G1 X141.275 Y140.600 E50.4730
G1 X141.761 Y139.931 E50.5006
G1 X142.399 Y139.403 E50.5281
G1 X143.149 Y139.050 E50.5557
G1 X143.964 Y138.895 E50.5833
G1 X144.792 Y138.947 E50.6109
G1 X145.581 Y139.203 E50.6384
G1 X146.280 Y139.647 E50.6660
G1 X146.847 Y140.250 E50.6935
G1 X147.245 Y140.975 E50.7210
G1 X147.425 Y141.673 E50.7450
G1 X147.451 Y141.879 E50.7519
G1 X147.451 Y142.600 E50.7759
G1 X147.245 Y143.400 E50.8034
G1 X146.847 Y144.125 E50.8309
G1 X146.280 Y144.728 E50.8584
G1 X145.581 Y145.172 E50.8859
G1 X144.792 Y145.428 E50.9135
G1 X143.964 Y145.481 E50.9411
G1 X143.149 Y145.325 E50.9687
G1 X142.399 Y144.972 E50.9963
G1 X142.250 Y144.849 E51.0027
;segType:Perimeter
G0 X143.576 Y145.517 F5400
G1 X143.222 Y144.921 E51.0258 F2100
G1 X142.617 Y144.635 E51.0481
G1 X142.056 Y144.172 E51.0722
G1 X141.629 Y143.584 E51.0964
G1 X141.361 Y142.908 E51.1206
G1 X141.271 Y142.187 E51.1448
G1 X141.361 Y141.467 E51.1689
G1 X141.629 Y140.791 E51.1931
G1 X142.056 Y140.203 E51.2173
G1 X142.617 Y139.740 E51.2415
G1 X143.275 Y139.430 E51.2656
G1 X143.990 Y139.293 E51.2898
G1 X144.716 Y139.339 E51.3141
G1 X145.408 Y139.564 E51.3383
G1 X146.022 Y139.954 E51.3624
G1 X146.520 Y140.484 E51.3866
G1 X146.870 Y141.121 E51.4108
G1 X147.031 Y141.747 E51.4323
G1 X147.051 Y141.904 E51.4376
G1 X147.051 Y142.551 E51.4591
G1 X146.870 Y143.254 E51.4833
G1 X146.520 Y143.891 E51.5074
G1 X146.022 Y144.421 E51.5316
G1 X145.408 Y144.811 E51.5558
G1 X144.716 Y145.036 E51.5800
G1 X143.990 Y145.082 E51.6042
G1 X143.332 Y144.956 E51.6265
G1 X142.691 Y145.229
;segType:Loop
G0 X141.072 Y144.175 F5400
G1 X140.921 Y143.966 E51.6350 F3000
G1 X140.580 Y143.105 E51.6658
G1 X140.465 Y142.187 E51.6966
G1 X140.580 Y141.270 E51.7274
G1 X140.921 Y140.409 E51.7582
G1 X141.466 Y139.658 E51.7890
G1 X142.182 Y139.066 E51.8199
G1 X143.024 Y138.670 E51.8509
G1 X143.939 Y138.496 E51.8818
G1 X144.868 Y138.554 E51.9128
G1 X145.754 Y138.842 E51.9438
G1 X146.539 Y139.340 E51.9747
G1 X147.174 Y140.017 E52.0056
G1 X147.620 Y140.829 E52.0364
G1 X147.819 Y141.599 E52.0629
G1 X147.851 Y141.855 E52.0715
G1 X147.851 Y142.650 E52.0979
G1 X147.620 Y143.546 E52.1287
G1 X147.174 Y144.358 E52.1595
G1 X146.539 Y145.035 E52.1904
G1 X145.754 Y145.533 E52.2213
G1 X144.868 Y145.821 E52.2522
G1 X143.939 Y145.880 E52.2832
G1 X143.024 Y145.705 E52.3142
G1 X142.182 Y145.309 E52.3452
G1 X141.466 Y144.717 E52.3760
G1 X141.185 Y144.331 E52.3919
;segType:HShell
G0 X102.641 Y150.998 F5400
G1 X99.669 Y148.052 E52.5311 F3000
G1 X99.256 Y148.186
G1 X102.093 Y150.998 E52.6640
G1 X101.544 Y150.998
G1 X98.843 Y148.321 E52.7905
;segType:Perimeter
G0 X98.728 Y147.846 F5400
G1 X98.127 Y147.495 E52.8136 F2100
G1 X96.833 Y147.577 E52.8568
G1 X95.502 Y147.323 E52.9018
G1 X94.277 Y146.746 E52.9469
G1 X93.234 Y145.884 E52.9919
G1 X92.438 Y144.788 E53.0369
G1 X91.940 Y143.530 E53.0819
G1 X91.771 Y142.187 E53.1269
G1 X91.940 Y140.845 E53.1719
G1 X92.438 Y139.587 E53.2169
G1 X93.234 Y138.492 E53.2620
G1 X94.277 Y137.629 E53.3070
G1 X95.502 Y137.052 E53.3520
G1 X96.833 Y136.798 E53.3971
G1 X98.185 Y136.883 E53.4421
G1 X99.472 Y137.302 E53.4872
G1 X100.616 Y138.027 E53.5322
G1 X101.543 Y139.014 E53.5772
G1 X102.194 Y140.200 E53.6223
G1 X102.531 Y141.511 E53.6673
G1 X102.531 Y142.864 E53.7123
G1 X102.194 Y144.175 E53.7573
G1 X101.543 Y145.361 E53.8023
G1 X100.616 Y146.348 E53.8473
G1 X99.472 Y147.073 E53.8924
G1 X98.240 Y147.474 E53.9355
G1 X97.813 Y148.021
;segType:Loop
G0 X97.146 Y147.954 F5400
G1 X96.807 Y147.976 E53.9467 F3000
G1 X95.377 Y147.703 E53.9952
G1 X94.060 Y147.083 E54.0436
G1 X92.939 Y146.156 E54.0920
G1 X92.084 Y144.980 E54.1403
G1 X91.549 Y143.628 E54.1887
G1 X91.367 Y142.187 E54.2370
G1 X91.549 Y140.747 E54.2853
G1 X92.084 Y139.395 E54.3336
G1 X92.939 Y138.219 E54.3820
G1 X94.060 Y137.292 E54.4303
G1 X95.377 Y136.672 E54.4788
G1 X96.807 Y136.400 E54.5272
G1 X98.261 Y136.491 E54.5756
G1 X99.645 Y136.941 E54.6241
G1 X100.874 Y137.721 E54.6725
G1 X101.870 Y138.781 E54.7208
G1 X102.570 Y140.054 E54.7692
G1 X102.931 Y141.461 E54.8175
G1 X102.931 Y142.914 E54.8658
G1 X102.570 Y144.321 E54.9141
G1 X101.870 Y145.594 E54.9624
G1 X100.874 Y146.655 E55.0108
G1 X99.645 Y147.434 E55.0592
G1 X98.261 Y147.884 E55.1076
G1 X97.339 Y147.942 E55.1383
G0 X96.018 Y148.229 F5400
G1 X95.251 Y148.082 E55.1643 F3000
G1 X93.842 Y147.420 E55.2161
G1 X92.644 Y146.428 E55.2678
G1 X91.730 Y145.171 E55.3195
G1 X91.159 Y143.727 E55.3712
G1 X90.964 Y142.187 E55.4228
G1 X91.159 Y140.648 E55.4744
G1 X91.730 Y139.204 E55.5260
G1 X92.644 Y137.947 E55.5777
G1 X93.842 Y136.955 E55.6294
G1 X95.251 Y136.293 E55.6812
G1 X96.782 Y136.001 E55.7330
G1 X98.337 Y136.099 E55.7849
G1 X99.818 Y136.580 E55.8367
G1 X101.132 Y137.414 E55.8884
G1 X102.197 Y138.547 E55.9402
G1 X102.945 Y139.908 E55.9918
G1 X103.331 Y141.412 E56.0434
G1 X103.331 Y142.964 E56.0951
G1 X102.945 Y144.467 E56.1467
G1 X102.197 Y145.828 E56.1983
G1 X101.132 Y146.962 E56.2501
G1 X99.818 Y147.795 E56.3018
G1 X98.337 Y148.277 E56.3536
G1 X96.782 Y148.375 E56.4054
G1 X96.208 Y148.265 E56.4249
;segType:HShell
G0 X98.430 Y148.455 F5400
G1 X100.996 Y150.998 E56.5450 F3000
G1 X100.448 Y150.998
G1 X97.928 Y148.501 E56.6630
G1 X97.412 Y148.533
G1 X99.899 Y150.998 E56.7795
G1 X99.351 Y150.998
G1 X96.897 Y148.566 E56.8944
G1 X96.258 Y148.477
G1 X98.802 Y150.998 E57.0136
G1 X98.254 Y150.998
G1 X95.579 Y148.347 E57.1388
G1 X94.745 Y148.064
G1 X97.706 Y150.998 E57.2775
G1 X97.157 Y150.998
G1 X93.632 Y147.504 E57.4426
G0 X89.372 Y150.890 F5400
G1 X89.481 Y150.998 E57.4477 F3000
G1 X90.029 Y150.998
G1 X89.372 Y150.347 E57.4785
G1 X89.372 Y149.803
G1 X90.577 Y150.998 E57.5349
G1 X91.126 Y150.998
G1 X89.372 Y149.260 E57.6170
G1 X89.372 Y148.716
G1 X91.674 Y150.998 E57.7248
G1 X92.222 Y150.998
G1 X89.372 Y148.173 E57.8583
G1 X89.372 Y147.629
G1 X92.771 Y150.998 E58.0175
G1 X93.319 Y150.998
G1 X89.372 Y147.086 E58.2023
G1 X89.372 Y146.542
G1 X93.867 Y150.998 E58.4129
G1 X94.416 Y150.998
G1 X89.372 Y145.999 E58.6491
G1 X89.372 Y145.455
G1 X94.964 Y150.998 E58.9110
G1 X95.512 Y150.998
G1 X89.372 Y144.912 E59.1985
G1 X89.372 Y144.368
G1 X96.061 Y150.998 E59.5118
G1 X96.609 Y150.998
G1 X89.372 Y143.825 E59.8507
G1 X89.372 Y143.281
G1 X92.013 Y145.899 E59.9743
G0 X91.314 Y144.663 F5400
G1 X89.372 Y142.738 E60.0653 F3000
G1 X89.372 Y142.194
G1 X90.963 Y143.771 E60.1398
G1 X90.884 Y143.150
G1 X89.372 Y141.651 E60.2106
G1 X89.372 Y141.107
G1 X90.806 Y142.529 E60.2778
G1 X90.790 Y141.970
G1 X89.372 Y140.564 E60.3442
G1 X89.372 Y140.020
G1 X90.851 Y141.487 E60.4135
G1 X90.912 Y141.004
G1 X89.372 Y139.477 E60.4856
G1 X89.372 Y138.933
G1 X90.988 Y140.536 E60.5613
G1 X91.143 Y140.145
G1 X89.372 Y138.390 E60.6443
G1 X89.372 Y137.846
G1 X91.297 Y139.755 E60.7344
G1 X91.452 Y139.365
G1 X89.372 Y137.303 E60.8318
G1 X89.372 Y136.759
G1 X91.632 Y139.000 E60.9377
G1 X91.862 Y138.684
G1 X89.372 Y136.216 E61.0543
G1 X89.372 Y135.672
G1 X92.091 Y138.368 E61.1816
G1 X92.321 Y138.052
G1 X89.372 Y135.129 E61.3197
G1 X89.372 Y134.585
G1 X92.567 Y137.752 E61.4694
G1 X92.866 Y137.505
G1 X89.372 Y134.042 E61.6330
G1 X89.372 Y133.498
G1 X93.165 Y137.258 E61.8106
G1 X93.464 Y137.011
G1 X89.797 Y133.377 E61.9823
G1 X90.346 Y133.377
G1 X93.770 Y136.770 E62.1426
G1 X94.141 Y136.595
G1 X90.894 Y133.377 E62.2947
G1 X91.442 Y133.377
G1 X94.513 Y136.420 E62.4385
G1 X94.885 Y136.246
G1 X91.991 Y133.377 E62.5740
G1 X92.539 Y133.377
G1 X95.273 Y136.087 E62.7020
G1 X95.733 Y135.999
G1 X93.088 Y133.377 E62.8259
G1 X93.636 Y133.377
G1 X96.193 Y135.911 E62.9457
G1 X96.653 Y135.823
G1 X94.184 Y133.377 E63.0612
G1 X94.676 Y133.321
G1 X97.206 Y135.829 E63.1797
G1 X97.792 Y135.866
G1 X95.160 Y133.257 E63.3030
G1 X95.644 Y133.193
G1 X98.378 Y135.903 E63.4310
G1 X99.194 Y136.169
G1 X96.059 Y133.061 E63.5778
G1 X96.445 Y132.901
G1 X100.101 Y136.524 E63.7490
G0 X108.524 Y132.198 F5400
G0 X109.565 Y132.133
G0 X111.697 Y132.799
G1 X130.058 Y150.998 E64.6089 F3000
G1 X130.606 Y150.998
G1 X100.372 Y121.031 E66.0248
G1 X100.372 Y120.487
G1 X131.155 Y150.998 E67.4663
G1 X131.703 Y150.998
G1 X100.372 Y119.944 E68.9336
G1 X100.372 Y119.400
G1 X132.252 Y150.998 E70.4265
G1 X132.800 Y150.998
G1 X100.372 Y118.857 E71.9450
G1 X100.372 Y118.313
G1 X133.348 Y150.998 E73.4893
G1 X133.897 Y150.998
G1 X100.372 Y117.770 E75.0593
G1 X100.372 Y117.226
G1 X134.445 Y150.998 E76.6549
G1 X134.993 Y150.998
G1 X100.372 Y116.683 E78.2762
G1 X100.372 Y116.139
G1 X135.542 Y150.998 E79.9232
G1 X136.090 Y150.998
G1 X100.372 Y115.596 E81.5958
G1 X100.372 Y115.052
G1 X136.638 Y150.998 E83.2942
G1 X137.187 Y150.998
G1 X100.372 Y114.509 E85.0182
G1 X100.378 Y113.972
G1 X137.735 Y150.998 E86.7676
G1 X138.283 Y150.998
G1 X100.393 Y113.443 E88.5419
G1 X100.408 Y112.914
G1 X113.891 Y126.278 E89.1734
G0 X112.538 Y123.850 F5400
G1 X100.460 Y111.879 E89.7389 F3000
G1 X100.423 Y112.385
G1 X113.030 Y124.881 E90.3293
G0 X112.201 Y122.973 F5400
G1 X100.502 Y111.377 E90.8772 F3000
G1 X100.545 Y110.876
G1 X111.946 Y122.176 E91.4111
G1 X111.779 Y121.468
G1 X100.588 Y110.375 E91.9352
G1 X100.656 Y109.899
G1 X111.652 Y120.797 E92.4501
G1 X111.564 Y120.167
G1 X100.723 Y109.422 E92.9578
G1 X100.791 Y108.945
G1 X111.512 Y119.572 E93.4598
G1 X111.485 Y119.002
G1 X100.861 Y108.471 E93.9574
G1 X100.951 Y108.017
G1 X111.481 Y118.455 E94.4505
G1 X111.506 Y117.935
G1 X101.041 Y107.563 E94.9405
G1 X101.132 Y107.109
G1 X111.534 Y117.420 E95.4277
G1 X111.601 Y116.942
G1 X101.222 Y106.656 E95.9137
G1 X101.334 Y106.223
G1 X111.667 Y116.465 E96.3976
G1 X111.756 Y116.009
G1 X101.446 Y105.790 E96.8805
G1 X101.557 Y105.357
G1 X111.859 Y115.568 E97.3629
G1 X111.963 Y115.127
G1 X101.669 Y104.924 E97.8450
G1 X101.796 Y104.507
G1 X112.096 Y114.716 E98.3273
G1 X112.233 Y114.308
G1 X101.928 Y104.094 E98.8099
G1 X102.059 Y103.681
G1 X112.372 Y113.902 E99.2929
G1 X112.538 Y113.524
G1 X102.191 Y103.268 E99.7774
G1 X102.330 Y102.862
G1 X112.705 Y113.146 E100.2633
G1 X112.875 Y112.771
G1 X102.480 Y102.468 E100.7501
G1 X102.631 Y102.073
G1 X113.070 Y112.421 E101.2390
G1 X113.266 Y112.071
G1 X102.781 Y101.679 E101.7300
G1 X102.932 Y101.285
G1 X113.463 Y111.722 E102.2231
G1 X113.684 Y111.399
G1 X108.100 Y105.864 E102.4846
G0 X106.501 Y104.278 F5400
G1 X103.099 Y100.906 E102.6440 F3000
G1 X103.267 Y100.530
G1 X106.308 Y103.544 E102.7864
G1 X106.289 Y102.982
G1 X103.436 Y100.153 E102.9200
G1 X103.604 Y99.777
G1 X106.350 Y102.498 E103.0486
G1 X106.498 Y102.102
G1 X103.778 Y99.405 E103.1760
G1 X103.963 Y99.046
G1 X106.669 Y101.728 E103.3027
G1 X106.899 Y101.412
G1 X104.149 Y98.687 E103.4314
G1 X104.335 Y98.327
G1 X107.153 Y101.120 E103.5634
G1 X107.452 Y100.873
G1 X104.520 Y97.968 E103.7007
G1 X104.716 Y97.618
G1 X107.785 Y100.660 E103.8444
G1 X108.157 Y100.485
G1 X104.919 Y97.275 E103.9960
G1 X105.121 Y96.932
G1 X108.590 Y100.370 E104.1584
G1 X109.066 Y100.299
G1 X105.323 Y96.589 E104.3337
G1 X105.526 Y96.246
G1 X109.652 Y100.336 E104.5269
G0 X111.122 Y102.421 F5400
G0 X111.251 Y103.450
G0 X110.868 Y104.416
G0 X108.839 Y106.052
G1 X113.906 Y111.075 E104.7642 F3000
G1 X114.128 Y110.751
G1 X109.390 Y106.055 E104.9861
G1 X109.869 Y105.986
G1 X114.375 Y110.452 E105.1971
G1 X114.622 Y110.154
G1 X110.282 Y105.852 E105.4004
G1 X110.641 Y105.665
G1 X114.870 Y109.856 E105.5984
G1 X115.139 Y109.579
G1 X110.976 Y105.453 E105.7933
G1 X111.251 Y105.183
G1 X115.412 Y109.306 E105.9881
G1 X115.684 Y109.033
G1 X111.516 Y104.901 E106.1834
G1 X111.713 Y104.553
G1 X115.975 Y108.777 E106.3829
G1 X116.273 Y108.529
G1 X111.894 Y104.189 E106.5880
G1 X112.006 Y103.756
G1 X116.571 Y108.282 E106.8018
G1 X116.883 Y108.047
G1 X112.059 Y103.265 E107.0278
G1 X112.016 Y102.680
G1 X117.208 Y107.825 E107.2709
G1 X117.532 Y107.603
G1 X111.728 Y101.851 E107.5427
G0 X110.463 Y100.597 F5400
G1 X105.742 Y95.917 E107.7638 F3000
G1 X105.960 Y95.590
G1 X117.867 Y107.392 E108.3214
G1 X118.218 Y107.197
G1 X106.179 Y95.263 E108.8852
G1 X106.397 Y94.936
G1 X118.570 Y107.001 E109.4552
G1 X118.932 Y106.817
G1 X106.616 Y94.610 E110.0320
G1 X106.850 Y94.298
G1 X119.311 Y106.649 E110.6155
G1 X119.690 Y106.481
G1 X107.085 Y93.987 E111.2058
G1 X107.319 Y93.676
G1 X120.083 Y106.327 E111.8036
G1 X120.493 Y106.190
G1 X107.553 Y93.365 E112.4095
G1 X107.790 Y93.056
G1 X120.903 Y106.053 E113.0236
G1 X121.334 Y105.936
G1 X108.040 Y92.760 E113.6462
G1 X108.290 Y92.464
G1 X121.777 Y105.832 E114.2778
G1 X122.220 Y105.728
G1 X108.539 Y92.168 E114.9184
G1 X108.789 Y91.872
G1 X122.698 Y105.659 E115.5698
G1 X123.179 Y105.591
G1 X109.043 Y91.580 E116.2317
G1 X109.308 Y91.300
G1 X123.678 Y105.543 E116.9047
G1 X124.202 Y105.518
G1 X109.574 Y91.019 E117.5897
G1 X109.839 Y90.739
G1 X124.731 Y105.500 E118.2871
G1 X125.306 Y105.526
G1 X110.104 Y90.458 E118.9990
G1 X110.375 Y90.183
G1 X125.882 Y105.553 E119.7252
G1 X126.519 Y105.641
G1 X110.655 Y89.917 E120.4681
G1 X110.936 Y89.652
G1 X127.165 Y105.737 E121.2281
G1 X127.884 Y105.906
G1 X111.217 Y89.387 E122.0086
G1 X111.497 Y89.121
G1 X128.650 Y106.123 E122.8119
G1 X129.485 Y106.407
G1 X111.785 Y88.863 E123.6408
G1 X112.081 Y88.613
G1 X130.474 Y106.844 E124.5021
G0 X131.736 Y107.550 F5400
G1 X112.377 Y88.363 E125.4087 F3000
G1 X112.673 Y88.113
G1 X147.972 Y123.100 E127.0617
G1 X147.972 Y122.557
G1 X112.969 Y87.863 E128.7009
G1 X113.274 Y87.621
G1 X147.972 Y122.013 E130.3258
G1 X147.972 Y121.470
G1 X113.586 Y87.387 E131.9361
G1 X113.897 Y87.152
G1 X147.972 Y120.926 E133.5319
G1 X147.972 Y120.383
G1 X114.209 Y86.918 E135.1130
G1 X114.521 Y86.683
G1 X147.972 Y119.839 E136.6795
G1 X147.972 Y119.296
G1 X114.843 Y86.459 E138.2309
G1 X115.171 Y86.240
G1 X147.972 Y118.752 E139.7670
G1 X147.972 Y118.209
G1 X115.498 Y86.022 E141.2877
G1 X115.826 Y85.803
G1 X147.972 Y117.665 E142.7931
G1 X147.972 Y117.122
G1 X116.153 Y85.584 E144.2832
G1 X116.495 Y85.379
G1 X147.972 Y116.578 E145.7573
G1 X147.972 Y116.035
G1 X116.839 Y85.176 E147.2152
G1 X117.183 Y84.974
G1 X147.972 Y115.491 E148.6571
G1 X147.972 Y114.948
G1 X138.399 Y105.459 E149.1054
G1 X137.897 Y104.962
G1 X117.527 Y84.771 E150.0593
G1 X117.872 Y84.570
G1 X137.350 Y103.875 E150.9714
G1 X137.272 Y103.254
G1 X118.233 Y84.384 E151.8630
G1 X118.593 Y84.198
G1 X137.317 Y102.756 E152.7398
G1 X137.416 Y102.311
G1 X118.954 Y84.011 E153.6044
G1 X119.314 Y83.825
G1 X137.571 Y101.920 E154.4594
G1 X137.776 Y101.580
G1 X119.683 Y83.647 E155.3067
G1 X120.060 Y83.478
G1 X138.006 Y101.264 E156.1470
G1 X138.292 Y101.005
G1 X120.438 Y83.309 E156.9831
G1 X120.816 Y83.140
G1 X138.591 Y100.758 E157.8155
G1 X138.958 Y100.578
G1 X121.194 Y82.971 E158.6474
G1 X121.587 Y82.817
G1 X139.344 Y100.417 E159.4790
G1 X139.804 Y100.329
G1 X121.983 Y82.666 E160.3135
G1 X122.379 Y82.515
G1 X140.339 Y100.316 E161.1546
G1 X141.006 Y100.433
G1 X122.775 Y82.364 E162.0083
G1 X123.178 Y82.220
G1 X150.195 Y108.998 E163.2735
G1 X150.744 Y108.998
G1 X123.593 Y82.088 E164.5449
G1 X124.008 Y81.956
G1 X151.292 Y108.998 E165.8226
G1 X151.840 Y108.998
G1 X124.423 Y81.824 E167.1065
G1 X124.839 Y81.693
G1 X152.389 Y108.998 E168.3966
G1 X152.937 Y108.998
G1 X125.274 Y81.580 E169.6920
G1 X125.709 Y81.468
G1 X153.485 Y108.998 E170.9928
G1 X154.034 Y108.998
G1 X126.144 Y81.356 E172.2988
G1 X126.579 Y81.243
G1 X154.582 Y108.998 E173.6101
G1 X155.130 Y108.998
G1 X127.033 Y81.149 E174.9260
G1 X127.489 Y81.058
G1 X155.679 Y108.998 E176.2461
G1 X156.227 Y108.998
G1 X127.946 Y80.967 E177.5704
G1 X128.403 Y80.877
G1 X156.775 Y108.998 E178.8991
G1 X157.324 Y108.998
G1 X128.877 Y80.803 E180.2313
G1 X129.357 Y80.736
G1 X157.872 Y108.998 E181.5666
G1 X158.420 Y108.998
G1 X129.837 Y80.668 E182.9051
G1 X130.317 Y80.600
G1 X158.969 Y108.998 E184.2468
G1 X159.517 Y108.998
G1 X130.819 Y80.554 E185.5908
G1 X131.324 Y80.511
G1 X160.065 Y108.998 E186.9367
G1 X160.614 Y108.998
G1 X131.829 Y80.468 E188.2847
G1 X132.338 Y80.429
G1 X161.162 Y108.998 E189.6345
G1 X161.710 Y108.998
G1 X132.871 Y80.414 E190.9851
G1 X133.404 Y80.399
G1 X162.259 Y108.998 E192.3363
G1 X162.807 Y108.998
G1 X133.937 Y80.384 E193.6883
G1 X134.479 Y80.377
G1 X163.355 Y108.998 E195.0405
G1 X163.904 Y108.998
G1 X135.027 Y80.377 E196.3928
G1 X135.575 Y80.377
G1 X153.532 Y98.175 E197.2338
G0 X153.577 Y95.187 F5400
G0 X153.767 Y93.741
G0 X154.325 Y92.393
G0 X156.689 Y89.347
G1 X147.639 Y80.377 E197.6576 F3000
G1 X147.091 Y80.377
G1 X156.302 Y89.507 E198.0889
G1 X155.925 Y89.677
G1 X146.542 Y80.377 E198.5283
G1 X145.994 Y80.377
G1 X155.616 Y89.914 E198.9789
G1 X155.307 Y90.151
G1 X145.446 Y80.377 E199.4407
G1 X144.897 Y80.377
G1 X154.998 Y90.388 E199.9137
G1 X154.689 Y90.625
G1 X144.349 Y80.377 E200.3980
G1 X143.801 Y80.377
G1 X154.440 Y90.922 E200.8962
G1 X154.203 Y91.230
G1 X143.252 Y80.377 E201.4090
G1 X142.704 Y80.377
G1 X153.966 Y91.539 E201.9364
G1 X153.729 Y91.848
G1 X142.155 Y80.377 E202.4784
G1 X141.607 Y80.377
G1 X153.533 Y92.197 E203.0369
G1 X153.374 Y92.583
G1 X141.059 Y80.377 E203.6136
G1 X140.510 Y80.377
G1 X153.214 Y92.968 E204.2085
G1 X153.054 Y93.353
G1 X139.962 Y80.377 E204.8216
G1 X139.414 Y80.377
G1 X152.946 Y93.789 E205.4553
G1 X152.883 Y94.270
G1 X138.865 Y80.377 E206.1117
G1 X138.317 Y80.377
G1 X152.819 Y94.751 E206.7908
G1 X152.769 Y95.245
G1 X137.769 Y80.377 E207.4933
G1 X137.220 Y80.377
G1 X152.852 Y95.870 E208.2253
G1 X152.934 Y96.495
G1 X136.672 Y80.377 E208.9868
G1 X136.124 Y80.377
G1 X153.150 Y97.253 E209.7841
G0 X156.211 Y100.831 F5400
G1 X164.452 Y108.998 E210.1700 F3000
G1 X165.000 Y108.998
G1 X157.153 Y101.221 E210.5375
G1 X157.903 Y101.420
G1 X165.549 Y108.998 E210.8956
G1 X166.097 Y108.998
G1 X158.535 Y101.503 E211.2497
G1 X159.158 Y101.577
G1 X166.646 Y108.998 E211.6003
G1 X167.194 Y108.998
G1 X159.706 Y101.577 E211.9510
G1 X160.254 Y101.577
G1 X167.742 Y108.998 E212.3016
G1 X168.291 Y108.998
G1 X160.803 Y101.577 E212.6523
G1 X161.351 Y101.577
G1 X168.839 Y108.998 E213.0029
G1 X169.387 Y108.998
G1 X161.899 Y101.577 E213.3536
G1 X162.448 Y101.577
G1 X169.936 Y108.998 E213.7042
G1 X170.484 Y108.998
G1 X162.996 Y101.577 E214.0549
G1 X163.545 Y101.577
G1 X170.972 Y108.939 E214.4027
G1 X170.972 Y108.395
G1 X164.093 Y101.577 E214.7249
G1 X164.595 Y101.531
G1 X170.972 Y107.852 E215.0235
G1 X170.972 Y107.308
G1 X165.080 Y101.468 E215.2994
G1 X165.564 Y101.404
G1 X170.972 Y106.765 E215.5527
G1 X170.972 Y106.221
G1 X166.005 Y101.298 E215.7853
G1 X166.391 Y101.138
G1 X170.972 Y105.678 E215.9998
G1 X170.972 Y105.134
G1 X166.778 Y100.977 E216.1962
G1 X167.165 Y100.817
G1 X170.972 Y104.591 E216.3745
G1 X170.972 Y104.047
G1 X167.517 Y100.623 E216.5363
G1 X167.826 Y100.386
G1 X170.972 Y103.504 E216.6836
G1 X170.972 Y102.960
G1 X168.135 Y100.149 E216.8164
G1 X168.444 Y99.911
G1 X170.972 Y102.417 E216.9348
G1 X170.972 Y101.873
G1 X168.743 Y99.664 E217.0392
G1 X168.980 Y99.355
G1 X170.972 Y101.330 E217.1325
G1 X170.972 Y100.786
G1 X169.217 Y99.046 E217.2147
G1 X169.454 Y98.738
G1 X170.972 Y100.243 E217.2859
G1 X170.972 Y99.699
G1 X169.690 Y98.429 E217.3459
G1 X169.861 Y98.055
G1 X170.972 Y99.156 E217.3979
G1 X170.972 Y98.612
G1 X170.021 Y97.670 E217.4425
G1 X170.181 Y97.284
G1 X170.972 Y98.069 E217.4795
G1 X170.972 Y97.525
G1 X170.340 Y96.899 E217.5091
G1 X170.418 Y96.433
G1 X170.972 Y96.982 E217.5350
G1 X170.972 Y96.438
G1 X170.482 Y95.952 E217.5580
G1 X170.545 Y95.471
G1 X170.972 Y95.895 E217.5780
G1 X170.972 Y95.351
G1 X170.549 Y94.932 E217.5978
G1 X170.466 Y94.306
G1 X170.972 Y94.808 E217.6215
G1 X170.972 Y94.264
G1 X170.372 Y93.669 E217.6497
G0 X170.972 Y80.677 F5400
G1 X170.669 Y80.377 E217.6638 F3000
G1 X170.121 Y80.377
G1 X170.972 Y81.220 E217.7037
G1 X170.972 Y81.764
G1 X169.573 Y80.377 E217.7692
G1 X169.024 Y80.377
G1 X170.972 Y82.307 E217.8604
G1 X170.972 Y82.851
G1 X168.476 Y80.377 E217.9773
G1 X167.928 Y80.377
G1 X170.972 Y83.394 E218.1199
G1 X170.972 Y83.938
G1 X167.379 Y80.377 E218.2882
G1 X166.831 Y80.377
G1 X170.972 Y84.481 E218.4821
G1 X170.972 Y85.025
G1 X166.283 Y80.377 E218.7017
G1 X165.734 Y80.377
G1 X170.972 Y85.568 E218.9470
G1 X170.972 Y86.112
G1 X165.186 Y80.377 E219.2180
G1 X164.638 Y80.377
G1 X170.972 Y86.655 E219.5146
G1 X170.972 Y87.199
G1 X164.089 Y80.377 E219.8369
G1 X163.541 Y80.377
G1 X170.972 Y87.742 E220.1849
G1 X170.972 Y88.286
G1 X162.993 Y80.377 E220.5586
G1 X162.444 Y80.377
G1 X170.972 Y88.829 E220.9580
G1 X170.972 Y89.373
G1 X161.896 Y80.377 E221.3830
G1 X161.348 Y80.377
G1 X170.972 Y89.916 E221.8337
G1 X170.972 Y90.460
G1 X160.799 Y80.377 E222.3101
G1 X160.251 Y80.377
G1 X170.972 Y91.003 E222.8122
G1 X170.972 Y91.547
G1 X159.703 Y80.377 E223.3399
G1 X159.154 Y80.377
G1 X170.972 Y92.090 E223.8934
G1 X170.972 Y92.634
G1 X158.606 Y80.377 E224.4725
G1 X158.057 Y80.377
G1 X167.512 Y89.748 E224.9153
G0 X170.072 Y92.829 F5400
G1 X170.972 Y93.721 E224.9574 F3000
G1 X170.972 Y93.177
G1 X169.565 Y91.783 E225.0233
G0 X166.490 Y89.278 F5400
G1 X157.509 Y80.377 E225.4439 F3000
G1 X156.961 Y80.377
G1 X165.642 Y88.981 E225.8504
G1 X165.010 Y88.898
G1 X156.412 Y80.377 E226.2530
G1 X155.864 Y80.377
G1 X164.378 Y88.815 E226.6517
G1 X163.813 Y88.798
G1 X155.316 Y80.377 E227.0496
G1 X154.767 Y80.377
G1 X163.264 Y88.798 E227.4475
G1 X162.716 Y88.798
G1 X154.219 Y80.377 E227.8454
G1 X153.671 Y80.377
G1 X162.167 Y88.798 E228.2433
G1 X161.619 Y88.798
G1 X153.122 Y80.377 E228.6412
G1 X152.574 Y80.377
G1 X161.071 Y88.798 E229.0391
G1 X160.522 Y88.798
G1 X152.026 Y80.377 E229.4370
G1 X151.477 Y80.377
G1 X159.974 Y88.798 E229.8349
G1 X159.426 Y88.798
G1 X150.929 Y80.377 E230.2328
G1 X150.381 Y80.377
G1 X158.903 Y88.823 E230.6319
G1 X158.418 Y88.887
G1 X149.832 Y80.377 E231.0340
G1 X149.284 Y80.377
G1 X157.934 Y88.951 E231.4391
G1 X157.462 Y89.026
G1 X148.736 Y80.377 E231.8477
G0 X142.936 Y102.346 F5400
G1 X149.647 Y108.998 E232.1620 F3000
G0 X148.002 Y108.998 F5400
G1 X142.946 Y103.987 E232.3988 F3000
G1 X142.803 Y104.389
G1 X147.972 Y109.513 E232.6409
G1 X147.972 Y110.056
G1 X142.609 Y104.741 E232.8920
G1 X142.375 Y105.051
G1 X147.972 Y110.600 E233.1541
G1 X147.972 Y111.143
G1 X142.110 Y105.333 E233.4286
G1 X141.797 Y105.566
G1 X147.972 Y111.687 E233.7178
G1 X147.972 Y112.230
G1 X141.463 Y105.778 E234.0227
G1 X141.061 Y105.924
G1 X147.972 Y112.774 E234.3463
G1 X147.972 Y113.317
G1 X140.631 Y106.040 E234.6901
G1 X140.115 Y106.073
G1 X147.972 Y113.861 E235.0581
G1 X147.972 Y114.404
G1 X139.476 Y105.983 E235.4559
G0 X136.487 Y112.803 F5400
G1 X147.972 Y124.187 E235.9938 F3000
G1 X147.972 Y123.644
G1 X135.748 Y111.527 E236.5663
G0 X136.914 Y113.770 F5400
G1 X147.972 Y124.731 E237.0841 F3000
G1 X147.972 Y125.274
G1 X137.212 Y114.609 E237.5880
G0 X142.928 Y133.319 F5400
G1 X147.972 Y138.318 E237.8242 F3000
G1 X147.972 Y137.775
G1 X135.825 Y125.735 E238.3931
G1 X136.029 Y125.393
G1 X147.972 Y137.231 E238.9524
G1 X147.972 Y136.688
G1 X136.224 Y125.043 E239.5025
G1 X136.419 Y124.693
G1 X147.972 Y136.144 E240.0436
G1 X147.972 Y135.601
G1 X136.596 Y124.325 E240.5763
G1 X136.763 Y123.947
G1 X147.972 Y135.057 E241.1012
G1 X147.972 Y134.514
G1 X136.930 Y123.569 E241.6183
G1 X137.076 Y123.171
G1 X147.972 Y133.970 E242.1286
G1 X147.972 Y133.427
G1 X137.213 Y122.763 E242.6324
G1 X137.350 Y122.355
G1 X147.972 Y132.883 E243.1298
G1 X147.972 Y132.340
G1 X137.458 Y121.919 E243.6222
G1 X137.562 Y121.478
G1 X147.972 Y131.796 E244.1097
G1 X147.972 Y131.253
G1 X137.660 Y121.031 E244.5926
G1 X137.726 Y120.554
G1 X147.972 Y130.709 E245.0724
G1 X147.972 Y130.166
G1 X137.793 Y120.076 E245.5491
G1 X137.832 Y119.572
G1 X147.972 Y129.622 E246.0240
G1 X147.972 Y129.079
G1 X137.856 Y119.052 E246.4977
G1 X137.866 Y118.518
G1 X147.972 Y128.535 E246.9710
G1 X147.972 Y127.992
G1 X137.839 Y117.948 E247.4455
G1 X137.797 Y117.363
G1 X147.972 Y127.448 E247.9220
G1 X147.972 Y126.905
G1 X137.709 Y116.732 E248.4027
G1 X137.607 Y116.088
G1 X147.972 Y126.361 E248.8881
G1 X147.972 Y125.818
G1 X137.440 Y115.379 E249.3813
G0 X141.036 Y131.443 F5400
G1 X135.603 Y126.058 E249.6357 F3000
G1 X135.382 Y126.382
G1 X140.361 Y131.318 E249.8689
G1 X139.821 Y131.326
G1 X135.154 Y126.700 E250.0874
G1 X134.906 Y126.998
G1 X139.362 Y131.414 E250.2961
G1 X138.972 Y131.572
G1 X134.659 Y127.296 E250.4981
G1 X134.409 Y127.592
G1 X138.602 Y131.748 E250.6944
G1 X138.303 Y131.995
G1 X134.136 Y127.865 E250.8896
G1 X133.863 Y128.138
G1 X138.014 Y132.253 E251.0840
G1 X137.785 Y132.569
G1 X133.590 Y128.411 E251.2804
G1 X133.294 Y128.661
G1 X137.576 Y132.906 E251.4809
G1 X137.422 Y133.296
G1 X132.995 Y128.909 E251.6882
G1 X132.697 Y129.156
G1 X137.320 Y133.738 E251.9047
G1 X137.269 Y134.231
G1 X132.378 Y129.384 E252.1337
G1 X132.054 Y129.606
G1 X137.347 Y134.852 E252.3815
G0 X137.844 Y135.889 F5400
G1 X131.730 Y129.828 E252.6678 F3000
G1 X131.388 Y130.033
G1 X141.169 Y139.728 E253.1259
G1 X140.939 Y140.043
G1 X131.037 Y130.228 E253.5897
G1 X130.685 Y130.424
G1 X140.721 Y140.370 E254.0596
G1 X140.566 Y140.761
G1 X130.316 Y130.601 E254.5396
G1 X129.937 Y130.769
G1 X140.412 Y141.151 E255.0302
G1 X140.335 Y141.618
G1 X129.558 Y130.936 E255.5348
G1 X129.157 Y131.082
G1 X140.274 Y142.101 E256.0555
G1 X140.327 Y142.698
G1 X128.747 Y131.220 E256.5978
G1 X128.337 Y131.357
G1 X140.478 Y143.391 E257.1663
G0 X141.841 Y145.285 F5400
G1 X147.605 Y150.998 E257.4362 F3000
G1 X147.972 Y150.819
G1 X143.015 Y145.905 E257.6684
G1 X143.694 Y146.035
G1 X147.972 Y150.275 E257.8687
G1 X147.972 Y149.732
G1 X144.265 Y146.058 E258.0423
G1 X144.781 Y146.025
G1 X147.972 Y149.188 E258.1918
G1 X147.972 Y148.645
G1 X145.219 Y145.915 E258.3207
G1 X145.632 Y145.781
G1 X147.972 Y148.101 E258.4303
G1 X147.972 Y147.558
G1 X146.006 Y145.608 E258.5224
G1 X146.340 Y145.396
G1 X147.972 Y147.014 E258.5988
G1 X147.972 Y146.471
G1 X146.673 Y145.183 E258.6597
G1 X146.937 Y144.901
G1 X147.972 Y145.927 E258.7081
G1 X147.972 Y145.384
G1 X147.202 Y144.620 E258.7442
G1 X147.432 Y144.304
G1 X147.972 Y144.840 E258.7695
G1 X147.972 Y144.297
G1 X147.625 Y143.953 E258.7858
G1 X147.814 Y143.596
G1 X147.972 Y143.753 E258.7932
G0 X147.972 Y141.036 F5400
G1 X147.849 Y140.913 E258.7990 F3000
G0 X145.491 Y139.390 F5400
G0 X138.523 Y136.562
G1 X141.423 Y139.436 E258.9348 F3000
G1 X141.722 Y139.189
G1 X139.502 Y136.988 E259.0387
G1 X140.135 Y137.072
G1 X142.021 Y138.941 E259.1271
G1 X142.380 Y138.754
G1 X140.650 Y137.039 E259.2081
G1 X141.077 Y136.919
G1 X142.752 Y138.579 E259.2865
G1 X143.162 Y138.442
G1 X141.475 Y136.770 E259.3655
G1 X141.810 Y136.558
G1 X143.622 Y138.354 E259.4504
G1 X144.124 Y138.309
G1 X142.120 Y136.322 E259.5442
G1 X142.385 Y136.041
G1 X144.710 Y138.346 E259.6531
G1 X145.448 Y138.534
G1 X142.617 Y135.727 E259.7857
G1 X142.810 Y135.376
G1 X146.632 Y139.163 E259.9647
G1 X146.842 Y139.371
G1 X147.972 Y140.492 E260.0176
G1 X147.972 Y139.949
G1 X142.950 Y134.971 E260.2528
G1 X143.058 Y134.535
G1 X147.972 Y139.405 E260.4829
G1 X147.972 Y138.862
G1 X143.058 Y133.991 E260.7130
G0 X141.077 Y142.187 F5400
G0 X141.095 Y144.546
G1 X127.898 Y131.465 E261.3310 F3000
G1 X127.455 Y131.569
G1 X147.057 Y150.998 E262.2490
G1 X146.508 Y150.998
G1 X127.004 Y131.666 E263.1624
G1 X126.523 Y131.733
G1 X145.960 Y150.998 E264.0726
G1 X145.412 Y150.998
G1 X126.043 Y131.800 E264.9797
G1 X125.533 Y131.838
G1 X144.863 Y150.998 E265.8849
G1 X144.315 Y150.998
G1 X125.009 Y131.863 E266.7890
G1 X124.467 Y131.869
G1 X143.767 Y150.998 E267.6928
G1 X143.218 Y150.998
G1 X123.891 Y131.842 E268.5979
G1 X123.301 Y131.800
G1 X142.670 Y150.998 E269.5050
G1 X142.122 Y150.998
G1 X122.663 Y131.711 E270.4162
G1 X121.997 Y131.595
G1 X141.573 Y150.998 E271.3330
G1 X141.025 Y150.998
G1 X121.278 Y131.426 E272.2577
G1 X120.483 Y131.182
G1 X140.477 Y150.998 E273.1940
G1 X139.928 Y150.998
G1 X119.608 Y130.857 E274.1456
G0 X118.575 Y130.377 F5400
G1 X139.380 Y150.998 E275.1199 F3000
G1 X138.832 Y150.998
G1 X117.157 Y129.515 E276.1349
G0 X112.012 Y133.655 F5400
G1 X129.510 Y150.998 E276.9543 F3000
G1 X128.961 Y150.998
G1 X112.059 Y134.245 E277.7459
G1 X112.010 Y134.740
G1 X128.413 Y150.998 E278.5140
G1 X127.865 Y150.998
G1 X111.898 Y135.173 E279.2617
G1 X111.720 Y135.539
G1 X127.316 Y150.998 E279.9921
G1 X126.768 Y150.998
G1 X111.526 Y135.890 E280.7059
G1 X111.261 Y136.172
G1 X126.220 Y150.998 E281.4064
G1 X125.671 Y150.998
G1 X110.988 Y136.445 E282.0940
G1 X110.654 Y136.657
G1 X125.123 Y150.998 E282.7716
G1 X124.575 Y150.998
G1 X110.297 Y136.847 E283.4402
G1 X109.884 Y136.981
G1 X124.026 Y150.998 E284.1025
G1 X123.478 Y150.998
G1 X109.410 Y137.054 E284.7613
G1 X108.864 Y137.057
G1 X122.930 Y150.998 E285.4200
G1 X122.381 Y150.998
G1 X108.139 Y136.882 E286.0869
G0 X110.509 Y135.798 F5400
G0 X111.121 Y134.957
G0 X111.251 Y133.938
G0 X110.521 Y131.633
G1 X100.372 Y121.574 E286.5622 F3000
G1 X100.372 Y122.118
G1 X109.674 Y131.338 E286.9978
G1 X109.088 Y131.301
G1 X100.372 Y122.661 E287.4060
G1 X100.372 Y123.205
G1 X108.607 Y131.367 E287.7916
G1 X108.171 Y131.478
G1 X100.372 Y123.748 E288.1568
G1 X100.372 Y124.292
G1 X107.799 Y131.653 E288.5046
G1 X107.463 Y131.864
G1 X100.372 Y124.835 E288.8367
G1 X100.372 Y125.379
G1 X107.164 Y132.111 E289.1547
G1 X106.907 Y132.400
G1 X100.372 Y125.922 E289.4608
G1 X100.372 Y126.466
G1 X106.677 Y132.716 E289.7561
G1 X106.504 Y133.087
G1 X100.372 Y127.009 E290.0432
G1 X100.338 Y127.520
G1 X106.352 Y133.480 E290.3248
G1 X106.291 Y133.963
G1 X100.275 Y128.000 E290.6066
G1 X100.212 Y128.481
G1 X106.305 Y134.520 E290.8919
G1 X106.487 Y135.245
G1 X100.114 Y128.928 E291.1904
G1 X99.954 Y129.313
G1 X121.833 Y150.998 E292.2149
G1 X121.285 Y150.998
G1 X99.795 Y129.698 E293.2213
G1 X99.635 Y130.083
G1 X120.736 Y150.998 E294.2095
G1 X120.188 Y150.998
G1 X99.438 Y130.432 E295.1812
G1 X99.201 Y130.741
G1 X119.640 Y150.998 E296.1383
G1 X119.091 Y150.998
G1 X98.965 Y131.049 E297.0809
G1 X98.728 Y131.358
G1 X118.543 Y150.998 E298.0088
G1 X117.995 Y150.998
G1 X98.468 Y131.644 E298.9232
G1 X98.159 Y131.881
G1 X117.446 Y150.998 E299.8265
G1 X116.898 Y150.998
G1 X97.850 Y132.118 E300.7185
G1 X97.541 Y132.355
G1 X116.350 Y150.998 E301.5993
G1 X115.801 Y150.998
G1 X97.219 Y132.580 E302.4695
G1 X96.832 Y132.740
G1 X115.253 Y150.998 E303.3322
G1 X114.704 Y150.998
G1 X102.762 Y139.162 E303.8914
G0 X103.214 Y140.153 F5400
G1 X114.156 Y150.998 E304.4039 F3000
G1 X113.608 Y150.998
G1 X103.401 Y140.882 E304.8818
G0 X103.189 Y150.998 F5400
G1 X100.048 Y147.885 E305.0289 F3000
G1 X100.382 Y147.673
G1 X103.738 Y150.998 E305.1860
G1 X104.286 Y150.998
G1 X100.717 Y147.461 E305.3532
G1 X101.051 Y147.248
G1 X104.834 Y150.998 E305.5303
G1 X105.383 Y150.998
G1 X101.359 Y147.011 E305.7188
G1 X101.624 Y146.729
G1 X105.931 Y150.998 E305.9205
G1 X106.479 Y150.998
G1 X101.888 Y146.448 E306.1354
G1 X102.152 Y146.166
G1 X107.028 Y150.998 E306.3638
G1 X107.576 Y150.998
G1 X102.402 Y145.870 E306.6061
G1 X102.595 Y145.518
G1 X108.124 Y150.998 E306.8650
G1 X108.673 Y150.998
G1 X102.788 Y145.166 E307.1406
G1 X102.982 Y144.814
G1 X109.221 Y150.998 E307.4328
G1 X109.769 Y150.998
G1 X103.157 Y144.444 E307.7424
G1 X103.268 Y144.011
G1 X110.318 Y150.998 E308.0725
G1 X110.866 Y150.998
G1 X103.379 Y143.578 E308.4231
G1 X103.491 Y143.145
G1 X111.414 Y150.998 E308.7942
G1 X111.963 Y150.998
G1 X103.531 Y142.641 E309.1890
G1 X103.531 Y142.097
G1 X112.511 Y150.998 E309.6096
G1 X113.059 Y150.998
G1 X103.531 Y141.554 E310.0558
; ------------------------------------
; Layer #2
; ------------------------------------
G21 ; mm
G90 ; abs
G92 E0 ; reset extr
M106 S0
;segType:Support
G0 F1200 E-1.0000
G0 F300 Z0.600
G0 X92.600 Y142.000 F5400
G0 F1200 E0.0000
G1 X95.000 Y142.000 E0.0678 F4500
G0 F1200 E-0.9322
G0 X92.679 Y143.000 F5400
G0 F1200 E0.0678
G1 X95.000 Y143.000 E0.1334 F4500
G0 F1200 E-0.8666
G0 X92.738 Y141.000 F5400
G0 F1200 E0.1334
G1 X95.000 Y141.000 E0.1974 F4500
G0 F1200 E-0.8026
G0 X92.986 Y144.000 F5400
G0 F1200 E0.1974
G1 X95.000 Y144.000 E0.2543 F4500
G0 F1200 E-0.7457
G0 X94.000 Y139.000 F5400
G0 F1200 E0.2543
G1 X100.436 Y139.000 E0.4363 F4500
G0 F1200 E-0.5637
G0 X94.000 Y145.000 F5400
G0 F1200 E0.4363
G1 X100.788 Y145.000 E0.6282 F4500
G0 F1200 E-0.3718
G0 X94.000 Y140.000 F5400
G0 F1200 E0.6282
G1 X101.000 Y140.000 E0.8261 F4500
G0 F1200 E-0.1739
G0 X94.623 Y146.000 F5400
G0 F1200 E0.8261
G1 X99.680 Y146.000 E0.9691 F4500
G0 F1200 E-0.0309
G0 X96.000 Y138.000 F5400
G0 F1200 E0.9691
G1 X99.000 Y138.000 E1.0539 F4500
G0 F1200 E0.0539
G0 X100.000 Y142.000 F5400
G0 F1200 E1.0539
G1 X101.000 Y142.000 E1.0821 F4500
G1 X100.000 Y141.000 E1.1221
G1 X101.000 Y141.000 E1.1504
G0 F1200 E0.1504
G0 X100.000 Y144.000 F5400
G0 F1200 E1.1504
G1 X101.000 Y144.000 E1.1787 F4500
G1 X100.000 Y143.000 E1.2186
G1 X101.000 Y143.000 E1.2469
G0 F1200 E0.2469
G0 X142.100 Y142.000 F5400
G0 F1200 E1.2469
G1 X143.000 Y142.000 E1.2724 F4500
G1 X142.257 Y143.000 E1.3076
G1 X146.099 Y143.000 E1.4162
G0 F1200 E0.4162
G0 X142.463 Y141.000 F5400
G0 F1200 E1.4162
G1 X143.000 Y141.000 E1.4314 F4500
G0 F1200 E0.4314
G0 X143.131 Y144.000 F5400
G0 F1200 E1.4314
G1 X145.202 Y144.000 E1.4899 F4500
G0 F1200 E0.4899
G0 X146.000 Y142.000 F5400
G0 F1200 E1.4899
G1 X146.239 Y142.000 E1.4967 F4500
G0 F1200 E0.4967
G0 X148.678 Y129.199 F5400
G0 X149.166 Y126.638
G0 X151.935 Y110.182
G0 X152.379 Y107.651
G0 X154.602 Y95.000
G0 F1200 E1.4967
G1 X157.000 Y95.000 E1.5645 F4500
G0 F1200 E0.5645
G0 X154.684 Y96.000 F5400
G0 F1200 E1.5645
G1 X157.000 Y96.000 E1.6299 F4500
G0 F1200 E0.6299
G0 X154.733 Y94.000 F5400
G0 F1200 E1.6299
G1 X157.000 Y94.000 E1.6940 F4500
G0 F1200 E0.6940
G0 X155.146 Y93.000 F5400
G0 F1200 E1.6940
G1 X157.000 Y93.000 E1.7464 F4500
G1 X156.000 Y92.000 E1.7864
G1 X167.000 Y92.000 E2.0974
G0 F1200 E1.0974
G0 X156.000 Y97.000 F5400
G0 F1200 E2.0974
G1 X168.353 Y97.000 E2.4466 F4500
G0 F1200 E1.4466
G0 X156.000 Y98.000 F5400
G0 F1200 E2.4466
G1 X167.758 Y98.000 E2.7790 F4500
G0 F1200 E1.7790
G0 X156.652 Y99.000 F5400
G0 F1200 E2.7790
G1 X166.692 Y99.000 E3.0629 F4500
G0 F1200 E2.0629
G0 X157.366 Y91.000 F5400
G0 F1200 E3.0629
G1 X165.978 Y91.000 E3.3064 F4500
G0 F1200 E2.3064
G0 X166.000 Y95.000 F5400
G0 F1200 E3.3064
G1 X168.742 Y95.000 E3.3839 F4500
G0 F1200 E2.3839
G0 X166.000 Y93.000 F5400
G0 F1200 E3.3839
G1 X168.198 Y93.000 E3.4460 F4500
G0 F1200 E2.4460
G0 X166.000 Y96.000 F5400
G0 F1200 E3.4460
G1 X168.660 Y96.000 E3.5212 F4500
G0 F1200 E2.5212
G0 X166.000 Y94.000 F5400
G0 F1200 E3.5212
G1 X168.611 Y94.000 E3.5950 F4500
G0 F1200 E2.5950
G0 X159.339 Y99.733 F5400
G0 X157.022 Y101.166
G0 F1200 E3.5950
;segType:HShell
G1 X149.119 Y108.998 E3.9651 F3000
;segType:Perimeter
G0 X149.239 Y109.408 F5400
G1 X148.972 Y110.047 E3.9881 F2100
G1 X148.972 Y151.989 E5.3831
G1 X88.372 Y151.989 E7.3987
G1 X88.372 Y132.386 E8.0507
G1 X94.185 Y132.386 E8.2441
G1 X95.519 Y132.210 E8.2888
G1 X96.774 Y131.690 E8.3340
G1 X97.851 Y130.864 E8.3791
G1 X98.677 Y129.787 E8.4243
G1 X99.197 Y128.533 E8.4694
G1 X99.372 Y127.200 E8.5141
G1 X99.372 Y114.190 E8.9468
G1 X99.427 Y112.236 E9.0119
G1 X99.591 Y110.291 E9.0768
G1 X99.864 Y108.358 E9.1417
G1 X100.245 Y106.443 E9.2067
G1 X100.732 Y104.553 E9.2716
G1 X101.325 Y102.693 E9.3365
G1 X102.021 Y100.869 E9.4015
G1 X102.819 Y99.087 E9.4664
G1 X103.715 Y97.353 E9.5313
G1 X104.707 Y95.671 E9.5962
G1 X105.791 Y94.048 E9.6612
G1 X106.965 Y92.488 E9.7261
G1 X108.224 Y90.997 E9.7910
G1 X109.566 Y89.578 E9.8560
G1 X110.984 Y88.237 E9.9209
G1 X112.475 Y86.978 E9.9858
G1 X114.035 Y85.804 E10.0507
G1 X115.658 Y84.720 E10.1156
G1 X117.339 Y83.728 E10.1806
G1 X119.073 Y82.832 E10.2455
G1 X120.855 Y82.035 E10.3104
G1 X122.679 Y81.339 E10.3753
G1 X124.539 Y80.746 E10.4403
G1 X126.429 Y80.258 E10.5052
G1 X128.343 Y79.878 E10.5701
G1 X130.276 Y79.605 E10.6350
G1 X132.221 Y79.441 E10.7000
G1 X134.175 Y79.386 E10.7650
G1 X171.972 Y79.386 E12.0221
G1 X171.972 Y109.989 E13.0400
G1 X149.030 Y109.989 E13.8030
G1 X148.385 Y110.254
;segType:Loop
G0 X148.572 Y111.046 F5400
G1 X148.572 Y151.593 E15.1516 F3000
G1 X88.772 Y151.593 E17.1406
G1 X88.772 Y132.782 E17.7662
G1 X94.212 Y132.782 E17.9472
G1 X95.624 Y132.596 E17.9945
G1 X96.977 Y132.036 E18.0432
G1 X98.137 Y131.145 E18.0919
G1 X99.027 Y129.985 E18.1405
G1 X99.586 Y128.636 E18.1891
G1 X99.772 Y127.226 E18.2364
G1 X99.772 Y114.196 E18.6698
G1 X99.826 Y112.258 E18.7343
G1 X99.988 Y110.335 E18.7985
G1 X100.258 Y108.423 E18.8627
G1 X100.635 Y106.531 E18.9269
G1 X101.117 Y104.662 E18.9911
G1 X101.703 Y102.823 E19.0553
G1 X102.391 Y101.020 E19.1194
G1 X103.180 Y99.258 E19.1836
G1 X104.066 Y97.543 E19.2478
G1 X105.046 Y95.881 E19.3120
G1 X106.118 Y94.276 E19.3762
G1 X107.279 Y92.734 E19.4404
G1 X108.524 Y91.260 E19.5046
G1 X109.850 Y89.857 E19.5688
G1 X111.252 Y88.532 E19.6329
G1 X112.726 Y87.287 E19.6971
G1 X114.268 Y86.127 E19.7613
G1 X115.872 Y85.055 E19.8255
G1 X117.534 Y84.074 E19.8897
G1 X119.248 Y83.189 E19.9538
G1 X121.009 Y82.401 E20.0180
G1 X122.812 Y81.712 E20.0822
G1 X124.650 Y81.127 E20.1464
G1 X126.518 Y80.645 E20.2105
G1 X128.411 Y80.268 E20.2747
G1 X130.321 Y79.999 E20.3389
G1 X132.244 Y79.837 E20.4030
G1 X134.180 Y79.782 E20.4675
G1 X171.572 Y79.782 E21.7111
G1 X171.572 Y109.593 E22.7026
G1 X148.572 Y109.593 E23.4676
G1 X148.572 Y110.854 E23.5096
G0 X148.172 Y112.103 F5400
G1 X148.172 Y151.197 E24.8098 F3000
G1 X89.172 Y151.197 E26.7722
G1 X89.172 Y133.179 E27.3715
G1 X94.238 Y133.179 E27.5400
G1 X95.729 Y132.982 E27.5900
G1 X97.180 Y132.382 E27.6422
G1 X98.424 Y131.427 E27.6944
G1 X99.377 Y130.184 E27.7465
G1 X99.976 Y128.738 E27.7985
G1 X100.172 Y127.252 E27.8484
G1 X100.172 Y114.201 E28.2824
G1 X100.226 Y112.280 E28.3464
G1 X100.386 Y110.379 E28.4098
G1 X100.653 Y108.489 E28.4733
G1 X101.025 Y106.618 E28.5368
G1 X101.502 Y104.771 E28.6002
G1 X102.081 Y102.953 E28.6637
G1 X102.762 Y101.170 E28.7271
G1 X103.541 Y99.429 E28.7906
G1 X104.417 Y97.733 E28.8540
G1 X105.386 Y96.091 E28.9175
G1 X106.446 Y94.505 E28.9809
G1 X107.593 Y92.980 E29.0444
G1 X108.824 Y91.523 E29.1078
G1 X110.134 Y90.137 E29.1713
G1 X111.519 Y88.827 E29.2347
G1 X112.977 Y87.596 E29.2981
G1 X114.501 Y86.449 E29.3616
G1 X116.086 Y85.390 E29.4250
G1 X117.729 Y84.421 E29.4884
G1 X119.423 Y83.545 E29.5519
G1 X121.164 Y82.766 E29.6153
G1 X122.945 Y82.086 E29.6787
G1 X124.762 Y81.508 E29.7421
G1 X126.608 Y81.031 E29.8055
G1 X128.478 Y80.659 E29.8690
G1 X130.366 Y80.393 E29.9324
G1 X132.266 Y80.232 E29.9958
G1 X134.186 Y80.178 E30.0597
G1 X171.172 Y80.178 E31.2898
G1 X171.172 Y109.197 E32.2550
G1 X148.172 Y109.197 E33.0200
G1 X148.172 Y111.911 E33.1102
G0 X148.835 Y109.854 F5400
G0 X153.203 Y92.993
;segType:HShell
G1 X143.058 Y103.049 E33.5853 F3000
;segType:Perimeter
G0 X142.567 Y103.024 F5400
G1 X142.044 Y103.481 E33.6085 F2100
G1 X141.940 Y103.886 E33.6224
G1 X141.711 Y104.303 E33.6382
G1 X141.385 Y104.651 E33.6541
G1 X140.982 Y104.906 E33.6699
G1 X140.529 Y105.054 E33.6858
G1 X140.052 Y105.084 E33.7016
G1 X139.584 Y104.994 E33.7175
G1 X139.152 Y104.791 E33.7334
G1 X138.785 Y104.487 E33.7492
G1 X138.505 Y104.102 E33.7650
G1 X138.330 Y103.660 E33.7809
G1 X138.271 Y103.187 E33.7967
G1 X138.330 Y102.716 E33.8125
G1 X138.505 Y102.273 E33.8284
G1 X138.785 Y101.888 E33.8442
G1 X139.152 Y101.584 E33.8600
G1 X139.584 Y101.381 E33.8759
G1 X140.052 Y101.291 E33.8918
G1 X140.529 Y101.322 E33.9076
G1 X140.982 Y101.469 E33.9235
G1 X141.385 Y101.724 E33.9394
G1 X141.711 Y102.072 E33.9552
G1 X141.941 Y102.490 E33.9711
G1 X142.059 Y102.983 E33.9880
G1 X142.059 Y103.368 E34.0007
G1 X142.452 Y103.939
;segType:Loop
G0 X141.972 Y104.607 F5400
G1 X141.643 Y104.958 E34.0167 F3000
G1 X141.155 Y105.267 E34.0360
G1 X140.605 Y105.446 E34.0552
G1 X140.027 Y105.483 E34.0745
G1 X139.458 Y105.374 E34.0937
G1 X138.935 Y105.128 E34.1129
G1 X138.490 Y104.760 E34.1321
G1 X138.151 Y104.293 E34.1513
G1 X137.939 Y103.758 E34.1705
G1 X137.868 Y103.187 E34.1896
G1 X137.939 Y102.617 E34.2087
G1 X138.151 Y102.082 E34.2279
G1 X138.490 Y101.615 E34.2470
G1 X138.935 Y101.248 E34.2662
G1 X139.458 Y101.001 E34.2855
G1 X140.027 Y100.892 E34.3047
G1 X140.605 Y100.929 E34.3240
G1 X141.155 Y101.108 E34.3432
G1 X141.643 Y101.417 E34.3625
G1 X142.038 Y101.838 E34.3817
G1 X142.318 Y102.347 E34.4010
G1 X142.459 Y102.937 E34.4212
G1 X142.459 Y103.475 E34.4390
G1 X142.316 Y104.032 E34.4582
G1 X142.085 Y104.453 E34.4741
G0 X141.367 Y105.603 F5400
G1 X141.328 Y105.628 E34.4757 F3000
G1 X140.681 Y105.838 E34.4983
G1 X140.002 Y105.881 E34.5209
G1 X139.333 Y105.754 E34.5436
G1 X138.718 Y105.464 E34.5662
G1 X138.195 Y105.032 E34.5888
G1 X137.797 Y104.485 E34.6113
G1 X137.549 Y103.857 E34.6337
G1 X137.465 Y103.187 E34.6562
G1 X137.549 Y102.519 E34.6786
G1 X137.797 Y101.890 E34.7011
G1 X138.195 Y101.343 E34.7236
G1 X138.718 Y100.911 E34.7461
G1 X139.332 Y100.621 E34.7687
G1 X140.002 Y100.493 E34.7914
G1 X140.681 Y100.537 E34.8140
G1 X141.328 Y100.746 E34.8366
G1 X141.901 Y101.111 E34.8592
G1 X142.365 Y101.605 E34.8818
G1 X142.695 Y102.204 E34.9045
G1 X142.858 Y102.891 E34.9280
G1 X142.858 Y103.525 E34.9491
G1 X142.691 Y104.178 E34.9715
G1 X142.365 Y104.770 E34.9940
G1 X141.901 Y105.265 E35.0166
G1 X141.531 Y105.500 E35.0311
G0 X153.428 Y93.359 F5400
G0 X155.214 Y91.504
G0 X157.001 Y89.650
G0 X165.933 Y80.377
;segType:HShell
G1 X157.022 Y89.209 E35.4484 F3000
;segType:Perimeter
G0 X157.204 Y89.660 F5400
G1 X157.831 Y89.964 E35.4716 F2100
G1 X159.159 Y89.789 E35.5162
G1 X164.185 Y89.789 E35.6833
G1 X165.571 Y89.972 E35.7298
G1 X166.874 Y90.512 E35.7767
G1 X167.992 Y91.370 E35.8236
G1 X168.850 Y92.488 E35.8705
G1 X169.390 Y93.790 E35.9174
G1 X169.574 Y95.187 E35.9642
G1 X169.390 Y96.585 E36.0111
G1 X168.850 Y97.887 E36.0580
G1 X167.992 Y99.005 E36.1049
G1 X166.874 Y99.864 E36.1518
G1 X165.571 Y100.403 E36.1987
G1 X164.185 Y100.586 E36.2452
G1 X159.159 Y100.586 E36.4123
G1 X157.774 Y100.403 E36.4588
G1 X156.471 Y99.864 E36.5057
G1 X155.352 Y99.005 E36.5526
G1 X154.494 Y97.887 E36.5995
G1 X153.954 Y96.585 E36.6464
G1 X153.770 Y95.187 E36.6933
G1 X153.954 Y93.790 E36.7401
G1 X154.494 Y92.488 E36.7870
G1 X155.352 Y91.370 E36.8339
G1 X156.470 Y90.512 E36.8808
G1 X157.720 Y89.994 E36.9258
G1 X158.107 Y89.418
;segType:Loop
G0 X158.778 Y89.440 F5400
G1 X159.133 Y89.393 E36.9377 F3000
G1 X164.212 Y89.393 E37.1066
G1 X165.676 Y89.585 E37.1557
G1 X167.077 Y90.166 E37.2061
G1 X168.279 Y91.088 E37.2565
G1 X169.200 Y92.289 E37.3069
G1 X169.780 Y93.688 E37.3572
G1 X169.977 Y95.187 E37.4075
G1 X169.780 Y96.687 E37.4579
G1 X169.200 Y98.085 E37.5082
G1 X168.279 Y99.287 E37.5586
G1 X167.077 Y100.209 E37.6089
G1 X165.676 Y100.789 E37.6594
G1 X164.212 Y100.982 E37.7085
G1 X159.133 Y100.982 E37.8774
G1 X157.668 Y100.789 E37.9265
G1 X156.268 Y100.209 E37.9770
G1 X155.065 Y99.287 E38.0274
G1 X154.144 Y98.085 E38.0777
G1 X153.564 Y96.687 E38.1281
G1 X153.367 Y95.187 E38.1784
G1 X153.564 Y93.688 E38.2287
G1 X154.144 Y92.289 E38.2790
G1 X155.065 Y91.088 E38.3294
G1 X156.267 Y90.166 E38.3798
G1 X157.668 Y89.585 E38.4302
G1 X158.586 Y89.465 E38.4610
G0 X159.841 Y88.997 F5400
G1 X164.238 Y88.997 E38.6073 F3000
G1 X165.781 Y89.199 E38.6590
G1 X167.280 Y89.820 E38.7130
G1 X168.565 Y90.807 E38.7669
G1 X169.550 Y92.091 E38.8207
G1 X170.169 Y93.585 E38.8745
G1 X170.381 Y95.187 E38.9282
G1 X170.169 Y96.790 E38.9820
G1 X169.550 Y98.284 E39.0358
G1 X168.565 Y99.568 E39.0896
G1 X167.280 Y100.555 E39.1435
G1 X165.781 Y101.176 E39.1975
G1 X164.238 Y101.379 E39.2492
G1 X159.106 Y101.379 E39.4199
G1 X157.563 Y101.176 E39.4717
G1 X156.065 Y100.555 E39.5256
G1 X154.779 Y99.568 E39.5795
G1 X153.794 Y98.284 E39.6334
G1 X153.174 Y96.790 E39.6872
G1 X152.963 Y95.187 E39.7409
G1 X153.174 Y93.585 E39.7947
G1 X153.794 Y92.091 E39.8485
G1 X154.779 Y90.807 E39.9023
G1 X156.064 Y89.820 E39.9562
G1 X157.563 Y89.199 E40.0102
G1 X159.106 Y88.997 E40.0619
G1 X159.647 Y88.997 E40.0799
;segType:HShell
G0 X132.998 Y80.410 F5400
G1 X111.601 Y101.619 E41.0820 F3000
;segType:Perimeter
G0 X111.193 Y101.895 F5400
G1 X110.955 Y102.545 E41.1050 F2100
G1 X111.059 Y102.949 E41.1189
G1 X111.059 Y103.426 E41.1347
G1 X110.940 Y103.886 E41.1506
G1 X110.711 Y104.303 E41.1664
G1 X110.385 Y104.651 E41.1822
G1 X109.982 Y104.906 E41.1981
G1 X109.529 Y105.054 E41.2139
G1 X109.052 Y105.084 E41.2298
G1 X108.584 Y104.994 E41.2457
G1 X108.153 Y104.791 E41.2615
G1 X107.785 Y104.487 E41.2774
G1 X107.505 Y104.102 E41.2932
G1 X107.330 Y103.660 E41.3091
G1 X107.271 Y103.187 E41.3249
G1 X107.330 Y102.716 E41.3407
G1 X107.505 Y102.273 E41.3566
G1 X107.785 Y101.888 E41.3724
G1 X108.153 Y101.584 E41.3882
G1 X108.584 Y101.381 E41.4041
G1 X109.052 Y101.291 E41.4200
G1 X109.529 Y101.322 E41.4358
G1 X109.982 Y101.469 E41.4517
G1 X110.385 Y101.724 E41.4676
G1 X110.711 Y102.072 E41.4834
G1 X110.912 Y102.438 E41.4973
G1 X111.533 Y102.754
;segType:Loop
G0 X111.435 Y103.568 F5400
G1 X111.315 Y104.032 E41.5133 F3000
G1 X111.038 Y104.537 E41.5324
G1 X110.643 Y104.958 E41.5516
G1 X110.155 Y105.267 E41.5708
G1 X109.605 Y105.446 E41.5901
G1 X109.027 Y105.483 E41.6093
G1 X108.458 Y105.374 E41.6286
G1 X107.935 Y105.128 E41.6478
G1 X107.490 Y104.760 E41.6670
G1 X107.151 Y104.293 E41.6862
G1 X106.939 Y103.758 E41.7053
G1 X106.868 Y103.187 E41.7245
G1 X106.939 Y102.617 E41.7436
G1 X107.151 Y102.081 E41.7627
G1 X107.490 Y101.615 E41.7819
G1 X107.935 Y101.248 E41.8011
G1 X108.458 Y101.001 E41.8203
G1 X109.027 Y100.892 E41.8396
G1 X109.605 Y100.929 E41.8589
G1 X110.155 Y101.108 E41.8781
G1 X110.643 Y101.418 E41.8973
G1 X111.038 Y101.838 E41.9165
G1 X111.315 Y102.343 E41.9357
G1 X111.459 Y102.900 E41.9548
G1 X111.459 Y103.379 E41.9707
G0 X111.387 Y104.730 F5400
G1 X111.365 Y104.770 E41.9723 F3000
G1 X110.901 Y105.265 E41.9948
G1 X110.328 Y105.628 E42.0174
G1 X109.681 Y105.838 E42.0400
G1 X109.001 Y105.881 E42.0627
G1 X108.333 Y105.754 E42.0853
G1 X107.718 Y105.464 E42.1079
G1 X107.195 Y105.032 E42.1305
G1 X106.797 Y104.485 E42.1530
G1 X106.549 Y103.857 E42.1755
G1 X106.465 Y103.187 E42.1979
G1 X106.549 Y102.519 E42.2203
G1 X106.797 Y101.890 E42.2428
G1 X107.195 Y101.343 E42.2653
G1 X107.718 Y100.911 E42.2879
G1 X108.333 Y100.621 E42.3105
G1 X109.001 Y100.493 E42.3331
G1 X109.681 Y100.537 E42.3558
G1 X110.328 Y100.746 E42.3784
G1 X110.902 Y101.111 E42.4010
G1 X111.365 Y101.605 E42.4235
G1 X111.691 Y102.197 E42.4460
G1 X111.859 Y102.850 E42.4684
G1 X111.859 Y103.525 E42.4909
G1 X111.691 Y104.178 E42.5133
G1 X111.480 Y104.561 E42.5278
;segType:HShell
G0 X111.590 Y132.608 F5400
G1 X115.791 Y128.445 E42.7245 F3000
G1 X115.516 Y128.174
G1 X111.353 Y132.300 E42.9195
;segType:Perimeter
G0 X111.198 Y132.911 F5400
G1 X110.959 Y133.561 E42.9425 F2100
G1 X111.059 Y133.950 E42.9559
G1 X111.059 Y134.426 E42.9717
G1 X110.940 Y134.886 E42.9875
G1 X110.711 Y135.303 E43.0034
G1 X110.385 Y135.651 E43.0192
G1 X109.982 Y135.906 E43.0350
G1 X109.529 Y136.054 E43.0509
G1 X109.052 Y136.084 E43.0668
G1 X108.584 Y135.994 E43.0826
G1 X108.153 Y135.791 E43.0985
G1 X107.785 Y135.487 E43.1144
G1 X107.505 Y135.102 E43.1302
G1 X107.330 Y134.660 E43.1460
G1 X107.271 Y134.187 E43.1619
G1 X107.330 Y133.716 E43.1777
G1 X107.505 Y133.273 E43.1935
G1 X107.785 Y132.888 E43.2094
G1 X108.153 Y132.584 E43.2252
G1 X108.584 Y132.381 E43.2411
G1 X109.052 Y132.292 E43.2569
G1 X109.529 Y132.322 E43.2728
G1 X109.982 Y132.469 E43.2887
G1 X110.385 Y132.724 E43.3045
G1 X110.699 Y133.059 E43.3198
G1 X110.917 Y133.455 E43.3348
G1 X111.538 Y133.771
;segType:Loop
G0 X111.435 Y134.568 F5400
G1 X111.315 Y135.032 E43.3508 F3000
G1 X111.038 Y135.537 E43.3699
G1 X110.643 Y135.958 E43.3891
G1 X110.155 Y136.267 E43.4083
G1 X109.605 Y136.446 E43.4276
G1 X109.027 Y136.483 E43.4468
G1 X108.458 Y136.374 E43.4661
G1 X107.935 Y136.128 E43.4853
G1 X107.490 Y135.760 E43.5045
G1 X107.151 Y135.294 E43.5237
G1 X106.939 Y134.758 E43.5428
G1 X106.868 Y134.187 E43.5620
G1 X106.939 Y133.617 E43.5811
G1 X107.151 Y133.081 E43.6002
G1 X107.490 Y132.615 E43.6194
G1 X107.935 Y132.248 E43.6386
G1 X108.458 Y132.001 E43.6579
G1 X109.027 Y131.893 E43.6771
G1 X109.605 Y131.929 E43.6964
G1 X110.155 Y132.108 E43.7156
G1 X110.643 Y132.417 E43.7348
G1 X111.026 Y132.825 E43.7534
G1 X111.320 Y133.360 E43.7737
G1 X111.459 Y133.900 E43.7923
G1 X111.459 Y134.379 E43.8082
G0 X111.387 Y135.730 F5400
G1 X111.365 Y135.770 E43.8098 F3000
G1 X110.901 Y136.265 E43.8323
G1 X110.328 Y136.628 E43.8549
G1 X109.681 Y136.838 E43.8775
G1 X109.001 Y136.881 E43.9002
G1 X108.333 Y136.754 E43.9228
G1 X107.718 Y136.464 E43.9454
G1 X107.195 Y136.032 E43.9680
G1 X106.797 Y135.485 E43.9905
G1 X106.549 Y134.856 E44.0129
G1 X106.465 Y134.187 E44.0354
G1 X106.549 Y133.519 E44.0578
G1 X106.797 Y132.890 E44.0803
G1 X107.195 Y132.343 E44.1028
G1 X107.718 Y131.911 E44.1253
G1 X108.333 Y131.621 E44.1479
G1 X109.001 Y131.494 E44.1706
G1 X109.681 Y131.537 E44.1932
G1 X110.328 Y131.746 E44.2158
G1 X110.902 Y132.111 E44.2384
G1 X111.353 Y132.592 E44.2604
G1 X111.695 Y133.214 E44.2840
G1 X111.859 Y133.850 E44.3059
G1 X111.859 Y134.525 E44.3283
G1 X111.691 Y135.178 E44.3507
G1 X111.480 Y135.561 E44.3653
G0 X123.588 Y131.233 F5400
G1 X123.509 Y131.229 E44.3679 F3000
G1 X122.356 Y131.068 E44.4066
G1 X121.222 Y130.802 E44.4453
G1 X120.119 Y130.432 E44.4841
G1 X119.054 Y129.961 E44.5228
G1 X118.037 Y129.395 E44.5615
G1 X117.076 Y128.737 E44.6002
G1 X116.181 Y127.994 E44.6389
G1 X115.358 Y127.171 E44.6776
G1 X114.615 Y126.276 E44.7163
G1 X113.957 Y125.316 E44.7550
G1 X113.391 Y124.300 E44.7937
G1 X112.922 Y123.236 E44.8324
G1 X112.552 Y122.133 E44.8711
G1 X112.286 Y121.001 E44.9097
G1 X112.125 Y119.849 E44.9484
G1 X112.071 Y118.688 E44.9871
G1 X112.125 Y117.526 E45.0258
G1 X112.286 Y116.374 E45.0645
G1 X112.552 Y115.242 E45.1032
G1 X112.922 Y114.139 E45.1418
G1 X113.391 Y113.075 E45.1805
G1 X113.957 Y112.059 E45.2192
G1 X114.615 Y111.099 E45.2579
G1 X115.358 Y110.204 E45.2966
G1 X116.181 Y109.381 E45.3353
G1 X117.076 Y108.638 E45.3740
G1 X118.037 Y107.980 E45.4127
G1 X119.054 Y107.414 E45.4514
G1 X120.119 Y106.944 E45.4902
G1 X121.222 Y106.574 E45.5289
G1 X122.356 Y106.307 E45.5676
G1 X123.509 Y106.146 E45.6063
G1 X124.672 Y106.092 E45.6451
G1 X125.835 Y106.146 E45.6838
G1 X126.988 Y106.307 E45.7225
G1 X128.122 Y106.574 E45.7612
G1 X129.226 Y106.944 E45.8000
G1 X130.291 Y107.414 E45.8387
G1 X131.308 Y107.980 E45.8774
G1 X132.268 Y108.638 E45.9161
G1 X133.163 Y109.381 E45.9548
G1 X133.986 Y110.204 E45.9935
G1 X134.729 Y111.099 E46.0322
G1 X135.387 Y112.059 E46.0709
G1 X135.953 Y113.075 E46.1096
G1 X136.422 Y114.139 E46.1483
G1 X136.792 Y115.242 E46.1870
G1 X137.058 Y116.374 E46.2257
G1 X137.219 Y117.526 E46.2643
G1 X137.273 Y118.688 E46.3030
G1 X137.219 Y119.849 E46.3417
G1 X137.058 Y121.001 E46.3804
G1 X136.792 Y122.133 E46.4190
G1 X136.422 Y123.236 E46.4577
G1 X135.953 Y124.300 E46.4964
G1 X135.387 Y125.316 E46.5351
G1 X134.729 Y126.276 E46.5738
G1 X133.986 Y127.171 E46.6125
G1 X133.163 Y127.994 E46.6512
G1 X132.268 Y128.737 E46.6899
G1 X131.308 Y129.395 E46.7286
G1 X130.291 Y129.961 E46.7673
G1 X129.226 Y130.432 E46.8061
G1 X128.122 Y130.802 E46.8448
G1 X126.988 Y131.068 E46.8835
G1 X125.835 Y131.229 E46.9222
G1 X124.672 Y131.283 E46.9610
G1 X123.782 Y131.242 E46.9906
;segType:Perimeter
G0 X125.119 Y131.361 F5400
G1 X124.614 Y130.883 E47.0137 F2100
G1 X123.546 Y130.834 E47.0493
G1 X122.430 Y130.678 E47.0867
G1 X121.333 Y130.420 E47.1242
G1 X120.264 Y130.062 E47.1617
G1 X119.233 Y129.607 E47.1992
G1 X118.249 Y129.058 E47.2367
G1 X117.319 Y128.421 E47.2742
G1 X116.452 Y127.702 E47.3117
G1 X115.655 Y126.905 E47.3491
G1 X114.935 Y126.038 E47.3866
G1 X114.299 Y125.108 E47.4241
G1 X113.750 Y124.124 E47.4616
G1 X113.296 Y123.094 E47.4990
G1 X112.937 Y122.025 E47.5365
G1 X112.679 Y120.929 E47.5740
G1 X112.524 Y119.813 E47.6114
G1 X112.472 Y118.688 E47.6489
G1 X112.524 Y117.562 E47.6864
G1 X112.679 Y116.446 E47.7239
G1 X112.937 Y115.350 E47.7613
G1 X113.296 Y114.281 E47.7988
G1 X113.750 Y113.251 E47.8363
G1 X114.299 Y112.267 E47.8738
G1 X114.935 Y111.337 E47.9112
G1 X115.655 Y110.470 E47.9487
G1 X116.452 Y109.673 E47.9862
G1 X117.319 Y108.954 E48.0237
G1 X118.249 Y108.317 E48.0611
G1 X119.233 Y107.768 E48.0986
G1 X120.264 Y107.313 E48.1361
G1 X121.333 Y106.955 E48.1736
G1 X122.430 Y106.697 E48.2111
G1 X123.546 Y106.541 E48.2486
G1 X124.672 Y106.489 E48.2861
G1 X125.798 Y106.541 E48.3235
G1 X126.914 Y106.697 E48.3610
G1 X128.011 Y106.955 E48.3985
G1 X129.080 Y107.313 E48.4360
G1 X130.111 Y107.768 E48.4735
G1 X131.095 Y108.317 E48.5110
G1 X132.025 Y108.954 E48.5484
G1 X132.892 Y109.673 E48.5859
G1 X133.689 Y110.470 E48.6234
G1 X134.409 Y111.337 E48.6609
G1 X135.045 Y112.267 E48.6984
G1 X135.594 Y113.251 E48.7358
G1 X136.049 Y114.281 E48.7733
G1 X136.407 Y115.350 E48.8108
G1 X136.665 Y116.446 E48.8482
G1 X136.820 Y117.562 E48.8857
G1 X136.872 Y118.688 E48.9232
G1 X136.820 Y119.813 E48.9607
G1 X136.665 Y120.929 E48.9981
G1 X136.407 Y122.025 E49.0356
G1 X136.049 Y123.094 E49.0731
G1 X135.594 Y124.124 E49.1105
G1 X135.045 Y125.108 E49.1480
G1 X134.409 Y126.038 E49.1855
G1 X133.689 Y126.905 E49.2230
G1 X132.892 Y127.702 E49.2605
G1 X132.025 Y128.421 E49.2979
G1 X131.095 Y129.058 E49.3354
G1 X130.111 Y129.607 E49.3729
G1 X129.080 Y130.062 E49.4104
G1 X128.011 Y130.420 E49.4479
G1 X126.914 Y130.678 E49.4854
