; GCode generated by CraftWare

G28 X0 Y0
G28 Z0

M190 S65 ;set bed temp (wait)
M109 S240 ;set head temp (wait)
; ------------------------------------
; Layer #0
; ------------------------------------
G21 ; mm
G90 ; abs
G92 E0 ; reset extr
M106 S0
;segType:Skirt
G0 F1200 E-1.0000
G0 F300 Z0.200
G0 X82.292 Y162.768 F5400
G0 F1200 E0.0000
G1 X82.485 Y162.960 E0.0091 F3000
G1 X83.001 Y163.344 E0.0305
G1 X176.999 Y163.344 E3.1568
G1 X178.548 Y161.808 E3.2294
G1 X178.741 Y161.488 E3.2418
G1 X178.741 Y76.512 E6.0681
G1 X178.548 Y76.192 E6.0806
G1 X176.999 Y74.656 E6.1531
G1 X83.001 Y74.656 E9.2795
G1 X82.679 Y74.848 E9.2919
G1 X81.130 Y76.384 E9.3645
G1 X81.130 Y161.616 E12.1993
G1 X82.292 Y162.768 E12.2538
G1 X82.292 Y163.152 E12.2665
G1 X82.485 Y163.344 E12.2756
G1 X83.001 Y163.727 E12.2970
G1 X176.999 Y163.727 E15.4233
G1 X179.064 Y161.680 E15.5201
G1 X179.129 Y161.232 E15.5351
G1 X179.129 Y76.768 E18.3444
G1 X179.064 Y76.320 E18.3595
G1 X176.999 Y74.273 E18.4562
G1 X83.001 Y74.273 E21.5826
G1 X82.679 Y74.464 E21.5950
G1 X80.742 Y76.384 E21.6857
G1 X80.742 Y161.616 E24.5206
G1 X82.292 Y163.152 E24.5931
G1 X82.292 Y163.536 E24.6059
G0 F1200 E23.6059
G0 X83.188 Y161.640 F5400
G0 X84.085 Y159.745
G0 F1200 E24.6059
;segType:Loop
G1 X84.085 Y77.595 E27.3382 F3000
G1 X175.915 Y77.595 E30.3925
G1 X175.915 Y160.405 E33.1468
G1 X84.085 Y160.405 E36.2011
G1 X84.085 Y159.937 E36.2167
;segType:Perimeter
G0 X84.330 Y160.479 F5400
G1 X83.685 Y160.744 E36.2399 F2100
G1 X83.685 Y77.198 E39.0186
G1 X176.315 Y77.198 E42.0995
G1 X176.315 Y160.802 E44.8802
G1 X83.743 Y160.802 E47.9591
G1 X84.010 Y160.163
;segType:Loop
G0 X84.485 Y158.688 F5400
G1 X84.485 Y77.991 E50.6431 F3000
G1 X175.515 Y77.991 E53.6708
G1 X175.515 Y160.009 E56.3987
G1 X84.485 Y160.009 E59.4264
G1 X84.485 Y158.880 E59.4639
;segType:HShell
G0 X175.171 Y159.811 F5400
G1 X175.315 Y159.667 E59.4707 F3000
G1 X175.315 Y159.124
G1 X174.622 Y159.811 E59.5032
G1 X174.074 Y159.811
G1 X175.315 Y158.580 E59.5613
G1 X175.315 Y158.037
G1 X173.526 Y159.811 E59.6451
G1 X172.977 Y159.811
G1 X175.315 Y157.493 E59.7546
G1 X175.315 Y156.950
G1 X172.429 Y159.811 E59.8897
G1 X171.881 Y159.811
G1 X175.315 Y156.406 E60.0506
G1 X175.315 Y155.863
G1 X171.332 Y159.811 E60.2371
G1 X170.784 Y159.811
G1 X175.315 Y155.319 E60.4493
G1 X175.315 Y154.776
G1 X170.236 Y159.811 E60.6871
G1 X169.687 Y159.811
G1 X175.315 Y154.232 E60.9507
G1 X175.315 Y153.689
G1 X169.139 Y159.811 E61.2399
G1 X168.591 Y159.811
G1 X175.315 Y153.145 E61.5548
G1 X175.315 Y152.602
G1 X168.042 Y159.811 E61.8954
G1 X167.494 Y159.811
G1 X175.315 Y152.058 E62.2617
G1 X175.315 Y151.515
G1 X166.946 Y159.811 E62.6536
G1 X166.397 Y159.811
G1 X175.315 Y150.971 E63.0713
G1 X175.315 Y150.428
G1 X165.849 Y159.811 E63.5146
G1 X165.301 Y159.811
G1 X175.315 Y149.884 E63.9836
G1 X175.315 Y149.341
G1 X164.752 Y159.811 E64.4782
G1 X164.204 Y159.811
G1 X175.315 Y148.797 E64.9986
G1 X175.315 Y148.254
G1 X163.656 Y159.811 E65.5446
G1 X163.107 Y159.811
G1 X175.315 Y147.710 E66.1163
G1 X175.315 Y147.167
G1 X162.559 Y159.811 E66.7137
G1 X162.010 Y159.811
G1 X175.315 Y146.623 E67.3367
G1 X175.315 Y146.080
G1 X161.462 Y159.811 E67.9854
G1 X160.914 Y159.811
G1 X175.315 Y145.536 E68.6599
G1 X175.315 Y144.993
G1 X160.365 Y159.811 E69.3600
G1 X159.817 Y159.811
G1 X175.315 Y144.449 E70.0857
G1 X175.315 Y143.906
G1 X159.269 Y159.811 E70.8372
G1 X158.720 Y159.811
G1 X175.315 Y143.362 E71.6143
G1 X175.315 Y142.819
G1 X158.172 Y159.811 E72.4171
G1 X157.624 Y159.811
G1 X175.315 Y142.275 E73.2456
G1 X175.315 Y141.732
G1 X157.075 Y159.811 E74.0998
G1 X156.527 Y159.811
G1 X175.315 Y141.188 E74.9796
G1 X175.315 Y140.645
G1 X155.979 Y159.811 E75.8851
G1 X155.430 Y159.811
G1 X175.315 Y140.101 E76.8163
G1 X175.315 Y139.558
G1 X154.882 Y159.811 E77.7732
G1 X154.334 Y159.811
G1 X175.315 Y139.014 E78.7558
G1 X175.315 Y138.471
G1 X153.785 Y159.811 E79.7640
G1 X153.237 Y159.811
G1 X175.315 Y137.927 E80.7979
G1 X175.315 Y137.384
G1 X152.689 Y159.811 E81.8575
G1 X152.140 Y159.811
G1 X175.315 Y136.840 E82.9428
G1 X175.315 Y136.297
G1 X151.592 Y159.811 E84.0538
G1 X151.044 Y159.811
G1 X175.315 Y135.753 E85.1904
G1 X175.315 Y135.210
G1 X150.495 Y159.811 E86.3527
G1 X149.947 Y159.811
G1 X175.315 Y134.666 E87.5407
G1 X175.315 Y134.123
G1 X149.399 Y159.811 E88.7544
G1 X148.850 Y159.811
G1 X175.315 Y133.579 E89.9937
G1 X175.315 Y133.036
G1 X148.302 Y159.811 E91.2587
G1 X147.754 Y159.811
G1 X175.315 Y132.492 E92.5494
G1 X175.315 Y131.949
G1 X147.205 Y159.811 E93.8658
G1 X146.657 Y159.811
G1 X175.315 Y131.405 E95.2079
G1 X175.315 Y130.862
G1 X146.108 Y159.811 E96.5756
G1 X145.560 Y159.811
G1 X175.315 Y130.318 E97.9691
G1 X175.315 Y129.775
G1 X145.012 Y159.811 E99.3881
G1 X144.463 Y159.811
G1 X175.315 Y129.231 E100.8329
G1 X175.315 Y128.688
G1 X143.915 Y159.811 E102.3034
G1 X143.367 Y159.811
G1 X175.315 Y128.144 E103.7995
G1 X175.315 Y127.601
G1 X142.818 Y159.811 E105.3213
G1 X142.270 Y159.811
G1 X175.315 Y127.057 E106.8688
G1 X175.315 Y126.514
G1 X141.722 Y159.811 E108.4420
G1 X141.173 Y159.811
G1 X175.315 Y125.970 E110.0409
G1 X175.315 Y125.427
G1 X140.625 Y159.811 E111.6654
G1 X140.077 Y159.811
G1 X175.315 Y124.883 E113.3156
G1 X175.315 Y124.340
G1 X139.528 Y159.811 E114.9915
G1 X138.980 Y159.811
G1 X175.315 Y123.796 E116.6930
G1 X175.315 Y123.253
G1 X138.432 Y159.811 E118.4203
G1 X137.883 Y159.811
G1 X175.315 Y122.709 E120.1732
G1 X175.315 Y122.166
G1 X137.335 Y159.811 E121.9518
G1 X136.787 Y159.811
G1 X175.315 Y121.622 E123.7561
G1 X175.315 Y121.079
G1 X136.238 Y159.811 E125.5861
G1 X135.690 Y159.811
G1 X175.315 Y120.535 E127.4417
G1 X175.315 Y119.992
G1 X135.142 Y159.811 E129.3230
G1 X134.593 Y159.811
G1 X175.315 Y119.448 E131.2300
G1 X175.315 Y118.905
G1 X134.045 Y159.811 E133.1627
G1 X133.497 Y159.811
G1 X175.315 Y118.361 E135.1210
G1 X175.315 Y117.818
G1 X132.948 Y159.811 E137.1051
G1 X132.400 Y159.811
G1 X175.315 Y117.274 E139.1148
G1 X175.315 Y116.731
G1 X131.852 Y159.811 E141.1502
G1 X131.303 Y159.811
G1 X175.315 Y116.187 E143.2112
G1 X175.315 Y115.644
G1 X130.755 Y159.811 E145.2980
G1 X130.206 Y159.811
G1 X175.315 Y115.100 E147.4104
G1 X175.315 Y114.557
G1 X129.658 Y159.811 E149.5485
G1 X129.110 Y159.811
G1 X175.315 Y114.013 E151.7123
G1 X175.315 Y113.470
G1 X128.561 Y159.811 E153.9018
G1 X128.013 Y159.811
G1 X175.315 Y112.926 E156.1169
G1 X175.315 Y112.383
G1 X127.465 Y159.811 E158.3577
G1 X126.916 Y159.811
G1 X175.315 Y111.839 E160.6242
G1 X175.315 Y111.296
G1 X126.368 Y159.811 E162.9164
G1 X125.820 Y159.811
G1 X175.315 Y110.752 E165.2343
G1 X175.315 Y110.209
G1 X125.271 Y159.811 E167.5778
G1 X124.723 Y159.811
G1 X175.315 Y109.665 E169.9470
G1 X175.315 Y109.122
G1 X124.175 Y159.811 E172.3419
G1 X123.626 Y159.811
G1 X175.315 Y108.578 E174.7625
G1 X175.315 Y108.035
G1 X123.078 Y159.811 E177.2087
G1 X122.530 Y159.811
G1 X175.315 Y107.491 E179.6807
G1 X175.315 Y106.948
G1 X121.981 Y159.811 E182.1783
G1 X121.433 Y159.811
G1 X175.315 Y106.404 E184.7015
G1 X175.315 Y105.861
G1 X120.885 Y159.811 E187.2505
G1 X120.336 Y159.811
G1 X175.315 Y105.317 E189.8252
G1 X175.315 Y104.774
G1 X119.788 Y159.811 E192.4255
G1 X119.240 Y159.811
G1 X175.315 Y104.230 E195.0515
G1 X175.315 Y103.687
G1 X118.691 Y159.811 E197.7032
G1 X118.143 Y159.811
G1 X175.315 Y103.143 E200.3805
G1 X175.315 Y102.600
G1 X117.595 Y159.811 E203.0836
G1 X117.046 Y159.811
G1 X175.315 Y102.056 E205.8123
G1 X175.315 Y101.513
G1 X116.498 Y159.811 E208.5667
G1 X115.950 Y159.811
G1 X175.315 Y100.969 E211.3468
G1 X175.315 Y100.426
G1 X115.401 Y159.811 E214.1525
G1 X114.853 Y159.811
G1 X175.315 Y99.882 E216.9839
G1 X175.315 Y99.339
G1 X114.304 Y159.811 E219.8411
G1 X113.756 Y159.811
G1 X175.315 Y98.795 E222.7239
G1 X175.315 Y98.252
G1 X113.208 Y159.811 E225.6323
G1 X112.659 Y159.811
G1 X175.315 Y97.708 E228.5665
G1 X175.315 Y97.165
G1 X112.111 Y159.811 E231.5263
G1 X111.563 Y159.811
G1 X175.315 Y96.621 E234.5118
G1 X175.315 Y96.078
G1 X111.014 Y159.811 E237.5230
G1 X110.466 Y159.811
G1 X175.315 Y95.534 E240.5598
G1 X175.315 Y94.991
G1 X109.918 Y159.811 E243.6224
G1 X109.369 Y159.811
G1 X175.315 Y94.447 E246.7106
G1 X175.315 Y93.904
G1 X108.821 Y159.811 E249.8245
G1 X108.273 Y159.811
G1 X175.315 Y93.360 E252.9641
G1 X175.315 Y92.817
G1 X107.724 Y159.811 E256.1293
G1 X107.176 Y159.811
G1 X175.315 Y92.273 E259.3203
G1 X175.315 Y91.730
G1 X106.628 Y159.811 E262.5369
G1 X106.079 Y159.811
G1 X175.315 Y91.186 E265.7792
G1 X175.315 Y90.643
G1 X105.531 Y159.811 E269.0472
G1 X104.983 Y159.811
G1 X175.315 Y90.099 E272.3408
G1 X175.315 Y89.556
G1 X104.434 Y159.811 E275.6601
G1 X103.886 Y159.811
G1 X175.315 Y89.012 E279.0051
G1 X175.315 Y88.469
G1 X103.338 Y159.811 E282.3758
G1 X102.789 Y159.811
G1 X175.315 Y87.925 E285.7722
G1 X175.315 Y87.382
G1 X102.241 Y159.811 E289.1943
G1 X101.693 Y159.811
G1 X175.315 Y86.838 E292.6420
G1 X175.315 Y86.295
G1 X101.144 Y159.811 E296.1154
G1 X100.596 Y159.811
G1 X175.315 Y85.751 E299.6145
G1 X175.315 Y85.208
G1 X100.048 Y159.811 E303.1392
G1 X99.499 Y159.811
G1 X175.315 Y84.664 E306.6896
G1 X175.315 Y84.121
G1 X98.951 Y159.811 E310.2658
G1 X98.402 Y159.811
G1 X175.315 Y83.577 E313.8676
G1 X175.315 Y83.034
G1 X97.854 Y159.811 E317.4950
G1 X97.306 Y159.811
G1 X175.315 Y82.490 E321.1482
G1 X175.315 Y81.947
G1 X96.757 Y159.811 E324.8270
G1 X96.209 Y159.811
G1 X175.315 Y81.403 E328.5315
G1 X175.315 Y80.860
G1 X95.661 Y159.811 E332.2617
G1 X95.112 Y159.811
G1 X175.315 Y80.316 E336.0176
G1 X175.315 Y79.773
G1 X94.564 Y159.811 E339.7991
G1 X94.016 Y159.811
G1 X175.315 Y79.229 E343.6064
G1 X175.315 Y78.686
G1 X93.467 Y159.811 E347.4393
G1 X92.919 Y159.811
G1 X175.268 Y78.189 E351.2956
G1 X174.720 Y78.189
G1 X92.371 Y159.811 E355.1520
G1 X91.822 Y159.811
G1 X174.171 Y78.189 E359.0083
G1 X173.623 Y78.189
G1 X91.274 Y159.811 E362.8647
G1 X90.726 Y159.811
G1 X173.074 Y78.189 E366.7211
G1 X172.526 Y78.189
G1 X90.177 Y159.811 E370.5774
G1 X89.629 Y159.811
G1 X171.978 Y78.189 E374.4338
G1 X171.429 Y78.189
G1 X89.081 Y159.811 E378.2901
G1 X88.532 Y159.811
G1 X170.881 Y78.189 E382.1465
G1 X170.333 Y78.189
G1 X87.984 Y159.811 E386.0028
G1 X87.436 Y159.811
G1 X169.784 Y78.189 E389.8592
G1 X169.236 Y78.189
G1 X86.887 Y159.811 E393.7155
G1 X86.339 Y159.811
G1 X168.688 Y78.189 E397.5719
G1 X168.139 Y78.189
G1 X85.791 Y159.811 E401.4282
G1 X85.242 Y159.811
G1 X167.591 Y78.189 E405.2846
G1 X167.043 Y78.189
G1 X84.694 Y159.811 E409.1409
G1 X84.685 Y159.276
G1 X166.494 Y78.189 E412.9721
G1 X165.946 Y78.189
G1 X84.685 Y158.733 E416.7775
G1 X84.685 Y158.189
G1 X165.398 Y78.189 E420.5572
G1 X164.849 Y78.189
G1 X84.685 Y157.646 E424.3113
G1 X84.685 Y157.102
G1 X164.301 Y78.189 E428.0397
G1 X163.753 Y78.189
G1 X84.685 Y156.559 E431.7425
G1 X84.685 Y156.015
G1 X163.204 Y78.189 E435.4195
G1 X162.656 Y78.189
G1 X84.685 Y155.472 E439.0709
G1 X84.685 Y154.928
G1 X162.108 Y78.189 E442.6965
G1 X161.559 Y78.189
G1 X84.685 Y154.385 E446.2965
G1 X84.685 Y153.841
G1 X161.011 Y78.189 E449.8708
G1 X160.463 Y78.189
G1 X84.685 Y153.298 E453.4195
G1 X84.685 Y152.754
G1 X159.914 Y78.189 E456.9425
G1 X159.366 Y78.189
G1 X84.685 Y152.211 E460.4398
G1 X84.685 Y151.667
G1 X158.818 Y78.189 E463.9114
G1 X158.269 Y78.189
G1 X84.685 Y151.124 E467.3573
G1 X84.685 Y150.580
G1 X157.721 Y78.189 E470.7776
G1 X157.172 Y78.189
G1 X84.685 Y150.037 E474.1721
G1 X84.685 Y149.493
G1 X156.624 Y78.189 E477.5410
G1 X156.076 Y78.189
G1 X84.685 Y148.950 E480.8842
G1 X84.685 Y148.406
G1 X155.527 Y78.189 E484.2017
G1 X154.979 Y78.189
G1 X84.685 Y147.863 E487.4936
G1 X84.685 Y147.319
G1 X154.431 Y78.189 E490.7598
G1 X153.882 Y78.189
G1 X84.685 Y146.776 E494.0003
G1 X84.685 Y146.232
G1 X153.334 Y78.189 E497.2151
G1 X152.786 Y78.189
G1 X84.685 Y145.689 E500.4043
G1 X84.685 Y145.145
G1 X152.237 Y78.189 E503.5677
G1 X151.689 Y78.189
G1 X84.685 Y144.602 E506.7055
G1 X84.685 Y144.058
G1 X151.141 Y78.189 E509.8176
G1 X150.592 Y78.189
G1 X84.685 Y143.515 E512.9040
G1 X84.685 Y142.971
G1 X150.044 Y78.189 E515.9647
G1 X149.496 Y78.189
G1 X84.685 Y142.428 E518.9998
G1 X84.685 Y141.884
G1 X148.947 Y78.189 E522.0092
G1 X148.399 Y78.189
G1 X84.685 Y141.341 E524.9929
G1 X84.685 Y140.797
G1 X147.851 Y78.189 E527.9510
G1 X147.302 Y78.189
G1 X84.685 Y140.254 E530.8833
G1 X84.685 Y139.710
G1 X146.754 Y78.189 E533.7900
G1 X146.206 Y78.189
G1 X84.685 Y139.167 E536.6710
G1 X84.685 Y138.623
G1 X145.657 Y78.189 E539.5263
G1 X145.109 Y78.189
G1 X84.685 Y138.080 E542.3560
G1 X84.685 Y137.536
G1 X144.561 Y78.189 E545.1599
G1 X144.012 Y78.189
G1 X84.685 Y136.993 E547.9382
G1 X84.685 Y136.449
G1 X143.464 Y78.189 E550.6908
G1 X142.916 Y78.189
G1 X84.685 Y135.906 E553.4177
G1 X84.685 Y135.362
G1 X142.367 Y78.189 E556.1190
G1 X141.819 Y78.189
G1 X84.685 Y134.819 E558.7945
G1 X84.685 Y134.275
G1 X141.270 Y78.189 E561.4444
G1 X140.722 Y78.189
G1 X84.685 Y133.732 E564.0686
G1 X84.685 Y133.188
G1 X140.174 Y78.189 E566.6671
G1 X139.625 Y78.189
G1 X84.685 Y132.645 E569.2400
G1 X84.685 Y132.101
G1 X139.077 Y78.189 E571.7872
G1 X138.529 Y78.189
G1 X84.685 Y131.558 E574.3087
G1 X84.685 Y131.014
G1 X137.980 Y78.189 E576.8045
G1 X137.432 Y78.189
G1 X84.685 Y130.471 E579.2746
G1 X84.685 Y129.927
G1 X136.884 Y78.189 E581.7191
G1 X136.335 Y78.189
G1 X84.685 Y129.384 E584.1378
G1 X84.685 Y128.840
G1 X135.787 Y78.189 E586.5310
G1 X135.239 Y78.189
G1 X84.685 Y128.297 E588.8984
G1 X84.685 Y127.753
G1 X134.690 Y78.189 E591.2401
G1 X134.142 Y78.189
G1 X84.685 Y127.210 E593.5562
G1 X84.685 Y126.666
G1 X133.594 Y78.189 E595.8466
G1 X133.045 Y78.189
G1 X84.685 Y126.123 E598.1113
G1 X84.685 Y125.579
G1 X132.497 Y78.189 E600.3503
G1 X131.949 Y78.189
G1 X84.685 Y125.036 E602.5636
G1 X84.685 Y124.492
G1 X131.400 Y78.189 E604.7513
G1 X130.852 Y78.189
G1 X84.685 Y123.949 E606.9133
G1 X84.685 Y123.405
G1 X130.304 Y78.189 E609.0496
G1 X129.755 Y78.189
G1 X84.685 Y122.862 E611.1602
G1 X84.685 Y122.318
G1 X129.207 Y78.189 E613.2452
G1 X128.659 Y78.189
G1 X84.685 Y121.775 E615.3045
G1 X84.685 Y121.231
G1 X128.110 Y78.189 E617.3380
G1 X127.562 Y78.189
G1 X84.685 Y120.688 E619.3460
G1 X84.685 Y120.144
G1 X127.014 Y78.189 E621.3282
G1 X126.465 Y78.189
G1 X84.685 Y119.601 E623.2848
G1 X84.685 Y119.057
G1 X125.917 Y78.189 E625.2157
G1 X125.368 Y78.189
G1 X84.685 Y118.514 E627.1209
G1 X84.685 Y117.970
G1 X124.820 Y78.189 E629.0004
G1 X124.272 Y78.189
G1 X84.685 Y117.427 E630.8542
G1 X84.685 Y116.883
G1 X123.723 Y78.189 E632.6824
G1 X123.175 Y78.189
G1 X84.685 Y116.340 E634.4849
G1 X84.685 Y115.796
G1 X122.627 Y78.189 E636.2617
G1 X122.078 Y78.189
G1 X84.685 Y115.253 E638.0128
G1 X84.685 Y114.709
G1 X121.530 Y78.189 E639.7383
G1 X120.982 Y78.189
G1 X84.685 Y114.166 E641.4381
G1 X84.685 Y113.622
G1 X120.433 Y78.189 E643.1121
G1 X119.885 Y78.189
G1 X84.685 Y113.079 E644.7606
G1 X84.685 Y112.535
G1 X119.337 Y78.189 E646.3833
G1 X118.788 Y78.189
G1 X84.685 Y111.992 E647.9804
G1 X84.685 Y111.448
G1 X118.240 Y78.189 E649.5517
G1 X117.692 Y78.189
G1 X84.685 Y110.905 E651.0974
G1 X84.685 Y110.361
G1 X117.143 Y78.189 E652.6175
G1 X116.595 Y78.189
G1 X84.685 Y109.818 E654.1118
G1 X84.685 Y109.274
G1 X116.047 Y78.189 E655.5805
G1 X115.498 Y78.189
G1 X84.685 Y108.731 E657.0235
G1 X84.685 Y108.187
G1 X114.950 Y78.189 E658.4408
G1 X114.402 Y78.189
G1 X84.685 Y107.644 E659.8324
G1 X84.685 Y107.100
G1 X113.853 Y78.189 E661.1983
G1 X113.305 Y78.189
G1 X84.685 Y106.557 E662.5386
G1 X84.685 Y106.013
G1 X112.757 Y78.189 E663.8532
G1 X112.208 Y78.189
G1 X84.685 Y105.470 E665.1421
G1 X84.685 Y104.926
G1 X111.660 Y78.189 E666.4054
G1 X111.111 Y78.189
G1 X84.685 Y104.383 E667.6429
G1 X84.685 Y103.839
G1 X110.563 Y78.189 E668.8548
G1 X110.015 Y78.189
G1 X84.685 Y103.296 E670.0410
G1 X84.685 Y102.752
G1 X109.466 Y78.189 E671.2015
G1 X108.918 Y78.189
G1 X84.685 Y102.209 E672.3363
G1 X84.685 Y101.665
G1 X108.370 Y78.189 E673.4455
G1 X107.821 Y78.189
G1 X84.685 Y101.122 E674.5290
G1 X84.685 Y100.578
G1 X107.273 Y78.189 E675.5868
G1 X106.725 Y78.189
G1 X84.685 Y100.035 E676.6189
G1 X84.685 Y99.491
G1 X106.176 Y78.189 E677.6253
G1 X105.628 Y78.189
G1 X84.685 Y98.948 E678.6061
G1 X84.685 Y98.404
G1 X105.080 Y78.189 E679.5612
G1 X104.531 Y78.189
G1 X84.685 Y97.861 E680.4906
G1 X84.685 Y97.317
G1 X103.983 Y78.189 E681.3943
G1 X103.435 Y78.189
G1 X84.685 Y96.774 E682.2724
G1 X84.685 Y96.230
G1 X102.886 Y78.189 E683.1247
G1 X102.338 Y78.189
G1 X84.685 Y95.687 E683.9514
G1 X84.685 Y95.143
G1 X101.790 Y78.189 E684.7525
G1 X101.241 Y78.189
G1 X84.685 Y94.600 E685.5278
G1 X84.685 Y94.056
G1 X100.693 Y78.189 E686.2774
G1 X100.145 Y78.189
G1 X84.685 Y93.513 E687.0014
G1 X84.685 Y92.969
G1 X99.596 Y78.189 E687.6997
G1 X99.048 Y78.189
G1 X84.685 Y92.426 E688.3723
G1 X84.685 Y91.882
G1 X98.500 Y78.189 E689.0193
G1 X97.951 Y78.189
G1 X84.685 Y91.339 E689.6405
G1 X84.685 Y90.795
G1 X97.403 Y78.189 E690.2361
G1 X96.855 Y78.189
G1 X84.685 Y90.252 E690.8060
G1 X84.685 Y89.708
G1 X96.306 Y78.189 E691.3502
G1 X95.758 Y78.189
G1 X84.685 Y89.165 E691.8688
G1 X84.685 Y88.621
G1 X95.210 Y78.189 E692.3617
G1 X94.661 Y78.189
G1 X84.685 Y88.078 E692.8288
G1 X84.685 Y87.534
G1 X94.113 Y78.189 E693.2703
G1 X93.564 Y78.189
G1 X84.685 Y86.991 E693.6862
G1 X84.685 Y86.447
G1 X93.016 Y78.189 E694.0763
G1 X92.468 Y78.189
G1 X84.685 Y85.904 E694.4408
G1 X84.685 Y85.360
G1 X91.919 Y78.189 E694.7796
G1 X91.371 Y78.189
G1 X84.685 Y84.817 E695.0927
G1 X84.685 Y84.273
G1 X90.823 Y78.189 E695.3802
G1 X90.274 Y78.189
G1 X84.685 Y83.730 E695.6419
G1 X84.685 Y83.186
G1 X89.726 Y78.189 E695.8780
G1 X89.178 Y78.189
G1 X84.685 Y82.643 E696.0884
G1 X84.685 Y82.099
G1 X88.629 Y78.189 E696.2732
G1 X88.081 Y78.189
G1 X84.685 Y81.556 E696.4322
G1 X84.685 Y81.012
G1 X87.533 Y78.189 E696.5656
G1 X86.984 Y78.189
G1 X84.685 Y80.469 E696.6732
G1 X84.685 Y79.925
G1 X86.436 Y78.189 E696.7553
G1 X85.888 Y78.189
G1 X84.685 Y79.382 E696.8116
G1 X84.685 Y78.838
G1 X85.339 Y78.189 E696.8422
G1 X84.791 Y78.189
G1 X84.685 Y78.295 E696.8472
; ------------------------------------
; Layer #1
; ------------------------------------
G21 ; mm
G90 ; abs
G92 E0 ; reset extr
M106 S0
G0 F1200 E-1.0000
G0 F300 Z0.400
G0 X106.184 Y96.977 F5400
G0 X123.582 Y122.840
G0 F1200 E0.0000
;segType:HShell
G1 X114.452 Y113.790 E0.4276 F3000
;segType:Perimeter
G0 X114.039 Y113.729 F5400
G1 X113.394 Y113.464 E0.4507 F2100
G1 X89.452 Y113.464 E1.2471
G1 X89.452 Y82.861 E2.2649
G1 X127.250 Y82.861 E3.5221
G1 X129.204 Y82.915 E3.5871
G1 X131.148 Y83.079 E3.6520
G1 X133.081 Y83.352 E3.7169
G1 X134.996 Y83.733 E3.7819
G1 X136.886 Y84.221 E3.8468
G1 X138.746 Y84.814 E3.9117
G1 X140.569 Y85.510 E3.9766
G1 X142.351 Y86.307 E4.0415
G1 X144.085 Y87.203 E4.1065
G1 X145.766 Y88.194 E4.1714
G1 X147.389 Y89.279 E4.2363
G1 X148.949 Y90.453 E4.3012
G1 X150.440 Y91.712 E4.3662
G1 X151.859 Y93.054 E4.4311
G1 X153.200 Y94.472 E4.4960
G1 X154.460 Y95.963 E4.5609
G1 X155.633 Y97.523 E4.6259
G1 X156.718 Y99.146 E4.6908
G1 X157.710 Y100.828 E4.7557
G1 X158.606 Y102.562 E4.8206
G1 X159.403 Y104.344 E4.8856
G1 X160.099 Y106.168 E4.9505
G1 X160.692 Y108.028 E5.0154
G1 X161.180 Y109.918 E5.0804
G1 X161.561 Y111.833 E5.1453
G1 X161.834 Y113.766 E5.2102
G1 X161.998 Y115.711 E5.2752
G1 X162.053 Y117.665 E5.3402
G1 X162.053 Y130.675 E5.7729
G1 X162.228 Y132.008 E5.8176
G1 X162.747 Y133.262 E5.8627
G1 X163.574 Y134.339 E5.9079
G1 X164.651 Y135.165 E5.9531
G1 X165.906 Y135.685 E5.9982
G1 X167.239 Y135.861 E6.0430
G1 X174.052 Y135.861 E6.2696
G1 X174.052 Y155.464 E6.9216
G1 X113.452 Y155.464 E8.9372
G1 X113.452 Y113.522 E10.3322
G1 X113.185 Y112.883
;segType:Loop
G0 X112.386 Y113.068 F5400
G1 X89.852 Y113.068 E11.0816 F3000
G1 X89.852 Y83.257 E12.0731
G1 X127.244 Y83.257 E13.3168
G1 X129.181 Y83.311 E13.3813
G1 X131.103 Y83.474 E13.4454
G1 X133.014 Y83.743 E13.5096
G1 X134.906 Y84.120 E13.5738
G1 X136.774 Y84.602 E13.6379
G1 X138.613 Y85.188 E13.7021
G1 X140.415 Y85.876 E13.7663
G1 X142.176 Y86.664 E13.8304
G1 X143.890 Y87.549 E13.8946
G1 X145.552 Y88.529 E13.9588
G1 X147.157 Y89.601 E14.0230
G1 X148.698 Y90.762 E14.0871
G1 X150.173 Y92.007 E14.1513
G1 X151.575 Y93.333 E14.2155
G1 X152.901 Y94.735 E14.2797
G1 X154.146 Y96.209 E14.3439
G1 X155.306 Y97.751 E14.4081
G1 X156.378 Y99.356 E14.4723
G1 X157.359 Y101.018 E14.5364
G1 X158.245 Y102.733 E14.6006
G1 X159.033 Y104.494 E14.6648
G1 X159.721 Y106.298 E14.7290
G1 X160.307 Y108.137 E14.7932
G1 X160.789 Y110.005 E14.8574
G1 X161.166 Y111.899 E14.9216
G1 X161.436 Y113.810 E14.9858
G1 X161.598 Y115.733 E15.0500
G1 X161.653 Y117.671 E15.1145
G1 X161.653 Y130.701 E15.5479
G1 X161.838 Y132.111 E15.5951
G1 X162.397 Y133.460 E15.6437
G1 X163.287 Y134.620 E15.6924
G1 X164.448 Y135.511 E15.7410
G1 X165.800 Y136.071 E15.7897
G1 X167.213 Y136.257 E15.8371
G1 X173.652 Y136.257 E16.0513
G1 X173.652 Y155.068 E16.6769
G1 X113.852 Y155.068 E18.6659
G1 X113.852 Y113.068 E20.0628
G1 X112.580 Y113.068 E20.1051
G0 X111.320 Y112.671 F5400
G1 X90.252 Y112.671 E20.8058 F3000
G1 X90.252 Y83.654 E21.7710
G1 X127.238 Y83.654 E23.0011
G1 X129.158 Y83.707 E23.0650
G1 X131.058 Y83.868 E23.1284
G1 X132.946 Y84.134 E23.1919
G1 X134.816 Y84.506 E23.2553
G1 X136.662 Y84.983 E23.3187
G1 X138.479 Y85.561 E23.3821
G1 X140.261 Y86.242 E23.4455
G1 X142.001 Y87.020 E23.5090
G1 X143.695 Y87.896 E23.5724
G1 X145.338 Y88.864 E23.6358
G1 X146.924 Y89.924 E23.6992
G1 X148.447 Y91.071 E23.7627
G1 X149.905 Y92.302 E23.8261
G1 X151.291 Y93.612 E23.8895
G1 X152.601 Y94.998 E23.9530
G1 X153.832 Y96.455 E24.0164
G1 X154.979 Y97.979 E24.0799
G1 X156.039 Y99.566 E24.1433
G1 X157.008 Y101.209 E24.2068
G1 X157.883 Y102.904 E24.2702
G1 X158.663 Y104.645 E24.3337
G1 X159.343 Y106.428 E24.3971
G1 X159.922 Y108.246 E24.4606
G1 X160.399 Y110.093 E24.5241
G1 X160.771 Y111.965 E24.5875
G1 X161.038 Y113.854 E24.6510
G1 X161.199 Y115.755 E24.7145
G1 X161.253 Y117.676 E24.7784
G1 X161.253 Y130.727 E25.2124
G1 X161.448 Y132.213 E25.2623
G1 X162.047 Y133.659 E25.3144
G1 X163.001 Y134.902 E25.3664
G1 X164.245 Y135.857 E25.4186
G1 X165.695 Y136.458 E25.4708
G1 X167.186 Y136.653 E25.5209
G1 X173.252 Y136.653 E25.7226
G1 X173.252 Y154.671 E26.3219
G1 X114.252 Y154.671 E28.2842
G1 X114.252 Y112.671 E29.6812
G1 X111.514 Y112.671 E29.7722
G0 X105.798 Y100.561 F5400
G1 X105.521 Y100.923 E29.7874 F3000
G1 X104.857 Y101.433 E29.8152
G1 X104.083 Y101.753 E29.8431
G1 X103.292 Y101.857 E29.8696
G1 X97.213 Y101.857 E30.0718
G1 X96.421 Y101.753 E30.0984
G1 X95.648 Y101.433 E30.1262
G1 X94.984 Y100.923 E30.1541
G1 X94.476 Y100.260 E30.1818
G1 X94.156 Y99.489 E30.2096
G1 X94.047 Y98.663 E30.2373
G1 X94.156 Y97.836 E30.2651
G1 X94.476 Y97.065 E30.2928
G1 X94.984 Y96.402 E30.3206
G1 X95.648 Y95.892 E30.3485
G1 X96.422 Y95.572 E30.3763
G1 X97.213 Y95.468 E30.4029
G1 X103.292 Y95.468 E30.6050
G1 X104.083 Y95.572 E30.6316
G1 X104.857 Y95.892 E30.6594
G1 X105.521 Y96.402 E30.6873
G1 X106.029 Y97.065 E30.7151
G1 X106.349 Y97.836 E30.7428
G1 X106.452 Y98.625 E30.7693
G1 X106.350 Y99.486 E30.7981
G1 X106.029 Y100.260 E30.8260
G1 X105.916 Y100.408 E30.8322
;segType:Perimeter
G0 X106.513 Y99.048 F5400
G1 X105.937 Y99.439 E30.8554 F2100
G1 X105.679 Y100.062 E30.8778
G1 X105.234 Y100.642 E30.9021
G1 X104.654 Y101.087 E30.9264
G1 X103.978 Y101.367 E30.9508
G1 X103.266 Y101.461 E30.9746
G1 X97.239 Y101.461 E31.1751
G1 X96.527 Y101.367 E31.1990
G1 X95.851 Y101.087 E31.2233
G1 X95.271 Y100.642 E31.2477
G1 X94.826 Y100.062 E31.2720
G1 X94.546 Y99.387 E31.2963
G1 X94.451 Y98.663 E31.3206
G1 X94.546 Y97.938 E31.3449
G1 X94.826 Y97.263 E31.3692
G1 X95.271 Y96.683 E31.3935
G1 X95.851 Y96.238 E31.4178
G1 X96.527 Y95.958 E31.4421
G1 X97.239 Y95.864 E31.4660
G1 X103.266 Y95.864 E31.6665
G1 X103.978 Y95.958 E31.6904
G1 X104.654 Y96.238 E31.7147
G1 X105.234 Y96.683 E31.7390
G1 X105.679 Y97.263 E31.7633
G1 X105.959 Y97.938 E31.7876
G1 X106.049 Y98.628 E31.8108
G1 X105.966 Y99.328 E31.8342
G1 X106.278 Y99.947
;segType:Loop
G0 X105.285 Y101.605 F5400
G1 X105.060 Y101.778 E31.8437 F3000
G1 X104.189 Y102.139 E31.8750
G1 X103.319 Y102.254 E31.9042
G1 X97.186 Y102.254 E32.1082
G1 X96.316 Y102.139 E32.1374
G1 X95.445 Y101.778 E32.1688
G1 X94.698 Y101.205 E32.2001
G1 X94.126 Y100.459 E32.2313
G1 X93.766 Y99.592 E32.2626
G1 X93.644 Y98.663 E32.2937
G1 X93.766 Y97.733 E32.3249
G1 X94.126 Y96.866 E32.3561
G1 X94.698 Y96.120 E32.3874
G1 X95.445 Y95.547 E32.4187
G1 X96.316 Y95.186 E32.4501
G1 X97.186 Y95.071 E32.4793
G1 X103.318 Y95.071 E32.6832
G1 X104.188 Y95.186 E32.7124
G1 X105.060 Y95.547 E32.7438
G1 X105.807 Y96.120 E32.7751
G1 X106.379 Y96.866 E32.8064
G1 X106.739 Y97.733 E32.8376
G1 X106.855 Y98.623 E32.8675
G1 X106.741 Y99.586 E32.8997
G1 X106.379 Y100.459 E32.9312
G1 X105.807 Y101.205 E32.9624
G1 X105.439 Y101.488 E32.9779
G0 X121.901 Y104.673 F5400
G0 X122.781 Y105.232
G0 X123.545 Y106.758
G1 X123.485 Y107.233 E32.9938 F3000
G1 X123.273 Y107.768 E33.0129
G1 X122.934 Y108.235 E33.0321
G1 X122.489 Y108.603 E33.0513
G1 X121.966 Y108.849 E33.0706
G1 X121.397 Y108.958 E33.0898
G1 X120.820 Y108.921 E33.1091
G1 X120.269 Y108.742 E33.1283
G1 X119.781 Y108.433 E33.1475
G1 X119.386 Y108.012 E33.1667
G1 X119.109 Y107.507 E33.1859
G1 X118.966 Y106.950 E33.2050
G1 X118.966 Y106.375 E33.2242
G1 X119.109 Y105.818 E33.2433
G1 X119.386 Y105.313 E33.2624
G1 X119.781 Y104.892 E33.2816
G1 X120.269 Y104.583 E33.3009
G1 X120.820 Y104.404 E33.3201
G1 X121.397 Y104.367 E33.3394
G1 X121.966 Y104.476 E33.3586
G1 X122.489 Y104.722 E33.3778
G1 X122.934 Y105.090 E33.3970
G1 X123.275 Y105.559 E33.4163
G1 X123.488 Y106.117 E33.4362
G1 X123.545 Y106.567 E33.4513
;segType:Perimeter
G0 X123.097 Y105.129 F5400
G1 X122.941 Y105.803 E33.4743 F2100
G1 X123.097 Y106.213 E33.4889
G1 X123.154 Y106.663 E33.5040
G1 X123.095 Y107.134 E33.5198
G1 X122.919 Y107.577 E33.5356
G1 X122.639 Y107.963 E33.5515
G1 X122.272 Y108.266 E33.5673
G1 X121.840 Y108.469 E33.5832
G1 X121.372 Y108.559 E33.5991
G1 X120.896 Y108.529 E33.6149
G1 X120.442 Y108.381 E33.6308
G1 X120.040 Y108.126 E33.6466
G1 X119.713 Y107.778 E33.6625
G1 X119.484 Y107.361 E33.6783
G1 X119.366 Y106.900 E33.6941
G1 X119.366 Y106.425 E33.7100
G1 X119.484 Y105.964 E33.7258
G1 X119.713 Y105.547 E33.7416
G1 X120.040 Y105.199 E33.7575
G1 X120.442 Y104.944 E33.7733
G1 X120.896 Y104.796 E33.7892
G1 X121.372 Y104.766 E33.8051
G1 X121.840 Y104.856 E33.8209
G1 X122.272 Y105.059 E33.8368
G1 X122.639 Y105.363 E33.8526
G1 X122.886 Y105.702 E33.8666
G1 X123.540 Y105.944
;segType:Loop
G0 X123.645 Y107.916 F5400
G1 X123.627 Y107.960 E33.8682 F3000
G1 X123.229 Y108.507 E33.8907
G1 X122.707 Y108.939 E33.9132
G1 X122.092 Y109.229 E33.9358
G1 X121.423 Y109.357 E33.9585
G1 X120.743 Y109.314 E33.9811
G1 X120.096 Y109.103 E34.0038
G1 X119.523 Y108.740 E34.0263
G1 X119.059 Y108.245 E34.0489
G1 X118.734 Y107.653 E34.0714
G1 X118.566 Y107.000 E34.0938
G1 X118.566 Y106.325 E34.1162
G1 X118.734 Y105.672 E34.1387
G1 X119.059 Y105.080 E34.1611
G1 X119.523 Y104.585 E34.1837
G1 X120.097 Y104.222 E34.2063
G1 X120.743 Y104.012 E34.2289
G1 X121.423 Y103.969 E34.2515
G1 X122.092 Y104.096 E34.2742
G1 X122.707 Y104.386 E34.2968
G1 X123.229 Y104.818 E34.3193
G1 X123.631 Y105.370 E34.3421
G1 X123.879 Y106.021 E34.3652
G1 X123.960 Y106.662 E34.3867
G1 X123.876 Y107.331 E34.4092
G1 X123.715 Y107.737 E34.4237
G0 X123.283 Y138.178 F5400
G0 X122.860 Y139.297
G1 X122.489 Y139.603 E34.4397 F3000
G1 X121.966 Y139.849 E34.4589
G1 X121.397 Y139.958 E34.4781
G1 X120.820 Y139.921 E34.4974
G1 X120.269 Y139.742 E34.5166
G1 X119.781 Y139.433 E34.5359
G1 X119.386 Y139.012 E34.5551
G1 X119.109 Y138.507 E34.5742
G1 X118.966 Y137.950 E34.5934
G1 X118.966 Y137.375 E34.6125
G1 X119.109 Y136.818 E34.6316
G1 X119.386 Y136.313 E34.6508
G1 X119.781 Y135.892 E34.6700
G1 X120.269 Y135.583 E34.6892
G1 X120.820 Y135.404 E34.7084
G1 X121.397 Y135.367 E34.7277
G1 X121.966 Y135.476 E34.7469
G1 X122.489 Y135.722 E34.7662
G1 X122.934 Y136.090 E34.7854
G1 X123.273 Y136.556 E34.8045
G1 X123.485 Y137.092 E34.8237
G1 X123.552 Y137.623 E34.8415
G1 X123.487 Y138.228 E34.8617
G1 X123.273 Y138.768 E34.8811
G1 X122.991 Y139.157 E34.8970
;segType:Perimeter
G0 X123.645 Y137.789 F5400
G1 X123.074 Y138.186 E34.9202 F2100
G1 X122.919 Y138.577 E34.9342
G1 X122.639 Y138.963 E34.9500
G1 X122.272 Y139.266 E34.9659
G1 X121.840 Y139.469 E34.9817
G1 X121.372 Y139.559 E34.9976
G1 X120.896 Y139.529 E35.0135
G1 X120.442 Y139.381 E35.0293
G1 X120.040 Y139.126 E35.0452
G1 X119.713 Y138.778 E35.0610
G1 X119.484 Y138.361 E35.0768
G1 X119.366 Y137.900 E35.0927
G1 X119.366 Y137.425 E35.1085
G1 X119.484 Y136.964 E35.1243
G1 X119.713 Y136.546 E35.1402
G1 X120.040 Y136.199 E35.1560
G1 X120.442 Y135.944 E35.1719
G1 X120.896 Y135.796 E35.1877
G1 X121.372 Y135.766 E35.2036
G1 X121.840 Y135.856 E35.2195
G1 X122.272 Y136.059 E35.2353
G1 X122.639 Y136.363 E35.2512
G1 X122.919 Y136.748 E35.2670
G1 X123.095 Y137.190 E35.2828
G1 X123.149 Y137.627 E35.2975
G1 X123.101 Y138.075 E35.3125
G1 X123.423 Y138.689
;segType:Loop
G0 X122.133 Y140.209 F5400
G1 X122.092 Y140.229 E35.3140 F3000
G1 X121.423 Y140.357 E35.3367
G1 X120.743 Y140.314 E35.3593
G1 X120.096 Y140.103 E35.3819
G1 X119.523 Y139.740 E35.4045
G1 X119.059 Y139.245 E35.4271
G1 X118.734 Y138.653 E35.4495
G1 X118.566 Y137.999 E35.4720
G1 X118.566 Y137.325 E35.4944
G1 X118.734 Y136.672 E35.5168
G1 X119.059 Y136.080 E35.5393
G1 X119.523 Y135.585 E35.5619
G1 X120.097 Y135.221 E35.5845
G1 X120.743 Y135.012 E35.6071
G1 X121.423 Y134.969 E35.6297
G1 X122.092 Y135.096 E35.6524
G1 X122.707 Y135.386 E35.6750
G1 X123.229 Y135.818 E35.6975
G1 X123.627 Y136.365 E35.7200
G1 X123.876 Y136.993 E35.7425
G1 X123.955 Y137.620 E35.7635
G1 X123.879 Y138.323 E35.7870
G1 X123.627 Y138.960 E35.8098
G1 X123.229 Y139.507 E35.8323
G1 X122.707 Y139.939 E35.8549
G1 X122.308 Y140.127 E35.8695
G0 X119.545 Y145.758 F5400
G1 X119.485 Y146.233 E35.8854 F3000
G1 X119.273 Y146.768 E35.9046
G1 X118.934 Y147.235 E35.9238
G1 X118.489 Y147.603 E35.9430
G1 X117.966 Y147.849 E35.9622
G1 X117.397 Y147.958 E35.9815
G1 X116.820 Y147.921 E36.0007
G1 X116.269 Y147.742 E36.0200
G1 X115.782 Y147.432 E36.0392
G1 X115.386 Y147.012 E36.0584
G1 X115.109 Y146.507 E36.0775
G1 X114.966 Y145.950 E36.0967
G1 X114.966 Y145.375 E36.1158
G1 X115.109 Y144.818 E36.1349
G1 X115.386 Y144.313 E36.1541
G1 X115.782 Y143.892 E36.1733
G1 X116.269 Y143.583 E36.1925
G1 X116.820 Y143.404 E36.2117
G1 X117.397 Y143.367 E36.2310
G1 X117.966 Y143.476 E36.2503
G1 X118.489 Y143.722 E36.2695
G1 X118.934 Y144.090 E36.2887
G1 X119.275 Y144.560 E36.3080
G1 X119.488 Y145.117 E36.3278
G1 X119.545 Y145.567 E36.3429
;segType:Perimeter
G0 X119.097 Y144.129 F5400
G1 X118.941 Y144.803 E36.3659 F2100
G1 X119.097 Y145.213 E36.3806
G1 X119.154 Y145.663 E36.3956
G1 X119.094 Y146.134 E36.4114
G1 X118.919 Y146.577 E36.4273
G1 X118.639 Y146.963 E36.4431
G1 X118.272 Y147.266 E36.4590
G1 X117.841 Y147.469 E36.4748
G1 X117.372 Y147.559 E36.4907
G1 X116.896 Y147.529 E36.5066
G1 X116.442 Y147.381 E36.5224
G1 X116.040 Y147.126 E36.5383
G1 X115.713 Y146.778 E36.5541
G1 X115.484 Y146.361 E36.5700
G1 X115.366 Y145.900 E36.5858
G1 X115.366 Y145.425 E36.6016
G1 X115.484 Y144.964 E36.6174
G1 X115.713 Y144.547 E36.6333
G1 X116.040 Y144.199 E36.6491
G1 X116.442 Y143.944 E36.6650
G1 X116.896 Y143.796 E36.6808
G1 X117.372 Y143.766 E36.6967
G1 X117.841 Y143.856 E36.7126
G1 X118.272 Y144.059 E36.7284
G1 X118.639 Y144.363 E36.7443
G1 X118.886 Y144.702 E36.7582
G1 X119.540 Y144.944
;segType:Loop
G0 X119.644 Y146.916 F5400
G1 X119.627 Y146.959 E36.7598 F3000
G1 X119.229 Y147.507 E36.7823
G1 X118.707 Y147.939 E36.8049
G1 X118.092 Y148.229 E36.8275
G1 X117.423 Y148.357 E36.8501
G1 X116.743 Y148.314 E36.8728
G1 X116.096 Y148.103 E36.8954
G1 X115.523 Y147.739 E36.9180
G1 X115.059 Y147.245 E36.9405
G1 X114.734 Y146.653 E36.9630
G1 X114.566 Y146.000 E36.9854
G1 X114.566 Y145.325 E37.0079
G1 X114.734 Y144.672 E37.0303
G1 X115.059 Y144.080 E37.0528
G1 X115.523 Y143.585 E37.0753
G1 X116.096 Y143.222 E37.0979
G1 X116.743 Y143.012 E37.1205
G1 X117.423 Y142.969 E37.1432
G1 X118.092 Y143.096 E37.1658
G1 X118.707 Y143.386 E37.1884
G1 X119.229 Y143.818 E37.2110
G1 X119.631 Y144.370 E37.2337
G1 X119.879 Y145.020 E37.2569
G1 X119.960 Y145.663 E37.2784
G1 X119.876 Y146.331 E37.3008
G1 X119.715 Y146.737 E37.3153
G0 X152.901 Y139.652 F5400
G0 X153.781 Y139.093
G0 X155.136 Y137.809
;segType:HShell
G1 X161.041 Y143.663 E37.5919 F3000
G1 X160.848 Y144.015
G1 X155.083 Y138.300 E37.8619
;segType:Perimeter
G0 X154.645 Y137.789 F5400
G1 X154.074 Y138.186 E37.8850 F2100
G1 X153.919 Y138.577 E37.8990
G1 X153.639 Y138.963 E37.9148
G1 X153.272 Y139.266 E37.9307
G1 X152.841 Y139.469 E37.9465
G1 X152.372 Y139.559 E37.9624
G1 X151.896 Y139.529 E37.9783
G1 X151.442 Y139.381 E37.9941
G1 X151.040 Y139.126 E38.0100
G1 X150.713 Y138.778 E38.0259
G1 X150.484 Y138.361 E38.0417
G1 X150.366 Y137.900 E38.0575
G1 X150.366 Y137.425 E38.0733
G1 X150.484 Y136.964 E38.0892
G1 X150.713 Y136.546 E38.1050
G1 X151.040 Y136.199 E38.1208
G1 X151.442 Y135.944 E38.1367
G1 X151.896 Y135.796 E38.1526
G1 X152.372 Y135.766 E38.1684
G1 X152.841 Y135.856 E38.1843
G1 X153.272 Y136.059 E38.2002
G1 X153.639 Y136.363 E38.2160
G1 X153.919 Y136.748 E38.2318
G1 X154.094 Y137.190 E38.2477
G1 X154.149 Y137.627 E38.2623
G1 X154.101 Y138.075 E38.2773
G1 X154.422 Y138.689
;segType:Loop
G0 X153.860 Y139.296 F5400
G1 X153.489 Y139.603 E38.2933 F3000
G1 X152.966 Y139.849 E38.3125
G1 X152.397 Y139.958 E38.3318
G1 X151.819 Y139.921 E38.3511
G1 X151.269 Y139.742 E38.3703
G1 X150.782 Y139.432 E38.3895
G1 X150.386 Y139.012 E38.4087
G1 X150.109 Y138.507 E38.4279
G1 X149.966 Y137.950 E38.4470
G1 X149.966 Y137.375 E38.4661
G1 X150.109 Y136.818 E38.4853
G1 X150.386 Y136.313 E38.5044
G1 X150.782 Y135.892 E38.5236
G1 X151.269 Y135.583 E38.5428
G1 X151.819 Y135.404 E38.5621
G1 X152.397 Y135.367 E38.5813
G1 X152.966 Y135.476 E38.6006
G1 X153.489 Y135.722 E38.6198
G1 X153.934 Y136.090 E38.6390
G1 X154.273 Y136.556 E38.6582
G1 X154.485 Y137.092 E38.6773
G1 X154.552 Y137.623 E38.6952
G1 X154.487 Y138.228 E38.7154
G1 X154.273 Y138.768 E38.7347
G1 X153.991 Y139.157 E38.7507
G0 X153.133 Y140.209 F5400
G1 X153.092 Y140.229 E38.7522 F3000
G1 X152.423 Y140.357 E38.7749
G1 X151.743 Y140.314 E38.7975
G1 X151.096 Y140.103 E38.8202
G1 X150.523 Y139.739 E38.8427
G1 X150.059 Y139.245 E38.8653
G1 X149.734 Y138.653 E38.8877
G1 X149.566 Y138.000 E38.9102
G1 X149.566 Y137.325 E38.9326
G1 X149.734 Y136.672 E38.9550
G1 X150.059 Y136.080 E38.9775
G1 X150.523 Y135.585 E39.0001
G1 X151.096 Y135.222 E39.0226
G1 X151.743 Y135.012 E39.0453
G1 X152.423 Y134.969 E39.0679
G1 X153.092 Y135.096 E39.0906
G1 X153.707 Y135.385 E39.1132
G1 X154.229 Y135.818 E39.1357
G1 X154.627 Y136.365 E39.1582
G1 X154.876 Y136.993 E39.1807
G1 X154.955 Y137.620 E39.2017
G1 X154.879 Y138.323 E39.2252
G1 X154.627 Y138.959 E39.2480
G1 X154.229 Y139.507 E39.2705
G1 X153.707 Y139.939 E39.2931
G1 X153.309 Y140.127 E39.3077
G0 X165.179 Y142.817 F5400
G0 X166.437 Y143.615
G0 X167.408 Y145.273
G1 X167.457 Y145.663 E39.3208 F3000
G1 X167.357 Y146.457 E39.3474
G1 X167.062 Y147.202 E39.3740
G1 X166.590 Y147.851 E39.4007
G1 X165.972 Y148.362 E39.4274
G1 X165.244 Y148.705 E39.4542
G1 X164.454 Y148.856 E39.4809
G1 X163.651 Y148.805 E39.5077
G1 X162.886 Y148.557 E39.5344
G1 X162.208 Y148.126 E39.5611
G1 X161.658 Y147.541 E39.5878
G1 X161.272 Y146.839 E39.6145
G1 X161.073 Y146.062 E39.6412
G1 X161.073 Y145.262 E39.6678
G1 X161.272 Y144.487 E39.6944
G1 X161.658 Y143.784 E39.7211
G1 X162.208 Y143.199 E39.7478
G1 X162.886 Y142.769 E39.7745
G1 X163.651 Y142.520 E39.8012
G1 X164.454 Y142.469 E39.8280
G1 X165.244 Y142.620 E39.8548
G1 X165.972 Y142.962 E39.8815
G1 X166.590 Y143.474 E39.9082
G1 X167.064 Y144.126 E39.9350
G1 X167.361 Y144.904 E39.9627
G1 X167.384 Y145.082 E39.9687
;segType:Perimeter
G0 X166.886 Y143.695 F5400
G1 X166.729 Y144.369 E39.9917 F2100
G1 X166.970 Y145.000 E40.0142
G1 X167.054 Y145.663 E40.0364
G1 X166.966 Y146.358 E40.0597
G1 X166.708 Y147.011 E40.0830
G1 X166.295 Y147.578 E40.1064
G1 X165.754 Y148.026 E40.1297
G1 X165.119 Y148.325 E40.1531
G1 X164.429 Y148.457 E40.1765
G1 X163.727 Y148.413 E40.1998
G1 X163.059 Y148.196 E40.2232
G1 X162.466 Y147.819 E40.2466
G1 X161.985 Y147.307 E40.2699
G1 X161.647 Y146.693 E40.2932
G1 X161.473 Y146.013 E40.3166
G1 X161.473 Y145.312 E40.3399
G1 X161.647 Y144.632 E40.3632
G1 X161.985 Y144.018 E40.3866
G1 X162.466 Y143.506 E40.4099
G1 X163.059 Y143.130 E40.4333
G1 X163.727 Y142.912 E40.4567
G1 X164.429 Y142.868 E40.4800
G1 X165.119 Y143.000 E40.5034
G1 X165.754 Y143.299 E40.5268
G1 X166.295 Y143.746 E40.5501
G1 X166.675 Y144.269 E40.5716
G1 X167.328 Y144.511
;segType:Loop
G0 X167.771 Y146.371 F5400
G1 X167.748 Y146.555 E40.5778 F3000
G1 X167.416 Y147.393 E40.6077
G1 X166.885 Y148.123 E40.6377
G1 X166.189 Y148.699 E40.6678
G1 X165.370 Y149.085 E40.6979
G1 X164.480 Y149.255 E40.7281
G1 X163.575 Y149.197 E40.7582
G1 X162.713 Y148.918 E40.7883
G1 X161.950 Y148.433 E40.8184
G1 X161.331 Y147.775 E40.8485
G1 X160.897 Y146.985 E40.8785
G1 X160.673 Y146.112 E40.9084
G1 X160.673 Y145.213 E40.9383
G1 X160.897 Y144.341 E40.9683
G1 X161.331 Y143.550 E40.9983
G1 X161.950 Y142.892 E41.0283
G1 X162.713 Y142.408 E41.0584
G1 X163.575 Y142.127 E41.0885
G1 X164.480 Y142.070 E41.1187
G1 X165.370 Y142.240 E41.1488
G1 X166.189 Y142.626 E41.1789
G1 X166.885 Y143.202 E41.2090
G1 X167.419 Y143.937 E41.2392
G1 X167.752 Y144.808 E41.2702
G1 X167.860 Y145.663 E41.2989
G1 X167.795 Y146.180 E41.3162
G0 X166.879 Y144.224 F5400
G0 X149.151 Y124.389
G1 X149.139 Y124.476 E41.3191 F3000
G1 X148.872 Y125.608 E41.3578
G1 X148.503 Y126.711 E41.3965
G1 X148.033 Y127.775 E41.4352
G1 X147.467 Y128.791 E41.4739
G1 X146.809 Y129.751 E41.5126
G1 X146.066 Y130.646 E41.5513
G1 X145.243 Y131.469 E41.5900
G1 X144.348 Y132.212 E41.6287
G1 X143.388 Y132.870 E41.6674
G1 X142.371 Y133.436 E41.7061
G1 X141.306 Y133.906 E41.7448
G1 X140.202 Y134.276 E41.7836
G1 X139.069 Y134.543 E41.8223
G1 X137.915 Y134.704 E41.8610
G1 X136.752 Y134.758 E41.8997
G1 X135.589 Y134.704 E41.9385
G1 X134.436 Y134.543 E41.9772
G1 X133.303 Y134.276 E42.0159
G1 X132.199 Y133.906 E42.0546
G1 X131.134 Y133.436 E42.0933
G1 X130.117 Y132.870 E42.1321
G1 X129.157 Y132.212 E42.1708
G1 X128.261 Y131.469 E42.2095
G1 X127.439 Y130.646 E42.2482
G1 X126.695 Y129.751 E42.2869
G1 X126.038 Y128.791 E42.3256
G1 X125.472 Y127.775 E42.3643
G1 X125.002 Y126.711 E42.4030
G1 X124.633 Y125.608 E42.4416
G1 X124.366 Y124.476 E42.4803
G1 X124.205 Y123.324 E42.5190
G1 X124.152 Y122.162 E42.5577
G1 X124.205 Y121.001 E42.5963
G1 X124.366 Y119.849 E42.6350
G1 X124.633 Y118.717 E42.6737
G1 X125.002 Y117.614 E42.7124
G1 X125.472 Y116.550 E42.7511
G1 X126.037 Y115.534 E42.7898
G1 X126.695 Y114.574 E42.8285
G1 X127.439 Y113.679 E42.8672
G1 X128.261 Y112.856 E42.9059
G1 X129.157 Y112.113 E42.9446
G1 X130.117 Y111.455 E42.9833
G1 X131.134 Y110.889 E43.0220
G1 X132.199 Y110.418 E43.0607
G1 X133.303 Y110.048 E43.0994
G1 X134.436 Y109.782 E43.1382
G1 X135.589 Y109.621 E43.1769
G1 X136.752 Y109.567 E43.2156
G1 X137.915 Y109.621 E43.2543
G1 X139.069 Y109.782 E43.2931
G1 X140.202 Y110.048 E43.3318
G1 X141.306 Y110.418 E43.3705
G1 X142.371 Y110.889 E43.4092
G1 X143.388 Y111.455 E43.4480
G1 X144.348 Y112.113 E43.4867
G1 X145.244 Y112.856 E43.5254
G1 X146.066 Y113.679 E43.5641
G1 X146.809 Y114.574 E43.6028
G1 X147.467 Y115.534 E43.6415
G1 X148.033 Y116.550 E43.6802
G1 X148.503 Y117.614 E43.7188
G1 X148.872 Y118.717 E43.7575
G1 X149.125 Y119.794 E43.7943
G1 X149.291 Y120.943 E43.8329
G1 X149.351 Y122.105 E43.8716
G1 X149.300 Y123.323 E43.9122
G1 X149.177 Y124.198 E43.9416
;segType:Perimeter
G0 X149.418 Y122.888 F5400
G1 X148.893 Y123.345 E43.9647 F2100
G1 X148.745 Y124.403 E44.0003
G1 X148.487 Y125.500 E44.0377
G1 X148.129 Y126.569 E44.0752
G1 X147.674 Y127.599 E44.1127
G1 X147.126 Y128.583 E44.1502
G1 X146.489 Y129.513 E44.1876
G1 X145.769 Y130.380 E44.2251
G1 X144.972 Y131.176 E44.2626
G1 X144.105 Y131.897 E44.3001
G1 X143.176 Y132.533 E44.3375
G1 X142.191 Y133.082 E44.3750
G1 X141.160 Y133.537 E44.4125
G1 X140.092 Y133.895 E44.4500
G1 X138.995 Y134.153 E44.4875
G1 X137.878 Y134.309 E44.5250
G1 X136.752 Y134.361 E44.5625
G1 X135.626 Y134.309 E44.6000
G1 X134.510 Y134.153 E44.6374
G1 X133.413 Y133.895 E44.6749
G1 X132.345 Y133.537 E44.7124
G1 X131.314 Y133.082 E44.7499
G1 X130.329 Y132.533 E44.7874
G1 X129.400 Y131.897 E44.8248
G1 X128.533 Y131.176 E44.8623
G1 X127.736 Y130.380 E44.8998
G1 X127.016 Y129.513 E44.9373
G1 X126.379 Y128.583 E44.9748
G1 X125.831 Y127.599 E45.0122
G1 X125.376 Y126.569 E45.0497
G1 X125.018 Y125.501 E45.0872
G1 X124.760 Y124.404 E45.1246
G1 X124.604 Y123.288 E45.1621
G1 X124.552 Y122.162 E45.1996
G1 X124.604 Y121.037 E45.2371
G1 X124.760 Y119.921 E45.2745
G1 X125.018 Y118.825 E45.3120
G1 X125.376 Y117.756 E45.3495
G1 X125.831 Y116.726 E45.3869
G1 X126.379 Y115.742 E45.4244
G1 X127.016 Y114.812 E45.4619
G1 X127.736 Y113.945 E45.4994
G1 X128.533 Y113.148 E45.5369
G1 X129.400 Y112.428 E45.5743
G1 X130.329 Y111.792 E45.6118
G1 X131.314 Y111.243 E45.6493
G1 X132.345 Y110.788 E45.6868
G1 X133.413 Y110.430 E45.7243
G1 X134.510 Y110.172 E45.7618
G1 X135.626 Y110.016 E45.7992
G1 X136.752 Y109.964 E45.8367
G1 X137.878 Y110.016 E45.8742
G1 X138.995 Y110.172 E45.9117
G1 X140.092 Y110.430 E45.9492
G1 X141.160 Y110.788 E45.9867
G1 X142.191 Y111.243 E46.0242
G1 X143.176 Y111.792 E46.0616
G1 X144.105 Y112.428 E46.0991
G1 X144.973 Y113.148 E46.1366
G1 X145.769 Y113.945 E46.1741
G1 X146.489 Y114.812 E46.2115
G1 X147.126 Y115.742 E46.2490
G1 X147.674 Y116.726 E46.2865
G1 X148.129 Y117.756 E46.3240
G1 X148.487 Y118.825 E46.3614
G1 X148.732 Y119.867 E46.3971
G1 X148.893 Y120.981 E46.4345
G1 X148.950 Y122.106 E46.4720
G1 X148.903 Y123.230 E46.5094
G1 X149.338 Y123.771
;segType:Loop
G0 X149.306 Y125.509 F5400
G1 X149.258 Y125.716 E46.5164 F3000
G1 X148.876 Y126.853 E46.5563
G1 X148.392 Y127.951 E46.5962
G1 X147.808 Y128.999 E46.6361
G1 X147.130 Y129.989 E46.6760
G1 X146.363 Y130.912 E46.7160
G1 X145.514 Y131.761 E46.7559
G1 X144.590 Y132.528 E46.7958
G1 X143.600 Y133.207 E46.8358
G1 X142.551 Y133.791 E46.8757
G1 X141.452 Y134.276 E46.9157
G1 X140.312 Y134.658 E46.9556
G1 X139.143 Y134.933 E46.9956
G1 X137.953 Y135.099 E47.0356
G1 X136.752 Y135.155 E47.0755
G1 X135.552 Y135.099 E47.1155
G1 X134.362 Y134.933 E47.1554
G1 X133.192 Y134.658 E47.1954
G1 X132.053 Y134.276 E47.2354
G1 X130.954 Y133.791 E47.2753
G1 X129.905 Y133.207 E47.3153
G1 X128.914 Y132.528 E47.3552
G1 X127.990 Y131.761 E47.3952
G1 X127.142 Y130.912 E47.4351
G1 X126.375 Y129.989 E47.4750
G1 X125.697 Y128.998 E47.5149
G1 X125.113 Y127.951 E47.5548
G1 X124.628 Y126.853 E47.5947
G1 X124.247 Y125.716 E47.6346
G1 X123.972 Y124.548 E47.6745
G1 X123.807 Y123.360 E47.7144
G1 X123.751 Y122.162 E47.7543
G1 X123.807 Y120.965 E47.7942
G1 X123.972 Y119.777 E47.8341
G1 X124.247 Y118.609 E47.8740
G1 X124.628 Y117.472 E47.9138
G1 X125.113 Y116.374 E47.9537
G1 X125.696 Y115.327 E47.9936
G1 X126.375 Y114.336 E48.0336
G1 X127.142 Y113.413 E48.0735
G1 X127.990 Y112.564 E48.1134
G1 X128.914 Y111.797 E48.1534
G1 X129.905 Y111.118 E48.1933
G1 X130.954 Y110.534 E48.2332
G1 X132.053 Y110.049 E48.2732
G1 X133.192 Y109.667 E48.3132
G1 X134.362 Y109.392 E48.3531
G1 X135.552 Y109.226 E48.3931
G1 X136.752 Y109.170 E48.4330
G1 X137.953 Y109.226 E48.4730
G1 X139.143 Y109.392 E48.5130
G1 X140.312 Y109.667 E48.5529
G1 X141.452 Y110.049 E48.5929
G1 X142.551 Y110.534 E48.6329
G1 X143.600 Y111.118 E48.6728
G1 X144.590 Y111.797 E48.7127
G1 X145.515 Y112.564 E48.7527
G1 X146.363 Y113.413 E48.7926
G1 X147.130 Y114.336 E48.8325
G1 X147.808 Y115.327 E48.8725
G1 X148.392 Y116.374 E48.9124
G1 X148.876 Y117.472 E48.9522
G1 X149.258 Y118.609 E48.9921
G1 X149.519 Y119.720 E49.0301
G1 X149.690 Y120.905 E49.0699
G1 X149.751 Y122.103 E49.1098
G1 X149.699 Y123.358 E49.1516
G1 X149.532 Y124.548 E49.1916
G1 X149.350 Y125.322 E49.2180
G0 X154.545 Y106.758 F5400
G1 X154.485 Y107.233 E49.2339 F3000
G1 X154.273 Y107.768 E49.2531
G1 X153.934 Y108.235 E49.2723
G1 X153.489 Y108.603 E49.2915
G1 X152.966 Y108.849 E49.3107
G1 X152.397 Y108.958 E49.3300
G1 X151.819 Y108.921 E49.3492
G1 X151.269 Y108.742 E49.3685
G1 X150.782 Y108.432 E49.3877
G1 X150.386 Y108.012 E49.4069
G1 X150.109 Y107.507 E49.4260
G1 X149.966 Y106.950 E49.4452
G1 X149.966 Y106.375 E49.4643
G1 X150.109 Y105.818 E49.4834
G1 X150.386 Y105.313 E49.5026
G1 X150.782 Y104.892 E49.5218
G1 X151.269 Y104.583 E49.5410
G1 X151.819 Y104.404 E49.5602
G1 X152.397 Y104.367 E49.5795
G1 X152.966 Y104.476 E49.5987
G1 X153.489 Y104.722 E49.6180
G1 X153.934 Y105.090 E49.6372
G1 X154.275 Y105.559 E49.6565
G1 X154.488 Y106.116 E49.6763
G1 X154.545 Y106.567 E49.6914
;segType:Perimeter
G0 X154.097 Y105.129 F5400
G1 X153.941 Y105.803 E49.7144 F2100
G1 X154.097 Y106.213 E49.7290
G1 X154.154 Y106.663 E49.7441
G1 X154.094 Y107.134 E49.7599
G1 X153.919 Y107.577 E49.7758
G1 X153.639 Y107.963 E49.7916
G1 X153.272 Y108.266 E49.8075
G1 X152.841 Y108.469 E49.8233
G1 X152.372 Y108.559 E49.8392
G1 X151.896 Y108.529 E49.8551
G1 X151.442 Y108.381 E49.8709
G1 X151.040 Y108.126 E49.8868
G1 X150.713 Y107.778 E49.9026
G1 X150.484 Y107.361 E49.9185
G1 X150.366 Y106.900 E49.9343
G1 X150.366 Y106.425 E49.9501
G1 X150.484 Y105.964 E49.9659
G1 X150.713 Y105.547 E49.9818
G1 X151.040 Y105.199 E49.9976
G1 X151.442 Y104.944 E50.0135
G1 X151.896 Y104.796 E50.0293
G1 X152.372 Y104.766 E50.0452
G1 X152.841 Y104.856 E50.0611
G1 X153.272 Y105.059 E50.0769
G1 X153.639 Y105.363 E50.0928
G1 X153.886 Y105.702 E50.1067
G1 X154.540 Y105.944
;segType:Loop
G0 X154.644 Y107.916 F5400
G1 X154.627 Y107.959 E50.1083 F3000
G1 X154.229 Y108.507 E50.1308
G1 X153.707 Y108.939 E50.1534
G1 X153.092 Y109.229 E50.1760
G1 X152.423 Y109.357 E50.1986
G1 X151.743 Y109.314 E50.2213
G1 X151.096 Y109.103 E50.2439
G1 X150.523 Y108.739 E50.2665
G1 X150.059 Y108.245 E50.2890
G1 X149.734 Y107.653 E50.3115
G1 X149.566 Y107.000 E50.3339
G1 X149.566 Y106.325 E50.3564
G1 X149.734 Y105.672 E50.3788
G1 X150.059 Y105.080 E50.4013
G1 X150.523 Y104.585 E50.4238
G1 X151.096 Y104.222 E50.4464
G1 X151.743 Y104.012 E50.4690
G1 X152.423 Y103.969 E50.4917
G1 X153.092 Y104.096 E50.5143
G1 X153.707 Y104.385 E50.5369
G1 X154.229 Y104.818 E50.5595
G1 X154.631 Y105.370 E50.5822
G1 X154.879 Y106.020 E50.6053
G1 X154.960 Y106.663 E50.6269
G1 X154.876 Y107.331 E50.6493
G1 X154.715 Y107.737 E50.6638
;segType:HShell
G0 X159.137 Y106.447 F5400
G1 X138.178 Y85.674 E51.6453 F3000
G0 X124.831 Y118.772 F5400
G0 X124.411 Y121.020
G0 X124.411 Y123.306
G0 X124.831 Y125.553
G0 X125.657 Y127.684
G0 X126.860 Y129.628
G0 X128.401 Y131.318
G0 X132.864 Y134.757
G1 X152.756 Y154.473 E52.5768 F3000
G1 X153.304 Y154.473
G1 X133.619 Y134.962 E53.4987
G0 X129.858 Y133.408 F5400
G1 X151.111 Y154.473 E54.4940 F3000
G1 X150.563 Y154.473
G1 X114.452 Y118.682 E56.1850
G1 X114.452 Y119.225
G1 X150.014 Y154.473 E57.8503
G1 X149.466 Y154.473
G1 X114.452 Y119.769 E59.4900
G1 X114.452 Y120.312
G1 X148.918 Y154.473 E61.1040
G1 X148.369 Y154.473
G1 X114.452 Y120.856 E62.6923
G1 X114.452 Y121.399
G1 X147.821 Y154.473 E64.2550
G1 X147.273 Y154.473
G1 X114.452 Y121.943 E65.7920
G1 X114.452 Y122.486
G1 X146.724 Y154.473 E67.3032
G1 X146.176 Y154.473
G1 X114.452 Y123.030 E68.7888
G1 X114.452 Y123.573
G1 X145.628 Y154.473 E70.2488
G1 X145.079 Y154.473
G1 X114.452 Y124.117 E71.6830
G1 X114.452 Y124.660
G1 X144.531 Y154.473 E73.0916
G1 X143.983 Y154.473
G1 X114.452 Y125.204 E74.4745
G1 X114.452 Y125.747
G1 X143.434 Y154.473 E75.8317
G1 X142.886 Y154.473
G1 X114.452 Y126.291 E77.1632
G1 X114.452 Y126.834
G1 X142.337 Y154.473 E78.4691
G1 X141.789 Y154.473
G1 X124.050 Y136.891 E79.2998
G1 X124.145 Y137.528
G1 X141.241 Y154.473 E80.1004
G1 X140.692 Y154.473
G1 X124.111 Y138.038 E80.8769
G1 X124.025 Y138.497
G1 X140.144 Y154.473 E81.6317
G1 X139.596 Y154.473
G1 X123.871 Y138.887 E82.3681
G1 X123.674 Y139.235
G1 X139.047 Y154.473 E83.0881
G1 X138.499 Y154.473
G1 X123.444 Y139.551 E83.7931
G1 X123.165 Y139.818
G1 X137.951 Y154.473 E84.4855
G1 X137.402 Y154.473
G1 X122.866 Y140.065 E85.1662
G1 X122.507 Y140.253
G1 X136.854 Y154.473 E85.8381
G1 X136.306 Y154.473
G1 X122.130 Y140.423 E86.5019
G1 X121.671 Y140.511
G1 X135.757 Y154.473 E87.1616
G1 X135.209 Y154.473
G1 X121.150 Y140.538 E87.8200
G1 X120.508 Y140.446
G1 X134.661 Y154.473 E88.4828
G1 X134.112 Y154.473
G1 X119.417 Y139.908 E89.1709
G0 X115.556 Y144.434 F5400
G0 X115.174 Y145.401
G0 X115.186 Y147.671
G1 X114.452 Y146.944 E89.2053 F3000
G1 X114.452 Y147.487
G1 X121.500 Y154.473 E89.5354
G1 X120.952 Y154.473
G1 X114.452 Y148.031 E89.8397
G1 X114.452 Y148.574
G1 X120.404 Y154.473 E90.1184
G1 X119.855 Y154.473
G1 X114.452 Y149.118 E90.3715
G1 X114.452 Y149.661
G1 X119.307 Y154.473 E90.5988
G1 X118.759 Y154.473
G1 X114.452 Y150.205 E90.8005
G1 X114.452 Y150.748
G1 X118.210 Y154.473 E90.9765
G1 X117.662 Y154.473
G1 X114.452 Y151.292 E91.1268
G1 X114.452 Y151.835
G1 X117.114 Y154.473 E91.2514
G1 X116.565 Y154.473
G1 X114.452 Y152.379 E91.3504
G1 X114.452 Y152.922
G1 X116.017 Y154.473 E91.4236
G1 X115.469 Y154.473
G1 X114.452 Y153.466 E91.4712
G1 X114.452 Y154.009
G1 X114.920 Y154.473 E91.4931
G0 X119.282 Y146.182 F5400
G0 X119.285 Y145.167
G0 X118.781 Y144.232
G0 X119.304 Y136.893
G0 X123.966 Y125.394
G1 X114.452 Y115.964 E91.9387 F3000
G1 X114.452 Y115.421
G1 X123.799 Y124.685 E92.3764
G1 X123.700 Y124.043
G1 X114.452 Y114.877 E92.8094
G1 X114.452 Y114.334
G1 X123.612 Y123.413 E93.2384
G0 X125.195 Y117.687 F5400
G0 X126.214 Y115.641
G0 X127.592 Y113.816
G0 X129.282 Y112.275
G0 X131.227 Y111.071
G0 X133.360 Y110.245
G0 X135.608 Y109.825
G0 X137.896 Y109.825
G0 X140.145 Y110.245
G0 X142.278 Y111.071
G0 X144.223 Y112.275
G0 X148.321 Y115.836
G1 X161.053 Y128.456 E93.8346 F3000
G1 X161.053 Y128.999
G1 X148.840 Y116.895 E94.4065
G0 X160.611 Y112.256 F5400
G1 X155.140 Y106.834 E94.6627 F3000
G1 X155.079 Y107.317
G1 X160.700 Y112.888 E94.9259
G1 X160.789 Y113.520
G1 X154.937 Y107.720 E95.2000
G1 X154.772 Y108.100
G1 X160.861 Y114.135 E95.4852
G1 X160.911 Y114.728
G1 X154.542 Y108.416 E95.7834
G1 X154.293 Y108.712
G1 X160.961 Y115.321 E96.0957
G1 X161.003 Y115.906
G1 X153.994 Y108.960 E96.4239
G1 X153.666 Y109.178
G1 X161.019 Y116.465 E96.7682
G1 X161.034 Y117.024
G1 X153.294 Y109.353 E97.1306
G1 X152.868 Y109.473
G1 X161.050 Y117.583 E97.5138
G1 X161.053 Y118.129
G1 X152.401 Y109.554 E97.9190
G1 X151.815 Y109.517
G1 X161.053 Y118.673 E98.3516
G1 X161.053 Y119.216
G1 X151.042 Y109.294 E98.8204
G0 X149.388 Y107.112 F5400
G1 X125.921 Y83.852 E99.9193 F3000
G1 X126.469 Y83.852
G1 X149.366 Y106.546 E100.9916
G1 X149.427 Y106.063
G1 X127.018 Y83.852 E102.0410
G1 X127.576 Y83.861
G1 X149.538 Y105.630 E103.0695
G1 X149.726 Y105.272
G1 X128.140 Y83.877 E104.0803
G1 X128.704 Y83.893
G1 X149.928 Y104.929 E105.0742
G1 X150.192 Y104.647
G1 X129.276 Y83.916 E106.0537
G1 X129.876 Y83.967
G1 X150.473 Y104.382 E107.0182
G1 X150.807 Y104.170
G1 X130.475 Y84.017 E107.9704
G1 X131.077 Y84.071
G1 X151.172 Y103.989 E108.9114
G1 X151.585 Y103.854
G1 X131.716 Y84.161 E109.8419
G1 X132.356 Y84.251
G1 X152.071 Y103.792 E110.7652
G1 X152.634 Y103.807
G1 X133.001 Y84.347 E111.6846
G0 X141.925 Y110.040 F5400
G1 X115.503 Y83.852 E112.9219 F3000
G1 X114.954 Y83.852
G1 X141.031 Y109.698 E114.1431
G0 X139.506 Y109.274 F5400
G1 X113.858 Y83.852 E115.3442 F3000
G1 X114.406 Y83.852
G1 X140.225 Y109.443 E116.5533
G0 X123.262 Y104.587 F5400
G1 X102.342 Y83.852 E117.5329 F3000
G1 X101.794 Y83.852
G1 X121.997 Y103.876 E118.4790
G1 X121.346 Y103.775
G1 X101.246 Y83.852 E119.4203
G1 X100.697 Y83.852
G1 X120.831 Y103.807 E120.3632
G1 X120.393 Y103.917
G1 X100.149 Y83.852 E121.3112
G1 X99.601 Y83.852
G1 X119.986 Y104.057 E122.2658
G1 X119.651 Y104.269
G1 X99.052 Y83.852 E123.2304
G1 X98.504 Y83.852
G1 X119.333 Y104.497 E124.2058
G1 X119.069 Y104.778
G1 X97.956 Y83.852 E125.1946
G1 X97.407 Y83.852
G1 X118.829 Y105.084 E126.1977
G1 X118.635 Y105.436
G1 X96.859 Y83.852 E127.2175
G1 X96.311 Y83.852
G1 X118.486 Y105.832 E128.2560
G1 X118.375 Y106.265
G1 X95.762 Y83.852 E129.3149
G1 X95.214 Y83.852
G1 X118.366 Y106.799 E130.3991
G1 X118.475 Y107.451
G1 X94.665 Y83.852 E131.5142
G1 X94.117 Y83.852
G1 X125.624 Y115.080 E132.9896
G1 X125.417 Y115.418
G1 X106.413 Y96.582 E133.8795
G0 X105.304 Y95.483 F5400
G1 X93.569 Y83.852 E134.4291 F3000
G1 X93.020 Y83.852
G1 X104.275 Y95.007 E134.9561
G1 X103.632 Y94.913
G1 X92.472 Y83.852 E135.4787
G1 X91.924 Y83.852
G1 X103.043 Y94.873 E135.9994
G1 X102.495 Y94.873
G1 X91.375 Y83.852 E136.5202
G1 X90.827 Y83.852
G1 X101.947 Y94.873 E137.0409
G1 X101.398 Y94.873
G1 X90.452 Y84.024 E137.5535
G1 X90.452 Y84.567
G1 X100.850 Y94.873 E138.0404
G1 X100.302 Y94.873
G1 X90.452 Y85.111 E138.5017
G1 X90.452 Y85.654
G1 X99.753 Y94.873 E138.9373
G1 X99.205 Y94.873
G1 X90.452 Y86.198 E139.3472
G1 X90.452 Y86.741
G1 X98.657 Y94.873 E139.7314
G1 X98.108 Y94.873
G1 X90.452 Y87.285 E140.0899
G1 X90.452 Y87.828
G1 X97.560 Y94.873 E140.4228
G1 X97.031 Y94.892
G1 X90.452 Y88.372 E140.7308
G1 X90.452 Y88.915
G1 X96.546 Y94.956 E141.0162
G1 X96.103 Y95.059
G1 X90.452 Y89.459 E141.2808
G1 X90.452 Y90.002
G1 X95.716 Y95.220 E141.5274
G1 X95.332 Y95.382
G1 X90.452 Y90.546 E141.7559
G1 X90.452 Y91.089
G1 X95.023 Y95.620 E141.9699
G1 X94.714 Y95.857
G1 X90.452 Y91.633 E142.1695
G1 X90.452 Y92.176
G1 X94.440 Y96.129 E142.3563
G1 X94.203 Y96.438
G1 X90.452 Y92.720 E142.5319
G1 X90.452 Y93.263
G1 X93.966 Y96.746 E142.6965
G1 X93.802 Y97.126
G1 X90.452 Y93.807 E142.8533
G1 X90.452 Y94.350
G1 X93.642 Y97.512 E143.0027
G1 X93.536 Y97.950
G1 X90.452 Y94.894 E143.1471
G1 X90.452 Y95.437
G1 X93.473 Y98.431 E143.2885
G1 X93.485 Y98.987
G1 X90.452 Y95.981 E143.4306
G1 X90.452 Y96.524
G1 X93.567 Y99.612 E143.5764
G0 X94.657 Y97.168 F5400
G0 X95.133 Y96.548
G0 X95.753 Y96.072
G0 X135.824 Y84.971
G1 X159.857 Y108.792 E144.7019 F3000
G0 X159.394 Y107.246 F5400
G1 X137.370 Y85.416 E145.7333 F3000
G0 X139.045 Y85.990 F5400
G1 X158.803 Y105.573 E146.6585 F3000
G1 X158.467 Y104.697
G1 X139.937 Y86.331 E147.5263
G0 X134.373 Y84.620 F5400
G1 X160.225 Y110.244 E148.7369 F3000
G0 X136.565 Y85.162 F5400
G1 X159.647 Y108.040 E149.8178 F3000
G0 X133.687 Y84.484 F5400
G1 X153.399 Y104.021 E150.7409 F3000
G0 X150.916 Y105.052 F5400
G0 X150.304 Y105.893
G0 X149.649 Y107.914
G1 X125.373 Y83.852 E151.8778 F3000
G1 X124.824 Y83.852
G1 X161.053 Y119.760 E153.5743
G1 X161.053 Y120.303
G1 X124.276 Y83.852 E155.2966
G1 X123.728 Y83.852
G1 X161.053 Y120.847 E157.0445
G1 X161.053 Y121.390
G1 X123.179 Y83.852 E158.8181
G1 X122.631 Y83.852
G1 X161.053 Y121.934 E160.6173
G1 X161.053 Y122.477
G1 X122.083 Y83.852 E162.4423
G1 X121.534 Y83.852
G1 X161.053 Y123.021 E164.2929
G1 X161.053 Y123.564
G1 X120.986 Y83.852 E166.1692
G1 X120.438 Y83.852
G1 X161.053 Y124.108 E168.0712
G1 X161.053 Y124.651
G1 X119.889 Y83.852 E169.9988
G1 X119.341 Y83.852
G1 X161.053 Y125.195 E171.9522
G1 X161.053 Y125.738
G1 X118.793 Y83.852 E173.9312
G1 X118.244 Y83.852
G1 X161.053 Y126.282 E175.9359
G1 X161.053 Y126.825
G1 X117.696 Y83.852 E177.9663
G1 X117.148 Y83.852
G1 X161.053 Y127.369 E180.0223
G1 X161.053 Y127.912
G1 X147.407 Y114.387 E180.6614
G0 X143.051 Y87.787 F5400
G1 X156.982 Y101.595 E181.3138 F3000
G0 X157.558 Y102.709 F5400
G1 X141.907 Y87.196 E182.0467 F3000
G0 X154.896 Y105.505 F5400
G1 X160.360 Y110.921 E182.3025 F3000
G1 X160.495 Y111.598
G1 X155.111 Y106.262 E182.5546
G0 X135.083 Y84.780 F5400
G1 X160.045 Y109.522 E183.7236 F3000
G0 X149.460 Y118.596 F5400
G1 X161.053 Y130.086 E184.2665 F3000
G1 X161.053 Y129.543
G1 X149.193 Y117.788 E184.8219
G0 X147.672 Y90.736 F5400
G1 X153.992 Y97.000 E185.1179 F3000
G0 X145.763 Y89.388 F5400
G1 X155.341 Y98.881 E185.5664 F3000
G0 X156.262 Y100.337 F5400
G1 X144.306 Y88.486 E186.1263 F3000
G0 X140.907 Y86.749 F5400
G1 X158.030 Y103.720 E186.9282 F3000
G0 X151.359 Y104.770 F5400
G0 X142.986 Y110.549
G1 X116.051 Y83.852 E188.1896 F3000
G1 X116.599 Y83.852
G1 X144.460 Y111.467 E189.4943
G0 X138.831 Y109.148 F5400
G1 X113.309 Y83.852 E190.6895 F3000
G1 X112.761 Y83.852
G1 X138.193 Y109.059 E191.8804
G1 X137.596 Y109.011
G1 X112.213 Y83.852 E193.0691
G1 X111.664 Y83.852
G1 X137.020 Y108.984 E194.2566
G1 X136.473 Y108.985
G1 X111.116 Y83.852 E195.4440
G1 X110.567 Y83.852
G1 X135.949 Y109.009 E196.6326
G1 X135.434 Y109.042
G1 X110.019 Y83.852 E197.8228
G1 X109.471 Y83.852
G1 X134.953 Y109.109 E199.0161
G1 X134.473 Y109.176
G1 X108.922 Y83.852 E200.2126
G1 X108.374 Y83.852
G1 X134.018 Y109.269 E201.4135
G1 X133.575 Y109.373
G1 X107.826 Y83.852 E202.6193
G1 X107.277 Y83.852
G1 X133.132 Y109.478 E203.8301
G1 X132.722 Y109.615
G1 X106.729 Y83.852 E205.0473
G1 X106.181 Y83.852
G1 X132.312 Y109.752 E206.2711
G1 X131.908 Y109.895
G1 X105.632 Y83.852 E207.5015
G1 X105.084 Y83.852
G1 X131.529 Y110.063 E208.7400
G1 X131.150 Y110.231
G1 X104.536 Y83.852 E209.9863
G1 X103.987 Y83.852
G1 X130.777 Y110.405 E211.2408
G1 X130.426 Y110.601
G1 X103.439 Y83.852 E212.5047
G1 X102.891 Y83.852
G1 X130.075 Y110.796 E213.7777
G1 X129.730 Y110.997
G1 X123.426 Y104.749 E214.0729
G0 X124.051 Y105.912 F5400
G1 X129.405 Y111.219 E214.3236 F3000
G1 X129.081 Y111.441
G1 X124.147 Y106.551 E214.5547
G1 X124.112 Y107.059
G1 X128.760 Y111.666 E214.7724
G1 X128.462 Y111.914
G1 X124.019 Y107.511 E214.9804
G1 X123.865 Y107.902
G1 X128.163 Y112.162 E215.1817
G1 X127.865 Y112.410
G1 X123.665 Y108.247 E215.3784
G1 X123.435 Y108.563
G1 X127.591 Y112.682 E215.5730
G1 X127.318 Y112.955
G1 X123.154 Y108.828 E215.7680
G1 X122.855 Y109.075
G1 X127.045 Y113.228 E215.9642
G1 X126.793 Y113.521
G1 X122.493 Y109.259 E216.1655
G1 X122.113 Y109.426
G1 X126.545 Y113.819 E216.3731
G1 X126.297 Y114.117
G1 X121.653 Y109.514 E216.5905
G1 X121.127 Y109.537
G1 X126.067 Y114.432 E216.8218
G1 X125.845 Y114.756
G1 X120.477 Y109.436 E217.0732
G0 X98.760 Y102.140 F5400
G0 X96.347 Y101.330
G0 X93.934 Y100.519
G1 X90.452 Y97.068 E217.2363 F3000
G1 X90.452 Y97.611
G1 X105.447 Y112.473 E217.9385
G1 X104.898 Y112.473
G1 X90.452 Y98.155 E218.6150
G1 X90.452 Y98.698
G1 X104.350 Y112.473 E219.2658
G1 X103.802 Y112.473
G1 X90.452 Y99.242 E219.8910
G1 X90.452 Y99.785
G1 X103.253 Y112.473 E220.4904
G1 X102.705 Y112.473
G1 X90.452 Y100.329 E221.0642
G1 X90.452 Y100.872
G1 X102.157 Y112.473 E221.6123
G1 X101.608 Y112.473
G1 X90.452 Y101.416 E222.1348
G1 X90.452 Y101.959
G1 X101.060 Y112.473 E222.6315
G1 X100.512 Y112.473
G1 X90.452 Y102.503 E223.1026
G1 X90.452 Y103.046
G1 X99.963 Y112.473 E223.5480
G1 X99.415 Y112.473
G1 X90.452 Y103.590 E223.9677
G1 X90.452 Y104.133
G1 X98.866 Y112.473 E224.3618
G1 X98.318 Y112.473
G1 X90.452 Y104.677 E224.7301
G1 X90.452 Y105.220
G1 X97.770 Y112.473 E225.0728
G1 X97.221 Y112.473
G1 X90.452 Y105.764 E225.3898
G1 X90.452 Y106.307
G1 X96.673 Y112.473 E225.6811
G1 X96.125 Y112.473
G1 X90.452 Y106.851 E225.9468
G1 X90.452 Y107.394
G1 X95.576 Y112.473 E226.1867
G1 X95.028 Y112.473
G1 X90.452 Y107.938 E226.4010
G1 X90.452 Y108.481
G1 X94.480 Y112.473 E226.5896
G1 X93.931 Y112.473
G1 X90.452 Y109.025 E226.7526
G1 X90.452 Y109.568
G1 X93.383 Y112.473 E226.8898
G1 X92.835 Y112.473
G1 X90.452 Y110.112 E227.0014
G1 X90.452 Y110.655
G1 X92.286 Y112.473 E227.0873
G1 X91.738 Y112.473
G1 X90.452 Y111.199 E227.1475
G1 X90.452 Y111.742
G1 X91.190 Y112.473 E227.1820
G1 X90.641 Y112.473
G1 X90.452 Y112.286 E227.1909
G0 X105.372 Y100.777 F5400
G0 X106.147 Y99.434
G0 X106.905 Y97.614
G1 X125.222 Y115.769 E228.0486 F3000
G1 X125.027 Y116.119
G1 X107.009 Y98.261 E228.8924
G1 X107.032 Y98.827
G1 X124.846 Y116.483 E229.7266
G1 X124.679 Y116.862
G1 X106.975 Y99.313 E230.5557
G1 X106.883 Y99.766
G1 X124.512 Y117.240 E231.3813
G1 X124.363 Y117.635
G1 X106.723 Y100.151 E232.2073
G1 X106.564 Y100.536
G1 X124.226 Y118.043 E233.0345
G1 X124.090 Y118.451
G1 X106.331 Y100.849 E233.8661
G1 X106.094 Y101.158
G1 X123.977 Y118.883 E234.7036
G1 X123.874 Y119.324
G1 X105.829 Y101.439 E235.5486
G1 X105.520 Y101.676
G1 X123.772 Y119.766 E236.4033
G1 X123.705 Y120.244
G1 X105.211 Y101.913 E237.2694
G1 X104.837 Y102.086
G1 X123.639 Y120.721 E238.1499
G1 X123.595 Y121.221
G1 X104.450 Y102.246 E239.0464
G1 X104.018 Y102.361
G1 X114.220 Y112.473 E239.5242
G1 X113.672 Y112.473
G1 X103.534 Y102.425 E239.9989
G1 X103.013 Y102.452
G1 X113.123 Y112.473 E240.4724
G1 X112.575 Y112.473
G1 X102.464 Y102.452 E240.9459
G1 X101.916 Y102.452
G1 X112.027 Y112.473 E241.4194
G1 X111.478 Y112.473
G1 X101.368 Y102.452 E241.8929
G1 X100.819 Y102.452
G1 X110.930 Y112.473 E242.3663
G1 X110.382 Y112.473
G1 X100.271 Y102.452 E242.8398
G1 X99.723 Y102.452
G1 X109.833 Y112.473 E243.3133
G1 X109.285 Y112.473
G1 X99.174 Y102.452 E243.7868
G1 X98.626 Y102.452
G1 X108.737 Y112.473 E244.2603
G1 X108.188 Y112.473
G1 X98.078 Y102.452 E244.7337
G1 X97.529 Y102.452
G1 X107.640 Y112.473 E245.2072
G1 X107.092 Y112.473
G1 X96.952 Y102.423 E245.6821
G1 X96.319 Y102.339
G1 X106.543 Y112.473 E246.1609
G1 X105.995 Y112.473
G1 X95.404 Y101.976 E246.6568
G0 X114.452 Y113.247 F5400
G1 X123.556 Y122.270 E247.0831 F3000
G1 X123.570 Y121.741
G1 X114.452 Y112.703 E247.5101
G0 X114.646 Y144.418 F5400
G1 X114.452 Y144.226 E247.5192 F3000
G1 X114.452 Y143.683
G1 X114.839 Y144.066 E247.5373
G1 X115.082 Y143.764
G1 X114.452 Y143.139 E247.5668
G1 X114.452 Y142.596
G1 X115.347 Y143.482 E247.6087
G1 X115.668 Y143.258
G1 X114.452 Y142.052 E247.6656
G1 X114.452 Y141.509
G1 X116.003 Y143.046 E247.7383
G1 X116.414 Y142.910
G1 X114.452 Y140.965 E247.8301
G1 X114.452 Y140.422
G1 X116.857 Y142.806 E247.9428
G1 X117.373 Y142.773
G1 X114.452 Y139.878 E248.0795
G1 X114.452 Y139.335
G1 X118.032 Y142.883 E248.2472
G0 X119.304 Y136.893 F5400
G0 X124.183 Y126.152
G1 X114.452 Y116.508 E248.7028 F3000
G1 X114.452 Y117.051
G1 X124.463 Y126.974 E249.1716
G0 X124.890 Y127.940 F5400
G1 X114.452 Y117.595 E249.6604 F3000
G1 X114.452 Y118.138
G1 X125.551 Y129.139 E250.1802
G0 X131.058 Y134.054 F5400
G1 X151.659 Y154.473 E251.1450 F3000
G1 X152.208 Y154.473
G1 X132.036 Y134.480 E252.0896
G0 X137.896 Y134.500 F5400
G0 X161.200 Y131.863
G1 X149.849 Y120.613 E252.6212 F3000
G1 X149.758 Y119.979
G1 X161.118 Y131.238 E253.1531
G1 X161.053 Y130.630
G1 X149.626 Y119.305 E253.6882
G0 X148.674 Y125.552 F5400
G0 X146.644 Y129.628
G0 X143.278 Y132.696
G0 X139.030 Y134.342
G0 X136.752 Y134.553
G0 X122.022 Y134.881
G1 X114.452 Y127.378 E254.0427 F3000
G1 X114.452 Y127.921
G1 X121.366 Y134.774 E254.3665
G1 X120.850 Y134.806
G1 X114.452 Y128.465 E254.6661
G1 X114.452 Y129.008
G1 X120.408 Y134.912 E254.9450
G1 X119.998 Y135.049
G1 X114.452 Y129.552 E255.2047
G1 X114.452 Y130.095
G1 X119.664 Y135.261 E255.4488
G1 X119.343 Y135.486
G1 X114.452 Y130.639 E255.6778
G1 X114.452 Y131.182
G1 X119.079 Y135.768 E255.8944
G1 X118.836 Y136.071
G1 X114.452 Y131.726 E256.0997
G1 X114.452 Y132.269
G1 X118.643 Y136.423 E256.2959
G1 X118.490 Y136.815
G1 X114.452 Y132.813 E256.4851
G1 X114.452 Y133.356
G1 X118.379 Y137.249 E256.6690
G1 X118.366 Y137.779
G1 X114.452 Y133.900 E256.8522
G1 X114.452 Y134.443
G1 X118.468 Y138.424 E257.0403
G0 X115.304 Y144.894 F5400
G0 X115.174 Y145.924
G0 X115.437 Y147.920
G1 X122.049 Y154.473 E257.3499 F3000
G1 X122.597 Y154.473
G1 X116.520 Y148.449 E257.6345
G1 X117.158 Y148.538
G1 X123.145 Y154.473 E257.9149
G1 X123.694 Y154.473
G1 X117.677 Y148.510 E258.1967
G1 X118.137 Y148.422
G1 X124.242 Y154.473 E258.4826
G1 X124.790 Y154.473
G1 X118.512 Y148.250 E258.7766
G1 X118.871 Y148.062
G1 X125.339 Y154.473 E259.0795
G1 X125.887 Y154.473
G1 X119.169 Y147.815 E259.3941
G1 X119.447 Y147.547
G1 X126.435 Y154.473 E259.7213
G1 X126.984 Y154.473
G1 X119.677 Y147.231 E260.0635
G1 X119.873 Y146.882
G1 X127.532 Y154.473 E260.4222
G1 X128.081 Y154.473
G1 X120.027 Y146.491 E260.7993
G1 X120.115 Y146.034
G1 X128.629 Y154.473 E261.1980
G1 X129.177 Y154.473
G1 X120.144 Y145.520 E261.6211
G1 X120.035 Y144.868
G1 X129.726 Y154.473 E262.0749
G1 X130.274 Y154.473
G1 X114.452 Y138.791 E262.8158
G1 X114.452 Y138.248
G1 X130.822 Y154.473 E263.5824
G1 X131.371 Y154.473
G1 X114.452 Y137.704 E264.3747
G1 X114.452 Y137.161
G1 X131.919 Y154.473 E265.1926
G1 X132.467 Y154.473
G1 X114.452 Y136.617 E266.0363
G1 X114.452 Y136.074
G1 X133.016 Y154.473 E266.9056
G1 X133.564 Y154.473
G1 X114.452 Y135.530 E267.8006
G1 X114.452 Y134.987
G1 X119.283 Y139.775 E268.0268
G0 X121.901 Y139.652 F5400
G0 X134.337 Y135.130
G1 X153.853 Y154.473 E268.9407 F3000
G1 X154.401 Y154.473
G1 X134.975 Y135.219 E269.8504
G1 X135.605 Y135.300
G1 X154.949 Y154.473 E270.7563
G1 X155.498 Y154.473
G1 X136.181 Y135.327 E271.6610
G1 X136.756 Y135.353
G1 X156.046 Y154.473 E272.5643
G1 X156.594 Y154.473
G1 X137.279 Y135.329 E273.4689
G1 X137.803 Y135.304
G1 X157.143 Y154.473 E274.3745
G1 X157.691 Y154.473
G1 X138.298 Y135.251 E275.2827
G1 X138.778 Y135.184
G1 X158.239 Y154.473 E276.1941
G1 X158.788 Y154.473
G1 X139.253 Y135.111 E277.1089
G1 X139.696 Y135.007
G1 X159.336 Y154.473 E278.0286
G1 X159.885 Y154.473
G1 X140.139 Y134.902 E278.9533
G1 X140.566 Y134.782
G1 X160.433 Y154.473 E279.8836
G1 X160.981 Y154.473
G1 X140.976 Y134.645 E280.8205
G1 X141.386 Y134.507
G1 X161.530 Y154.473 E281.7638
G1 X162.078 Y154.473
G1 X141.776 Y134.350 E282.7146
G1 X142.155 Y134.183
G1 X162.626 Y154.473 E283.6732
G1 X163.175 Y154.473
G1 X142.534 Y134.015 E284.6398
G1 X142.893 Y133.827
G1 X163.723 Y154.473 E285.6153
G1 X164.271 Y154.473
G1 X143.244 Y133.632 E286.6000
G1 X143.595 Y133.436
G1 X164.820 Y154.473 E287.5939
G1 X165.368 Y154.473
G1 X151.073 Y140.304 E288.2633
G0 X165.459 Y142.063 F5400
G1 X149.343 Y126.089 E289.0180 F3000
G1 X149.206 Y126.497
G1 X164.770 Y141.924 E289.7469
G1 X164.188 Y141.890
G1 X149.069 Y126.905 E290.4548
G1 X148.904 Y127.285
G1 X163.672 Y141.923 E291.1464
G1 X163.233 Y142.030
G1 X148.737 Y127.663 E291.8252
G1 X148.570 Y128.041
G1 X162.820 Y142.164 E292.4925
G1 X162.449 Y142.340
G1 X148.375 Y128.391 E293.1516
G1 X148.180 Y128.741
G1 X162.114 Y142.552 E293.8041
G1 X161.788 Y142.773
G1 X147.985 Y129.091 E294.4505
G1 X147.764 Y129.416
G1 X153.438 Y135.040 E294.7162
G0 X167.806 Y144.389 F5400
G1 X173.052 Y149.589 E294.9619 F3000
G1 X173.052 Y149.046
G1 X167.068 Y143.114 E295.2422
G1 X166.950 Y142.997
G1 X149.473 Y125.674 E296.0606
G1 X149.576 Y125.234
G1 X173.052 Y148.502 E297.1600
G1 X173.052 Y147.959
G1 X149.680 Y124.793 E298.2545
G1 X149.764 Y124.333
G1 X173.052 Y147.415 E299.3451
G1 X173.052 Y146.872
G1 X149.831 Y123.856 E300.4325
G1 X149.898 Y123.378
G1 X173.052 Y146.328 E301.5168
G1 X173.052 Y145.785
G1 X149.920 Y122.856 E302.6001
G1 X149.942 Y122.335
G1 X173.052 Y145.241 E303.6824
G1 X173.052 Y144.698
G1 X164.424 Y136.146 E304.0864
G0 X165.366 Y136.536 F5400
G1 X173.052 Y144.154 E304.4464 F3000
G1 X173.052 Y143.611
G1 X166.089 Y136.709 E304.7724
G1 X166.722 Y136.792
G1 X173.052 Y143.067 E305.0689
G1 X173.052 Y142.524
G1 X167.330 Y136.852 E305.3369
G1 X167.878 Y136.852
G1 X173.052 Y141.980 E305.5792
G1 X173.052 Y141.437
G1 X168.427 Y136.852 E305.7958
G1 X168.975 Y136.852
G1 X173.052 Y140.893 E305.9868
G1 X173.052 Y140.350
G1 X169.523 Y136.852 E306.1521
G1 X170.072 Y136.852
G1 X173.052 Y139.806 E306.2916
G1 X173.052 Y139.263
G1 X170.620 Y136.852 E306.4056
G1 X171.168 Y136.852
G1 X173.052 Y138.719 E306.4938
G1 X173.052 Y138.176
G1 X171.717 Y136.852 E306.5563
G1 X172.265 Y136.852
G1 X173.052 Y137.632 E306.5932
G1 X173.052 Y137.089
G1 X172.813 Y136.852 E306.6044
G0 X165.855 Y135.871 F5400
G0 X164.553 Y135.331
G0 X161.772 Y133.517
G1 X149.935 Y121.785 E307.1587 F3000
G1 X149.906 Y121.212
G1 X161.390 Y132.595 E307.6965
G0 X155.108 Y137.239 F5400
G1 X161.260 Y143.336 E307.9846 F3000
G1 X161.524 Y143.054
G1 X154.885 Y136.474 E308.2955
G0 X152.660 Y134.812 F5400
G1 X147.542 Y129.740 E308.5351 F3000
G1 X147.321 Y130.063
G1 X152.090 Y134.791 E308.7585
G1 X151.601 Y134.849
G1 X147.077 Y130.365 E308.9704
G1 X146.829 Y130.663
G1 X151.188 Y134.984 E309.1745
G1 X150.820 Y135.162
G1 X146.581 Y130.961 E309.3730
G1 X146.316 Y131.241
G1 X150.485 Y135.374 E309.5682
G1 X150.202 Y135.637
G1 X146.043 Y131.514 E309.7630
G1 X145.770 Y131.787
G1 X149.938 Y135.918 E309.9582
G1 X149.733 Y136.259
G1 X145.483 Y132.046 E310.1572
G1 X145.184 Y132.294
G1 X149.542 Y136.613 E310.3613
G1 X149.431 Y137.047
G1 X144.886 Y132.541 E310.5742
G1 X144.577 Y132.779
G1 X149.366 Y137.526 E310.7985
G1 X149.381 Y138.084
G1 X144.252 Y133.001 E311.0387
G1 X143.928 Y133.223
G1 X149.624 Y138.869 E311.3054
G0 X151.837 Y140.518 F5400
G1 X165.916 Y154.473 E311.9648 F3000
G1 X166.465 Y154.473
G1 X152.423 Y140.555 E312.6224
G1 X152.885 Y140.470
G1 X167.013 Y154.473 E313.2839
G1 X167.561 Y154.473
G1 X153.308 Y140.346 E313.9514
G1 X153.680 Y140.171
G1 X160.806 Y147.234 E314.2851
G0 X162.976 Y148.369 F5400
G0 X164.441 Y148.649
G0 X165.859 Y148.188
G0 X166.878 Y147.103
G0 X167.993 Y145.118
G1 X173.052 Y150.133 E314.5220 F3000
G1 X173.052 Y150.676
G1 X168.054 Y145.722 E314.7561
G1 X167.993 Y146.205
G1 X173.052 Y151.220 E314.9931
G1 X173.052 Y151.763
G1 X167.916 Y146.672 E315.2336
G1 X167.762 Y147.063
G1 X173.052 Y152.307 E315.4814
G1 X173.052 Y152.850
G1 X167.607 Y147.453 E315.7364
G1 X167.384 Y147.776
G1 X173.052 Y153.394 E316.0018
G1 X173.052 Y153.937
G1 X167.155 Y148.092 E316.2780
G1 X166.893 Y148.375
G1 X173.045 Y154.473 E316.5661
G1 X172.496 Y154.473
G1 X166.594 Y148.623 E316.8425
G1 X166.294 Y148.869
G1 X171.948 Y154.473 E317.1073
G1 X171.400 Y154.473
G1 X165.922 Y149.044 E317.3638
G1 X165.550 Y149.219
G1 X170.851 Y154.473 E317.6120
G1 X170.303 Y154.473
G1 X165.119 Y149.335 E317.8548
G1 X164.659 Y149.422
G1 X169.755 Y154.473 E318.0935
G1 X169.206 Y154.473
G1 X164.119 Y149.430 E318.3317
G1 X163.531 Y149.392
G1 X168.658 Y154.473 E318.5718
G1 X168.110 Y154.473
G1 X162.716 Y149.127 E318.8244
G0 X160.550 Y146.437 F5400
G1 X154.006 Y139.950 E319.1308 F3000
G1 X154.305 Y139.703
G1 X160.473 Y145.817 E319.4197
G1 X160.473 Y145.274
G1 X154.551 Y139.404 E319.6970
G1 X154.780 Y139.088
G1 X160.567 Y144.823 E319.9680
G1 X160.678 Y144.390
G1 X154.943 Y138.705 E320.2366
; ------------------------------------
; Layer #2
; ------------------------------------
G21 ; mm
G90 ; abs
G92 E0 ; reset extr
M106 S0
G0 F1200 E-1.0000
G0 F300 Z0.600
G0 X154.065 Y135.970 F5400
G0 X152.409 Y135.191
G0 X134.403 Y134.720
G0 X130.021 Y133.022
G0 X126.550 Y129.859
G0 X114.452 Y113.467
G0 F1200 E0.0000
;segType:HShell
G1 X119.236 Y108.725 E0.2240 F3000
G1 X118.972 Y108.443
G1 X114.452 Y112.923 E0.4357
;segType:Perimeter
G0 X114.039 Y113.729 F5400
G1 X113.394 Y113.464 E0.4589 F2100
G1 X89.452 Y113.464 E1.2552
G1 X89.452 Y82.861 E2.2731
G1 X127.250 Y82.861 E3.5302
G1 X129.204 Y82.915 E3.5952
G1 X131.148 Y83.079 E3.6601
G1 X133.081 Y83.352 E3.7251
G1 X134.996 Y83.733 E3.7900
G1 X136.886 Y84.221 E3.8549
G1 X138.746 Y84.814 E3.9198
G1 X140.569 Y85.510 E3.9847
G1 X142.351 Y86.307 E4.0497
G1 X144.085 Y87.203 E4.1146
G1 X145.766 Y88.194 E4.1795
G1 X147.389 Y89.279 E4.2444
G1 X148.949 Y90.453 E4.3094
G1 X150.440 Y91.712 E4.3743
G1 X151.859 Y93.054 E4.4392
G1 X153.200 Y94.472 E4.5041
G1 X154.460 Y95.963 E4.5691
G1 X155.633 Y97.523 E4.6340
G1 X156.718 Y99.146 E4.6989
G1 X157.710 Y100.828 E4.7638
G1 X158.606 Y102.562 E4.8288
G1 X159.403 Y104.344 E4.8937
G1 X160.099 Y106.168 E4.9586
G1 X160.692 Y108.028 E5.0236
G1 X161.180 Y109.918 E5.0885
G1 X161.561 Y111.833 E5.1534
G1 X161.834 Y113.766 E5.2184
G1 X161.998 Y115.711 E5.2833
G1 X162.053 Y117.665 E5.3483
G1 X162.053 Y130.675 E5.7810
G1 X162.228 Y132.008 E5.8257
G1 X162.747 Y133.262 E5.8709
G1 X163.574 Y134.339 E5.9160
G1 X164.651 Y135.165 E5.9612
G1 X165.906 Y135.685 E6.0064
G1 X167.239 Y135.861 E6.0511
G1 X174.052 Y135.861 E6.2777
G1 X174.052 Y155.464 E6.9297
G1 X113.452 Y155.464 E8.9453
G1 X113.452 Y113.522 E10.3403
G1 X113.185 Y112.883
;segType:Loop
G0 X112.386 Y113.068 F5400
G1 X89.852 Y113.068 E11.0898 F3000
G1 X89.852 Y83.257 E12.0813
G1 X127.244 Y83.257 E13.3249
G1 X129.181 Y83.311 E13.3894
G1 X131.103 Y83.474 E13.4535
G1 X133.014 Y83.743 E13.5177
G1 X134.906 Y84.120 E13.5819
G1 X136.774 Y84.602 E13.6460
G1 X138.613 Y85.188 E13.7102
G1 X140.415 Y85.876 E13.7744
G1 X142.176 Y86.664 E13.8386
G1 X143.890 Y87.549 E13.9027
G1 X145.552 Y88.529 E13.9669
G1 X147.157 Y89.601 E14.0311
G1 X148.698 Y90.762 E14.0953
G1 X150.173 Y92.007 E14.1595
G1 X151.575 Y93.333 E14.2236
G1 X152.901 Y94.735 E14.2878
G1 X154.146 Y96.209 E14.3520
G1 X155.306 Y97.751 E14.4162
G1 X156.378 Y99.356 E14.4804
G1 X157.359 Y101.018 E14.5446
G1 X158.245 Y102.733 E14.6088
G1 X159.033 Y104.494 E14.6729
G1 X159.721 Y106.298 E14.7371
G1 X160.307 Y108.137 E14.8013
G1 X160.789 Y110.005 E14.8655
G1 X161.166 Y111.899 E14.9297
G1 X161.436 Y113.810 E14.9939
G1 X161.598 Y115.733 E15.0581
G1 X161.653 Y117.671 E15.1226
G1 X161.653 Y130.701 E15.5560
G1 X161.838 Y132.111 E15.6033
G1 X162.397 Y133.460 E15.6519
G1 X163.287 Y134.620 E15.7005
G1 X164.448 Y135.511 E15.7491
G1 X165.800 Y136.071 E15.7978
G1 X167.213 Y136.257 E15.8452
G1 X173.652 Y136.257 E16.0594
G1 X173.652 Y155.068 E16.6851
G1 X113.852 Y155.068 E18.6740
G1 X113.852 Y113.068 E20.0709
G1 X112.580 Y113.068 E20.1133
G0 X111.320 Y112.671 F5400
G1 X90.252 Y112.671 E20.8140 F3000
G1 X90.252 Y83.654 E21.7791
G1 X127.238 Y83.654 E23.0093
G1 X129.158 Y83.707 E23.0732
G1 X131.058 Y83.868 E23.1366
G1 X132.946 Y84.134 E23.2000
G1 X134.816 Y84.506 E23.2634
G1 X136.662 Y84.983 E23.3268
G1 X138.479 Y85.561 E23.3902
G1 X140.261 Y86.242 E23.4537
G1 X142.001 Y87.020 E23.5171
G1 X143.695 Y87.896 E23.5805
G1 X145.338 Y88.864 E23.6439
G1 X146.924 Y89.924 E23.7074
G1 X148.447 Y91.071 E23.7708
G1 X149.905 Y92.302 E23.8342
G1 X151.291 Y93.612 E23.8977
G1 X152.601 Y94.998 E23.9611
G1 X153.832 Y96.455 E24.0246
G1 X154.979 Y97.979 E24.0880
G1 X156.039 Y99.566 E24.1515
G1 X157.008 Y101.209 E24.2149
G1 X157.883 Y102.904 E24.2784
G1 X158.663 Y104.645 E24.3418
G1 X159.343 Y106.428 E24.4053
G1 X159.922 Y108.246 E24.4687
G1 X160.399 Y110.093 E24.5322
G1 X160.771 Y111.965 E24.5957
G1 X161.038 Y113.854 E24.6591
G1 X161.199 Y115.755 E24.7226
G1 X161.253 Y117.676 E24.7865
G1 X161.253 Y130.727 E25.2206
G1 X161.448 Y132.213 E25.2704
G1 X162.047 Y133.659 E25.3225
G1 X163.001 Y134.902 E25.3746
G1 X164.245 Y135.857 E25.4267
G1 X165.695 Y136.458 E25.4790
G1 X167.186 Y136.653 E25.5290
G1 X173.252 Y136.653 E25.7307
G1 X173.252 Y154.671 E26.3300
G1 X114.252 Y154.671 E28.2924
G1 X114.252 Y112.671 E29.6893
G1 X111.514 Y112.671 E29.7804
;segType:HShell
G0 X122.397 Y83.852 F5400
G1 X107.004 Y99.109 E30.5012 F3000
;segType:Perimeter
G0 X106.516 Y99.055 F5400
G1 X105.937 Y99.440 E30.5244 F2100
G1 X105.679 Y100.062 E30.5468
G1 X105.234 Y100.642 E30.5711
G1 X104.654 Y101.087 E30.5954
G1 X103.978 Y101.367 E30.6197
G1 X103.266 Y101.461 E30.6436
G1 X97.239 Y101.461 E30.8441
G1 X96.527 Y101.367 E30.8680
G1 X95.851 Y101.087 E30.8923
G1 X95.271 Y100.642 E30.9166
G1 X94.826 Y100.062 E30.9409
G1 X94.546 Y99.387 E30.9652
G1 X94.451 Y98.663 E30.9895
G1 X94.546 Y97.938 E31.0138
G1 X94.826 Y97.263 E31.0381
G1 X95.271 Y96.683 E31.0625
G1 X95.851 Y96.238 E31.0868
G1 X96.527 Y95.958 E31.1111
G1 X97.239 Y95.864 E31.1350
G1 X103.266 Y95.864 E31.3354
G1 X103.978 Y95.958 E31.3593
G1 X104.654 Y96.238 E31.3837
G1 X105.234 Y96.683 E31.4080
G1 X105.679 Y97.263 E31.4323
G1 X105.959 Y97.938 E31.4566
G1 X106.054 Y98.663 E31.4809
G1 X105.966 Y99.329 E31.5033
G1 X106.277 Y99.949
;segType:Loop
G0 X105.798 Y100.562 F5400
G1 X105.521 Y100.923 E31.5184 F3000
G1 X104.857 Y101.433 E31.5463
G1 X104.083 Y101.753 E31.5741
G1 X103.292 Y101.857 E31.6006
G1 X97.213 Y101.857 E31.8029
G1 X96.421 Y101.753 E31.8294
G1 X95.648 Y101.433 E31.8572
G1 X94.984 Y100.923 E31.8851
G1 X94.476 Y100.260 E31.9129
G1 X94.156 Y99.489 E31.9406
G1 X94.047 Y98.663 E31.9684
G1 X94.156 Y97.836 E31.9961
G1 X94.476 Y97.065 E32.0238
G1 X94.984 Y96.402 E32.0516
G1 X95.648 Y95.892 E32.0795
G1 X96.422 Y95.572 E32.1073
G1 X97.213 Y95.468 E32.1339
G1 X103.292 Y95.468 E32.3361
G1 X104.083 Y95.572 E32.3626
G1 X104.857 Y95.892 E32.3905
G1 X105.521 Y96.402 E32.4183
G1 X106.029 Y97.065 E32.4461
G1 X106.349 Y97.836 E32.4738
G1 X106.458 Y98.663 E32.5016
G1 X106.349 Y99.489 E32.5293
G1 X106.029 Y100.260 E32.5571
G1 X105.915 Y100.409 E32.5633
G0 X105.284 Y101.606 F5400
G1 X105.060 Y101.778 E32.5727 F3000
G1 X104.189 Y102.139 E32.6041
G1 X103.319 Y102.254 E32.6333
G1 X97.186 Y102.254 E32.8372
G1 X96.316 Y102.139 E32.8664
G1 X95.445 Y101.778 E32.8978
G1 X94.698 Y101.205 E32.9291
G1 X94.126 Y100.459 E32.9604
G1 X93.766 Y99.592 E32.9916
G1 X93.644 Y98.663 E33.0228
G1 X93.766 Y97.733 E33.0540
G1 X94.126 Y96.866 E33.0852
G1 X94.698 Y96.120 E33.1164
G1 X95.445 Y95.547 E33.1478
G1 X96.316 Y95.186 E33.1791
G1 X97.186 Y95.071 E33.2083
G1 X103.318 Y95.071 E33.4123
G1 X104.188 Y95.186 E33.4415
G1 X105.060 Y95.547 E33.4728
G1 X105.807 Y96.120 E33.5042
G1 X106.379 Y96.866 E33.5354
G1 X106.739 Y97.733 E33.5666
G1 X106.861 Y98.663 E33.5978
G1 X106.739 Y99.592 E33.6290
G1 X106.379 Y100.459 E33.6602
G1 X105.807 Y101.205 E33.6915
G1 X105.438 Y101.488 E33.7070
G0 X121.901 Y104.673 F5400
G0 X122.781 Y105.232
G0 X123.545 Y106.758
G1 X123.485 Y107.233 E33.7229 F3000
G1 X123.273 Y107.768 E33.7421
G1 X122.934 Y108.235 E33.7613
G1 X122.489 Y108.603 E33.7804
G1 X121.966 Y108.849 E33.7997
G1 X121.397 Y108.958 E33.8189
G1 X120.820 Y108.921 E33.8382
G1 X120.269 Y108.742 E33.8574
G1 X119.781 Y108.433 E33.8767
G1 X119.386 Y108.012 E33.8959
G1 X119.109 Y107.507 E33.9150
G1 X118.966 Y106.950 E33.9341
G1 X118.966 Y106.375 E33.9533
G1 X119.109 Y105.818 E33.9724
G1 X119.386 Y105.313 E33.9916
G1 X119.781 Y104.892 E34.0108
G1 X120.269 Y104.583 E34.0300
G1 X120.820 Y104.404 E34.0492
G1 X121.397 Y104.367 E34.0685
G1 X121.966 Y104.476 E34.0877
G1 X122.489 Y104.722 E34.1070
G1 X122.934 Y105.090 E34.1262
G1 X123.276 Y105.561 E34.1455
G1 X123.489 Y106.129 E34.1657
G1 X123.545 Y106.567 E34.1804
;segType:Perimeter
G0 X123.098 Y105.129 F5400
G1 X122.941 Y105.803 E34.2034 F2100
G1 X123.098 Y106.224 E34.2183
G1 X123.154 Y106.663 E34.2331
G1 X123.095 Y107.134 E34.2489
G1 X122.919 Y107.577 E34.2647
G1 X122.639 Y107.963 E34.2806
G1 X122.272 Y108.266 E34.2964
G1 X121.840 Y108.469 E34.3123
G1 X121.372 Y108.559 E34.3281
G1 X120.896 Y108.529 E34.3440
G1 X120.442 Y108.381 E34.3599
G1 X120.040 Y108.126 E34.3757
G1 X119.713 Y107.778 E34.3916
G1 X119.484 Y107.361 E34.4074
G1 X119.366 Y106.900 E34.4232
G1 X119.366 Y106.425 E34.4390
G1 X119.484 Y105.964 E34.4549
G1 X119.713 Y105.547 E34.4707
G1 X120.040 Y105.199 E34.4866
G1 X120.442 Y104.944 E34.5024
G1 X120.896 Y104.796 E34.5183
G1 X121.372 Y104.766 E34.5341
G1 X121.840 Y104.856 E34.5500
G1 X122.272 Y105.059 E34.5659
G1 X122.639 Y105.363 E34.5817
G1 X122.886 Y105.702 E34.5957
G1 X123.539 Y105.948
;segType:Loop
G0 X123.645 Y107.916 F5400
G1 X123.627 Y107.960 E34.5973 F3000
G1 X123.229 Y108.507 E34.6198
G1 X122.707 Y108.939 E34.6423
G1 X122.092 Y109.229 E34.6649
G1 X121.423 Y109.357 E34.6876
G1 X120.743 Y109.314 E34.7102
G1 X120.096 Y109.103 E34.7329
G1 X119.523 Y108.740 E34.7554
G1 X119.059 Y108.245 E34.7780
G1 X118.734 Y107.653 E34.8005
G1 X118.566 Y107.000 E34.8229
G1 X118.566 Y106.325 E34.8453
G1 X118.734 Y105.672 E34.8678
G1 X119.059 Y105.080 E34.8902
G1 X119.523 Y104.585 E34.9128
G1 X120.097 Y104.222 E34.9354
G1 X120.743 Y104.012 E34.9580
G1 X121.423 Y103.969 E34.9806
G1 X122.092 Y104.096 E35.0033
G1 X122.707 Y104.386 E35.0259
G1 X123.229 Y104.818 E35.0485
G1 X123.632 Y105.372 E35.0713
G1 X123.881 Y106.034 E35.0948
G1 X123.960 Y106.662 E35.1158
G1 X123.876 Y107.331 E35.1383
G1 X123.716 Y107.737 E35.1528
G0 X123.284 Y138.177 F5400
G0 X122.860 Y139.297
G1 X122.489 Y139.603 E35.1687 F3000
G1 X121.966 Y139.849 E35.1880
G1 X121.397 Y139.958 E35.2072
G1 X120.820 Y139.921 E35.2265
G1 X120.269 Y139.742 E35.2457
G1 X119.781 Y139.433 E35.2649
G1 X119.386 Y139.012 E35.2841
G1 X119.109 Y138.507 E35.3033
G1 X118.966 Y137.950 E35.3224
G1 X118.966 Y137.375 E35.3416
G1 X119.109 Y136.818 E35.3607
G1 X119.386 Y136.313 E35.3798
G1 X119.781 Y135.892 E35.3990
G1 X120.269 Y135.583 E35.4183
G1 X120.820 Y135.404 E35.4375
G1 X121.397 Y135.367 E35.4568
G1 X121.966 Y135.476 E35.4760
G1 X122.489 Y135.722 E35.4953
G1 X122.934 Y136.090 E35.5144
G1 X123.273 Y136.556 E35.5336
G1 X123.485 Y137.092 E35.5528
G1 X123.550 Y137.604 E35.5699
G1 X123.488 Y138.225 E35.5907
G1 X123.273 Y138.768 E35.6101
G1 X122.991 Y139.157 E35.6261
;segType:Perimeter
G0 X123.643 Y137.784 F5400
G1 X123.074 Y138.186 E35.6493 F2100
G1 X122.919 Y138.577 E35.6633
G1 X122.639 Y138.963 E35.6791
G1 X122.272 Y139.266 E35.6950
G1 X121.840 Y139.469 E35.7108
G1 X121.372 Y139.559 E35.7267
G1 X120.896 Y139.529 E35.7426
G1 X120.442 Y139.381 E35.7584
G1 X120.040 Y139.126 E35.7743
G1 X119.713 Y138.778 E35.7901
G1 X119.484 Y138.361 E35.8059
G1 X119.366 Y137.900 E35.8218
G1 X119.366 Y137.425 E35.8376
G1 X119.484 Y136.964 E35.8534
G1 X119.713 Y136.546 E35.8693
G1 X120.040 Y136.199 E35.8851
G1 X120.442 Y135.944 E35.9010
G1 X120.896 Y135.796 E35.9168
G1 X121.372 Y135.766 E35.9327
G1 X121.840 Y135.856 E35.9486
G1 X122.272 Y136.059 E35.9644
G1 X122.639 Y136.363 E35.9803
G1 X122.919 Y136.748 E35.9961
G1 X123.095 Y137.190 E36.0119
G1 X123.147 Y137.609 E36.0260
G1 X123.101 Y138.075 E36.0415
G1 X123.424 Y138.688
;segType:Loop
G0 X122.133 Y140.209 F5400
G1 X122.092 Y140.229 E36.0431 F3000
G1 X121.423 Y140.357 E36.0657
G1 X120.743 Y140.314 E36.0884
G1 X120.096 Y140.103 E36.1110
G1 X119.523 Y139.740 E36.1336
G1 X119.059 Y139.245 E36.1561
G1 X118.734 Y138.653 E36.1786
G1 X118.566 Y137.999 E36.2010
G1 X118.566 Y137.325 E36.2235
G1 X118.734 Y136.672 E36.2459
G1 X119.059 Y136.080 E36.2684
G1 X119.523 Y135.585 E36.2909
G1 X120.097 Y135.221 E36.3135
G1 X120.743 Y135.012 E36.3361
G1 X121.423 Y134.969 E36.3588
G1 X122.092 Y135.096 E36.3814
G1 X122.707 Y135.386 E36.4040
G1 X123.229 Y135.818 E36.4266
G1 X123.627 Y136.365 E36.4491
G1 X123.876 Y136.993 E36.4716
G1 X123.952 Y137.599 E36.4919
G1 X123.881 Y138.319 E36.5159
G1 X123.627 Y138.960 E36.5388
G1 X123.229 Y139.507 E36.5614
G1 X122.707 Y139.939 E36.5839
G1 X122.308 Y140.127 E36.5986
;segType:HShell
G0 X129.933 Y133.450 F5400
G1 X119.475 Y143.816 E37.0883 F3000
;segType:Perimeter
G0 X119.098 Y144.129 F5400
G1 X118.940 Y144.803 E37.1114 F2100
G1 X119.098 Y145.224 E37.1263
G1 X119.154 Y145.663 E37.1410
G1 X119.094 Y146.134 E37.1568
G1 X118.919 Y146.577 E37.1727
G1 X118.639 Y146.963 E37.1885
G1 X118.272 Y147.266 E37.2044
G1 X117.841 Y147.469 E37.2202
G1 X117.372 Y147.559 E37.2361
G1 X116.896 Y147.529 E37.2520
G1 X116.442 Y147.381 E37.2678
G1 X116.040 Y147.126 E37.2837
G1 X115.713 Y146.778 E37.2995
G1 X115.484 Y146.361 E37.3154
G1 X115.366 Y145.900 E37.3312
G1 X115.366 Y145.425 E37.3470
G1 X115.484 Y144.964 E37.3628
G1 X115.713 Y144.547 E37.3787
G1 X116.040 Y144.199 E37.3945
G1 X116.442 Y143.944 E37.4104
G1 X116.896 Y143.796 E37.4262
G1 X117.372 Y143.766 E37.4421
G1 X117.841 Y143.856 E37.4580
G1 X118.272 Y144.059 E37.4738
G1 X118.639 Y144.363 E37.4897
G1 X118.886 Y144.702 E37.5036
G1 X119.539 Y144.947
;segType:Loop
G0 X119.545 Y145.758 F5400
G1 X119.485 Y146.233 E37.5196 F3000
G1 X119.273 Y146.768 E37.5387
G1 X118.934 Y147.235 E37.5579
G1 X118.489 Y147.603 E37.5771
G1 X117.966 Y147.849 E37.5963
G1 X117.397 Y147.958 E37.6156
G1 X116.820 Y147.921 E37.6349
G1 X116.269 Y147.742 E37.6541
G1 X115.782 Y147.432 E37.6733
G1 X115.386 Y147.012 E37.6925
G1 X115.109 Y146.507 E37.7117
G1 X114.966 Y145.950 E37.7308
G1 X114.966 Y145.375 E37.7499
G1 X115.109 Y144.818 E37.7691
G1 X115.386 Y144.313 E37.7882
G1 X115.782 Y143.892 E37.8074
G1 X116.269 Y143.583 E37.8266
G1 X116.820 Y143.404 E37.8459
G1 X117.397 Y143.367 E37.8651
G1 X117.966 Y143.476 E37.8844
G1 X118.489 Y143.722 E37.9036
G1 X118.934 Y144.090 E37.9228
G1 X119.276 Y144.561 E37.9422
G1 X119.490 Y145.129 E37.9624
G1 X119.545 Y145.567 E37.9770
G0 X119.644 Y146.916 F5400
G1 X119.627 Y146.959 E37.9786 F3000
G1 X119.229 Y147.507 E38.0011
G1 X118.707 Y147.939 E38.0237
G1 X118.092 Y148.229 E38.0463
G1 X117.423 Y148.357 E38.0689
G1 X116.743 Y148.314 E38.0916
G1 X116.096 Y148.103 E38.1142
G1 X115.523 Y147.739 E38.1368
G1 X115.059 Y147.245 E38.1593
G1 X114.734 Y146.653 E38.1818
G1 X114.566 Y146.000 E38.2042
G1 X114.566 Y145.325 E38.2267
G1 X114.734 Y144.672 E38.2491
G1 X115.059 Y144.080 E38.2716
G1 X115.523 Y143.585 E38.2941
G1 X116.096 Y143.222 E38.3167
G1 X116.743 Y143.012 E38.3393
G1 X117.423 Y142.969 E38.3620
G1 X118.092 Y143.096 E38.3846
G1 X118.707 Y143.386 E38.4072
G1 X119.229 Y143.818 E38.4298
G1 X119.632 Y144.372 E38.4526
G1 X119.881 Y145.034 E38.4761
G1 X119.960 Y145.663 E38.4972
G1 X119.876 Y146.331 E38.5196
G1 X119.715 Y146.737 E38.5341
G0 X152.901 Y139.652 F5400
G0 X155.041 Y138.456
;segType:HShell
G1 X161.263 Y132.289 E38.8255 F3000
G1 X161.194 Y131.814
G1 X155.131 Y137.824 E39.1094
;segType:Perimeter
G0 X154.643 Y137.784 F5400
G1 X154.074 Y138.186 E39.1326 F2100
G1 X153.919 Y138.577 E39.1466
G1 X153.639 Y138.963 E39.1624
G1 X153.272 Y139.266 E39.1782
G1 X152.841 Y139.469 E39.1941
G1 X152.372 Y139.559 E39.2100
G1 X151.896 Y139.529 E39.2259
G1 X151.442 Y139.381 E39.2417
G1 X151.040 Y139.126 E39.2576
G1 X150.713 Y138.778 E39.2734
G1 X150.484 Y138.361 E39.2892
G1 X150.366 Y137.900 E39.3051
G1 X150.366 Y137.425 E39.3209
G1 X150.484 Y136.964 E39.3367
G1 X150.713 Y136.546 E39.3526
G1 X151.040 Y136.199 E39.3684
G1 X151.442 Y135.944 E39.3843
G1 X151.896 Y135.796 E39.4001
G1 X152.372 Y135.766 E39.4160
G1 X152.841 Y135.856 E39.4319
G1 X153.272 Y136.059 E39.4477
G1 X153.639 Y136.363 E39.4636
G1 X153.919 Y136.748 E39.4794
G1 X154.094 Y137.190 E39.4952
G1 X154.147 Y137.609 E39.5093
G1 X154.101 Y138.075 E39.5248
G1 X154.424 Y138.688
;segType:Loop
G0 X153.860 Y139.296 F5400
G1 X153.489 Y139.603 E39.5408 F3000
G1 X152.966 Y139.849 E39.5601
G1 X152.397 Y139.958 E39.5793
G1 X151.819 Y139.921 E39.5986
G1 X151.269 Y139.742 E39.6178
G1 X150.782 Y139.432 E39.6370
G1 X150.386 Y139.012 E39.6562
G1 X150.109 Y138.507 E39.6754
G1 X149.966 Y137.950 E39.6945
G1 X149.966 Y137.375 E39.7137
G1 X150.109 Y136.818 E39.7328
G1 X150.386 Y136.313 E39.7519
G1 X150.782 Y135.892 E39.7711
G1 X151.269 Y135.583 E39.7903
G1 X151.819 Y135.404 E39.8096
G1 X152.397 Y135.367 E39.8289
G1 X152.966 Y135.476 E39.8481
G1 X153.489 Y135.722 E39.8673
G1 X153.934 Y136.090 E39.8865
G1 X154.273 Y136.556 E39.9057
G1 X154.485 Y137.092 E39.9249
G1 X154.550 Y137.604 E39.9420
G1 X154.488 Y138.225 E39.9628
G1 X154.273 Y138.768 E39.9822
G1 X153.991 Y139.157 E39.9982
G0 X153.133 Y140.209 F5400
G1 X153.092 Y140.229 E39.9997 F3000
G1 X152.423 Y140.357 E40.0224
G1 X151.743 Y140.314 E40.0450
G1 X151.096 Y140.103 E40.0677
G1 X150.523 Y139.739 E40.0902
G1 X150.059 Y139.245 E40.1128
G1 X149.734 Y138.653 E40.1352
G1 X149.566 Y138.000 E40.1577
G1 X149.566 Y137.325 E40.1801
G1 X149.734 Y136.672 E40.2026
G1 X150.059 Y136.080 E40.2250
G1 X150.523 Y135.585 E40.2476
G1 X151.096 Y135.222 E40.2702
G1 X151.743 Y135.012 E40.2928
G1 X152.423 Y134.969 E40.3154
G1 X153.092 Y135.096 E40.3381
G1 X153.707 Y135.385 E40.3607
G1 X154.229 Y135.818 E40.3832
G1 X154.627 Y136.365 E40.4057
G1 X154.876 Y136.993 E40.4282
G1 X154.952 Y137.599 E40.4485
G1 X154.881 Y138.319 E40.4726
G1 X154.627 Y138.959 E40.4955
G1 X154.229 Y139.507 E40.5180
G1 X153.707 Y139.939 E40.5406
G1 X153.309 Y140.127 E40.5552
G0 X165.179 Y142.817 F5400
G0 X166.437 Y143.615
G0 X167.408 Y145.274
G1 X167.457 Y145.663 E40.5682 F3000
G1 X167.357 Y146.457 E40.5948
G1 X167.062 Y147.202 E40.6215
G1 X166.590 Y147.851 E40.6482
G1 X165.972 Y148.362 E40.6749
G1 X165.244 Y148.705 E40.7016
G1 X164.454 Y148.856 E40.7284
G1 X163.651 Y148.805 E40.7551
G1 X162.886 Y148.557 E40.7819
G1 X162.208 Y148.126 E40.8086
G1 X161.658 Y147.541 E40.8353
G1 X161.272 Y146.839 E40.8620
G1 X161.073 Y146.062 E40.8886
G1 X161.073 Y145.262 E40.9152
G1 X161.272 Y144.487 E40.9419
G1 X161.658 Y143.784 E40.9685
G1 X162.208 Y143.199 E40.9952
G1 X162.886 Y142.769 E41.0219
G1 X163.651 Y142.520 E41.0487
G1 X164.454 Y142.469 E41.0755
G1 X165.244 Y142.620 E41.1022
G1 X165.972 Y142.962 E41.1290
G1 X166.590 Y143.474 E41.1557
G1 X167.065 Y144.127 E41.1825
G1 X167.364 Y144.922 E41.2107
G1 X167.384 Y145.083 E41.2162
;segType:Perimeter
G0 X166.887 Y143.696 F5400
G1 X166.729 Y144.370 E41.2392 F2100
G1 X166.973 Y145.017 E41.2622
G1 X167.054 Y145.663 E41.2838
G1 X166.966 Y146.358 E41.3071
G1 X166.708 Y147.011 E41.3305
G1 X166.295 Y147.578 E41.3538
G1 X165.754 Y148.026 E41.3772
G1 X165.119 Y148.325 E41.4005
G1 X164.429 Y148.457 E41.4239
G1 X163.727 Y148.413 E41.4473
G1 X163.059 Y148.196 E41.4706
G1 X162.466 Y147.819 E41.4940
G1 X161.985 Y147.307 E41.5174
G1 X161.647 Y146.693 E41.5407
G1 X161.473 Y146.013 E41.5640
G1 X161.473 Y145.312 E41.5874
G1 X161.647 Y144.632 E41.6107
G1 X161.985 Y144.018 E41.6340
G1 X162.466 Y143.506 E41.6574
G1 X163.059 Y143.130 E41.6807
G1 X163.727 Y142.912 E41.7041
G1 X164.429 Y142.868 E41.7275
G1 X165.119 Y143.000 E41.7508
G1 X165.754 Y143.299 E41.7742
G1 X166.295 Y143.746 E41.7976
G1 X166.675 Y144.269 E41.8190
G1 X167.328 Y144.514
;segType:Loop
G0 X167.771 Y146.372 F5400
G1 X167.748 Y146.555 E41.8252 F3000
G1 X167.416 Y147.393 E41.8552
G1 X166.885 Y148.123 E41.8852
G1 X166.189 Y148.699 E41.9152
G1 X165.370 Y149.085 E41.9453
G1 X164.480 Y149.255 E41.9755
G1 X163.575 Y149.197 E42.0056
G1 X162.713 Y148.918 E42.0358
G1 X161.950 Y148.433 E42.0658
G1 X161.331 Y147.775 E42.0959
G1 X160.897 Y146.985 E42.1259
G1 X160.673 Y146.112 E42.1558
G1 X160.673 Y145.213 E42.1857
G1 X160.897 Y144.341 E42.2157
G1 X161.331 Y143.550 E42.2457
G1 X161.950 Y142.892 E42.2757
G1 X162.713 Y142.408 E42.3058
G1 X163.575 Y142.127 E42.3359
G1 X164.480 Y142.070 E42.3661
G1 X165.370 Y142.240 E42.3962
G1 X166.189 Y142.626 E42.4264
G1 X166.885 Y143.202 E42.4564
G1 X167.421 Y143.939 E42.4867
G1 X167.755 Y144.827 E42.5183
G1 X167.860 Y145.663 E42.5463
G1 X167.795 Y146.181 E42.5637
G0 X166.880 Y144.225 F5400
G0 X149.151 Y124.389
G1 X149.139 Y124.476 E42.5666 F3000
G1 X148.872 Y125.608 E42.6053
G1 X148.503 Y126.711 E42.6439
G1 X148.033 Y127.775 E42.6826
G1 X147.467 Y128.791 E42.7213
G1 X146.809 Y129.751 E42.7600
G1 X146.066 Y130.646 E42.7987
G1 X145.243 Y131.469 E42.8374
G1 X144.348 Y132.212 E42.8761
G1 X143.388 Y132.870 E42.9148
G1 X142.371 Y133.436 E42.9536
G1 X141.306 Y133.906 E42.9923
G1 X140.202 Y134.276 E43.0310
G1 X139.069 Y134.543 E43.0697
G1 X137.915 Y134.704 E43.1084
G1 X136.752 Y134.758 E43.1472
G1 X135.589 Y134.704 E43.1859
G1 X134.436 Y134.543 E43.2246
G1 X133.303 Y134.276 E43.2633
G1 X132.199 Y133.906 E43.3021
G1 X131.134 Y133.436 E43.3408
G1 X130.117 Y132.870 E43.3795
G1 X129.157 Y132.212 E43.4182
G1 X128.261 Y131.469 E43.4569
G1 X127.439 Y130.646 E43.4956
G1 X126.695 Y129.751 E43.5343
G1 X126.038 Y128.791 E43.5730
G1 X125.472 Y127.775 E43.6117
G1 X125.002 Y126.711 E43.6504
G1 X124.633 Y125.608 E43.6891
G1 X124.366 Y124.476 E43.7278
G1 X124.205 Y123.324 E43.7664
G1 X124.152 Y122.162 E43.8051
G1 X124.205 Y121.001 E43.8438
G1 X124.366 Y119.849 E43.8825
G1 X124.633 Y118.717 E43.9212
G1 X125.002 Y117.614 E43.9598
G1 X125.472 Y116.550 E43.9985
G1 X126.037 Y115.534 E44.0372
G1 X126.695 Y114.574 E44.0759
G1 X127.439 Y113.679 E44.1146
G1 X128.261 Y112.856 E44.1533
G1 X129.157 Y112.113 E44.1920
G1 X130.117 Y111.455 E44.2307
G1 X131.134 Y110.889 E44.2694
G1 X132.199 Y110.418 E44.3082
G1 X133.303 Y110.048 E44.3469
G1 X134.436 Y109.782 E44.3856
G1 X135.589 Y109.621 E44.4243
G1 X136.752 Y109.567 E44.4631
G1 X137.915 Y109.621 E44.5018
G1 X139.069 Y109.782 E44.5405
G1 X140.202 Y110.048 E44.5792
G1 X141.306 Y110.418 E44.6180
G1 X142.371 Y110.889 E44.6567
G1 X143.388 Y111.455 E44.6954
G1 X144.348 Y112.113 E44.7341
G1 X145.244 Y112.856 E44.7728
G1 X146.066 Y113.679 E44.8115
G1 X146.809 Y114.574 E44.8502
G1 X147.467 Y115.534 E44.8889
G1 X148.033 Y116.550 E44.9276
G1 X148.503 Y117.614 E44.9663
G1 X148.872 Y118.717 E45.0050
G1 X149.139 Y119.849 E45.0437
G1 X149.299 Y121.001 E45.0823
G1 X149.353 Y122.162 E45.1210
G1 X149.299 Y123.324 E45.1597
G1 X149.177 Y124.199 E45.1891
;segType:Perimeter
G0 X149.419 Y122.891 F5400
G1 X148.893 Y123.345 E45.2122 F2100
G1 X148.745 Y124.403 E45.2477
G1 X148.487 Y125.500 E45.2852
G1 X148.129 Y126.569 E45.3227
G1 X147.674 Y127.599 E45.3602
G1 X147.126 Y128.583 E45.3976
G1 X146.489 Y129.513 E45.4351
G1 X145.769 Y130.380 E45.4726
G1 X144.972 Y131.176 E45.5101
G1 X144.105 Y131.897 E45.5475
G1 X143.176 Y132.533 E45.5850
G1 X142.191 Y133.082 E45.6225
G1 X141.160 Y133.537 E45.6600
G1 X140.092 Y133.895 E45.6975
G1 X138.995 Y134.153 E45.7350
G1 X137.878 Y134.309 E45.7724
G1 X136.752 Y134.361 E45.8099
G1 X135.626 Y134.309 E45.8474
G1 X134.510 Y134.153 E45.8849
G1 X133.413 Y133.895 E45.9224
G1 X132.345 Y133.537 E45.9599
G1 X131.314 Y133.082 E45.9974
G1 X130.329 Y132.533 E46.0348
G1 X129.400 Y131.897 E46.0723
G1 X128.533 Y131.176 E46.1098
G1 X127.736 Y130.380 E46.1473
G1 X127.016 Y129.513 E46.1848
G1 X126.379 Y128.583 E46.2222
G1 X125.831 Y127.599 E46.2597
G1 X125.376 Y126.569 E46.2972
G1 X125.018 Y125.501 E46.3346
G1 X124.760 Y124.404 E46.3721
G1 X124.604 Y123.288 E46.4096
G1 X124.552 Y122.162 E46.4471
G1 X124.604 Y121.037 E46.4845
G1 X124.760 Y119.921 E46.5220
G1 X125.018 Y118.825 E46.5595
G1 X125.376 Y117.756 E46.5969
G1 X125.831 Y116.726 E46.6344
G1 X126.379 Y115.742 E46.6719
G1 X127.016 Y114.812 E46.7094
G1 X127.736 Y113.945 E46.7468
G1 X128.533 Y113.148 E46.7843
G1 X129.400 Y112.428 E46.8218
G1 X130.329 Y111.792 E46.8593
G1 X131.314 Y111.243 E46.8968
G1 X132.345 Y110.788 E46.9342
G1 X133.413 Y110.430 E46.9717
G1 X134.510 Y110.172 E47.0092
G1 X135.626 Y110.016 E47.0467
G1 X136.752 Y109.964 E47.0842
G1 X137.878 Y110.016 E47.1217
G1 X138.995 Y110.172 E47.1592
G1 X140.092 Y110.430 E47.1966
G1 X141.160 Y110.788 E47.2341
G1 X142.191 Y111.243 E47.2716
G1 X143.176 Y111.792 E47.3091
G1 X144.105 Y112.428 E47.3466
G1 X144.973 Y113.148 E47.3841
G1 X145.769 Y113.945 E47.4215
G1 X146.489 Y114.812 E47.4590
G1 X147.126 Y115.742 E47.4965
G1 X147.674 Y116.726 E47.5340
G1 X148.129 Y117.756 E47.5714
G1 X148.487 Y118.825 E47.6089
G1 X148.745 Y119.921 E47.6464
G1 X148.901 Y121.037 E47.6839
G1 X148.953 Y122.162 E47.7213
G1 X148.903 Y123.230 E47.7569
G1 X149.337 Y123.772
;segType:Loop
G0 X149.306 Y125.510 F5400
G1 X149.258 Y125.716 E47.7639 F3000
G1 X148.876 Y126.853 E47.8038
G1 X148.392 Y127.951 E47.8437
G1 X147.808 Y128.999 E47.8836
G1 X147.130 Y129.989 E47.9235
G1 X146.363 Y130.912 E47.9635
G1 X145.514 Y131.761 E48.0034
G1 X144.590 Y132.528 E48.0433
G1 X143.600 Y133.207 E48.0833
G1 X142.551 Y133.791 E48.1232
G1 X141.452 Y134.276 E48.1631
G1 X140.312 Y134.658 E48.2031
G1 X139.143 Y134.933 E48.2431
G1 X137.953 Y135.099 E48.2830
G1 X136.752 Y135.155 E48.3230
G1 X135.552 Y135.099 E48.3630
G1 X134.362 Y134.933 E48.4029
G1 X133.192 Y134.658 E48.4429
G1 X132.053 Y134.276 E48.4829
G1 X130.954 Y133.791 E48.5228
G1 X129.905 Y133.207 E48.5628
G1 X128.914 Y132.528 E48.6027
G1 X127.990 Y131.761 E48.6426
G1 X127.142 Y130.912 E48.6826
G1 X126.375 Y129.989 E48.7225
G1 X125.697 Y128.998 E48.7624
G1 X125.113 Y127.951 E48.8023
G1 X124.628 Y126.853 E48.8422
G1 X124.247 Y125.716 E48.8821
G1 X123.972 Y124.548 E48.9220
G1 X123.807 Y123.360 E48.9619
G1 X123.751 Y122.162 E49.0018
G1 X123.807 Y120.965 E49.0417
G1 X123.972 Y119.777 E49.0815
G1 X124.247 Y118.609 E49.1214
G1 X124.628 Y117.472 E49.1613
G1 X125.113 Y116.374 E49.2012
G1 X125.696 Y115.327 E49.2411
G1 X126.375 Y114.336 E49.2811
G1 X127.142 Y113.413 E49.3210
G1 X127.990 Y112.564 E49.3609
G1 X128.914 Y111.797 E49.4008
G1 X129.905 Y111.118 E49.4408
G1 X130.954 Y110.534 E49.4807
G1 X132.053 Y110.049 E49.5207
G1 X133.192 Y109.667 E49.5606
G1 X134.362 Y109.392 E49.6006
G1 X135.552 Y109.226 E49.6406
G1 X136.752 Y109.170 E49.6805
G1 X137.953 Y109.226 E49.7205
G1 X139.143 Y109.392 E49.7605
G1 X140.312 Y109.667 E49.8004
G1 X141.452 Y110.049 E49.8404
G1 X142.551 Y110.534 E49.8804
G1 X143.600 Y111.118 E49.9203
G1 X144.590 Y111.797 E49.9602
G1 X145.515 Y112.564 E50.0002
G1 X146.363 Y113.413 E50.0401
G1 X147.130 Y114.336 E50.0800
G1 X147.808 Y115.327 E50.1199
G1 X148.392 Y116.374 E50.1598
G1 X148.876 Y117.472 E50.1997
G1 X149.258 Y118.609 E50.2396
G1 X149.532 Y119.777 E50.2795
G1 X149.698 Y120.964 E50.3194
G1 X149.754 Y122.162 E50.3593
G1 X149.698 Y123.361 E50.3992
G1 X149.532 Y124.548 E50.4391
G1 X149.350 Y125.323 E50.4655
;segType:HShell
G0 X157.592 Y102.775 F5400
G1 X154.880 Y105.463 E50.5926 F3000
G1 X154.688 Y105.110
G1 X157.406 Y102.415 E50.7199
G1 X157.221 Y102.056
G1 X154.458 Y104.794 E50.8492
;segType:Perimeter
G0 X154.098 Y105.129 F5400
G1 X153.940 Y105.803 E50.8722 F2100
G1 X154.098 Y106.224 E50.8872
G1 X154.154 Y106.663 E50.9019
G1 X154.094 Y107.134 E50.9177
G1 X153.919 Y107.577 E50.9335
G1 X153.639 Y107.963 E50.9494
G1 X153.272 Y108.266 E50.9652
G1 X152.841 Y108.469 E50.9811
G1 X152.372 Y108.559 E50.9970
G1 X151.896 Y108.529 E51.0128
G1 X151.442 Y108.381 E51.0287
G1 X151.040 Y108.126 E51.0446
G1 X150.713 Y107.778 E51.0604
G1 X150.484 Y107.361 E51.0762
G1 X150.366 Y106.900 E51.0921
G1 X150.366 Y106.425 E51.1079
G1 X150.484 Y105.964 E51.1237
G1 X150.713 Y105.547 E51.1395
G1 X151.040 Y105.199 E51.1554
G1 X151.442 Y104.944 E51.1712
G1 X151.896 Y104.796 E51.1871
G1 X152.372 Y104.766 E51.2030
G1 X152.841 Y104.856 E51.2188
G1 X153.272 Y105.059 E51.2347
G1 X153.639 Y105.363 E51.2506
G1 X153.886 Y105.702 E51.2645
G1 X154.539 Y105.947
;segType:Loop
G0 X154.545 Y106.758 F5400
G1 X154.485 Y107.233 E51.2805 F3000
G1 X154.273 Y107.768 E51.2996
G1 X153.934 Y108.235 E51.3188
G1 X153.489 Y108.603 E51.3380
G1 X152.966 Y108.849 E51.3572
