; GCode generated by CraftWare

G28 X0 Y0
G28 Z0

M190 S65 ;set bed temp (wait)
M109 S240 ;set head temp (wait)
; ------------------------------------
; Layer #0
; ------------------------------------
G21 ; mm
G90 ; abs
G92 E0 ; reset extr
M106 S0
;segType:Skirt
G0 F1200 E-1.0000
G0 F300 Z0.200
G0 X80.801 Y166.406 F5400
G0 F1200 E0.0000
G1 X81.000 Y166.600 E0.0093 F3000
G1 X81.200 Y166.795 E0.0185
G1 X81.666 Y166.859 E0.0342
G1 X178.601 Y166.859 E3.2582
G1 X180.198 Y165.306 E3.3324
G1 X180.398 Y164.982 E3.3450
G1 X180.398 Y79.018 E6.2042
G1 X178.534 Y77.205 E6.2907
G1 X178.068 Y77.141 E6.3063
G1 X81.399 Y77.141 E9.5215
G1 X79.535 Y78.953 E9.6080
G1 X79.469 Y79.406 E9.6232
G1 X79.469 Y165.112 E12.4738
G1 X80.801 Y166.406 E12.5355
G1 X80.801 Y166.795 E12.5485
G1 X81.000 Y166.989 E12.5577
G1 X81.200 Y167.183 E12.5670
G1 X81.666 Y167.248 E12.5826
G1 X178.601 Y167.248 E15.8067
G1 X180.731 Y165.176 E15.9055
G1 X180.797 Y164.723 E15.9208
G1 X180.797 Y79.018 E18.7713
G1 X178.667 Y76.946 E18.8702
G1 X178.334 Y76.752 E18.8830
G1 X81.399 Y76.752 E22.1070
G1 X79.269 Y78.824 E22.2059
G1 X79.070 Y79.147 E22.2185
G1 X79.070 Y165.112 E25.0777
G1 X80.801 Y166.795 E25.1580
G1 X80.801 Y167.183 E25.1709
G0 F1200 E24.1709
G0 X81.700 Y165.210 F5400
G0 X82.600 Y163.236
G0 F1200 E25.1709
;segType:Loop
G1 X82.600 Y80.083 E27.9366 F3000
G1 X177.400 Y80.083 E31.0896
G1 X177.400 Y163.917 E33.8779
G1 X82.600 Y163.917 E37.0310
G1 X82.600 Y163.431 E37.0472
;segType:Perimeter
G0 X82.865 Y163.979 F5400
G1 X82.200 Y164.247 E37.0710 F2100
G1 X82.200 Y79.695 E39.8832
G1 X177.800 Y79.695 E43.0629
G1 X177.800 Y164.306 E45.8771
G1 X82.260 Y164.306 E49.0548
G1 X82.535 Y163.659
;segType:Loop
G0 X83.000 Y162.167 F5400
G1 X83.000 Y80.472 E51.7720 F3000
G1 X177.000 Y80.472 E54.8984
G1 X177.000 Y163.528 E57.6608
G1 X83.000 Y163.528 E60.7873
G1 X83.000 Y162.362 E60.8261
;segType:HShell
G0 X176.533 Y163.333 F5400
G1 X176.800 Y163.074 E60.8385 F3000
G1 X176.800 Y162.524
G1 X175.968 Y163.333 E60.8771
G1 X175.402 Y163.333
G1 X176.800 Y161.974 E60.9420
G1 X176.800 Y161.424
G1 X174.837 Y163.333 E61.0330
G1 X174.271 Y163.333
G1 X176.800 Y160.874 E61.1504
G1 X176.800 Y160.324
G1 X173.706 Y163.333 E61.2939
G1 X173.140 Y163.333
G1 X176.800 Y159.775 E61.4637
G1 X176.800 Y159.225
G1 X172.575 Y163.333 E61.6597
G1 X172.009 Y163.333
G1 X176.800 Y158.675 E61.8820
G1 X176.800 Y158.125
G1 X171.444 Y163.333 E62.1305
G1 X170.878 Y163.333
G1 X176.800 Y157.575 E62.4052
G1 X176.800 Y157.026
G1 X170.313 Y163.333 E62.7061
G1 X169.747 Y163.333
G1 X176.800 Y156.476 E63.0333
G1 X176.800 Y155.926
G1 X169.182 Y163.333 E63.3867
G1 X168.616 Y163.333
G1 X176.800 Y155.376 E63.7664
G1 X176.800 Y154.826
G1 X168.051 Y163.333 E64.1723
G1 X167.485 Y163.333
G1 X176.800 Y154.276 E64.6044
G1 X176.800 Y153.727
G1 X166.920 Y163.333 E65.0627
G1 X166.354 Y163.333
G1 X176.800 Y153.177 E65.5473
G1 X176.800 Y152.627
G1 X165.789 Y163.333 E66.0581
G1 X165.223 Y163.333
G1 X176.800 Y152.077 E66.5952
G1 X176.800 Y151.527
G1 X164.658 Y163.333 E67.1584
G1 X164.092 Y163.333
G1 X176.800 Y150.978 E67.7480
G1 X176.800 Y150.428
G1 X163.527 Y163.333 E68.3637
G1 X162.961 Y163.333
G1 X176.800 Y149.878 E69.0057
G1 X176.800 Y149.328
G1 X162.396 Y163.333 E69.6739
G1 X161.831 Y163.333
G1 X176.800 Y148.778 E70.3683
G1 X176.800 Y148.228
G1 X161.265 Y163.333 E71.0890
G1 X160.700 Y163.333
G1 X176.800 Y147.679 E71.8359
G1 X176.800 Y147.129
G1 X160.134 Y163.333 E72.6091
G1 X159.569 Y163.333
G1 X176.800 Y146.579 E73.4084
G1 X176.800 Y146.029
G1 X159.003 Y163.333 E74.2340
G1 X158.438 Y163.333
G1 X176.800 Y145.479 E75.0859
G1 X176.800 Y144.930
G1 X157.872 Y163.333 E75.9639
G1 X157.307 Y163.333
G1 X176.800 Y144.380 E76.8682
G1 X176.800 Y143.830
G1 X156.741 Y163.333 E77.7988
G1 X156.176 Y163.333
G1 X176.800 Y143.280 E78.7555
G1 X176.800 Y142.730
G1 X155.610 Y163.333 E79.7386
G1 X155.045 Y163.333
G1 X176.800 Y142.180 E80.7478
G1 X176.800 Y141.631
G1 X154.479 Y163.333 E81.7833
G1 X153.914 Y163.333
G1 X176.800 Y141.081 E82.8450
G1 X176.800 Y140.531
G1 X153.348 Y163.333 E83.9329
G1 X152.783 Y163.333
G1 X176.800 Y139.981 E85.0471
G1 X176.800 Y139.431
G1 X152.217 Y163.333 E86.1875
G1 X151.652 Y163.333
G1 X176.800 Y138.881 E87.3541
G1 X176.800 Y138.332
G1 X151.086 Y163.333 E88.5470
G1 X150.521 Y163.333
G1 X176.800 Y137.782 E89.7661
G1 X176.800 Y137.232
G1 X149.955 Y163.333 E91.0114
G1 X149.390 Y163.333
G1 X176.800 Y136.682 E92.2830
G1 X176.800 Y136.132
G1 X148.824 Y163.333 E93.5808
G1 X148.259 Y163.333
G1 X176.800 Y135.583 E94.9048
G1 X176.800 Y135.033
G1 X147.693 Y163.333 E96.2550
G1 X147.128 Y163.333
G1 X176.800 Y134.483 E97.6315
G1 X176.800 Y133.933
G1 X146.563 Y163.333 E99.0343
G1 X145.997 Y163.333
G1 X176.800 Y133.383 E100.4632
G1 X176.800 Y132.833
G1 X145.432 Y163.333 E101.9184
G1 X144.866 Y163.333
G1 X176.800 Y132.284 E103.3998
G1 X176.800 Y131.734
G1 X144.301 Y163.333 E104.9075
G1 X143.735 Y163.333
G1 X176.800 Y131.184 E106.4414
G1 X176.800 Y130.634
G1 X143.170 Y163.333 E108.0015
G1 X142.604 Y163.333
G1 X176.800 Y130.084 E109.5879
G1 X176.800 Y129.535
G1 X142.039 Y163.333 E111.2005
G1 X141.473 Y163.333
G1 X176.800 Y128.985 E112.8393
G1 X176.800 Y128.435
G1 X140.908 Y163.333 E114.5043
G1 X140.342 Y163.333
G1 X176.800 Y127.885 E116.1956
G1 X176.800 Y127.335
G1 X139.777 Y163.333 E117.9132
G1 X139.211 Y163.333
G1 X176.800 Y126.785 E119.6569
G1 X176.800 Y126.236
G1 X138.646 Y163.333 E121.4269
G1 X138.080 Y163.333
G1 X176.800 Y125.686 E123.2231
G1 X176.800 Y125.136
G1 X137.515 Y163.333 E125.0456
G1 X136.949 Y163.333
G1 X176.800 Y124.586 E126.8943
G1 X176.800 Y124.036
G1 X136.384 Y163.333 E128.7692
G1 X135.818 Y163.333
G1 X176.800 Y123.487 E130.6703
G1 X176.800 Y122.937
G1 X135.253 Y163.333 E132.5977
G1 X134.687 Y163.333
G1 X176.800 Y122.387 E134.5513
G1 X176.800 Y121.837
G1 X134.122 Y163.333 E136.5312
G1 X133.556 Y163.333
G1 X176.800 Y121.287 E138.5373
G1 X176.800 Y120.737
G1 X132.991 Y163.333 E140.5696
G1 X132.425 Y163.333
G1 X176.800 Y120.188 E142.6281
G1 X176.800 Y119.638
G1 X131.860 Y163.333 E144.7129
G1 X131.294 Y163.333
G1 X176.800 Y119.088 E146.8239
G1 X176.800 Y118.538
G1 X130.729 Y163.333 E148.9612
G1 X130.164 Y163.333
G1 X176.800 Y117.988 E151.1246
G1 X176.800 Y117.438
G1 X129.598 Y163.333 E153.3144
G1 X129.033 Y163.333
G1 X176.800 Y116.889 E155.5303
G1 X176.800 Y116.339
G1 X128.467 Y163.333 E157.7725
G1 X127.902 Y163.333
G1 X176.800 Y115.789 E160.0409
G1 X176.800 Y115.239
G1 X127.336 Y163.333 E162.3355
G1 X126.771 Y163.333
G1 X176.800 Y114.689 E164.6564
G1 X176.800 Y114.140
G1 X126.205 Y163.333 E167.0035
G1 X125.640 Y163.333
G1 X176.800 Y113.590 E169.3769
G1 X176.800 Y113.040
G1 X125.074 Y163.333 E171.7764
G1 X124.509 Y163.333
G1 X176.800 Y112.490 E174.2022
G1 X176.800 Y111.940
G1 X123.943 Y163.333 E176.6543
G1 X123.378 Y163.333
G1 X176.800 Y111.390 E179.1325
G1 X176.800 Y110.841
G1 X122.812 Y163.333 E181.6370
G1 X122.247 Y163.333
G1 X176.800 Y110.291 E184.1678
G1 X176.800 Y109.741
G1 X121.681 Y163.333 E186.7248
G1 X121.116 Y163.333
G1 X176.800 Y109.191 E189.3080
G1 X176.800 Y108.641
G1 X120.550 Y163.333 E191.9174
G1 X119.985 Y163.333
G1 X176.800 Y108.092 E194.5531
G1 X176.800 Y107.542
G1 X119.419 Y163.333 E197.2150
G1 X118.854 Y163.333
G1 X176.800 Y106.992 E199.9031
G1 X176.800 Y106.442
G1 X118.288 Y163.333 E202.6175
G1 X117.723 Y163.333
G1 X176.800 Y105.892 E205.3581
G1 X176.800 Y105.342
G1 X117.157 Y163.333 E208.1249
G1 X116.592 Y163.333
G1 X176.800 Y104.793 E210.9180
G1 X176.800 Y104.243
G1 X116.026 Y163.333 E213.7373
G1 X115.461 Y163.333
G1 X176.800 Y103.693 E216.5828
G1 X176.800 Y103.143
G1 X114.895 Y163.333 E219.4546
G1 X114.330 Y163.333
G1 X176.800 Y102.593 E222.3526
G1 X176.800 Y102.044
G1 X113.765 Y163.333 E225.2768
G1 X113.199 Y163.333
G1 X176.800 Y101.494 E228.2273
G1 X176.800 Y100.944
G1 X112.634 Y163.333 E231.2040
G1 X112.068 Y163.333
G1 X176.800 Y100.394 E234.2069
G1 X176.800 Y99.844
G1 X111.503 Y163.333 E237.2361
G1 X110.937 Y163.333
G1 X176.800 Y99.294 E240.2914
G1 X176.800 Y98.745
G1 X110.372 Y163.333 E243.3731
G1 X109.806 Y163.333
G1 X176.800 Y98.195 E246.4809
G1 X176.800 Y97.645
G1 X109.241 Y163.333 E249.6150
G1 X108.675 Y163.333
G1 X176.800 Y97.095 E252.7753
G1 X176.800 Y96.545
G1 X108.110 Y163.333 E255.9619
G1 X107.544 Y163.333
G1 X176.800 Y95.996 E259.1747
G1 X176.800 Y95.446
G1 X106.979 Y163.333 E262.4137
G1 X106.413 Y163.333
G1 X176.800 Y94.896 E265.6790
G1 X176.800 Y94.346
G1 X105.848 Y163.333 E268.9705
G1 X105.282 Y163.333
G1 X176.800 Y93.796 E272.2882
G1 X176.800 Y93.246
G1 X104.717 Y163.333 E275.6322
G1 X104.151 Y163.333
G1 X176.800 Y92.697 E279.0023
G1 X176.800 Y92.147
G1 X103.586 Y163.333 E282.3988
G1 X103.020 Y163.333
G1 X176.800 Y91.597 E285.8214
G1 X176.800 Y91.047
G1 X102.455 Y163.333 E289.2703
G1 X101.889 Y163.333
G1 X176.800 Y90.497 E292.7454
G1 X176.800 Y89.947
G1 X101.324 Y163.333 E296.2468
G1 X100.758 Y163.333
G1 X176.800 Y89.398 E299.7744
G1 X176.800 Y88.848
G1 X100.193 Y163.333 E303.3282
G1 X99.627 Y163.333
G1 X176.800 Y88.298 E306.9082
G1 X176.800 Y87.748
G1 X99.062 Y163.333 E310.5145
G1 X98.497 Y163.333
G1 X176.800 Y87.198 E314.1470
G1 X176.800 Y86.649
G1 X97.931 Y163.333 E317.8058
G1 X97.366 Y163.333
G1 X176.800 Y86.099 E321.4907
G1 X176.800 Y85.549
G1 X96.800 Y163.333 E325.2019
G1 X96.235 Y163.333
G1 X176.800 Y84.999 E328.9394
G1 X176.800 Y84.449
G1 X95.669 Y163.333 E332.7031
G1 X95.104 Y163.333
G1 X176.800 Y83.899 E336.4930
G1 X176.800 Y83.350
G1 X94.538 Y163.333 E340.3091
G1 X93.973 Y163.333
G1 X176.800 Y82.800 E344.1515
G1 X176.800 Y82.250
G1 X93.407 Y163.333 E348.0201
G1 X92.842 Y163.333
G1 X176.800 Y81.700 E351.9150
G1 X176.800 Y81.150
G1 X92.276 Y163.333 E355.8360
G1 X91.711 Y163.333
G1 X176.732 Y80.667 E359.7802
G1 X176.167 Y80.667
G1 X91.145 Y163.333 E363.7243
G1 X90.580 Y163.333
G1 X175.601 Y80.667 E367.6685
G1 X175.036 Y80.667
G1 X90.014 Y163.333 E371.6127
G1 X89.449 Y163.333
G1 X174.470 Y80.667 E375.5568
G1 X173.905 Y80.667
G1 X88.883 Y163.333 E379.5010
G1 X88.318 Y163.333
G1 X173.339 Y80.667 E383.4451
G1 X172.774 Y80.667
G1 X87.752 Y163.333 E387.3893
G1 X87.187 Y163.333
G1 X172.208 Y80.667 E391.3334
G1 X171.643 Y80.667
G1 X86.621 Y163.333 E395.2776
G1 X86.056 Y163.333
G1 X171.077 Y80.667 E399.2217
G1 X170.512 Y80.667
G1 X85.490 Y163.333 E403.1659
G1 X84.925 Y163.333
G1 X169.946 Y80.667 E407.1100
G1 X169.381 Y80.667
G1 X84.359 Y163.333 E411.0542
G1 X83.794 Y163.333
G1 X168.815 Y80.667 E414.9983
G1 X168.250 Y80.667
G1 X83.228 Y163.333 E418.9425
G1 X83.200 Y162.811
G1 X167.684 Y80.667 E422.8617
G1 X167.119 Y80.667
G1 X83.200 Y162.261 E426.7548
G1 X83.200 Y161.712
G1 X166.553 Y80.667 E430.6215
G1 X165.988 Y80.667
G1 X83.200 Y161.162 E434.4621
G1 X83.200 Y160.612
G1 X165.422 Y80.667 E438.2764
G1 X164.857 Y80.667
G1 X83.200 Y160.062 E442.0645
G1 X83.200 Y159.512
G1 X164.291 Y80.667 E445.8263
G1 X163.726 Y80.667
G1 X83.200 Y158.963 E449.5619
G1 X83.200 Y158.413
G1 X163.160 Y80.667 E453.2713
G1 X162.595 Y80.667
G1 X83.200 Y157.863 E456.9545
G1 X83.200 Y157.313
G1 X162.029 Y80.667 E460.6114
G1 X161.464 Y80.667
G1 X83.200 Y156.763 E464.2421
G1 X83.200 Y156.213
G1 X160.899 Y80.667 E467.8465
G1 X160.333 Y80.667
G1 X83.200 Y155.664 E471.4247
G1 X83.200 Y155.114
G1 X159.768 Y80.667 E474.9767
G1 X159.202 Y80.667
G1 X83.200 Y154.564 E478.5025
G1 X83.200 Y154.014
G1 X158.637 Y80.667 E482.0020
G1 X158.071 Y80.667
G1 X83.200 Y153.464 E485.4753
G1 X83.200 Y152.914
G1 X157.506 Y80.667 E488.9223
G1 X156.940 Y80.667
G1 X83.200 Y152.365 E492.3431
G1 X83.200 Y151.815
G1 X156.375 Y80.667 E495.7377
G1 X155.809 Y80.667
G1 X83.200 Y151.265 E499.1061
G1 X83.200 Y150.715
G1 X155.244 Y80.667 E502.4482
G1 X154.678 Y80.667
G1 X83.200 Y150.165 E505.7641
G1 X83.200 Y149.616
G1 X154.113 Y80.667 E509.0537
G1 X153.547 Y80.667
G1 X83.200 Y149.066 E512.3172
G1 X83.200 Y148.516
G1 X152.982 Y80.667 E515.5543
G1 X152.416 Y80.667
G1 X83.200 Y147.966 E518.7653
G1 X83.200 Y147.416
G1 X151.851 Y80.667 E521.9500
G1 X151.285 Y80.667
G1 X83.200 Y146.866 E525.1085
G1 X83.200 Y146.317
G1 X150.720 Y80.667 E528.2408
G1 X150.154 Y80.667
G1 X83.200 Y145.767 E531.3468
G1 X83.200 Y145.217
G1 X149.589 Y80.667 E534.4266
G1 X149.023 Y80.667
G1 X83.200 Y144.667 E537.4802
G1 X83.200 Y144.117
G1 X148.458 Y80.667 E540.5075
G1 X147.892 Y80.667
G1 X83.200 Y143.568 E543.5086
G1 X83.200 Y143.018
G1 X147.327 Y80.667 E546.4835
G1 X146.761 Y80.667
G1 X83.200 Y142.468 E549.4321
G1 X83.200 Y141.918
G1 X146.196 Y80.667 E552.3545
G1 X145.631 Y80.667
G1 X83.200 Y141.368 E555.2507
G1 X83.200 Y140.818
G1 X145.065 Y80.667 E558.1206
G1 X144.500 Y80.667
G1 X83.200 Y140.269 E560.9643
G1 X83.200 Y139.719
G1 X143.934 Y80.667 E563.7818
G1 X143.369 Y80.667
G1 X83.200 Y139.169 E566.5730
G1 X83.200 Y138.619
G1 X142.803 Y80.667 E569.3380
G1 X142.238 Y80.667
G1 X83.200 Y138.069 E572.0768
G1 X83.200 Y137.520
G1 X141.672 Y80.667 E574.7893
G1 X141.107 Y80.667
G1 X83.200 Y136.970 E577.4756
G1 X83.200 Y136.420
G1 X140.541 Y80.667 E580.1357
G1 X139.976 Y80.667
G1 X83.200 Y135.870 E582.7696
G1 X83.200 Y135.320
G1 X139.410 Y80.667 E585.3772
G1 X138.845 Y80.667
G1 X83.200 Y134.770 E587.9585
G1 X83.200 Y134.221
G1 X138.279 Y80.667 E590.5136
G1 X137.714 Y80.667
G1 X83.200 Y133.671 E593.0426
G1 X83.200 Y133.121
G1 X137.148 Y80.667 E595.5453
G1 X136.583 Y80.667
G1 X83.200 Y132.571 E598.0217
G1 X83.200 Y132.021
G1 X136.017 Y80.667 E600.4719
G1 X135.452 Y80.667
G1 X83.200 Y131.471 E602.8958
G1 X83.200 Y130.922
G1 X134.886 Y80.667 E605.2936
G1 X134.321 Y80.667
G1 X83.200 Y130.372 E607.6651
G1 X83.200 Y129.822
G1 X133.755 Y80.667 E610.0104
G1 X133.190 Y80.667
G1 X83.200 Y129.272 E612.3294
G1 X83.200 Y128.722
G1 X132.624 Y80.667 E614.6222
G1 X132.059 Y80.667
G1 X83.200 Y128.173 E616.8888
G1 X83.200 Y127.623
G1 X131.493 Y80.667 E619.1292
G1 X130.928 Y80.667
G1 X83.200 Y127.073 E621.3433
G1 X83.200 Y126.523
G1 X130.362 Y80.667 E623.5312
G1 X129.797 Y80.667
G1 X83.200 Y125.973 E625.6928
G1 X83.200 Y125.423
G1 X129.232 Y80.667 E627.8282
G1 X128.666 Y80.667
G1 X83.200 Y124.874 E629.9374
G1 X83.200 Y124.324
G1 X128.101 Y80.667 E632.0203
G1 X127.535 Y80.667
G1 X83.200 Y123.774 E634.0771
G1 X83.200 Y123.224
G1 X126.970 Y80.667 E636.1075
G1 X126.404 Y80.667
G1 X83.200 Y122.674 E638.1118
G1 X83.200 Y122.125
G1 X125.839 Y80.667 E640.0898
G1 X125.273 Y80.667
G1 X83.200 Y121.575 E642.0416
G1 X83.200 Y121.025
G1 X124.708 Y80.667 E643.9671
G1 X124.142 Y80.667
G1 X83.200 Y120.475 E645.8664
G1 X83.200 Y119.925
G1 X123.577 Y80.667 E647.7395
G1 X123.011 Y80.667
G1 X83.200 Y119.375 E649.5864
G1 X83.200 Y118.826
G1 X122.446 Y80.667 E651.4070
G1 X121.880 Y80.667
G1 X83.200 Y118.276 E653.2014
G1 X83.200 Y117.726
G1 X121.315 Y80.667 E654.9695
G1 X120.749 Y80.667
G1 X83.200 Y117.176 E656.7115
G1 X83.200 Y116.626
G1 X120.184 Y80.667 E658.4271
G1 X119.618 Y80.667
G1 X83.200 Y116.077 E660.1166
G1 X83.200 Y115.527
G1 X119.053 Y80.667 E661.7798
G1 X118.487 Y80.667
G1 X83.200 Y114.977 E663.4168
G1 X83.200 Y114.427
G1 X117.922 Y80.667 E665.0276
G1 X117.356 Y80.667
G1 X83.200 Y113.877 E666.6121
G1 X83.200 Y113.327
G1 X116.791 Y80.667 E668.1704
G1 X116.225 Y80.667
G1 X83.200 Y112.778 E669.7024
G1 X83.200 Y112.228
G1 X115.660 Y80.667 E671.2082
G1 X115.094 Y80.667
G1 X83.200 Y111.678 E672.6878
G1 X83.200 Y111.128
G1 X114.529 Y80.667 E674.1412
G1 X113.963 Y80.667
G1 X83.200 Y110.578 E675.5683
G1 X83.200 Y110.028
G1 X113.398 Y80.667 E676.9692
G1 X112.833 Y80.667
G1 X83.200 Y109.479 E678.3438
G1 X83.200 Y108.929
G1 X112.267 Y80.667 E679.6923
G1 X111.702 Y80.667
G1 X83.200 Y108.379 E681.0145
G1 X83.200 Y107.829
G1 X111.136 Y80.667 E682.3104
G1 X110.571 Y80.667
G1 X83.200 Y107.279 E683.5802
G1 X83.200 Y106.730
G1 X110.005 Y80.667 E684.8236
G1 X109.440 Y80.667
G1 X83.200 Y106.180 E686.0409
G1 X83.200 Y105.630
G1 X108.874 Y80.667 E687.2320
G1 X108.309 Y80.667
G1 X83.200 Y105.080 E688.3968
G1 X83.200 Y104.530
G1 X107.743 Y80.667 E689.5353
G1 X107.178 Y80.667
G1 X83.200 Y103.980 E690.6476
G1 X83.200 Y103.431
G1 X106.612 Y80.667 E691.7337
G1 X106.047 Y80.667
G1 X83.200 Y102.881 E692.7936
G1 X83.200 Y102.331
G1 X105.481 Y80.667 E693.8272
G1 X104.916 Y80.667
G1 X83.200 Y101.781 E694.8346
G1 X83.200 Y101.231
G1 X104.350 Y80.667 E695.8158
G1 X103.785 Y80.667
G1 X83.200 Y100.682 E696.7707
G1 X83.200 Y100.132
G1 X103.219 Y80.667 E697.6994
G1 X102.654 Y80.667
G1 X83.200 Y99.582 E698.6019
G1 X83.200 Y99.032
G1 X102.088 Y80.667 E699.4781
G1 X101.523 Y80.667
G1 X83.200 Y98.482 E700.3281
G1 X83.200 Y97.932
G1 X100.957 Y80.667 E701.1519
G1 X100.392 Y80.667
G1 X83.200 Y97.383 E701.9494
G1 X83.200 Y96.833
G1 X99.826 Y80.667 E702.7207
G1 X99.261 Y80.667
G1 X83.200 Y96.283 E703.4658
G1 X83.200 Y95.733
G1 X98.695 Y80.667 E704.1847
G1 X98.130 Y80.667
G1 X83.200 Y95.183 E704.8773
G1 X83.200 Y94.634
G1 X97.564 Y80.667 E705.5437
G1 X96.999 Y80.667
G1 X83.200 Y94.084 E706.1838
G1 X83.200 Y93.534
G1 X96.434 Y80.667 E706.7977
G1 X95.868 Y80.667
G1 X83.200 Y92.984 E707.3854
G1 X83.200 Y92.434
G1 X95.303 Y80.667 E707.9469
G1 X94.737 Y80.667
G1 X83.200 Y91.884 E708.4821
G1 X83.200 Y91.335
G1 X94.172 Y80.667 E708.9911
G1 X93.606 Y80.667
G1 X83.200 Y90.785 E709.4738
G1 X83.200 Y90.235
G1 X93.041 Y80.667 E709.9303
G1 X92.475 Y80.667
G1 X83.200 Y89.685 E710.3606
G1 X83.200 Y89.135
G1 X91.910 Y80.667 E710.7647
G1 X91.344 Y80.667
G1 X83.200 Y88.586 E711.1425
G1 X83.200 Y88.036
G1 X90.779 Y80.667 E711.4940
G1 X90.213 Y80.667
G1 X83.200 Y87.486 E711.8194
G1 X83.200 Y86.936
G1 X89.648 Y80.667 E712.1186
G1 X89.082 Y80.667
G1 X83.200 Y86.386 E712.3914
G1 X83.200 Y85.836
G1 X88.517 Y80.667 E712.6381
G1 X87.951 Y80.667
G1 X83.200 Y85.287 E712.8585
G1 X83.200 Y84.737
G1 X87.386 Y80.667 E713.0527
G1 X86.820 Y80.667
G1 X83.200 Y84.187 E713.2207
G1 X83.200 Y83.637
G1 X86.255 Y80.667 E713.3624
G1 X85.689 Y80.667
G1 X83.200 Y83.087 E713.4779
G1 X83.200 Y82.537
G1 X85.124 Y80.667 E713.5671
G1 X84.558 Y80.667
G1 X83.200 Y81.988 E713.6302
G1 X83.200 Y81.438
G1 X83.993 Y80.667 E713.6670
G1 X83.427 Y80.667
G1 X83.200 Y80.888 E713.6775
; ------------------------------------
; Layer #1
; ------------------------------------
G21 ; mm
G90 ; abs
G92 E0 ; reset extr
M106 S0
G0 F1200 E-1.0000
G0 F300 Z0.400
G0 X103.820 Y98.498 F5400
G0 X121.198 Y124.311
G0 F1200 E0.0000
;segType:HShell
G1 X112.070 Y115.436 E0.4234 F3000
;segType:Perimeter
G0 X111.675 Y115.253 F5400
G1 X111.010 Y114.985 E0.4473 F2100
G1 X87.070 Y114.985 E1.2435
G1 X87.070 Y84.374 E2.2617
G1 X121.868 Y84.374 E3.4190
G1 X124.170 Y84.428 E3.4956
G1 X126.464 Y84.587 E3.5721
G1 X128.750 Y84.852 E3.6486
G1 X131.020 Y85.222 E3.7251
G1 X133.271 Y85.697 E3.8017
G1 X135.497 Y86.275 E3.8782
G1 X137.694 Y86.956 E3.9547
G1 X139.858 Y87.737 E4.0312
G1 X141.983 Y88.617 E4.1077
G1 X144.066 Y89.595 E4.1842
G1 X146.101 Y90.668 E4.2607
G1 X148.084 Y91.833 E4.3372
G1 X150.012 Y93.089 E4.4137
G1 X151.879 Y94.433 E4.4903
G1 X153.682 Y95.861 E4.5668
G1 X155.418 Y97.371 E4.6433
G1 X157.082 Y98.960 E4.7198
G1 X158.671 Y100.624 E4.7963
G1 X160.181 Y102.360 E4.8729
G1 X161.610 Y104.164 E4.9494
G1 X162.953 Y106.031 E5.0259
G1 X164.209 Y107.959 E5.1024
G1 X165.375 Y109.942 E5.1790
G1 X166.448 Y111.978 E5.2555
G1 X167.426 Y114.060 E5.3320
G1 X168.306 Y116.186 E5.4086
G1 X169.088 Y118.350 E5.4851
G1 X169.769 Y120.549 E5.5616
G1 X170.347 Y122.776 E5.6381
G1 X170.822 Y125.027 E5.7147
G1 X171.192 Y127.298 E5.7912
G1 X171.457 Y129.584 E5.8678
G1 X171.617 Y131.879 E5.9443
G1 X171.670 Y134.182 E6.0209
G1 X171.670 Y156.985 E6.7793
G1 X111.070 Y156.985 E8.7949
G1 X111.070 Y115.044 E10.1899
G1 X110.795 Y114.397
;segType:Loop
G0 X109.970 Y114.597 F5400
G1 X87.470 Y114.597 E10.9382 F3000
G1 X87.470 Y84.763 E11.9305
G1 X121.863 Y84.763 E13.0744
G1 X124.151 Y84.816 E13.1505
G1 X126.426 Y84.974 E13.2264
G1 X128.693 Y85.237 E13.3023
G1 X130.944 Y85.604 E13.3781
G1 X133.176 Y86.075 E13.4540
G1 X135.385 Y86.649 E13.5299
G1 X137.564 Y87.323 E13.6058
G1 X139.710 Y88.099 E13.6817
G1 X141.818 Y88.971 E13.7576
G1 X143.883 Y89.941 E13.8335
G1 X145.902 Y91.005 E13.9094
G1 X147.869 Y92.162 E13.9853
G1 X149.781 Y93.407 E14.0611
G1 X151.634 Y94.740 E14.1371
G1 X153.423 Y96.157 E14.2130
G1 X155.144 Y97.655 E14.2889
G1 X156.795 Y99.231 E14.3648
G1 X158.371 Y100.882 E14.4407
G1 X159.870 Y102.604 E14.5166
G1 X161.287 Y104.394 E14.5926
G1 X162.620 Y106.247 E14.6685
G1 X163.867 Y108.159 E14.7444
G1 X165.023 Y110.128 E14.8203
G1 X166.088 Y112.147 E14.8963
G1 X167.058 Y114.214 E14.9722
G1 X167.932 Y116.324 E15.0482
G1 X168.708 Y118.471 E15.1241
G1 X169.383 Y120.653 E15.2000
G1 X169.957 Y122.863 E15.2760
G1 X170.428 Y125.097 E15.3519
G1 X170.796 Y127.351 E15.4279
G1 X171.059 Y129.619 E15.5038
G1 X171.217 Y131.897 E15.5798
G1 X171.270 Y134.187 E15.6560
G1 X171.270 Y156.597 E16.4013
G1 X111.470 Y156.597 E18.3903
G1 X111.470 Y114.597 E19.7872
G1 X110.170 Y114.597 E19.8304
G0 X108.871 Y114.208 F5400
G1 X87.870 Y114.208 E20.5289 F3000
G1 X87.870 Y85.152 E21.4953
G1 X121.858 Y85.152 E22.6258
G1 X124.132 Y85.205 E22.7014
G1 X126.389 Y85.362 E22.7766
G1 X128.636 Y85.622 E22.8519
G1 X130.869 Y85.986 E22.9271
G1 X133.082 Y86.453 E23.0024
G1 X135.272 Y87.022 E23.0776
G1 X137.434 Y87.691 E23.1529
G1 X139.561 Y88.460 E23.2281
G1 X141.653 Y89.326 E23.3034
G1 X143.701 Y90.287 E23.3787
G1 X145.703 Y91.343 E23.4540
G1 X147.655 Y92.490 E23.5292
G1 X149.550 Y93.725 E23.6045
G1 X151.388 Y95.047 E23.6798
G1 X153.163 Y96.453 E23.7551
G1 X154.871 Y97.939 E23.8304
G1 X156.508 Y99.503 E23.9057
G1 X158.072 Y101.140 E23.9810
G1 X159.558 Y102.849 E24.0563
G1 X160.965 Y104.624 E24.1317
G1 X162.288 Y106.462 E24.2070
G1 X163.524 Y108.360 E24.2823
G1 X164.672 Y110.313 E24.3577
G1 X165.728 Y112.317 E24.4330
G1 X166.690 Y114.367 E24.5083
G1 X167.558 Y116.461 E24.5837
G1 X168.327 Y118.591 E24.6591
G1 X168.997 Y120.756 E24.7344
G1 X169.567 Y122.949 E24.8098
G1 X170.034 Y125.166 E24.8851
G1 X170.400 Y127.403 E24.9605
G1 X170.661 Y129.654 E25.0359
G1 X170.818 Y131.914 E25.1113
G1 X170.870 Y134.191 E25.1870
G1 X170.870 Y156.208 E25.9193
G1 X111.870 Y156.208 E27.8816
G1 X111.870 Y114.208 E29.2786
G1 X109.071 Y114.208 E29.3717
G0 X120.000 Y109.942 F5400
G0 X120.899 Y108.720
G0 X121.163 Y108.276
G1 X121.103 Y108.745 E29.3874 F3000
G1 X120.893 Y109.276 E29.4064
G1 X120.556 Y109.740 E29.4255
G1 X120.111 Y110.108 E29.4446
G1 X119.587 Y110.355 E29.4639
G1 X119.016 Y110.464 E29.4833
G1 X118.435 Y110.427 E29.5026
G1 X117.883 Y110.248 E29.5219
G1 X117.395 Y109.938 E29.5411
G1 X117.001 Y109.519 E29.5603
G1 X116.725 Y109.017 E29.5793
G1 X116.583 Y108.465 E29.5983
G1 X116.583 Y107.895 E29.6172
G1 X116.725 Y107.343 E29.6362
G1 X117.001 Y106.841 E29.6552
G1 X117.395 Y106.422 E29.6744
G1 X117.883 Y106.112 E29.6936
G1 X118.435 Y105.933 E29.7129
G1 X119.016 Y105.896 E29.7322
G1 X119.587 Y106.005 E29.7516
G1 X120.111 Y106.252 E29.7709
G1 X120.556 Y106.620 E29.7900
G1 X120.895 Y107.086 E29.8092
G1 X121.106 Y107.639 E29.8289
G1 X121.163 Y108.083 E29.8438
;segType:Perimeter
G0 X120.727 Y106.643 F5400
G1 X120.559 Y107.324 E29.8671 F2100
G1 X120.715 Y107.732 E29.8817
G1 X120.772 Y108.180 E29.8967
G1 X120.712 Y108.650 E29.9124
G1 X120.537 Y109.092 E29.9282
G1 X120.258 Y109.476 E29.9440
G1 X119.891 Y109.780 E29.9599
G1 X119.459 Y109.983 E29.9757
G1 X118.990 Y110.072 E29.9916
G1 X118.513 Y110.042 E30.0075
G1 X118.058 Y109.895 E30.0234
G1 X117.656 Y109.639 E30.0393
G1 X117.330 Y109.292 E30.0551
G1 X117.101 Y108.876 E30.0709
G1 X116.983 Y108.417 E30.0867
G1 X116.983 Y107.943 E30.1025
G1 X117.101 Y107.484 E30.1182
G1 X117.330 Y107.068 E30.1340
G1 X117.656 Y106.721 E30.1498
G1 X118.058 Y106.465 E30.1657
G1 X118.513 Y106.318 E30.1816
G1 X118.990 Y106.288 E30.1975
G1 X119.459 Y106.377 E30.2134
G1 X119.891 Y106.581 E30.2293
G1 X120.258 Y106.884 E30.2451
G1 X120.504 Y107.222 E30.2590
G1 X121.176 Y107.471
;segType:Loop
G0 X121.256 Y109.442 F5400
G1 X121.248 Y109.461 E30.2597 F3000
G1 X120.853 Y110.005 E30.2820
G1 X120.332 Y110.436 E30.3046
G1 X119.715 Y110.727 E30.3272
G1 X119.042 Y110.855 E30.3500
G1 X118.357 Y110.812 E30.3728
G1 X117.707 Y110.601 E30.3956
G1 X117.134 Y110.236 E30.4182
G1 X116.672 Y109.745 E30.4406
G1 X116.349 Y109.158 E30.4629
G1 X116.183 Y108.513 E30.4850
G1 X116.183 Y107.847 E30.5072
G1 X116.349 Y107.202 E30.5293
G1 X116.672 Y106.615 E30.5516
G1 X117.134 Y106.123 E30.5740
G1 X117.707 Y105.759 E30.5966
G1 X118.357 Y105.548 E30.6194
G1 X119.042 Y105.505 E30.6422
G1 X119.715 Y105.633 E30.6650
G1 X120.332 Y105.924 E30.6876
G1 X120.853 Y106.355 E30.7101
G1 X121.252 Y106.903 E30.7327
G1 X121.498 Y107.547 E30.7556
G1 X121.578 Y108.180 E30.7768
G1 X121.494 Y108.840 E30.7990
G1 X121.328 Y109.260 E30.8140
;segType:HShell
G0 X104.952 Y114.013 F5400
G1 X94.569 Y103.918 E31.2957 F3000
;segType:Perimeter
G0 X94.485 Y103.442 F5400
G1 X94.088 Y102.858 E31.3192 F2100
G1 X93.467 Y102.600 E31.3415
G1 X92.887 Y102.155 E31.3658
G1 X92.443 Y101.576 E31.3901
G1 X92.163 Y100.902 E31.4144
G1 X92.069 Y100.180 E31.4386
G1 X92.163 Y99.458 E31.4629
G1 X92.443 Y98.784 E31.4871
G1 X92.887 Y98.205 E31.5114
G1 X93.467 Y97.760 E31.5357
G1 X94.144 Y97.479 E31.5601
G1 X94.856 Y97.386 E31.5840
G1 X100.884 Y97.386 E31.7844
G1 X101.596 Y97.479 E31.8083
G1 X102.273 Y97.760 E31.8327
G1 X102.853 Y98.205 E31.8570
G1 X103.298 Y98.784 E31.8813
G1 X103.577 Y99.458 E31.9056
G1 X103.667 Y100.145 E31.9286
G1 X103.577 Y100.901 E31.9539
G1 X103.298 Y101.576 E31.9782
G1 X102.853 Y102.155 E32.0025
G1 X102.273 Y102.600 E32.0268
G1 X101.596 Y102.881 E32.0512
G1 X100.884 Y102.974 E32.0751
G1 X94.856 Y102.974 E32.2756
G1 X94.203 Y102.888 E32.2975
G1 X93.555 Y103.193
;segType:Loop
G0 X92.933 Y102.686 F5400
G1 X92.598 Y102.429 E32.3116 F3000
G1 X92.091 Y101.768 E32.3393
G1 X91.773 Y101.001 E32.3669
G1 X91.665 Y100.180 E32.3944
G1 X91.773 Y99.359 E32.4220
G1 X92.091 Y98.592 E32.4496
G1 X92.598 Y97.931 E32.4773
G1 X93.261 Y97.422 E32.5051
G1 X94.036 Y97.101 E32.5330
G1 X94.829 Y96.997 E32.5596
G1 X100.911 Y96.997 E32.7619
G1 X101.704 Y97.101 E32.7885
G1 X102.479 Y97.422 E32.8164
G1 X103.142 Y97.931 E32.8442
G1 X103.649 Y98.592 E32.8719
G1 X103.967 Y99.359 E32.8995
G1 X104.070 Y100.143 E32.9258
G1 X103.968 Y100.998 E32.9544
G1 X103.649 Y101.768 E32.9822
G1 X103.142 Y102.429 E33.0099
G1 X102.479 Y102.938 E33.0377
G1 X101.704 Y103.259 E33.0656
G1 X100.911 Y103.363 E33.0922
G1 X94.829 Y103.363 E33.2945
G1 X94.036 Y103.259 E33.3211
G1 X93.261 Y102.938 E33.3490
G1 X93.090 Y102.807 E33.3561
G0 X91.875 Y102.137 F5400
G1 X91.739 Y101.960 E33.3636 F3000
G1 X91.383 Y101.100 E33.3945
G1 X91.262 Y100.180 E33.4254
G1 X91.383 Y99.260 E33.4563
G1 X91.739 Y98.400 E33.4872
G1 X92.309 Y97.657 E33.5183
G1 X93.055 Y97.084 E33.5496
G1 X93.929 Y96.723 E33.5811
G1 X94.802 Y96.608 E33.6104
G1 X100.938 Y96.608 E33.8145
G1 X101.811 Y96.723 E33.8438
G1 X102.685 Y97.084 E33.8752
G1 X103.431 Y97.657 E33.9065
G1 X104.001 Y98.400 E33.9376
G1 X104.357 Y99.260 E33.9686
G1 X104.473 Y100.141 E33.9981
G1 X104.359 Y101.095 E34.0301
G1 X104.001 Y101.960 E34.0613
G1 X103.431 Y102.702 E34.0924
G1 X102.685 Y103.275 E34.1237
G1 X101.811 Y103.637 E34.1551
G1 X100.938 Y103.752 E34.1844
G1 X94.802 Y103.752 E34.3885
G1 X93.929 Y103.637 E34.4178
G1 X93.055 Y103.275 E34.4492
G1 X92.309 Y102.702 E34.4805
G1 X91.995 Y102.293 E34.4977
G0 X111.211 Y114.848 F5400
G0 X139.101 Y156.013
;segType:HShell
G1 X121.771 Y139.163 E35.3016 F3000
;segType:Perimeter
G0 X121.279 Y139.299 F5400
G1 X120.691 Y139.703 E35.3254 F2100
G1 X120.537 Y140.091 E35.3393
G1 X120.258 Y140.476 E35.3551
G1 X119.891 Y140.779 E35.3709
G1 X119.459 Y140.983 E35.3868
G1 X118.990 Y141.072 E35.4027
G1 X118.513 Y141.042 E35.4186
G1 X118.058 Y140.895 E35.4345
G1 X117.656 Y140.639 E35.4503
G1 X117.330 Y140.292 E35.4662
G1 X117.101 Y139.876 E35.4819
G1 X116.983 Y139.417 E35.4977
G1 X116.983 Y138.943 E35.5135
G1 X117.101 Y138.484 E35.5293
G1 X117.330 Y138.068 E35.5450
G1 X117.656 Y137.721 E35.5609
G1 X118.059 Y137.465 E35.5767
G1 X118.513 Y137.318 E35.5926
G1 X118.990 Y137.288 E35.6085
G1 X119.459 Y137.377 E35.6244
G1 X119.891 Y137.580 E35.6403
G1 X120.258 Y137.884 E35.6561
G1 X120.537 Y138.269 E35.6719
G1 X120.712 Y138.710 E35.6877
G1 X120.767 Y139.144 E35.7023
G1 X120.719 Y139.591 E35.7172
G1 X121.054 Y140.210
;segType:Loop
G0 X120.479 Y140.803 F5400
G1 X120.111 Y141.108 E35.7331 F3000
G1 X119.587 Y141.355 E35.7524
G1 X119.016 Y141.464 E35.7717
G1 X118.435 Y141.427 E35.7911
G1 X117.883 Y141.248 E35.8104
G1 X117.395 Y140.938 E35.8296
G1 X117.001 Y140.518 E35.8488
G1 X116.725 Y140.017 E35.8678
G1 X116.583 Y139.465 E35.8868
G1 X116.583 Y138.895 E35.9057
G1 X116.725 Y138.343 E35.9247
G1 X117.001 Y137.841 E35.9437
G1 X117.395 Y137.422 E35.9628
G1 X117.883 Y137.112 E35.9821
G1 X118.435 Y136.933 E36.0014
G1 X119.016 Y136.896 E36.0207
G1 X119.587 Y137.005 E36.0401
G1 X120.111 Y137.252 E36.0593
G1 X120.556 Y137.619 E36.0785
G1 X120.893 Y138.084 E36.0976
G1 X121.103 Y138.615 E36.1166
G1 X121.170 Y139.141 E36.1342
G1 X121.105 Y139.740 E36.1543
G1 X120.893 Y140.276 E36.1735
G1 X120.613 Y140.661 E36.1893
G0 X119.731 Y141.719 F5400
G1 X119.715 Y141.727 E36.1899 F3000
G1 X119.042 Y141.855 E36.2127
G1 X118.358 Y141.812 E36.2355
G1 X117.707 Y141.601 E36.2582
G1 X117.134 Y141.237 E36.2808
G1 X116.672 Y140.745 E36.3033
G1 X116.349 Y140.158 E36.3255
G1 X116.183 Y139.513 E36.3477
G1 X116.183 Y138.847 E36.3698
G1 X116.349 Y138.202 E36.3920
G1 X116.672 Y137.615 E36.4142
G1 X117.134 Y137.123 E36.4367
G1 X117.708 Y136.759 E36.4593
G1 X118.358 Y136.548 E36.4820
G1 X119.042 Y136.505 E36.5048
G1 X119.715 Y136.633 E36.5276
G1 X120.331 Y136.923 E36.5503
G1 X120.854 Y137.355 E36.5728
G1 X121.248 Y137.899 E36.5952
G1 X121.494 Y138.520 E36.6174
G1 X121.572 Y139.137 E36.6381
G1 X121.498 Y139.832 E36.6613
G1 X121.248 Y140.461 E36.6838
G1 X120.853 Y141.005 E36.7062
G1 X120.332 Y141.436 E36.7287
G1 X119.911 Y141.634 E36.7441
G0 X116.714 Y148.183 F5400
G0 X116.001 Y148.942
G0 X115.003 Y149.266
G0 X113.720 Y149.145
G1 X113.395 Y148.938 E36.7570 F3000
G1 X113.001 Y148.518 E36.7761
G1 X112.725 Y148.017 E36.7951
G1 X112.584 Y147.465 E36.8141
G1 X112.584 Y146.895 E36.8330
G1 X112.725 Y146.343 E36.8520
G1 X113.001 Y145.841 E36.8710
G1 X113.395 Y145.422 E36.8902
G1 X113.883 Y145.112 E36.9094
G1 X114.435 Y144.933 E36.9287
G1 X115.016 Y144.896 E36.9481
G1 X115.587 Y145.005 E36.9674
G1 X116.111 Y145.252 E36.9867
G1 X116.556 Y145.619 E37.0059
G1 X116.895 Y146.086 E37.0251
G1 X117.106 Y146.639 E37.0447
G1 X117.175 Y147.180 E37.0629
G1 X117.103 Y147.745 E37.0818
G1 X116.893 Y148.276 E37.1008
G1 X116.556 Y148.740 E37.1199
G1 X116.112 Y149.108 E37.1391
G1 X115.587 Y149.355 E37.1584
G1 X115.016 Y149.464 E37.1777
G1 X114.435 Y149.427 E37.1971
G1 X113.888 Y149.250 E37.2162
;segType:Perimeter
G0 X115.500 Y149.496 F5400
G1 X114.930 Y149.069 E37.2399 F2100
G1 X114.513 Y149.042 E37.2538
G1 X114.058 Y148.895 E37.2697
G1 X113.656 Y148.639 E37.2855
G1 X113.330 Y148.292 E37.3013
G1 X113.101 Y147.876 E37.3171
G1 X112.984 Y147.417 E37.3329
G1 X112.984 Y146.943 E37.3487
G1 X113.101 Y146.484 E37.3644
G1 X113.330 Y146.068 E37.3802
G1 X113.656 Y145.721 E37.3961
G1 X114.059 Y145.465 E37.4119
G1 X114.513 Y145.318 E37.4278
G1 X114.990 Y145.288 E37.4437
G1 X115.459 Y145.377 E37.4596
G1 X115.891 Y145.580 E37.4755
G1 X116.258 Y145.884 E37.4913
G1 X116.538 Y146.270 E37.5072
G1 X116.715 Y146.732 E37.5236
G1 X116.772 Y147.180 E37.5386
G1 X116.712 Y147.650 E37.5544
G1 X116.537 Y148.092 E37.5702
G1 X116.258 Y148.476 E37.5860
G1 X115.891 Y148.779 E37.6018
G1 X115.459 Y148.983 E37.6177
G1 X115.049 Y149.061 E37.6316
G1 X114.540 Y149.556
;segType:Loop
G0 X112.624 Y148.659 F5400
G1 X112.349 Y148.158 E37.6506 F3000
G1 X112.184 Y147.512 E37.6728
G1 X112.184 Y146.848 E37.6949
G1 X112.349 Y146.202 E37.7171
G1 X112.671 Y145.615 E37.7394
G1 X113.134 Y145.123 E37.7618
G1 X113.708 Y144.759 E37.7844
G1 X114.358 Y144.548 E37.8071
G1 X115.042 Y144.505 E37.8299
G1 X115.714 Y144.633 E37.8527
G1 X116.332 Y144.923 E37.8754
G1 X116.854 Y145.355 E37.8979
G1 X117.252 Y145.903 E37.9205
G1 X117.498 Y146.546 E37.9433
G1 X117.578 Y147.180 E37.9646
G1 X117.494 Y147.841 E37.9867
G1 X117.248 Y148.461 E38.0089
G1 X116.853 Y149.005 E38.0313
G1 X116.332 Y149.436 E38.0538
G1 X115.715 Y149.727 E38.0765
G1 X115.042 Y149.855 E38.0993
G1 X114.357 Y149.812 E38.1221
G1 X113.707 Y149.601 E38.1448
G1 X113.134 Y149.237 E38.1674
G1 X112.739 Y148.817 E38.1866
G0 X113.167 Y145.956 F5400
G0 X113.972 Y145.290
G0 X133.253 Y136.212
G1 X133.206 Y136.210 E38.1882 F3000
G1 X132.052 Y136.049 E38.2269
G1 X130.918 Y135.782 E38.2657
G1 X129.813 Y135.412 E38.3044
G1 X128.747 Y134.942 E38.3432
G1 X127.730 Y134.375 E38.3819
G1 X126.770 Y133.717 E38.4206
G1 X125.875 Y132.974 E38.4593
G1 X125.053 Y132.152 E38.4980
G1 X124.310 Y131.257 E38.5367
G1 X123.653 Y130.298 E38.5753
G1 X123.088 Y129.283 E38.6140
G1 X122.618 Y128.221 E38.6526
G1 X122.249 Y127.120 E38.6912
G1 X121.984 Y125.989 E38.7298
G1 X121.823 Y124.840 E38.7684
G1 X121.769 Y123.680 E38.8071
G1 X121.823 Y122.520 E38.8457
G1 X121.984 Y121.371 E38.8843
G1 X122.249 Y120.240 E38.9229
G1 X122.618 Y119.139 E38.9615
G1 X123.088 Y118.076 E39.0002
G1 X123.653 Y117.062 E39.0388
G1 X124.310 Y116.103 E39.0775
G1 X125.053 Y115.208 E39.1161
G1 X125.875 Y114.386 E39.1548
G1 X126.770 Y113.642 E39.1935
G1 X127.730 Y112.985 E39.2322
G1 X128.747 Y112.418 E39.2709
G1 X129.813 Y111.948 E39.3097
G1 X130.918 Y111.577 E39.3484
G1 X132.052 Y111.311 E39.3872
G1 X133.206 Y111.150 E39.4259
G1 X134.370 Y111.096 E39.4647
G1 X135.534 Y111.150 E39.5035
G1 X136.688 Y111.311 E39.5422
G1 X137.822 Y111.577 E39.5810
G1 X138.927 Y111.948 E39.6197
G1 X139.993 Y112.418 E39.6585
G1 X141.010 Y112.985 E39.6972
G1 X141.970 Y113.642 E39.7359
G1 X142.865 Y114.386 E39.7746
G1 X143.688 Y115.208 E39.8133
G1 X144.430 Y116.103 E39.8520
G1 X145.087 Y117.062 E39.8906
G1 X145.653 Y118.076 E39.9293
G1 X146.122 Y119.139 E39.9679
G1 X146.491 Y120.240 E40.0065
G1 X146.744 Y121.315 E40.0433
G1 X146.909 Y122.463 E40.0818
G1 X146.968 Y123.622 E40.1204
G1 X146.917 Y124.839 E40.1609
G1 X146.757 Y125.990 E40.1996
G1 X146.491 Y127.120 E40.2382
G1 X146.122 Y128.221 E40.2768
G1 X145.653 Y129.283 E40.3154
G1 X145.087 Y130.298 E40.3541
G1 X144.430 Y131.257 E40.3927
G1 X143.688 Y132.152 E40.4314
G1 X142.865 Y132.974 E40.4701
G1 X141.970 Y133.717 E40.5088
G1 X141.010 Y134.375 E40.5475
G1 X139.993 Y134.942 E40.5862
G1 X138.927 Y135.412 E40.6250
G1 X137.822 Y135.782 E40.6637
G1 X136.688 Y136.049 E40.7025
G1 X135.534 Y136.210 E40.7412
G1 X134.370 Y136.264 E40.7800
G1 X133.452 Y136.222 E40.8105
;segType:Perimeter
G0 X134.831 Y136.355 F5400
G1 X134.310 Y135.872 E40.8342 F2100
G1 X133.244 Y135.823 E40.8697
G1 X132.127 Y135.667 E40.9072
G1 X131.030 Y135.409 E40.9447
G1 X129.961 Y135.050 E40.9822
G1 X128.930 Y134.595 E41.0197
G1 X127.945 Y134.047 E41.0571
G1 X127.016 Y133.410 E41.0946
G1 X126.149 Y132.690 E41.1321
G1 X125.352 Y131.893 E41.1696
G1 X124.632 Y131.027 E41.2070
G1 X123.996 Y130.098 E41.2445
G1 X123.448 Y129.113 E41.2820
G1 X122.993 Y128.083 E41.3194
G1 X122.635 Y127.016 E41.3569
G1 X122.378 Y125.920 E41.3943
G1 X122.222 Y124.805 E41.4318
G1 X122.170 Y123.680 E41.4692
G1 X122.222 Y122.555 E41.5067
G1 X122.378 Y121.440 E41.5441
G1 X122.635 Y120.344 E41.5815
G1 X122.993 Y119.276 E41.6190
G1 X123.448 Y118.246 E41.6565
G1 X123.996 Y117.262 E41.6939
G1 X124.633 Y116.333 E41.7314
G1 X125.352 Y115.466 E41.7688
G1 X126.149 Y114.670 E41.8063
G1 X127.016 Y113.950 E41.8438
G1 X127.945 Y113.313 E41.8813
G1 X128.930 Y112.765 E41.9188
G1 X129.961 Y112.309 E41.9563
G1 X131.030 Y111.951 E41.9937
G1 X132.127 Y111.693 E42.0312
G1 X133.244 Y111.537 E42.0687
G1 X134.370 Y111.485 E42.1062
G1 X135.496 Y111.537 E42.1437
G1 X136.613 Y111.693 E42.1812
G1 X137.710 Y111.951 E42.2187
G1 X138.779 Y112.309 E42.2562
G1 X139.810 Y112.765 E42.2937
G1 X140.795 Y113.313 E42.3312
G1 X141.724 Y113.950 E42.3687
G1 X142.591 Y114.670 E42.4062
G1 X143.388 Y115.466 E42.4436
G1 X144.108 Y116.333 E42.4811
G1 X144.744 Y117.262 E42.5186
G1 X145.292 Y118.246 E42.5560
G1 X145.747 Y119.276 E42.5935
G1 X146.105 Y120.344 E42.6309
G1 X146.350 Y121.386 E42.6665
G1 X146.510 Y122.499 E42.7039
G1 X146.568 Y123.624 E42.7414
G1 X146.518 Y124.804 E42.7807
G1 X146.363 Y125.920 E42.8181
G1 X146.105 Y127.016 E42.8556
G1 X145.747 Y128.083 E42.8930
G1 X145.292 Y129.114 E42.9305
G1 X144.744 Y130.098 E42.9680
G1 X144.108 Y131.027 E43.0054
G1 X143.388 Y131.893 E43.0429
G1 X142.591 Y132.690 E43.0804
G1 X141.724 Y133.410 E43.1178
G1 X140.795 Y134.047 E43.1553
G1 X139.810 Y134.595 E43.1928
G1 X138.779 Y135.050 E43.2303
G1 X137.710 Y135.409 E43.2678
G1 X136.613 Y135.667 E43.3053
G1 X135.496 Y135.823 E43.3428
G1 X134.430 Y135.872 E43.3783
G1 X133.909 Y136.355
;segType:Loop
G0 X132.107 Y136.450 F5400
G1 X131.976 Y136.431 E43.3827 F3000
G1 X130.805 Y136.156 E43.4227
G1 X129.665 Y135.774 E43.4627
G1 X128.565 Y135.289 E43.5027
G1 X127.515 Y134.704 E43.5426
G1 X126.525 Y134.025 E43.5826
G1 X125.601 Y133.258 E43.6225
G1 X124.753 Y132.410 E43.6624
G1 X123.987 Y131.488 E43.7023
G1 X123.310 Y130.499 E43.7421
G1 X122.727 Y129.453 E43.7820
G1 X122.244 Y128.358 E43.8218
G1 X121.863 Y127.224 E43.8616
G1 X121.590 Y126.059 E43.9014
G1 X121.424 Y124.875 E43.9411
G1 X121.369 Y123.680 E43.9809
G1 X121.424 Y122.485 E44.0207
G1 X121.590 Y121.301 E44.0605
G1 X121.863 Y120.137 E44.1002
G1 X122.244 Y119.002 E44.1401
G1 X122.727 Y117.907 E44.1799
G1 X123.310 Y116.861 E44.2197
G1 X123.987 Y115.872 E44.2595
G1 X124.753 Y114.950 E44.2994
G1 X125.601 Y114.102 E44.3393
G1 X126.525 Y113.335 E44.3792
G1 X127.515 Y112.656 E44.4192
G1 X128.565 Y112.072 E44.4591
G1 X129.665 Y111.586 E44.4991
G1 X130.805 Y111.204 E44.5391
G1 X131.976 Y110.929 E44.5792
G1 X133.168 Y110.762 E44.6192
G1 X134.370 Y110.707 E44.6592
G1 X135.572 Y110.762 E44.6992
G1 X136.763 Y110.929 E44.7392
G1 X137.935 Y111.204 E44.7792
G1 X139.075 Y111.586 E44.8193
G1 X140.175 Y112.071 E44.8592
G1 X141.225 Y112.656 E44.8992
G1 X142.215 Y113.335 E44.9391
G1 X143.139 Y114.102 E44.9791
G1 X143.987 Y114.950 E45.0190
G1 X144.753 Y115.872 E45.0588
G1 X145.430 Y116.861 E45.0987
G1 X146.013 Y117.907 E45.1385
G1 X146.497 Y119.002 E45.1783
G1 X146.877 Y120.136 E45.2181
G1 X147.137 Y121.245 E45.2560
G1 X147.308 Y122.426 E45.2957
G1 X147.369 Y123.620 E45.3355
G1 X147.316 Y124.873 E45.3772
G1 X147.151 Y126.059 E45.4170
G1 X146.877 Y127.224 E45.4568
G1 X146.497 Y128.358 E45.4966
G1 X146.013 Y129.453 E45.5364
G1 X145.430 Y130.499 E45.5762
G1 X144.753 Y131.488 E45.6161
G1 X143.987 Y132.410 E45.6560
G1 X143.139 Y133.258 E45.6959
G1 X142.216 Y134.025 E45.7358
G1 X141.225 Y134.704 E45.7757
G1 X140.175 Y135.289 E45.8157
G1 X139.075 Y135.774 E45.8557
G1 X137.935 Y136.156 E45.8957
G1 X136.764 Y136.431 E45.9357
G1 X135.572 Y136.598 E45.9757
G1 X134.370 Y136.653 E46.0157
G1 X133.168 Y136.598 E46.0558
G1 X132.305 Y136.477 E46.0847
G0 X150.003 Y141.266 F5400
G0 X151.480 Y140.803
G1 X151.111 Y141.108 E46.1006 F3000
G1 X150.587 Y141.355 E46.1199
G1 X150.016 Y141.464 E46.1392
G1 X149.435 Y141.427 E46.1586
G1 X148.883 Y141.248 E46.1779
G1 X148.395 Y140.938 E46.1971
G1 X148.001 Y140.518 E46.2163
G1 X147.725 Y140.017 E46.2353
G1 X147.583 Y139.465 E46.2543
G1 X147.583 Y138.895 E46.2732
G1 X147.725 Y138.343 E46.2922
G1 X148.001 Y137.841 E46.3112
G1 X148.395 Y137.422 E46.3304
G1 X148.883 Y137.112 E46.3496
G1 X149.435 Y136.933 E46.3689
G1 X150.016 Y136.896 E46.3883
G1 X150.587 Y137.005 E46.4076
G1 X151.111 Y137.252 E46.4269
G1 X151.556 Y137.619 E46.4460
G1 X151.893 Y138.084 E46.4651
G1 X152.103 Y138.615 E46.4841
G1 X152.170 Y139.141 E46.5018
G1 X152.105 Y139.740 E46.5218
G1 X151.893 Y140.276 E46.5410
G1 X151.613 Y140.661 E46.5568
;segType:Perimeter
G0 X152.279 Y139.299 F5400
G1 X151.691 Y139.703 E46.5805 F2100
G1 X151.537 Y140.091 E46.5944
G1 X151.258 Y140.476 E46.6102
G1 X150.891 Y140.779 E46.6261
G1 X150.459 Y140.983 E46.6419
G1 X149.990 Y141.072 E46.6578
G1 X149.513 Y141.042 E46.6737
G1 X149.058 Y140.895 E46.6896
G1 X148.656 Y140.639 E46.7055
G1 X148.330 Y140.292 E46.7213
G1 X148.101 Y139.876 E46.7371
G1 X147.983 Y139.417 E46.7529
G1 X147.983 Y138.943 E46.7686
G1 X148.101 Y138.484 E46.7844
G1 X148.330 Y138.068 E46.8002
G1 X148.656 Y137.721 E46.8160
G1 X149.058 Y137.465 E46.8319
G1 X149.513 Y137.318 E46.8478
G1 X149.990 Y137.288 E46.8637
G1 X150.459 Y137.377 E46.8796
G1 X150.891 Y137.580 E46.8954
G1 X151.258 Y137.884 E46.9113
G1 X151.537 Y138.269 E46.9271
G1 X151.712 Y138.710 E46.9429
G1 X151.767 Y139.144 E46.9574
G1 X151.719 Y139.591 E46.9724
G1 X152.054 Y140.210
;segType:Loop
G0 X150.731 Y141.719 F5400
G1 X150.715 Y141.727 E46.9730 F3000
G1 X150.042 Y141.855 E46.9958
G1 X149.358 Y141.812 E47.0186
G1 X148.707 Y141.601 E47.0413
G1 X148.134 Y141.237 E47.0639
G1 X147.672 Y140.745 E47.0864
G1 X147.349 Y140.158 E47.1086
G1 X147.183 Y139.513 E47.1308
G1 X147.183 Y138.847 E47.1529
G1 X147.349 Y138.202 E47.1751
G1 X147.672 Y137.615 E47.1973
G1 X148.134 Y137.123 E47.2198
G1 X148.707 Y136.759 E47.2424
G1 X149.358 Y136.548 E47.2651
G1 X150.042 Y136.505 E47.2879
G1 X150.715 Y136.633 E47.3107
G1 X151.331 Y136.923 E47.3334
G1 X151.854 Y137.355 E47.3559
G1 X152.248 Y137.899 E47.3783
G1 X152.494 Y138.520 E47.4005
G1 X152.572 Y139.137 E47.4212
G1 X152.498 Y139.832 E47.4444
G1 X152.248 Y140.461 E47.4669
G1 X151.854 Y141.005 E47.4893
G1 X151.332 Y141.436 E47.5118
G1 X150.911 Y141.634 E47.5273
G0 X162.801 Y144.337 F5400
G0 X164.062 Y145.137
G0 X165.028 Y146.809
G1 X165.075 Y147.180 E47.5397 F3000
G1 X164.975 Y147.969 E47.5661
G1 X164.681 Y148.710 E47.5926
G1 X164.212 Y149.356 E47.6192
G1 X163.594 Y149.868 E47.6459
G1 X162.865 Y150.211 E47.6727
G1 X162.072 Y150.362 E47.6995
G1 X161.266 Y150.311 E47.7264
G1 X160.500 Y150.062 E47.7532
G1 X159.821 Y149.632 E47.7799
G1 X159.273 Y149.048 E47.8066
G1 X158.889 Y148.348 E47.8331
G1 X158.691 Y147.577 E47.8596
G1 X158.691 Y146.783 E47.8860
G1 X158.889 Y146.011 E47.9125
G1 X159.273 Y145.312 E47.9390
G1 X159.821 Y144.729 E47.9657
G1 X160.500 Y144.298 E47.9924
G1 X161.267 Y144.049 E48.0192
G1 X162.072 Y143.998 E48.0461
G1 X162.865 Y144.149 E48.0729
G1 X163.594 Y144.492 E48.0997
G1 X164.212 Y145.003 E48.1264
G1 X164.684 Y145.653 E48.1531
G1 X164.980 Y146.427 E48.1806
G1 X165.003 Y146.616 E48.1870
;segType:Perimeter
G0 X164.515 Y145.210 F5400
G1 X164.348 Y145.891 E48.2103 F2100
G1 X164.588 Y146.519 E48.2327
G1 X164.672 Y147.180 E48.2548
G1 X164.584 Y147.874 E48.2781
G1 X164.326 Y148.525 E48.3014
G1 X163.914 Y149.092 E48.3247
G1 X163.373 Y149.539 E48.3480
G1 X162.737 Y149.839 E48.3714
G1 X162.046 Y149.971 E48.3948
G1 X161.344 Y149.926 E48.4182
G1 X160.675 Y149.709 E48.4416
G1 X160.082 Y149.333 E48.4650
G1 X159.602 Y148.822 E48.4883
G1 X159.265 Y148.207 E48.5116
G1 X159.091 Y147.530 E48.5349
G1 X159.091 Y146.830 E48.5581
G1 X159.265 Y146.152 E48.5814
G1 X159.602 Y145.538 E48.6047
G1 X160.082 Y145.027 E48.6280
G1 X160.675 Y144.651 E48.6514
G1 X161.344 Y144.433 E48.6748
G1 X162.046 Y144.389 E48.6982
G1 X162.737 Y144.521 E48.7216
G1 X163.373 Y144.821 E48.7450
G1 X163.914 Y145.268 E48.7683
G1 X164.292 Y145.788 E48.7897
G1 X164.965 Y146.038
;segType:Loop
G0 X165.384 Y147.918 F5400
G1 X165.366 Y148.064 E48.7946 F3000
G1 X165.036 Y148.895 E48.8243
G1 X164.509 Y149.621 E48.8542
G1 X163.814 Y150.196 E48.8842
G1 X162.993 Y150.583 E48.9144
G1 X162.098 Y150.753 E48.9447
G1 X161.189 Y150.696 E48.9750
G1 X160.324 Y150.415 E49.0052
G1 X159.560 Y149.930 E49.0353
G1 X158.943 Y149.274 E49.0653
G1 X158.513 Y148.489 E49.0950
G1 X158.291 Y147.625 E49.1247
G1 X158.291 Y146.735 E49.1543
G1 X158.513 Y145.870 E49.1840
G1 X158.943 Y145.086 E49.2138
G1 X159.560 Y144.430 E49.2437
G1 X160.324 Y143.945 E49.2738
G1 X161.189 Y143.664 E49.3041
G1 X162.098 Y143.607 E49.3344
G1 X162.993 Y143.777 E49.3647
G1 X163.814 Y144.164 E49.3948
G1 X164.509 Y144.739 E49.4249
G1 X165.040 Y145.470 E49.4549
G1 X165.371 Y146.334 E49.4857
G1 X165.478 Y147.180 E49.5140
G1 X165.409 Y147.725 E49.5323
G0 X152.163 Y108.276 F5400
G1 X152.103 Y108.745 E49.5480 F3000
G1 X151.893 Y109.276 E49.5670
G1 X151.556 Y109.740 E49.5861
G1 X151.111 Y110.108 E49.6053
G1 X150.587 Y110.355 E49.6246
G1 X150.016 Y110.464 E49.6439
G1 X149.435 Y110.427 E49.6632
G1 X148.883 Y110.248 E49.6826
G1 X148.395 Y109.938 E49.7018
G1 X148.001 Y109.519 E49.7209
G1 X147.725 Y109.017 E49.7400
G1 X147.583 Y108.465 E49.7589
G1 X147.583 Y107.895 E49.7779
G1 X147.725 Y107.343 E49.7968
G1 X148.001 Y106.841 E49.8159
G1 X148.395 Y106.422 E49.8350
G1 X148.883 Y106.112 E49.8542
G1 X149.435 Y105.933 E49.8736
G1 X150.016 Y105.896 E49.8929
G1 X150.587 Y106.005 E49.9123
G1 X151.111 Y106.252 E49.9315
G1 X151.556 Y106.620 E49.9507
G1 X151.895 Y107.086 E49.9699
G1 X152.106 Y107.639 E49.9896
G1 X152.163 Y108.083 E50.0045
;segType:Perimeter
G0 X151.727 Y106.643 F5400
G1 X151.559 Y107.324 E50.0278 F2100
G1 X151.715 Y107.732 E50.0423
G1 X151.772 Y108.180 E50.0573
G1 X151.712 Y108.650 E50.0731
G1 X151.537 Y109.092 E50.0889
G1 X151.258 Y109.476 E50.1047
G1 X150.891 Y109.780 E50.1205
G1 X150.459 Y109.983 E50.1364
G1 X149.990 Y110.072 E50.1523
G1 X149.513 Y110.042 E50.1682
G1 X149.058 Y109.895 E50.1841
G1 X148.656 Y109.639 E50.1999
G1 X148.330 Y109.292 E50.2158
G1 X148.101 Y108.876 E50.2315
G1 X147.983 Y108.417 E50.2473
G1 X147.983 Y107.943 E50.2631
G1 X148.101 Y107.484 E50.2789
G1 X148.330 Y107.068 E50.2946
G1 X148.656 Y106.721 E50.3105
G1 X149.058 Y106.465 E50.3263
G1 X149.513 Y106.318 E50.3422
G1 X149.990 Y106.288 E50.3581
G1 X150.459 Y106.377 E50.3740
G1 X150.891 Y106.581 E50.3899
G1 X151.258 Y106.884 E50.4057
G1 X151.504 Y107.222 E50.4196
G1 X152.176 Y107.471
;segType:Loop
G0 X152.256 Y109.442 F5400
G1 X152.248 Y109.461 E50.4203 F3000
G1 X151.853 Y110.005 E50.4427
G1 X151.332 Y110.436 E50.4652
G1 X150.715 Y110.727 E50.4879
G1 X150.042 Y110.855 E50.5106
G1 X149.358 Y110.812 E50.5334
G1 X148.707 Y110.601 E50.5562
G1 X148.134 Y110.236 E50.5788
G1 X147.672 Y109.745 E50.6012
G1 X147.349 Y109.158 E50.6235
G1 X147.183 Y108.513 E50.6457
G1 X147.183 Y107.847 E50.6678
G1 X147.349 Y107.202 E50.6900
G1 X147.672 Y106.615 E50.7122
G1 X148.134 Y106.123 E50.7347
G1 X148.707 Y105.759 E50.7573
G1 X149.358 Y105.548 E50.7800
G1 X150.042 Y105.505 E50.8028
G1 X150.715 Y105.633 E50.8256
G1 X151.332 Y105.924 E50.8483
G1 X151.853 Y106.355 E50.8708
G1 X152.252 Y106.903 E50.8933
G1 X152.498 Y107.547 E50.9162
G1 X152.578 Y108.180 E50.9375
G1 X152.494 Y108.840 E50.9596
G1 X152.328 Y109.260 E50.9746
G0 X145.472 Y129.198 F5400
G0 X138.853 Y135.231
G0 X118.483 Y142.015
;segType:HShell
G1 X132.881 Y156.013 E51.6425 F3000
G1 X133.446 Y156.013
G1 X119.081 Y142.046 E52.3089
G1 X119.554 Y141.956
G1 X134.012 Y156.013 E52.9796
G1 X134.577 Y156.013
G1 X119.978 Y141.819 E53.6569
G1 X120.359 Y141.639
G1 X135.142 Y156.013 E54.3427
G1 X135.708 Y156.013
G1 X120.681 Y141.403 E55.0398
G1 X120.987 Y141.150
G1 X136.273 Y156.013 E55.7489
G1 X136.839 Y156.013
G1 X121.224 Y140.831 E56.4733
G1 X121.448 Y140.499
G1 X137.404 Y156.013 E57.2135
G1 X137.970 Y156.013
G1 X121.605 Y140.102 E57.9727
G1 X121.717 Y139.661
G1 X138.535 Y156.013 E58.7529
G0 X121.698 Y138.543 F5400
G1 X139.666 Y156.013 E59.5864 F3000
G1 X140.232 Y156.013
G1 X121.233 Y137.540 E60.4678
G0 X111.211 Y114.848 F5400
G0 X93.915 Y103.831
G1 X104.387 Y114.013 E60.9536 F3000
G0 X95.164 Y103.947 F5400
G1 X105.518 Y114.013 E61.4339 F3000
G1 X106.083 Y114.013
G1 X95.730 Y103.947 E61.9141
G1 X96.295 Y103.947
G1 X106.649 Y114.013 E62.3944
G1 X107.214 Y114.013
G1 X96.861 Y103.947 E62.8747
G1 X97.426 Y103.947
G1 X107.780 Y114.013 E63.3550
G1 X108.345 Y114.013
G1 X97.992 Y103.947 E63.8353
G1 X98.557 Y103.947
G1 X108.910 Y114.013 E64.3156
G1 X109.476 Y114.013
G1 X99.123 Y103.947 E64.7959
G1 X99.688 Y103.947
G1 X110.041 Y114.013 E65.2762
G1 X110.607 Y114.013
G1 X100.254 Y103.947 E65.7565
G1 X100.819 Y103.947
G1 X111.172 Y114.013 E66.2368
G1 X111.738 Y114.013
G1 X101.333 Y103.896 E66.7195
G1 X101.831 Y103.831
G1 X121.215 Y122.678 E67.6187
G1 X121.266 Y122.177
G1 X102.234 Y103.673 E68.5016
G1 X102.631 Y103.509
G1 X121.333 Y121.693 E69.3692
G1 X121.405 Y121.213
G1 X102.979 Y103.298 E70.2240
G1 X103.295 Y103.055
G1 X121.510 Y120.766 E71.0690
G1 X121.616 Y120.318
G1 X103.603 Y102.804 E71.9046
G1 X103.844 Y102.490
G1 X121.737 Y119.886 E72.7346
G1 X121.876 Y119.472
G1 X104.086 Y102.175 E73.5599
G1 X104.278 Y101.811
G1 X122.015 Y119.057 E74.3827
G1 X122.175 Y118.663
G1 X104.440 Y101.420 E75.2055
G1 X104.572 Y100.998
G1 X122.345 Y118.279 E76.0300
G1 X122.515 Y117.894
G1 X104.631 Y100.505 E76.8596
G1 X104.653 Y99.977
G1 X122.708 Y117.532 E77.6972
G1 X122.907 Y117.175
G1 X104.570 Y99.347 E78.5478
G0 X121.577 Y126.879 F5400
G1 X112.070 Y117.635 E78.9889 F3000
G1 X112.070 Y117.085
G1 X121.410 Y126.166 E79.4222
G1 X121.313 Y125.522
G1 X112.070 Y116.535 E79.8509
G1 X112.070 Y115.985
G1 X121.225 Y124.887 E80.2756
G0 X112.070 Y114.886 F5400
G1 X121.171 Y123.735 E80.6978 F3000
G1 X121.191 Y123.204
G1 X112.070 Y114.336 E81.1209
G0 X154.674 Y98.029 F5400
G1 X156.831 Y100.126 E81.2210 F3000
G0 X160.112 Y103.866 F5400
G1 X151.014 Y95.020 E81.6430 F3000
G0 X148.965 Y93.577 F5400
G1 X161.640 Y105.902 E82.2310 F3000
G0 X162.742 Y107.523 F5400
G1 X147.300 Y92.508 E82.9474 F3000
G0 X145.870 Y91.668 F5400
G1 X163.635 Y108.941 E83.7715 F3000
G0 X164.389 Y110.224 F5400
G1 X144.598 Y90.982 E84.6896 F3000
G0 X143.392 Y90.358 F5400
G1 X165.006 Y111.374 E85.6923 F3000
G0 X165.590 Y112.492 F5400
G1 X142.298 Y89.845 E86.7729 F3000
G0 X141.241 Y89.367 F5400
G1 X166.065 Y113.503 E87.9244 F3000
G0 X166.533 Y114.508 F5400
G1 X140.256 Y88.959 E89.1434 F3000
G0 X139.290 Y88.569 F5400
G1 X166.914 Y115.428 E90.4249 F3000
G0 X167.296 Y116.349 F5400
G1 X138.390 Y88.244 E91.7658 F3000
G1 X137.490 Y87.918
G1 X167.616 Y117.211 E93.1634
G1 X167.923 Y118.058
G1 X136.651 Y87.653 E94.6141
G1 X135.821 Y87.396
G1 X168.210 Y118.887 E96.1166
G1 X168.453 Y119.674
G1 X135.008 Y87.155 E97.6682
G1 X134.236 Y86.954
G1 X168.697 Y120.461 E99.2668
G1 X168.911 Y121.219
G1 X133.465 Y86.754 E100.9112
G1 X132.715 Y86.575
G1 X169.102 Y121.954 E102.5992
G1 X169.293 Y122.690
G1 X131.993 Y86.422 E104.3295
G0 X152.450 Y106.863 F5400
G1 X169.457 Y123.399 E105.1185 F3000
G0 X131.271 Y86.270 F5400
G1 X151.196 Y105.644 E106.0429 F3000
G0 X169.603 Y124.091 F5400
G1 X152.715 Y107.670 E106.8264 F3000
G0 X150.523 Y106.193 F5400
G0 X149.474 Y106.127
G0 X148.526 Y106.573
G0 X147.038 Y108.748
G1 X122.997 Y85.373 E107.9416 F3000
G1 X123.576 Y85.386
G1 X146.983 Y108.146 E109.0275
G1 X147.030 Y107.641
G1 X124.157 Y85.401 E110.0886
G1 X124.766 Y85.444
G1 X147.143 Y107.201 E111.1267
G1 X147.327 Y106.830
G1 X125.375 Y85.486 E112.1450
G1 X125.984 Y85.528
G1 X147.530 Y106.478 E113.1445
G1 X147.800 Y106.190
G1 X126.605 Y85.583 E114.1278
G1 X127.247 Y85.657
G1 X148.088 Y105.920 E115.0946
G1 X148.430 Y105.703
G1 X127.889 Y85.731 E116.0475
G1 X128.531 Y85.806
G1 X148.808 Y105.521 E116.9881
G1 X149.232 Y105.384
G1 X129.206 Y85.912 E117.9172
G1 X129.886 Y86.023
G1 X149.741 Y105.329 E118.8383
G1 X150.343 Y105.364
G1 X130.565 Y86.134 E119.7558
G0 X148.445 Y110.667 F5400
G1 X170.625 Y132.232 E120.7847 F3000
G1 X170.599 Y131.657
G1 X149.361 Y111.007 E121.7699
G1 X149.966 Y111.045
G1 X170.558 Y131.068 E122.7252
G1 X170.517 Y130.478
G1 X150.458 Y110.974 E123.6558
G1 X150.901 Y110.855
G1 X170.476 Y129.888 E124.5639
G1 X170.416 Y129.280
G1 X151.282 Y110.676 E125.4515
G1 X151.619 Y110.454
G1 X170.344 Y128.660 E126.3202
G1 X170.272 Y128.040
G1 X151.925 Y110.201 E127.1713
G1 X152.177 Y109.896
G1 X170.200 Y127.420 E128.0074
G1 X170.093 Y126.767
G1 X152.411 Y109.574 E128.8277
G1 X152.573 Y109.182
G1 X169.987 Y126.113 E129.6355
G1 X169.880 Y125.459
G1 X152.706 Y108.761 E130.4322
G1 X152.768 Y108.272
G1 X169.749 Y124.783 E131.2200
G0 X145.476 Y116.577 F5400
G1 X170.670 Y141.073 E132.3888 F3000
G1 X170.670 Y140.523
G1 X113.922 Y85.347 E135.0213
G1 X114.487 Y85.347
G1 X170.670 Y139.973 E137.6277
G1 X170.670 Y139.424
G1 X115.053 Y85.347 E140.2078
G1 X115.618 Y85.347
G1 X170.670 Y138.874 E142.7616
G1 X170.670 Y138.324
G1 X116.184 Y85.347 E145.2893
G1 X116.749 Y85.347
G1 X170.670 Y137.774 E147.7907
G1 X170.670 Y137.224
G1 X117.315 Y85.347 E150.2658
G1 X117.880 Y85.347
G1 X170.670 Y136.675 E152.7147
G1 X170.670 Y136.125
G1 X118.446 Y85.347 E155.1374
G1 X119.011 Y85.347
G1 X170.670 Y135.575 E157.5339
G1 X170.670 Y135.025
G1 X119.577 Y85.347 E159.9042
G1 X120.142 Y85.347
G1 X170.670 Y134.475 E162.2481
G1 X170.664 Y133.919
G1 X120.708 Y85.347 E164.5656
G1 X121.273 Y85.347
G1 X170.651 Y133.357 E166.8563
G1 X170.638 Y132.794
G1 X121.839 Y85.347 E169.1201
G1 X122.417 Y85.360
G1 X147.385 Y109.635 E170.2783
G0 X139.959 Y111.763 F5400
G1 X112.791 Y85.347 E171.5387 F3000
G1 X113.356 Y85.347
G1 X141.198 Y112.417 E172.8302
G0 X146.620 Y118.789 F5400
G1 X170.670 Y142.173 E173.9459 F3000
G1 X170.670 Y141.623
G1 X146.195 Y117.826 E175.0813
G0 X141.847 Y113.796 F5400
G0 X138.098 Y111.053
G1 X111.660 Y85.347 E176.3078 F3000
G1 X112.225 Y85.347
G1 X138.962 Y111.342 E177.5481
G0 X143.538 Y115.337 F5400
G0 X147.143 Y120.397
G1 X170.670 Y143.272 E178.6395 F3000
G1 X170.670 Y142.723
G1 X146.916 Y119.626 E179.7415
G0 X143.538 Y115.337 F5400
G0 X141.847 Y113.796
G0 X139.901 Y112.592
G0 X119.999 Y105.551
G1 X99.219 Y85.347 E180.7055 F3000
G1 X99.785 Y85.347
G1 X127.596 Y112.387 E181.9956
G1 X127.955 Y112.187
G1 X100.350 Y85.347 E183.2762
G1 X100.916 Y85.347
G1 X128.315 Y111.987 E184.5473
G1 X128.691 Y111.803
G1 X101.481 Y85.347 E185.8095
G1 X102.047 Y85.347
G1 X129.080 Y111.631 E187.0636
G1 X129.469 Y111.459
G1 X102.612 Y85.347 E188.3094
G1 X103.178 Y85.347
G1 X129.879 Y111.309 E189.5481
G1 X130.300 Y111.168
G1 X103.743 Y85.347 E190.7801
G1 X104.309 Y85.347
G1 X130.720 Y111.027 E192.0053
G1 X131.173 Y110.917
G1 X104.874 Y85.347 E193.2253
G1 X105.440 Y85.347
G1 X131.629 Y110.810 E194.4402
G1 X132.096 Y110.715
G1 X106.005 Y85.347 E195.6506
G1 X106.571 Y85.347
G1 X132.591 Y110.646 E196.8577
G1 X133.085 Y110.577
G1 X107.136 Y85.347 E198.0615
G1 X107.702 Y85.347
G1 X133.619 Y110.547 E199.2638
G1 X134.159 Y110.522
G1 X108.267 Y85.347 E200.4649
G1 X108.833 Y85.347
G1 X134.732 Y110.529 E201.6664
G1 X135.326 Y110.556
G1 X109.398 Y85.347 E202.8692
G1 X109.963 Y85.347
G1 X135.956 Y110.619 E204.0750
G1 X136.616 Y110.712
G1 X110.529 Y85.347 E205.2852
G1 X111.094 Y85.347
G1 X137.338 Y110.863 E206.5026
G0 X141.847 Y113.796 F5400
G0 X143.538 Y115.337
G0 X165.396 Y145.842
G1 X170.670 Y150.970 E206.7473 F3000
G1 X170.670 Y150.420
G1 X147.020 Y127.425 E207.8445
G1 X147.137 Y126.989
G1 X170.670 Y149.870 E208.9362
G1 X170.670 Y149.320
G1 X147.242 Y126.541 E210.0230
G1 X147.348 Y126.094
G1 X170.670 Y148.771 E211.1049
G1 X170.670 Y148.221
G1 X147.415 Y125.610 E212.1837
G1 X147.483 Y125.126
G1 X170.670 Y147.671 E213.2594
G1 X170.670 Y147.121
G1 X147.527 Y124.619 E214.3330
G1 X147.549 Y124.091
G1 X170.670 Y146.571 E215.4056
G1 X170.670 Y146.021
G1 X147.566 Y123.557 E216.4774
G1 X147.536 Y122.978
G1 X170.670 Y145.472 E217.5506
G1 X170.670 Y144.922
G1 X147.506 Y122.399 E218.6252
G1 X147.414 Y121.759
G1 X170.670 Y144.372 E219.7041
G1 X170.670 Y143.822
G1 X147.311 Y121.110 E220.7877
G0 X146.983 Y139.485 F5400
G1 X141.862 Y134.505 E221.0253 F3000
G1 X142.193 Y134.278
G1 X146.983 Y138.936 E221.2476
G1 X147.073 Y138.473
G1 X142.510 Y134.036 E221.4593
G1 X142.815 Y133.783
G1 X147.205 Y138.052 E221.6629
G1 X147.402 Y137.693
G1 X143.120 Y133.530 E221.8616
G1 X143.412 Y133.264
G1 X147.633 Y137.368 E222.0574
G1 X147.903 Y137.081
G1 X143.691 Y132.985 E222.2528
G1 X143.970 Y132.706
G1 X148.218 Y136.837 E222.4499
G1 X148.561 Y136.620
G1 X144.238 Y132.417 E222.6504
G1 X144.491 Y132.113
G1 X148.970 Y136.469 E222.8582
G1 X149.413 Y136.350
G1 X144.743 Y131.809 E223.0748
G1 X144.987 Y131.496
G1 X149.944 Y136.316 E223.3048
G1 X150.612 Y136.415
G1 X145.213 Y131.167 E223.5552
G1 X145.440 Y130.837
G1 X159.352 Y144.363 E224.2006
G1 X159.673 Y144.126
G1 X145.658 Y130.499 E224.8508
G1 X145.857 Y130.142
G1 X160.015 Y143.909 E225.5076
G1 X160.386 Y143.720
G1 X146.055 Y129.786 E226.1724
G1 X146.245 Y129.421
G1 X160.810 Y143.582 E226.8481
G1 X161.255 Y143.465
G1 X146.415 Y129.036 E227.5365
G1 X146.585 Y128.651
G1 X161.786 Y143.431 E228.2417
G1 X162.384 Y143.463
G1 X146.742 Y128.254 E228.9673
G1 X146.881 Y127.839
G1 X163.104 Y143.614 E229.7199
G0 X160.588 Y144.476 F5400
G0 X159.439 Y145.426
G0 X158.892 Y146.807
G0 X159.078 Y148.277
G0 X159.851 Y150.347
G1 X165.679 Y156.013 E229.9903 F3000
G1 X166.244 Y156.013
G1 X160.885 Y150.802 E230.2389
G1 X161.566 Y150.915
G1 X166.809 Y156.013 E230.4821
G1 X167.375 Y156.013
G1 X162.158 Y150.940 E230.7242
G1 X162.630 Y150.850
G1 X167.940 Y156.013 E230.9705
G1 X168.506 Y156.013
G1 X163.094 Y150.751 E231.2216
G1 X163.475 Y150.572
G1 X169.071 Y156.013 E231.4812
G1 X169.637 Y156.013
G1 X163.856 Y150.392 E231.7494
G1 X164.175 Y150.153
G1 X170.202 Y156.013 E232.0290
G1 X170.670 Y155.918
G1 X164.480 Y149.900 E232.3161
G1 X164.756 Y149.618
G1 X170.670 Y155.368 E232.5905
G1 X170.670 Y154.819
G1 X164.990 Y149.296 E232.8540
G1 X165.221 Y148.970
G1 X170.670 Y154.269 E233.1068
G1 X170.670 Y153.719
G1 X165.378 Y148.574 E233.3523
G1 X165.536 Y148.177
G1 X170.670 Y153.169 E233.5905
G1 X170.670 Y152.619
G1 X165.613 Y147.702 E233.8251
G1 X165.675 Y147.213
G1 X170.670 Y152.070 E234.0568
G1 X170.670 Y151.520
G1 X165.605 Y146.595 E234.2917
G0 X144.269 Y116.218 F5400
G0 X142.728 Y114.528
G0 X140.902 Y113.149
G0 X138.853 Y112.129
G0 X136.650 Y111.502
G0 X134.370 Y111.291
G0 X118.226 Y110.974
G1 X123.553 Y116.154 E234.5389 F3000
G1 X123.780 Y115.825
G1 X118.857 Y111.038 E234.7672
G1 X119.373 Y110.990
G1 X124.027 Y115.515 E234.9831
G1 X124.279 Y115.211
G1 X119.833 Y110.887 E235.1894
G1 X120.214 Y110.708
G1 X124.532 Y114.907 E235.3897
G1 X124.803 Y114.621
G1 X120.564 Y110.499 E235.5864
G1 X120.870 Y110.246
G1 X125.082 Y114.342 E235.7818
G1 X125.361 Y114.063
G1 X121.135 Y109.954 E235.9778
G1 X121.369 Y109.632
G1 X125.656 Y113.800 E236.1767
G1 X125.961 Y113.547
G1 X121.545 Y109.253 E236.3816
G1 X121.694 Y108.849
G1 X126.266 Y113.294 E236.5937
G1 X126.586 Y113.055
G1 X121.757 Y108.359 E236.8177
G1 X121.729 Y107.783
G1 X126.918 Y112.828 E237.0584
G1 X127.250 Y112.601
G1 X121.510 Y107.020 E237.3247
G0 X120.714 Y109.183 F5400
G0 X120.000 Y109.942
G0 X119.003 Y110.266
G0 X116.501 Y109.847
G1 X91.303 Y85.347 E238.4937 F3000
G1 X91.868 Y85.347
G1 X116.072 Y108.880 E239.6165
G1 X115.983 Y108.244
G1 X92.434 Y85.347 E240.7090
G1 X92.999 Y85.347
G1 X116.010 Y107.720 E241.7764
G1 X116.123 Y107.280
G1 X93.564 Y85.347 E242.8229
G1 X94.130 Y85.347
G1 X116.291 Y106.894 E243.8510
G1 X116.488 Y106.536
G1 X94.695 Y85.347 E244.8620
G1 X95.261 Y85.347
G1 X116.751 Y106.242 E245.8589
G1 X117.026 Y105.959
G1 X95.826 Y85.347 E246.8424
G1 X96.392 Y85.347
G1 X117.368 Y105.742 E247.8155
G1 X117.732 Y105.546
G1 X96.957 Y85.347 E248.7792
G1 X97.523 Y85.347
G1 X118.156 Y105.408 E249.7364
G1 X118.646 Y105.335
G1 X98.088 Y85.347 E250.6900
G1 X98.654 Y85.347
G1 X119.217 Y105.340 E251.6439
G0 X139.901 Y112.592 F5400
G0 X141.847 Y113.796
G0 X143.538 Y115.337
G0 X144.916 Y117.162
G0 X145.934 Y119.208
G0 X151.714 Y138.177
G0 X158.240 Y148.231
G1 X151.427 Y141.607 E251.9600 F3000
G1 X151.736 Y141.357
G1 X158.091 Y147.536 E252.2548
G1 X158.091 Y146.986
G1 X152.032 Y141.096 E252.5358
G1 X152.266 Y140.773
G1 X158.147 Y146.491 E252.8086
G1 X158.260 Y146.051
G1 X152.476 Y140.427 E253.0770
G1 X152.633 Y140.030
G1 X158.409 Y145.646 E253.3449
G1 X158.606 Y145.288
G1 X152.727 Y139.571 E253.6176
G1 X152.764 Y139.057
G1 X158.812 Y144.938 E253.8982
G1 X159.082 Y144.651
G1 X152.667 Y138.413 E254.1958
G0 X151.406 Y140.607 F5400
G0 X150.523 Y141.167
G0 X148.853 Y141.853
G1 X163.417 Y156.013 E254.8714 F3000
G1 X163.982 Y156.013
G1 X149.592 Y142.022 E255.5390
G1 X150.166 Y142.030
G1 X164.548 Y156.013 E256.2061
G1 X165.113 Y156.013
G1 X150.639 Y141.940 E256.8776
G1 X151.047 Y141.787
G1 X158.682 Y149.210 E257.2318
G0 X129.887 Y135.231 F5400
G0 X127.838 Y134.211
G0 X126.012 Y132.832
G0 X124.471 Y131.142
G0 X104.253 Y98.488
G1 X123.106 Y116.819 E258.1064 F3000
G1 X123.327 Y116.484
G1 X117.153 Y110.481 E258.3928
G0 X122.806 Y128.152 F5400
G0 X123.824 Y130.198
G0 X125.203 Y132.022
G0 X126.893 Y133.563
G0 X132.202 Y136.659
G1 X152.107 Y156.013 E259.3162 F3000
G1 X152.672 Y156.013
G1 X132.862 Y136.752 E260.2352
G1 X133.485 Y136.807
G1 X153.238 Y156.013 E261.1516
G1 X153.803 Y156.013
G1 X134.079 Y136.835 E262.0666
G1 X134.645 Y136.835
G1 X154.369 Y156.013 E262.9816
G1 X154.934 Y156.013
G1 X135.185 Y136.810 E263.8978
G1 X135.713 Y136.775
G1 X155.500 Y156.013 E264.8157
G1 X156.065 Y156.013
G1 X136.208 Y136.706 E265.7369
G1 X136.702 Y136.637
G1 X156.631 Y156.013 E266.6614
G1 X157.196 Y156.013
G1 X137.165 Y136.537 E267.5906
G1 X137.621 Y136.430
G1 X157.762 Y156.013 E268.5250
G1 X158.327 Y156.013
G1 X138.070 Y136.317 E269.4648
G1 X138.490 Y136.176
G1 X158.893 Y156.013 E270.4112
G1 X159.458 Y156.013
G1 X138.910 Y136.035 E271.3645
G1 X139.317 Y135.880
G1 X160.024 Y156.013 E272.3250
G1 X160.589 Y156.013
G1 X139.706 Y135.709 E273.2938
G1 X140.095 Y135.537
G1 X161.155 Y156.013 E274.2707
G1 X161.720 Y156.013
G1 X140.468 Y135.350 E275.2566
G1 X140.827 Y135.149
G1 X162.286 Y156.013 E276.2521
G1 X162.851 Y156.013
G1 X141.187 Y134.949 E277.2571
G1 X141.530 Y134.733
G1 X147.154 Y140.201 E277.5180
G0 X129.887 Y135.231 F5400
G0 X127.838 Y134.211
G0 X126.012 Y132.832
G0 X124.471 Y131.142
G0 X111.211 Y114.848
G0 X91.680 Y102.208
G1 X88.070 Y98.698 E277.6854 F3000
G1 X88.070 Y98.149
G1 X91.209 Y101.200 E277.8310
G1 X91.109 Y100.554
G1 X88.070 Y97.599 E277.9720
G1 X88.070 Y97.049
G1 X91.086 Y99.982 E278.1120
G1 X91.150 Y99.494
G1 X88.070 Y96.499 E278.2548
G1 X88.070 Y95.949
G1 X91.256 Y99.047 E278.4026
G1 X91.418 Y98.655
G1 X88.070 Y95.399 E278.5579
G1 X88.070 Y94.850
G1 X91.589 Y98.271 E278.7211
G1 X91.830 Y97.956
G1 X88.070 Y94.300 E278.8956
G1 X88.070 Y93.750
G1 X92.072 Y97.641 E279.0812
G1 X92.359 Y97.371
G1 X88.070 Y93.200 E279.2802
G1 X88.070 Y92.650
G1 X92.675 Y97.128 E279.4938
G1 X93.002 Y96.895
G1 X88.070 Y92.100 E279.7226
G1 X88.070 Y91.551
G1 X93.398 Y96.731 E279.9698
G1 X93.795 Y96.567
G1 X88.070 Y91.001 E280.2353
G1 X88.070 Y90.451
G1 X94.272 Y96.481 E280.5231
G1 X94.770 Y96.416
G1 X88.070 Y89.901 E280.8339
G1 X88.070 Y89.351
G1 X95.333 Y96.413 E281.1708
G1 X95.899 Y96.413
G1 X88.070 Y88.802 E281.5340
G1 X88.070 Y88.252
G1 X96.464 Y96.413 E281.9234
G1 X97.030 Y96.413
G1 X88.070 Y87.702 E282.3390
G1 X88.070 Y87.152
G1 X97.595 Y96.413 E282.7809
G1 X98.161 Y96.413
G1 X88.070 Y86.602 E283.2490
G1 X88.070 Y86.052
G1 X98.726 Y96.413 E283.7433
G1 X99.292 Y96.413
G1 X88.070 Y85.503 E284.2639
G1 X88.475 Y85.347
G1 X99.857 Y96.413 E284.7919
G1 X100.423 Y96.413
G1 X89.041 Y85.347 E285.3199
G1 X89.606 Y85.347
G1 X100.994 Y96.419 E285.8482
G1 X101.648 Y96.505
G1 X90.172 Y85.347 E286.3806
G1 X90.737 Y85.347
G1 X102.523 Y96.806 E286.9274
G0 X124.471 Y131.142 F5400
G0 X126.012 Y132.832
G0 X130.744 Y136.341
G1 X150.976 Y156.013 E287.8659 F3000
G1 X151.541 Y156.013
G1 X131.490 Y136.517 E288.7961
G0 X126.893 Y133.563 F5400
G0 X125.203 Y132.022
G0 X122.070 Y128.458
G1 X112.070 Y118.735 E289.2601 F3000
G1 X112.070 Y118.185
G1 X121.792 Y127.637 E289.7110
G0 X125.203 Y132.022 F5400
G0 X128.903 Y135.651
G1 X149.845 Y156.013 E290.6825 F3000
G1 X150.410 Y156.013
G1 X129.880 Y136.052 E291.6349
G0 X123.133 Y130.591 F5400
G1 X112.070 Y119.834 E292.1482 F3000
G1 X112.070 Y119.284
G1 X122.496 Y129.421 E292.6318
G0 X120.418 Y136.748 F5400
G1 X112.070 Y128.631 E293.0191 F3000
G1 X112.070 Y128.082
G1 X140.797 Y156.013 E294.3517
G1 X141.363 Y156.013
G1 X112.070 Y127.532 E295.7106
G1 X112.070 Y126.982
G1 X141.928 Y156.013 E297.0957
G1 X142.494 Y156.013
G1 X112.070 Y126.432 E298.5071
G1 X112.070 Y125.882
G1 X143.059 Y156.013 E299.9447
G1 X143.625 Y156.013
G1 X112.070 Y125.332 E301.4086
G1 X112.070 Y124.783
G1 X144.190 Y156.013 E302.8986
G1 X144.756 Y156.013
G1 X112.070 Y124.233 E304.4149
G1 X112.070 Y123.683
G1 X145.321 Y156.013 E305.9574
G1 X145.887 Y156.013
G1 X112.070 Y123.133 E307.5262
G1 X112.070 Y122.583
G1 X146.452 Y156.013 E309.1212
G1 X147.018 Y156.013
G1 X112.070 Y122.034 E310.7424
G1 X112.070 Y121.484
G1 X147.583 Y156.013 E312.3899
G1 X148.149 Y156.013
G1 X112.070 Y120.934 E314.0636
G1 X112.070 Y120.384
G1 X148.714 Y156.013 E315.7635
G1 X149.280 Y156.013
G1 X127.699 Y135.030 E316.7646
G0 X111.211 Y114.848 F5400
G0 X88.070 Y113.543
G1 X88.553 Y114.013 E316.7870 F3000
G1 X89.119 Y114.013
G1 X88.070 Y112.994 E316.8356
G1 X88.070 Y112.444
G1 X89.684 Y114.013 E316.9105
G1 X90.250 Y114.013
G1 X88.070 Y111.894 E317.0116
G1 X88.070 Y111.344
G1 X90.815 Y114.013 E317.1390
G1 X91.381 Y114.013
G1 X88.070 Y110.794 E317.2926
G1 X88.070 Y110.245
G1 X91.946 Y114.013 E317.4724
G1 X92.512 Y114.013
G1 X88.070 Y109.695 E317.6784
G1 X88.070 Y109.145
G1 X93.077 Y114.013 E317.9107
G1 X93.642 Y114.013
G1 X88.070 Y108.595 E318.1692
G1 X88.070 Y108.045
G1 X94.208 Y114.013 E318.4539
G1 X94.773 Y114.013
G1 X88.070 Y107.495 E318.7649
G1 X88.070 Y106.946
G1 X95.339 Y114.013 E319.1021
G1 X95.904 Y114.013
G1 X88.070 Y106.396 E319.4655
G1 X88.070 Y105.846
G1 X96.470 Y114.013 E319.8552
G1 X97.035 Y114.013
G1 X88.070 Y105.296 E320.2711
G1 X88.070 Y104.746
G1 X97.601 Y114.013 E320.7132
G1 X98.166 Y114.013
G1 X88.070 Y104.197 E321.1816
G1 X88.070 Y103.647
G1 X98.732 Y114.013 E321.6762
G1 X99.297 Y114.013
G1 X88.070 Y103.097 E322.1970
G1 X88.070 Y102.547
G1 X99.863 Y114.013 E322.7441
G1 X100.428 Y114.013
G1 X88.070 Y101.997 E323.3174
G1 X88.070 Y101.447
G1 X100.994 Y114.013 E323.9169
G1 X101.559 Y114.013
G1 X88.070 Y100.898 E324.5426
G1 X88.070 Y100.348
G1 X102.125 Y114.013 E325.1947
G1 X102.690 Y114.013
G1 X88.070 Y99.798 E325.8729
G1 X88.070 Y99.248
G1 X103.256 Y114.013 E326.5773
G1 X103.821 Y114.013
G1 X92.946 Y103.439 E327.0819
G0 X111.211 Y114.848 F5400
G0 X116.253 Y140.396
G1 X112.070 Y136.329 E327.2759 F3000
G1 X112.070 Y135.779
G1 X116.000 Y139.600 E327.4582
G1 X115.983 Y139.034
G1 X112.070 Y135.229 E327.6398
G1 X112.070 Y134.679
G1 X116.053 Y138.552 E327.8246
G1 X116.170 Y138.116
G1 X112.070 Y134.130 E328.0148
G1 X112.070 Y133.580
G1 X116.367 Y137.757 E328.2141
G1 X116.585 Y137.419
G1 X112.070 Y133.030 E328.4235
G1 X112.070 Y132.480
G1 X116.854 Y137.132 E328.6455
G1 X117.157 Y136.876
G1 X112.070 Y131.930 E328.8815
G1 X112.070 Y131.380
G1 X117.499 Y136.659 E329.1333
G1 X117.894 Y136.494
G1 X112.070 Y130.831 E329.4035
G1 X112.070 Y130.281
G1 X118.318 Y136.356 E329.6934
G1 X118.849 Y136.322
G1 X112.070 Y129.731 E330.0079
G1 X112.070 Y129.181
G1 X119.485 Y136.391 E330.3518
G0 X117.526 Y137.572 F5400
G0 X116.915 Y138.414
G0 X116.006 Y144.554
G1 X112.070 Y140.727 E330.5344 F3000
G1 X112.070 Y140.178
G1 X128.357 Y156.013 E331.2900
G1 X128.922 Y156.013
G1 X112.070 Y139.628 E332.0718
G1 X112.070 Y139.078
G1 X129.488 Y156.013 E332.8798
G1 X130.053 Y156.013
G1 X112.070 Y138.528 E333.7140
G1 X112.070 Y137.978
G1 X130.619 Y156.013 E334.5745
G1 X131.184 Y156.013
G1 X112.070 Y137.428 E335.4612
G1 X112.070 Y136.879
G1 X131.750 Y156.013 E336.3741
G1 X132.315 Y156.013
G1 X117.701 Y141.804 E337.0521
G0 X116.906 Y147.698 F5400
G0 X116.406 Y148.607
G0 X114.231 Y149.976
G1 X120.440 Y156.013 E337.3402 F3000
G1 X121.005 Y156.013
G1 X114.861 Y150.039 E337.6252
G1 X115.376 Y149.990
G1 X121.571 Y156.013 E337.9126
G1 X122.136 Y156.013
G1 X115.835 Y149.886 E338.2049
G1 X116.216 Y149.707
G1 X122.702 Y156.013 E338.5058
G1 X123.267 Y156.013
G1 X116.566 Y149.498 E338.8167
G1 X116.872 Y149.245
G1 X123.833 Y156.013 E339.1396
G1 X124.398 Y156.013
G1 X117.136 Y148.952 E339.4765
G1 X117.370 Y148.630
G1 X124.964 Y156.013 E339.8287
G1 X125.529 Y156.013
G1 X117.546 Y148.251 E340.1991
G1 X117.695 Y147.846
G1 X126.095 Y156.013 E340.5888
G1 X126.660 Y156.013
G1 X117.757 Y147.357 E341.0018
G1 X117.729 Y146.779
G1 X127.226 Y156.013 E341.4424
G1 X127.791 Y156.013
G1 X117.508 Y146.014 E341.9194
G0 X115.003 Y145.094 F5400
G0 X112.070 Y145.676
G1 X112.293 Y145.892 E341.9298 F3000
G1 X112.489 Y145.534
G1 X112.070 Y145.126 E341.9493
G1 X112.070 Y144.576
G1 X112.753 Y145.240 E341.9809
G1 X113.028 Y144.958
G1 X112.070 Y144.026 E342.0254
G1 X112.070 Y143.477
G1 X113.370 Y144.741 E342.0857
G1 X113.735 Y144.545
G1 X112.070 Y142.927 E342.1630
G1 X112.070 Y142.377
G1 X114.159 Y144.408 E342.2599
G1 X114.649 Y144.335
G1 X112.070 Y141.827 E342.3795
G1 X112.070 Y141.277
G1 X115.221 Y144.341 E342.5257
G0 X113.167 Y145.956 F5400
G0 X112.785 Y146.919
G0 X112.070 Y155.573
G1 X112.523 Y156.013 E342.5467 F3000
G1 X113.089 Y156.013
G1 X112.070 Y155.023 E342.5940
G1 X112.070 Y154.473
G1 X113.654 Y156.013 E342.6675
G1 X114.220 Y156.013
G1 X112.070 Y153.923 E342.7672
G1 X112.070 Y153.373
G1 X114.785 Y156.013 E342.8932
G1 X115.351 Y156.013
G1 X112.070 Y152.823 E343.0454
G1 X112.070 Y152.274
G1 X115.916 Y156.013 E343.2238
G1 X116.482 Y156.013
G1 X112.070 Y151.724 E343.4284
G1 X112.070 Y151.174
G1 X117.047 Y156.013 E343.6593
G1 X117.613 Y156.013
G1 X112.070 Y150.624 E343.9165
G1 X112.070 Y150.074
G1 X118.178 Y156.013 E344.1998
G1 X118.743 Y156.013
G1 X112.070 Y149.525 E344.5094
G1 X112.070 Y148.975
G1 X119.309 Y156.013 E344.8452
G1 X119.874 Y156.013
G1 X113.163 Y149.487 E345.1566
G1 X112.497 Y148.840
G1 X112.070 Y148.425 E345.1764
; ------------------------------------
; Layer #2
; ------------------------------------
G21 ; mm
G90 ; abs
G92 E0 ; reset extr
M106 S0
;segType:HShell
G0 F1200 E-1.0000
G0 F300 Z0.600
G0 X112.070 Y114.947 F5400
G0 F1200 E0.0000
G1 X116.888 Y110.263 E0.2235 F3000
G1 X116.618 Y109.976
G1 X112.070 Y114.397 E0.4345
;segType:Perimeter
G0 X111.675 Y115.253 F5400
G1 X111.010 Y114.985 E0.4583 F2100
G1 X87.070 Y114.985 E1.2545
G1 X87.070 Y84.374 E2.2727
G1 X121.868 Y84.374 E3.4300
G1 X124.170 Y84.428 E3.5066
G1 X126.464 Y84.587 E3.5831
G1 X128.750 Y84.852 E3.6596
G1 X131.020 Y85.222 E3.7362
G1 X133.271 Y85.697 E3.8127
G1 X135.497 Y86.275 E3.8892
G1 X137.694 Y86.956 E3.9657
G1 X139.858 Y87.737 E4.0422
G1 X141.983 Y88.617 E4.1187
G1 X144.066 Y89.595 E4.1952
G1 X146.101 Y90.668 E4.2717
G1 X148.084 Y91.833 E4.3482
G1 X150.012 Y93.089 E4.4248
G1 X151.879 Y94.433 E4.5013
G1 X153.682 Y95.861 E4.5778
G1 X155.418 Y97.371 E4.6543
G1 X157.082 Y98.960 E4.7308
G1 X158.671 Y100.624 E4.8074
G1 X160.181 Y102.360 E4.8839
G1 X161.610 Y104.164 E4.9604
G1 X162.953 Y106.031 E5.0369
G1 X164.209 Y107.959 E5.1135
G1 X165.375 Y109.942 E5.1900
G1 X166.448 Y111.978 E5.2665
G1 X167.426 Y114.060 E5.3430
G1 X168.306 Y116.186 E5.4196
G1 X169.088 Y118.350 E5.4961
G1 X169.769 Y120.549 E5.5726
G1 X170.347 Y122.776 E5.6492
G1 X170.822 Y125.027 E5.7257
G1 X171.192 Y127.298 E5.8022
G1 X171.457 Y129.584 E5.8788
G1 X171.617 Y131.879 E5.9553
G1 X171.670 Y134.182 E6.0319
G1 X171.670 Y156.985 E6.7903
G1 X111.070 Y156.985 E8.8059
G1 X111.070 Y115.044 E10.2009
G1 X110.795 Y114.397
;segType:Loop
G0 X109.970 Y114.597 F5400
G1 X87.470 Y114.597 E10.9493 F3000
G1 X87.470 Y84.763 E11.9415
G1 X121.863 Y84.763 E13.0854
G1 X124.151 Y84.816 E13.1615
G1 X126.426 Y84.974 E13.2374
G1 X128.693 Y85.237 E13.3133
G1 X130.944 Y85.604 E13.3892
G1 X133.176 Y86.075 E13.4650
G1 X135.385 Y86.649 E13.5409
G1 X137.564 Y87.323 E13.6168
G1 X139.710 Y88.099 E13.6927
G1 X141.818 Y88.971 E13.7686
G1 X143.883 Y89.941 E13.8445
G1 X145.902 Y91.005 E13.9204
G1 X147.869 Y92.162 E13.9963
G1 X149.781 Y93.407 E14.0722
G1 X151.634 Y94.740 E14.1481
G1 X153.423 Y96.157 E14.2240
G1 X155.144 Y97.655 E14.2999
G1 X156.795 Y99.231 E14.3758
G1 X158.371 Y100.882 E14.4517
G1 X159.870 Y102.604 E14.5276
G1 X161.287 Y104.394 E14.6036
G1 X162.620 Y106.247 E14.6795
G1 X163.867 Y108.159 E14.7554
G1 X165.023 Y110.128 E14.8313
G1 X166.088 Y112.147 E14.9073
G1 X167.058 Y114.214 E14.9832
G1 X167.932 Y116.324 E15.0592
G1 X168.708 Y118.471 E15.1351
G1 X169.383 Y120.653 E15.2111
G1 X169.957 Y122.863 E15.2870
G1 X170.428 Y125.097 E15.3629
G1 X170.796 Y127.351 E15.4389
G1 X171.059 Y129.619 E15.5149
G1 X171.217 Y131.897 E15.5908
G1 X171.270 Y134.187 E15.6670
G1 X171.270 Y156.597 E16.4123
G1 X111.470 Y156.597 E18.4013
G1 X111.470 Y114.597 E19.7982
G1 X110.170 Y114.597 E19.8414
G0 X108.871 Y114.208 F5400
G1 X87.870 Y114.208 E20.5399 F3000
G1 X87.870 Y85.152 E21.5063
G1 X121.858 Y85.152 E22.6368
G1 X124.132 Y85.205 E22.7124
G1 X126.389 Y85.362 E22.7876
G1 X128.636 Y85.622 E22.8629
G1 X130.869 Y85.986 E22.9381
G1 X133.082 Y86.453 E23.0134
G1 X135.272 Y87.022 E23.0886
G1 X137.434 Y87.691 E23.1639
G1 X139.561 Y88.460 E23.2391
G1 X141.653 Y89.326 E23.3144
G1 X143.701 Y90.287 E23.3897
G1 X145.703 Y91.343 E23.4650
G1 X147.655 Y92.490 E23.5402
G1 X149.550 Y93.725 E23.6155
G1 X151.388 Y95.047 E23.6908
G1 X153.163 Y96.453 E23.7661
G1 X154.871 Y97.939 E23.8414
G1 X156.508 Y99.503 E23.9167
G1 X158.072 Y101.140 E23.9920
G1 X159.558 Y102.849 E24.0673
G1 X160.965 Y104.624 E24.1427
G1 X162.288 Y106.462 E24.2180
G1 X163.524 Y108.360 E24.2933
G1 X164.672 Y110.313 E24.3687
G1 X165.728 Y112.317 E24.4440
G1 X166.690 Y114.367 E24.5194
G1 X167.558 Y116.461 E24.5947
G1 X168.327 Y118.591 E24.6701
G1 X168.997 Y120.756 E24.7454
G1 X169.567 Y122.949 E24.8208
G1 X170.034 Y125.166 E24.8962
G1 X170.400 Y127.403 E24.9715
G1 X170.661 Y129.654 E25.0469
G1 X170.818 Y131.914 E25.1223
G1 X170.870 Y134.191 E25.1980
G1 X170.870 Y156.208 E25.9303
G1 X111.870 Y156.208 E27.8926
G1 X111.870 Y114.208 E29.2896
G1 X109.071 Y114.208 E29.3827
;segType:HShell
G0 X139.224 Y88.545 F5400
G1 X121.019 Y106.246 E30.2272 F3000
;segType:Perimeter
G0 X120.728 Y106.644 F5400
G1 X120.559 Y107.325 E30.2505 F2100
G1 X120.717 Y107.743 E30.2654
G1 X120.772 Y108.180 E30.2800
G1 X120.712 Y108.650 E30.2958
G1 X120.537 Y109.092 E30.3116
G1 X120.258 Y109.476 E30.3274
G1 X119.891 Y109.780 E30.3432
G1 X119.459 Y109.983 E30.3591
G1 X118.990 Y110.072 E30.3750
G1 X118.513 Y110.042 E30.3909
G1 X118.058 Y109.895 E30.4068
G1 X117.656 Y109.639 E30.4226
G1 X117.330 Y109.292 E30.4385
G1 X117.101 Y108.876 E30.4543
G1 X116.983 Y108.417 E30.4700
G1 X116.983 Y107.943 E30.4858
G1 X117.101 Y107.484 E30.5016
G1 X117.330 Y107.068 E30.5174
G1 X117.656 Y106.721 E30.5332
G1 X118.058 Y106.465 E30.5491
G1 X118.513 Y106.318 E30.5649
G1 X118.990 Y106.288 E30.5808
G1 X119.459 Y106.377 E30.5967
G1 X119.891 Y106.581 E30.6126
G1 X120.258 Y106.884 E30.6285
G1 X120.504 Y107.222 E30.6424
G1 X121.175 Y107.474
;segType:Loop
G0 X121.163 Y108.276 F5400
G1 X121.103 Y108.745 E30.6581 F3000
G1 X120.893 Y109.276 E30.6771
G1 X120.556 Y109.740 E30.6962
G1 X120.111 Y110.108 E30.7153
G1 X119.587 Y110.355 E30.7346
G1 X119.016 Y110.464 E30.7540
G1 X118.435 Y110.427 E30.7733
G1 X117.883 Y110.248 E30.7926
G1 X117.395 Y109.938 E30.8118
G1 X117.001 Y109.519 E30.8310
G1 X116.725 Y109.017 E30.8500
G1 X116.583 Y108.465 E30.8690
G1 X116.583 Y107.895 E30.8879
G1 X116.725 Y107.343 E30.9069
G1 X117.001 Y106.841 E30.9259
G1 X117.395 Y106.422 E30.9451
G1 X117.883 Y106.112 E30.9643
G1 X118.435 Y105.933 E30.9836
G1 X119.016 Y105.896 E31.0029
G1 X119.587 Y106.005 E31.0223
G1 X120.111 Y106.252 E31.0416
G1 X120.556 Y106.620 E31.0607
G1 X120.896 Y107.088 E31.0800
G1 X121.108 Y107.651 E31.1000
G1 X121.163 Y108.083 E31.1145
G0 X121.256 Y109.442 F5400
G1 X121.248 Y109.461 E31.1152 F3000
G1 X120.853 Y110.005 E31.1376
G1 X120.332 Y110.436 E31.1601
G1 X119.715 Y110.727 E31.1827
G1 X119.042 Y110.855 E31.2055
G1 X118.357 Y110.812 E31.2283
G1 X117.707 Y110.601 E31.2511
G1 X117.134 Y110.236 E31.2737
G1 X116.672 Y109.745 E31.2961
G1 X116.349 Y109.158 E31.3184
G1 X116.183 Y108.513 E31.3405
G1 X116.183 Y107.847 E31.3627
G1 X116.349 Y107.202 E31.3848
G1 X116.672 Y106.615 E31.4071
G1 X117.134 Y106.123 E31.4295
G1 X117.707 Y105.759 E31.4521
G1 X118.357 Y105.548 E31.4749
G1 X119.042 Y105.505 E31.4977
G1 X119.715 Y105.633 E31.5205
G1 X120.332 Y105.924 E31.5432
G1 X120.853 Y106.355 E31.5657
G1 X121.253 Y106.906 E31.5883
G1 X121.499 Y107.560 E31.6115
G1 X121.578 Y108.180 E31.6323
G1 X121.494 Y108.840 E31.6545
G1 X121.328 Y109.260 E31.6695
G0 X118.474 Y110.233 F5400
G0 X94.574 Y103.918
;segType:HShell
G1 X88.070 Y110.242 E31.9712 F3000
G1 X88.070 Y109.692
G1 X94.076 Y103.853 E32.2498
;segType:Perimeter
G0 X94.485 Y103.442 F5400
G1 X94.088 Y102.858 E32.2733 F2100
G1 X93.467 Y102.600 E32.2956
G1 X92.887 Y102.155 E32.3200
G1 X92.443 Y101.576 E32.3443
G1 X92.163 Y100.902 E32.3685
G1 X92.069 Y100.180 E32.3927
G1 X92.163 Y99.458 E32.4170
G1 X92.443 Y98.784 E32.4412
G1 X92.887 Y98.205 E32.4655
G1 X93.467 Y97.760 E32.4898
G1 X94.144 Y97.479 E32.5142
G1 X94.856 Y97.386 E32.5381
G1 X100.884 Y97.386 E32.7386
G1 X101.596 Y97.479 E32.7625
G1 X102.273 Y97.760 E32.7868
G1 X102.853 Y98.205 E32.8112
G1 X103.298 Y98.784 E32.8354
G1 X103.577 Y99.458 E32.8597
G1 X103.672 Y100.180 E32.8839
G1 X103.577 Y100.902 E32.9082
G1 X103.298 Y101.576 E32.9324
G1 X102.853 Y102.155 E32.9567
G1 X102.273 Y102.600 E32.9810
G1 X101.596 Y102.881 E33.0054
G1 X100.884 Y102.974 E33.0293
G1 X94.856 Y102.974 E33.2297
G1 X94.203 Y102.888 E33.2517
G1 X93.555 Y103.193
;segType:Loop
G0 X92.933 Y102.686 F5400
G1 X92.598 Y102.429 E33.2657 F3000
G1 X92.091 Y101.768 E33.2934
G1 X91.773 Y101.001 E33.3210
G1 X91.665 Y100.180 E33.3486
G1 X91.773 Y99.359 E33.3761
G1 X92.091 Y98.592 E33.4037
G1 X92.598 Y97.931 E33.4314
G1 X93.261 Y97.422 E33.4593
G1 X94.036 Y97.101 E33.4872
G1 X94.829 Y96.997 E33.5138
G1 X100.911 Y96.997 E33.7160
G1 X101.704 Y97.101 E33.7426
G1 X102.479 Y97.422 E33.7705
G1 X103.142 Y97.931 E33.7984
G1 X103.649 Y98.592 E33.8261
G1 X103.967 Y99.359 E33.8537
G1 X104.075 Y100.180 E33.8812
G1 X103.967 Y101.001 E33.9088
G1 X103.649 Y101.768 E33.9364
G1 X103.142 Y102.429 E33.9641
G1 X102.479 Y102.938 E33.9919
G1 X101.704 Y103.259 E34.0198
G1 X100.911 Y103.363 E34.0464
G1 X94.829 Y103.363 E34.2487
G1 X94.036 Y103.259 E34.2753
G1 X93.261 Y102.938 E34.3032
G1 X93.090 Y102.807 E34.3103
G0 X91.875 Y102.137 F5400
G1 X91.739 Y101.960 E34.3178 F3000
G1 X91.383 Y101.100 E34.3487
G1 X91.262 Y100.180 E34.3796
G1 X91.383 Y99.260 E34.4105
G1 X91.739 Y98.400 E34.4414
G1 X92.309 Y97.657 E34.4725
G1 X93.055 Y97.084 E34.5039
G1 X93.929 Y96.723 E34.5353
G1 X94.802 Y96.608 E34.5646
G1 X100.938 Y96.608 E34.7687
G1 X101.811 Y96.723 E34.7980
G1 X102.685 Y97.084 E34.8294
G1 X103.431 Y97.657 E34.8607
G1 X104.001 Y98.400 E34.8918
G1 X104.357 Y99.260 E34.9228
G1 X104.478 Y100.180 E34.9537
G1 X104.357 Y101.100 E34.9845
G1 X104.001 Y101.960 E35.0155
G1 X103.431 Y102.702 E35.0466
G1 X102.685 Y103.275 E35.0779
G1 X101.811 Y103.637 E35.1094
G1 X100.938 Y103.752 E35.1387
G1 X94.802 Y103.752 E35.3427
G1 X93.929 Y103.637 E35.3720
G1 X93.055 Y103.275 E35.4035
G1 X92.309 Y102.702 E35.4348
G1 X91.995 Y102.293 E35.4519
G0 X111.211 Y114.848 F5400
G0 X120.906 Y138.663
G0 X120.907 Y139.693
G0 X120.479 Y140.803
G1 X120.111 Y141.108 E35.4678 F3000
G1 X119.587 Y141.355 E35.4871
G1 X119.016 Y141.464 E35.5064
G1 X118.435 Y141.427 E35.5258
G1 X117.883 Y141.248 E35.5451
G1 X117.395 Y140.938 E35.5643
G1 X117.001 Y140.518 E35.5835
G1 X116.725 Y140.017 E35.6025
G1 X116.583 Y139.465 E35.6215
G1 X116.583 Y138.895 E35.6404
G1 X116.725 Y138.343 E35.6594
G1 X117.001 Y137.841 E35.6784
G1 X117.395 Y137.422 E35.6975
G1 X117.883 Y137.112 E35.7168
G1 X118.435 Y136.933 E35.7361
G1 X119.016 Y136.896 E35.7554
G1 X119.587 Y137.005 E35.7748
G1 X120.111 Y137.252 E35.7940
G1 X120.556 Y137.619 E35.8132
G1 X120.893 Y138.084 E35.8323
G1 X121.103 Y138.615 E35.8513
G1 X121.167 Y139.122 E35.8683
G1 X121.106 Y139.738 E35.8889
G1 X120.893 Y140.276 E35.9082
G1 X120.613 Y140.661 E35.9240
;segType:Perimeter
G0 X121.277 Y139.295 F5400
G1 X120.691 Y139.702 E35.9477 F2100
G1 X120.537 Y140.091 E35.9616
G1 X120.258 Y140.476 E35.9774
G1 X119.891 Y140.779 E35.9933
G1 X119.459 Y140.983 E36.0091
G1 X118.990 Y141.072 E36.0250
G1 X118.513 Y141.042 E36.0409
G1 X118.058 Y140.895 E36.0568
G1 X117.656 Y140.639 E36.0727
G1 X117.330 Y140.292 E36.0885
G1 X117.101 Y139.876 E36.1043
G1 X116.983 Y139.417 E36.1201
G1 X116.983 Y138.943 E36.1358
G1 X117.101 Y138.484 E36.1516
G1 X117.330 Y138.068 E36.1674
G1 X117.656 Y137.721 E36.1832
G1 X118.059 Y137.465 E36.1991
G1 X118.513 Y137.318 E36.2150
G1 X118.990 Y137.288 E36.2309
G1 X119.459 Y137.377 E36.2468
G1 X119.891 Y137.580 E36.2626
G1 X120.258 Y137.884 E36.2785
G1 X120.537 Y138.269 E36.2943
G1 X120.712 Y138.710 E36.3101
G1 X120.765 Y139.127 E36.3241
G1 X120.719 Y139.590 E36.3395
G1 X121.055 Y140.209
;segType:Loop
G0 X119.731 Y141.719 F5400
G1 X119.715 Y141.727 E36.3401 F3000
G1 X119.042 Y141.855 E36.3629
G1 X118.358 Y141.812 E36.3857
G1 X117.707 Y141.601 E36.4085
G1 X117.134 Y141.237 E36.4311
G1 X116.672 Y140.745 E36.4535
G1 X116.349 Y140.158 E36.4758
G1 X116.183 Y139.513 E36.4979
G1 X116.183 Y138.847 E36.5201
G1 X116.349 Y138.202 E36.5422
G1 X116.672 Y137.615 E36.5645
G1 X117.134 Y137.123 E36.5869
G1 X117.708 Y136.759 E36.6095
G1 X118.358 Y136.548 E36.6323
G1 X119.042 Y136.505 E36.6551
G1 X119.715 Y136.633 E36.6779
G1 X120.331 Y136.923 E36.7005
G1 X120.854 Y137.355 E36.7231
G1 X121.248 Y137.899 E36.7454
G1 X121.494 Y138.520 E36.7676
G1 X121.570 Y139.117 E36.7876
G1 X121.499 Y139.828 E36.8114
G1 X121.248 Y140.461 E36.8341
G1 X120.853 Y141.005 E36.8564
G1 X120.332 Y141.436 E36.8789
G1 X119.911 Y141.634 E36.8944
;segType:HShell
G0 X130.351 Y136.210 F5400
G1 X112.070 Y153.984 E37.7425 F3000
G1 X112.070 Y153.435
G1 X115.671 Y149.933 E37.9095
;segType:Perimeter
G0 X115.500 Y149.496 F5400
G1 X114.930 Y149.069 E37.9332 F2100
G1 X114.513 Y149.042 E37.9471
G1 X114.058 Y148.895 E37.9630
G1 X113.656 Y148.639 E37.9789
G1 X113.330 Y148.292 E37.9947
G1 X113.101 Y147.876 E38.0105
G1 X112.984 Y147.417 E38.0263
G1 X112.984 Y146.943 E38.0420
G1 X113.101 Y146.484 E38.0578
G1 X113.330 Y146.068 E38.0736
G1 X113.656 Y145.721 E38.0894
G1 X114.059 Y145.465 E38.1053
G1 X114.513 Y145.318 E38.1211
G1 X114.990 Y145.288 E38.1370
G1 X115.459 Y145.377 E38.1529
G1 X115.891 Y145.580 E38.1688
G1 X116.258 Y145.884 E38.1847
G1 X116.538 Y146.270 E38.2005
G1 X116.717 Y146.743 E38.2173
G1 X116.772 Y147.180 E38.2320
G1 X116.712 Y147.650 E38.2478
G1 X116.537 Y148.092 E38.2635
G1 X116.258 Y148.476 E38.2793
G1 X115.891 Y148.779 E38.2952
G1 X115.459 Y148.983 E38.3111
G1 X115.049 Y149.061 E38.3250
G1 X114.540 Y149.556
;segType:Loop
G0 X113.720 Y149.145 F5400
G1 X113.395 Y148.938 E38.3378 F3000
G1 X113.001 Y148.518 E38.3569
G1 X112.725 Y148.017 E38.3760
G1 X112.584 Y147.465 E38.3949
G1 X112.584 Y146.895 E38.4139
G1 X112.725 Y146.343 E38.4328
G1 X113.001 Y145.841 E38.4519
G1 X113.395 Y145.422 E38.4710
G1 X113.883 Y145.112 E38.4902
G1 X114.435 Y144.933 E38.5095
G1 X115.016 Y144.896 E38.5289
G1 X115.587 Y145.005 E38.5482
G1 X116.111 Y145.252 E38.5675
G1 X116.556 Y145.619 E38.5867
G1 X116.896 Y146.088 E38.6059
G1 X117.108 Y146.651 E38.6260
G1 X117.175 Y147.180 E38.6437
G1 X117.103 Y147.745 E38.6626
G1 X116.893 Y148.276 E38.6816
G1 X116.556 Y148.740 E38.7007
G1 X116.112 Y149.108 E38.7199
G1 X115.587 Y149.355 E38.7392
G1 X115.016 Y149.464 E38.7585
G1 X114.435 Y149.427 E38.7779
G1 X113.888 Y149.250 E38.7970
G0 X112.624 Y148.659 F5400
G1 X112.349 Y148.158 E38.8160 F3000
G1 X112.184 Y147.512 E38.8382
G1 X112.184 Y146.848 E38.8603
G1 X112.349 Y146.202 E38.8824
G1 X112.671 Y145.615 E38.9047
G1 X113.134 Y145.123 E38.9272
G1 X113.708 Y144.759 E38.9498
G1 X114.358 Y144.548 E38.9725
G1 X115.042 Y144.505 E38.9953
G1 X115.714 Y144.633 E39.0181
G1 X116.332 Y144.923 E39.0408
G1 X116.854 Y145.355 E39.0633
G1 X117.253 Y145.906 E39.0859
G1 X117.499 Y146.560 E39.1091
G1 X117.578 Y147.180 E39.1299
G1 X117.494 Y147.841 E39.1521
G1 X117.248 Y148.461 E39.1743
G1 X116.853 Y149.005 E39.1967
G1 X116.332 Y149.436 E39.2192
G1 X115.715 Y149.727 E39.2418
G1 X115.042 Y149.855 E39.2646
G1 X114.357 Y149.812 E39.2874
G1 X113.707 Y149.601 E39.3102
G1 X113.134 Y149.237 E39.3328
G1 X112.739 Y148.817 E39.3519
;segType:HShell
G0 X115.073 Y156.013 F5400
G1 X134.804 Y136.828 E40.2673 F3000
;segType:Perimeter
G0 X134.831 Y136.355 F5400
G1 X134.310 Y135.872 E40.2909 F2100
G1 X133.244 Y135.823 E40.3264
G1 X132.127 Y135.667 E40.3639
G1 X131.030 Y135.409 E40.4014
G1 X129.961 Y135.050 E40.4389
G1 X128.930 Y134.595 E40.4764
G1 X127.945 Y134.047 E40.5139
G1 X127.016 Y133.410 E40.5514
G1 X126.149 Y132.690 E40.5888
G1 X125.352 Y131.893 E40.6263
G1 X124.632 Y131.027 E40.6638
G1 X123.996 Y130.098 E40.7013
G1 X123.448 Y129.113 E40.7387
G1 X122.993 Y128.083 E40.7762
G1 X122.635 Y127.016 E40.8136
G1 X122.378 Y125.920 E40.8511
G1 X122.222 Y124.805 E40.8885
G1 X122.170 Y123.680 E40.9260
G1 X122.222 Y122.555 E40.9634
G1 X122.378 Y121.440 E41.0009
G1 X122.635 Y120.344 E41.0383
G1 X122.993 Y119.276 E41.0758
G1 X123.448 Y118.246 E41.1132
G1 X123.996 Y117.262 E41.1507
G1 X124.633 Y116.333 E41.1881
G1 X125.352 Y115.466 E41.2256
G1 X126.149 Y114.670 E41.2631
G1 X127.016 Y113.950 E41.3006
G1 X127.945 Y113.313 E41.3380
G1 X128.930 Y112.765 E41.3755
G1 X129.961 Y112.309 E41.4130
G1 X131.030 Y111.951 E41.4505
G1 X132.127 Y111.693 E41.4880
G1 X133.244 Y111.537 E41.5255
G1 X134.370 Y111.485 E41.5630
G1 X135.496 Y111.537 E41.6005
G1 X136.613 Y111.693 E41.6380
G1 X137.710 Y111.951 E41.6755
G1 X138.779 Y112.309 E41.7130
G1 X139.810 Y112.765 E41.7505
G1 X140.795 Y113.313 E41.7880
G1 X141.724 Y113.950 E41.8254
G1 X142.591 Y114.670 E41.8629
G1 X143.388 Y115.466 E41.9004
G1 X144.108 Y116.333 E41.9379
G1 X144.744 Y117.262 E41.9753
G1 X145.292 Y118.246 E42.0128
G1 X145.747 Y119.276 E42.0502
G1 X146.105 Y120.344 E42.0877
G1 X146.363 Y121.440 E42.1251
G1 X146.518 Y122.555 E42.1626
G1 X146.570 Y123.680 E42.2000
G1 X146.518 Y124.805 E42.2375
G1 X146.363 Y125.920 E42.2749
G1 X146.105 Y127.016 E42.3124
G1 X145.747 Y128.083 E42.3498
G1 X145.292 Y129.114 E42.3873
G1 X144.744 Y130.098 E42.4247
G1 X144.108 Y131.027 E42.4622
G1 X143.388 Y131.893 E42.4997
G1 X142.591 Y132.690 E42.5371
G1 X141.724 Y133.410 E42.5746
G1 X140.795 Y134.047 E42.6121
G1 X139.810 Y134.595 E42.6496
G1 X138.779 Y135.050 E42.6871
G1 X137.710 Y135.409 E42.7246
G1 X136.613 Y135.667 E42.7621
G1 X135.496 Y135.823 E42.7996
G1 X134.430 Y135.872 E42.8351
G1 X133.909 Y136.355
;segType:Loop
G0 X133.253 Y136.212 F5400
G1 X133.206 Y136.210 E42.8366 F3000
G1 X132.052 Y136.049 E42.8754
G1 X130.918 Y135.782 E42.9141
G1 X129.813 Y135.412 E42.9529
G1 X128.747 Y134.942 E42.9916
G1 X127.730 Y134.375 E43.0303
G1 X126.770 Y133.717 E43.0691
G1 X125.875 Y132.974 E43.1078
G1 X125.053 Y132.152 E43.1464
G1 X124.310 Y131.257 E43.1851
G1 X123.653 Y130.298 E43.2238
G1 X123.088 Y129.283 E43.2624
G1 X122.618 Y128.221 E43.3011
G1 X122.249 Y127.120 E43.3397
G1 X121.984 Y125.989 E43.3783
G1 X121.823 Y124.840 E43.4169
G1 X121.769 Y123.680 E43.4555
G1 X121.823 Y122.520 E43.4941
G1 X121.984 Y121.371 E43.5327
G1 X122.249 Y120.240 E43.5714
G1 X122.618 Y119.139 E43.6100
G1 X123.088 Y118.076 E43.6486
G1 X123.653 Y117.062 E43.6873
G1 X124.310 Y116.103 E43.7259
G1 X125.053 Y115.208 E43.7646
G1 X125.875 Y114.386 E43.8033
G1 X126.770 Y113.642 E43.8420
G1 X127.730 Y112.985 E43.8807
G1 X128.747 Y112.418 E43.9194
G1 X129.813 Y111.948 E43.9581
G1 X130.918 Y111.577 E43.9969
G1 X132.052 Y111.311 E44.0357
G1 X133.206 Y111.150 E44.0744
G1 X134.370 Y111.096 E44.1132
G1 X135.534 Y111.150 E44.1519
G1 X136.688 Y111.311 E44.1907
G1 X137.822 Y111.577 E44.2294
G1 X138.927 Y111.948 E44.2682
G1 X139.993 Y112.418 E44.3069
G1 X141.010 Y112.985 E44.3457
G1 X141.970 Y113.642 E44.3844
G1 X142.865 Y114.386 E44.4231
G1 X143.688 Y115.208 E44.4618
G1 X144.430 Y116.103 E44.5004
G1 X145.087 Y117.062 E44.5391
G1 X145.653 Y118.076 E44.5777
G1 X146.122 Y119.139 E44.6164
G1 X146.491 Y120.240 E44.6550
G1 X146.757 Y121.371 E44.6936
G1 X146.917 Y122.520 E44.7322
G1 X146.971 Y123.680 E44.7708
G1 X146.917 Y124.840 E44.8094
G1 X146.757 Y125.989 E44.8480
G1 X146.491 Y127.120 E44.8867
G1 X146.122 Y128.221 E44.9253
G1 X145.653 Y129.283 E44.9639
G1 X145.087 Y130.298 E45.0026
G1 X144.430 Y131.257 E45.0412
G1 X143.688 Y132.152 E45.0799
G1 X142.865 Y132.974 E45.1186
G1 X141.970 Y133.717 E45.1573
G1 X141.010 Y134.375 E45.1960
G1 X139.993 Y134.942 E45.2347
G1 X138.927 Y135.412 E45.2735
G1 X137.822 Y135.782 E45.3122
G1 X136.688 Y136.049 E45.3510
G1 X135.534 Y136.210 E45.3897
G1 X134.370 Y136.264 E45.4285
G1 X133.452 Y136.222 E45.4590
G0 X132.107 Y136.450 F5400
G1 X131.976 Y136.431 E45.4634 F3000
G1 X130.805 Y136.156 E45.5034
G1 X129.665 Y135.774 E45.5435
G1 X128.565 Y135.289 E45.5834
G1 X127.515 Y134.704 E45.6234
G1 X126.525 Y134.025 E45.6633
G1 X125.601 Y133.258 E45.7032
G1 X124.753 Y132.410 E45.7432
G1 X123.987 Y131.488 E45.7830
G1 X123.310 Y130.499 E45.8229
G1 X122.727 Y129.453 E45.8627
G1 X122.244 Y128.358 E45.9025
G1 X121.863 Y127.224 E45.9423
G1 X121.590 Y126.059 E45.9821
G1 X121.424 Y124.875 E46.0219
G1 X121.369 Y123.680 E46.0617
G1 X121.424 Y122.485 E46.1014
G1 X121.590 Y121.301 E46.1412
G1 X121.863 Y120.137 E46.1810
G1 X122.244 Y119.002 E46.2208
G1 X122.727 Y117.907 E46.2606
G1 X123.310 Y116.861 E46.3004
G1 X123.987 Y115.872 E46.3403
G1 X124.753 Y114.950 E46.3802
G1 X125.601 Y114.102 E46.4201
G1 X126.525 Y113.335 E46.4600
G1 X127.515 Y112.656 E46.4999
G1 X128.565 Y112.072 E46.5399
G1 X129.665 Y111.586 E46.5799
G1 X130.805 Y111.204 E46.6199
G1 X131.976 Y110.929 E46.6599
G1 X133.168 Y110.762 E46.6999
G1 X134.370 Y110.707 E46.7399
G1 X135.572 Y110.762 E46.7800
G1 X136.763 Y110.929 E46.8200
G1 X137.935 Y111.204 E46.8600
G1 X139.075 Y111.586 E46.9000
G1 X140.175 Y112.071 E46.9400
G1 X141.225 Y112.656 E46.9800
G1 X142.215 Y113.335 E47.0199
G1 X143.139 Y114.102 E47.0598
G1 X143.987 Y114.950 E47.0997
G1 X144.753 Y115.872 E47.1396
G1 X145.430 Y116.861 E47.1794
G1 X146.013 Y117.907 E47.2193
G1 X146.497 Y119.002 E47.2591
G1 X146.877 Y120.137 E47.2989
G1 X147.151 Y121.301 E47.3387
G1 X147.316 Y122.485 E47.3784
G1 X147.371 Y123.680 E47.4182
G1 X147.316 Y124.875 E47.4580
G1 X147.151 Y126.059 E47.4978
G1 X146.877 Y127.224 E47.5376
G1 X146.497 Y128.358 E47.5774
G1 X146.013 Y129.453 E47.6172
G1 X145.430 Y130.499 E47.6570
G1 X144.753 Y131.488 E47.6968
G1 X143.987 Y132.410 E47.7367
G1 X143.139 Y133.258 E47.7766
G1 X142.216 Y134.025 E47.8165
G1 X141.225 Y134.704 E47.8565
G1 X140.175 Y135.289 E47.8964
G1 X139.075 Y135.774 E47.9364
G1 X137.935 Y136.156 E47.9764
G1 X136.764 Y136.431 E48.0164
G1 X135.572 Y136.598 E48.0565
G1 X134.370 Y136.653 E48.0965
G1 X133.168 Y136.598 E48.1365
G1 X132.305 Y136.477 E48.1655
G0 X137.766 Y135.595 F5400
G0 X169.375 Y123.008
;segType:HShell
G1 X152.767 Y139.157 E48.9360 F3000
;segType:Perimeter
G0 X152.277 Y139.295 F5400
G1 X151.691 Y139.702 E48.9597 F2100
G1 X151.537 Y140.091 E48.9736
G1 X151.258 Y140.476 E48.9894
G1 X150.891 Y140.779 E49.0053
G1 X150.459 Y140.983 E49.0211
G1 X149.990 Y141.072 E49.0370
G1 X149.513 Y141.042 E49.0529
G1 X149.058 Y140.895 E49.0688
G1 X148.656 Y140.639 E49.0847
G1 X148.330 Y140.292 E49.1005
G1 X148.101 Y139.876 E49.1163
G1 X147.983 Y139.417 E49.1321
G1 X147.983 Y138.943 E49.1478
G1 X148.101 Y138.484 E49.1636
G1 X148.330 Y138.068 E49.1794
G1 X148.656 Y137.721 E49.1952
G1 X149.058 Y137.465 E49.2111
G1 X149.513 Y137.318 E49.2270
G1 X149.990 Y137.288 E49.2429
G1 X150.459 Y137.377 E49.2588
G1 X150.891 Y137.580 E49.2746
G1 X151.258 Y137.884 E49.2905
G1 X151.537 Y138.269 E49.3063
G1 X151.712 Y138.710 E49.3221
G1 X151.765 Y139.127 E49.3360
G1 X151.719 Y139.590 E49.3515
G1 X152.055 Y140.209
;segType:Loop
G0 X151.480 Y140.803 F5400
G1 X151.111 Y141.108 E49.3674 F3000
G1 X150.587 Y141.355 E49.3867
G1 X150.016 Y141.464 E49.4060
G1 X149.435 Y141.427 E49.4254
G1 X148.883 Y141.248 E49.4447
G1 X148.395 Y140.938 E49.4639
G1 X148.001 Y140.518 E49.4831
G1 X147.725 Y140.017 E49.5021
G1 X147.583 Y139.465 E49.5211
G1 X147.583 Y138.895 E49.5400
G1 X147.725 Y138.343 E49.5590
G1 X148.001 Y137.841 E49.5780
G1 X148.395 Y137.422 E49.5972
G1 X148.883 Y137.112 E49.6164
G1 X149.435 Y136.933 E49.6357
G1 X150.016 Y136.896 E49.6550
G1 X150.587 Y137.005 E49.6744
G1 X151.111 Y137.252 E49.6936
G1 X151.556 Y137.619 E49.7128
G1 X151.893 Y138.084 E49.7319
G1 X152.103 Y138.615 E49.7509
G1 X152.167 Y139.122 E49.7679
G1 X152.106 Y139.738 E49.7885
G1 X151.893 Y140.276 E49.8078
G1 X151.613 Y140.661 E49.8236
G0 X150.731 Y141.719 F5400
G1 X150.715 Y141.727 E49.8242 F3000
G1 X150.042 Y141.855 E49.8470
G1 X149.358 Y141.812 E49.8698
G1 X148.707 Y141.601 E49.8925
G1 X148.134 Y141.237 E49.9151
G1 X147.672 Y140.745 E49.9376
G1 X147.349 Y140.158 E49.9598
G1 X147.183 Y139.513 E49.9820
G1 X147.183 Y138.847 E50.0041
G1 X147.349 Y138.202 E50.0263
G1 X147.672 Y137.615 E50.0486
G1 X148.134 Y137.123 E50.0710
G1 X148.707 Y136.759 E50.0936
G1 X149.358 Y136.548 E50.1163
G1 X150.042 Y136.505 E50.1391
G1 X150.715 Y136.633 E50.1619
G1 X151.331 Y136.923 E50.1846
G1 X151.854 Y137.355 E50.2071
G1 X152.248 Y137.899 E50.2295
G1 X152.494 Y138.520 E50.2517
G1 X152.570 Y139.117 E50.2717
G1 X152.499 Y139.828 E50.2955
G1 X152.248 Y140.461 E50.3181
G1 X151.854 Y141.005 E50.3405
G1 X151.332 Y141.436 E50.3630
G1 X150.911 Y141.634 E50.3784
G0 X162.776 Y144.330 F5400
G0 X164.906 Y144.948
;segType:HShell
G1 X170.670 Y139.343 E50.6458 F3000
G1 X170.670 Y138.794
G1 X164.672 Y144.626 E50.9241
;segType:Perimeter
G0 X164.516 Y145.211 F5400
G1 X164.348 Y145.891 E50.9474 F2100
G1 X164.590 Y146.536 E50.9703
G1 X164.672 Y147.180 E50.9919
G1 X164.584 Y147.874 E51.0152
G1 X164.326 Y148.525 E51.0385
G1 X163.914 Y149.092 E51.0618
G1 X163.373 Y149.539 E51.0851
G1 X162.737 Y149.839 E51.1085
G1 X162.046 Y149.971 E51.1319
G1 X161.344 Y149.926 E51.1553
G1 X160.675 Y149.709 E51.1787
G1 X160.082 Y149.333 E51.2021
G1 X159.602 Y148.822 E51.2254
G1 X159.265 Y148.207 E51.2487
G1 X159.091 Y147.530 E51.2720
G1 X159.091 Y146.830 E51.2952
G1 X159.265 Y146.152 E51.3185
G1 X159.602 Y145.538 E51.3418
G1 X160.082 Y145.027 E51.3651
G1 X160.675 Y144.651 E51.3885
G1 X161.344 Y144.433 E51.4119
G1 X162.046 Y144.389 E51.4353
G1 X162.737 Y144.521 E51.4587
G1 X163.373 Y144.821 E51.4821
G1 X163.914 Y145.268 E51.5054
G1 X164.292 Y145.789 E51.5268
G1 X164.964 Y146.041
;segType:Loop
G0 X165.028 Y146.810 F5400
G1 X165.075 Y147.180 E51.5392 F3000
G1 X164.975 Y147.969 E51.5657
G1 X164.681 Y148.710 E51.5922
G1 X164.212 Y149.356 E51.6188
G1 X163.594 Y149.868 E51.6454
G1 X162.865 Y150.211 E51.6722
G1 X162.072 Y150.362 E51.6991
G1 X161.266 Y150.311 E51.7259
G1 X160.500 Y150.062 E51.7527
G1 X159.821 Y149.632 E51.7795
G1 X159.273 Y149.048 E51.8061
G1 X158.889 Y148.348 E51.8326
G1 X158.691 Y147.577 E51.8591
G1 X158.691 Y146.783 E51.8855
G1 X158.889 Y146.011 E51.9120
G1 X159.273 Y145.312 E51.9386
G1 X159.821 Y144.729 E51.9652
G1 X160.500 Y144.298 E51.9919
G1 X161.267 Y144.049 E52.0188
G1 X162.072 Y143.998 E52.0456
G1 X162.865 Y144.149 E52.0724
G1 X163.594 Y144.492 E52.0992
G1 X164.212 Y145.003 E52.1259
G1 X164.684 Y145.654 E52.1527
G1 X164.982 Y146.444 E52.1807
G1 X165.004 Y146.617 E52.1865
G0 X165.384 Y147.919 F5400
G1 X165.366 Y148.064 E52.1914 F3000
G1 X165.036 Y148.895 E52.2211
G1 X164.509 Y149.621 E52.2510
G1 X163.814 Y150.196 E52.2810
G1 X162.993 Y150.583 E52.3112
G1 X162.098 Y150.753 E52.3415
G1 X161.189 Y150.696 E52.3718
G1 X160.324 Y150.415 E52.4020
G1 X159.560 Y149.930 E52.4321
G1 X158.943 Y149.274 E52.4621
G1 X158.513 Y148.489 E52.4918
G1 X158.291 Y147.625 E52.5215
G1 X158.291 Y146.735 E52.5511
G1 X158.513 Y145.870 E52.5808
G1 X158.943 Y145.086 E52.6106
G1 X159.560 Y144.430 E52.6405
G1 X160.324 Y143.945 E52.6706
G1 X161.189 Y143.664 E52.7009
G1 X162.098 Y143.607 E52.7312
G1 X162.993 Y143.777 E52.7615
G1 X163.814 Y144.164 E52.7916
G1 X164.509 Y144.739 E52.8217
G1 X165.042 Y145.472 E52.8518
G1 X165.373 Y146.352 E52.8831
G1 X165.478 Y147.180 E52.9108
G1 X165.409 Y147.726 E52.9291
;segType:HShell
G0 X152.061 Y106.304 F5400
G1 X157.593 Y100.925 E53.1858 F3000
G1 X157.866 Y101.210
G1 X152.295 Y106.626 E53.4442
;segType:Perimeter
G0 X151.728 Y106.644 F5400
G1 X151.559 Y107.325 E53.4675 F2100
G1 X151.717 Y107.743 E53.4824
G1 X151.772 Y108.180 E53.4970
G1 X151.712 Y108.650 E53.5128
G1 X151.537 Y109.092 E53.5286
G1 X151.258 Y109.476 E53.5444
G1 X150.891 Y109.780 E53.5602
G1 X150.459 Y109.983 E53.5761
G1 X149.990 Y110.072 E53.5920
G1 X149.513 Y110.042 E53.6079
G1 X149.058 Y109.895 E53.6238
G1 X148.656 Y109.639 E53.6396
G1 X148.330 Y109.292 E53.6555
G1 X148.101 Y108.876 E53.6713
G1 X147.983 Y108.417 E53.6870
G1 X147.983 Y107.943 E53.7028
G1 X148.101 Y107.484 E53.7186
G1 X148.330 Y107.068 E53.7344
G1 X148.656 Y106.721 E53.7502
G1 X149.058 Y106.465 E53.7660
G1 X149.513 Y106.318 E53.7819
G1 X149.990 Y106.288 E53.7978
G1 X150.459 Y106.377 E53.8137
G1 X150.891 Y106.581 E53.8296
G1 X151.258 Y106.884 E53.8455
G1 X151.504 Y107.222 E53.8594
G1 X152.175 Y107.474
;segType:Loop
G0 X152.163 Y108.276 F5400
G1 X152.103 Y108.745 E53.8751 F3000
G1 X151.893 Y109.276 E53.8941
G1 X151.556 Y109.740 E53.9132
G1 X151.111 Y110.108 E53.9323
G1 X150.587 Y110.355 E53.9516
G1 X150.016 Y110.464 E53.9709
G1 X149.435 Y110.427 E53.9903
G1 X148.883 Y110.248 E54.0096
G1 X148.395 Y109.938 E54.0288
G1 X148.001 Y109.519 E54.0480
G1 X147.725 Y109.017 E54.0670
G1 X147.583 Y108.465 E54.0860
G1 X147.583 Y107.895 E54.1049
G1 X147.725 Y107.343 E54.1239
G1 X148.001 Y106.841 E54.1429
G1 X148.395 Y106.422 E54.1620
G1 X148.883 Y106.112 E54.1813
G1 X149.435 Y105.933 E54.2006
G1 X150.016 Y105.896 E54.2199
G1 X150.587 Y106.005 E54.2393
G1 X151.111 Y106.252 E54.2586
G1 X151.556 Y106.620 E54.2777
G1 X151.896 Y107.088 E54.2970
G1 X152.108 Y107.651 E54.3170
G1 X152.163 Y108.083 E54.3315
G0 X152.256 Y109.442 F5400
G1 X152.248 Y109.461 E54.3322 F3000
G1 X151.853 Y110.005 E54.3546
G1 X151.332 Y110.436 E54.3771
G1 X150.715 Y110.727 E54.3997
G1 X150.042 Y110.855 E54.4225
G1 X149.358 Y110.812 E54.4453
G1 X148.707 Y110.601 E54.4681
