; GCode generated by CraftWare

G28 X0 Y0
G28 Z0

M190 S65 ;set bed temp (wait)
M109 S240 ;set head temp (wait)
; ------------------------------------
; Layer #0
; ------------------------------------
G21 ; mm
G90 ; abs
G92 E0 ; reset extr
M106 S0
;segType:Skirt
G0 F1200 E-1.0000
G0 F300 Z0.200
G0 X103.805 Y129.226 F5400
G0 F1200 E0.0000
G1 X103.992 Y129.407 E0.0087 F3000
G1 X104.492 Y129.769 E0.0292
G1 X155.508 Y129.769 E1.7260
G1 X157.008 Y128.322 E1.7953
G1 X157.196 Y128.021 E1.8071
G1 X157.196 Y101.979 E2.6732
G1 X155.695 Y100.532 E2.7426
G1 X155.383 Y100.352 E2.7546
G1 X104.367 Y100.352 E4.4514
G1 X102.867 Y101.799 E4.5207
G1 X102.679 Y102.100 E4.5325
G1 X102.679 Y128.141 E5.3986
G1 X103.805 Y129.226 E5.4506
G1 X103.805 Y129.588 E5.4626
G1 X103.992 Y129.769 E5.4713
G1 X104.492 Y130.130 E5.4918
G1 X155.508 Y130.130 E7.1886
G1 X157.508 Y128.201 E7.2811
G1 X157.571 Y127.780 E7.2952
G1 X157.571 Y101.979 E8.1534
G1 X155.570 Y100.050 E8.2458
G1 X155.133 Y99.990 E8.2605
G1 X104.367 Y99.990 E9.9489
G1 X102.366 Y101.919 E10.0414
G1 X102.304 Y102.341 E10.0556
G1 X102.304 Y128.141 E10.9137
G1 X103.805 Y129.588 E10.9830
G0 F1200 E9.9830
G0 X104.698 Y127.951 F5400
G0 X105.592 Y126.314
G0 F1200 E10.9830
;segType:Loop
G1 X105.592 Y103.076 E11.7559 F3000
G1 X154.408 Y103.076 E13.3796
G1 X154.408 Y126.924 E14.1728
G1 X105.592 Y126.924 E15.7964
G1 X105.592 Y126.496 E15.8107
;segType:Perimeter
G0 X105.817 Y127.006 F5400
G1 X105.192 Y127.256 E15.8330 F2100
G1 X105.192 Y102.690 E16.6501
G1 X154.808 Y102.690 E18.3003
G1 X154.808 Y127.310 E19.1192
G1 X105.248 Y127.310 E20.7676
G1 X105.507 Y126.708
;segType:Loop
G0 X105.992 Y125.319 F5400
G1 X105.992 Y103.461 E21.4945 F3000
G1 X154.008 Y103.461 E23.0915
G1 X154.008 Y126.539 E23.8591
G1 X105.992 Y126.539 E25.4561
G1 X105.992 Y125.500 E25.4907
;segType:HShell
G0 X153.490 Y126.346 F5400
G1 X153.808 Y126.040 E25.5053 F3000
G1 X153.808 Y125.528
G1 X152.959 Y126.346 E25.5445
G1 X152.428 Y126.346
G1 X153.808 Y125.016 E25.6083
G1 X153.808 Y124.504
G1 X151.897 Y126.346 E25.6965
G1 X151.366 Y126.346
G1 X153.808 Y123.992 E25.8093
G1 X153.808 Y123.480
G1 X150.835 Y126.346 E25.9467
G1 X150.304 Y126.346
G1 X153.808 Y122.968 E26.1086
G1 X153.808 Y122.456
G1 X149.773 Y126.346 E26.2950
G1 X149.242 Y126.346
G1 X153.808 Y121.944 E26.5059
G1 X153.808 Y121.432
G1 X148.711 Y126.346 E26.7414
G1 X148.180 Y126.346
G1 X153.808 Y120.920 E27.0014
G1 X153.808 Y120.408
G1 X147.649 Y126.346 E27.2860
G1 X147.118 Y126.346
G1 X153.808 Y119.896 E27.5950
G1 X153.808 Y119.384
G1 X146.587 Y126.346 E27.9287
G1 X146.056 Y126.346
G1 X153.808 Y118.872 E28.2868
G1 X153.808 Y118.360
G1 X145.525 Y126.346 E28.6695
G1 X144.994 Y126.346
G1 X153.808 Y117.848 E29.0767
G1 X153.808 Y117.335
G1 X144.463 Y126.346 E29.5085
G1 X143.932 Y126.346
G1 X153.808 Y116.823 E29.9648
G1 X153.808 Y116.311
G1 X143.401 Y126.346 E30.4456
G1 X142.870 Y126.346
G1 X153.808 Y115.799 E30.9510
G1 X153.808 Y115.287
G1 X142.339 Y126.346 E31.4809
G1 X141.808 Y126.346
G1 X153.808 Y114.775 E32.0353
G1 X153.808 Y114.263
G1 X141.277 Y126.346 E32.6143
G1 X140.746 Y126.346
G1 X153.808 Y113.751 E33.2178
G1 X153.808 Y113.239
G1 X140.215 Y126.346 E33.8458
G1 X139.684 Y126.346
G1 X153.808 Y112.727 E34.4984
G1 X153.808 Y112.215
G1 X139.153 Y126.346 E35.1755
G1 X138.622 Y126.346
G1 X153.808 Y111.703 E35.8771
G1 X153.808 Y111.191
G1 X138.091 Y126.346 E36.6033
G1 X137.560 Y126.346
G1 X153.808 Y110.679 E37.3540
G1 X153.808 Y110.167
G1 X137.029 Y126.346 E38.1293
G1 X136.498 Y126.346
G1 X153.808 Y109.655 E38.9290
G1 X153.808 Y109.143
G1 X135.967 Y126.346 E39.7534
G1 X135.436 Y126.346
G1 X153.808 Y108.631 E40.6022
G1 X153.808 Y108.119
G1 X134.905 Y126.346 E41.4756
G1 X134.374 Y126.346
G1 X153.808 Y107.607 E42.3735
G1 X153.808 Y107.095
G1 X133.843 Y126.346 E43.2960
G1 X133.312 Y126.346
G1 X153.808 Y106.583 E44.2430
G1 X153.808 Y106.071
G1 X132.780 Y126.346 E45.2145
G1 X132.249 Y126.346
G1 X153.808 Y105.559 E46.2105
G1 X153.808 Y105.047
G1 X131.718 Y126.346 E47.2311
G1 X131.187 Y126.346
G1 X153.808 Y104.535 E48.2763
G1 X153.808 Y104.023
G1 X130.656 Y126.346 E49.3459
G1 X130.125 Y126.346
G1 X153.659 Y103.654 E50.4333
G1 X153.128 Y103.654
G1 X129.594 Y126.346 E51.5206
G1 X129.063 Y126.346
G1 X152.597 Y103.654 E52.6079
G1 X152.066 Y103.654
G1 X128.532 Y126.346 E53.6953
G1 X128.001 Y126.346
G1 X151.535 Y103.654 E54.7826
G1 X151.004 Y103.654
G1 X127.470 Y126.346 E55.8700
G1 X126.939 Y126.346
G1 X150.473 Y103.654 E56.9573
G1 X149.942 Y103.654
G1 X126.408 Y126.346 E58.0447
G1 X125.877 Y126.346
G1 X149.411 Y103.654 E59.1320
G1 X148.880 Y103.654
G1 X125.346 Y126.346 E60.2193
G1 X124.815 Y126.346
G1 X148.349 Y103.654 E61.3067
G1 X147.818 Y103.654
G1 X124.284 Y126.346 E62.3940
G1 X123.753 Y126.346
G1 X147.287 Y103.654 E63.4814
G1 X146.756 Y103.654
G1 X123.222 Y126.346 E64.5687
G1 X122.691 Y126.346
G1 X146.225 Y103.654 E65.6560
G1 X145.694 Y103.654
G1 X122.160 Y126.346 E66.7434
G1 X121.629 Y126.346
G1 X145.163 Y103.654 E67.8307
G1 X144.632 Y103.654
G1 X121.098 Y126.346 E68.9181
G1 X120.567 Y126.346
G1 X144.101 Y103.654 E70.0054
G1 X143.570 Y103.654
G1 X120.036 Y126.346 E71.0927
G1 X119.505 Y126.346
G1 X143.039 Y103.654 E72.1801
G1 X142.508 Y103.654
G1 X118.974 Y126.346 E73.2674
G1 X118.443 Y126.346
G1 X141.977 Y103.654 E74.3548
G1 X141.446 Y103.654
G1 X117.912 Y126.346 E75.4421
G1 X117.381 Y126.346
G1 X140.915 Y103.654 E76.5295
G1 X140.384 Y103.654
G1 X116.850 Y126.346 E77.6168
G1 X116.319 Y126.346
G1 X139.853 Y103.654 E78.7041
G1 X139.322 Y103.654
G1 X115.788 Y126.346 E79.7915
G1 X115.257 Y126.346
G1 X138.791 Y103.654 E80.8788
G1 X138.260 Y103.654
G1 X114.726 Y126.346 E81.9662
G1 X114.195 Y126.346
G1 X137.729 Y103.654 E83.0535
G1 X137.198 Y103.654
G1 X113.664 Y126.346 E84.1408
G1 X113.133 Y126.346
G1 X136.667 Y103.654 E85.2282
G1 X136.136 Y103.654
G1 X112.602 Y126.346 E86.3155
G1 X112.071 Y126.346
G1 X135.605 Y103.654 E87.4029
G1 X135.074 Y103.654
G1 X111.540 Y126.346 E88.4902
G1 X111.008 Y126.346
G1 X134.543 Y103.654 E89.5775
G1 X134.012 Y103.654
G1 X110.477 Y126.346 E90.6649
G1 X109.946 Y126.346
G1 X133.481 Y103.654 E91.7522
G1 X132.950 Y103.654
G1 X109.415 Y126.346 E92.8396
G1 X108.884 Y126.346
G1 X132.418 Y103.654 E93.9269
G1 X131.887 Y103.654
G1 X108.353 Y126.346 E95.0143
G1 X107.822 Y126.346
G1 X131.356 Y103.654 E96.1016
G1 X130.825 Y103.654
G1 X107.291 Y126.346 E97.1889
G1 X106.760 Y126.346
G1 X130.294 Y103.654 E98.2763
G1 X129.763 Y103.654
G1 X106.229 Y126.346 E99.3636
G1 X106.192 Y125.870
G1 X129.232 Y103.654 E100.4281
G1 X128.701 Y103.654
G1 X106.192 Y125.358 E101.4681
G1 X106.192 Y124.846
G1 X128.170 Y103.654 E102.4836
G1 X127.639 Y103.654
G1 X106.192 Y124.334 E103.4745
G1 X106.192 Y123.822
G1 X127.108 Y103.654 E104.4409
G1 X126.577 Y103.654
G1 X106.192 Y123.310 E105.3827
G1 X106.192 Y122.798
G1 X126.046 Y103.654 E106.3000
G1 X125.515 Y103.654
G1 X106.192 Y122.286 E107.1928
G1 X106.192 Y121.774
G1 X124.984 Y103.654 E108.0611
G1 X124.453 Y103.654
G1 X106.192 Y121.261 E108.9048
G1 X106.192 Y120.749
G1 X123.922 Y103.654 E109.7239
G1 X123.391 Y103.654
G1 X106.192 Y120.237 E110.5186
G1 X106.192 Y119.725
G1 X122.860 Y103.654 E111.2887
G1 X122.329 Y103.654
G1 X106.192 Y119.213 E112.0342
G1 X106.192 Y118.701
G1 X121.798 Y103.654 E112.7553
G1 X121.267 Y103.654
G1 X106.192 Y118.189 E113.4518
G1 X106.192 Y117.677
G1 X120.736 Y103.654 E114.1237
G1 X120.205 Y103.654
G1 X106.192 Y117.165 E114.7712
G1 X106.192 Y116.653
G1 X119.674 Y103.654 E115.3941
G1 X119.143 Y103.654
G1 X106.192 Y116.141 E115.9924
G1 X106.192 Y115.629
G1 X118.612 Y103.654 E116.5663
G1 X118.081 Y103.654
G1 X106.192 Y115.117 E117.1155
G1 X106.192 Y114.605
G1 X117.550 Y103.654 E117.6403
G1 X117.019 Y103.654
G1 X106.192 Y114.093 E118.1405
G1 X106.192 Y113.581
G1 X116.488 Y103.654 E118.6162
G1 X115.957 Y103.654
G1 X106.192 Y113.069 E119.0674
G1 X106.192 Y112.557
G1 X115.426 Y103.654 E119.4940
G1 X114.895 Y103.654
G1 X106.192 Y112.045 E119.8961
G1 X106.192 Y111.533
G1 X114.364 Y103.654 E120.2736
G1 X113.833 Y103.654
G1 X106.192 Y111.021 E120.6266
G1 X106.192 Y110.509
G1 X113.302 Y103.654 E120.9551
G1 X112.771 Y103.654
G1 X106.192 Y109.997 E121.2590
G1 X106.192 Y109.485
G1 X112.240 Y103.654 E121.5384
G1 X111.709 Y103.654
G1 X106.192 Y108.973 E121.7933
G1 X106.192 Y108.461
G1 X111.178 Y103.654 E122.0237
G1 X110.646 Y103.654
G1 X106.192 Y107.949 E122.2295
G1 X106.192 Y107.437
G1 X110.115 Y103.654 E122.4107
G1 X109.584 Y103.654
G1 X106.192 Y106.925 E122.5675
G1 X106.192 Y106.413
G1 X109.053 Y103.654 E122.6997
G1 X108.522 Y103.654
G1 X106.192 Y105.901 E122.8073
G1 X106.192 Y105.389
G1 X107.991 Y103.654 E122.8905
G1 X107.460 Y103.654
G1 X106.192 Y104.877 E122.9490
G1 X106.192 Y104.365
G1 X106.929 Y103.654 E122.9831
G1 X106.398 Y103.654
G1 X106.192 Y103.853 E122.9926
; ------------------------------------
; Layer #1
; ------------------------------------
G21 ; mm
G90 ; abs
G92 E0 ; reset extr
M106 S0
G0 F1200 E-1.0000
G0 F300 Z0.400
G0 X117.753 Y113.190 F5400
G0 X121.607 Y116.302
G0 F1200 E0.0000
;segType:HShell
G1 X120.700 Y115.428 E0.0419 F3000
;segType:Loop
G0 X118.667 Y114.924 F5400
G1 X113.255 Y114.924 E0.2219 F3000
G1 X111.600 Y113.269 E0.2998
G1 X111.600 Y104.581 E0.5887
G1 X148.400 Y104.581 E1.8127
G1 X148.400 Y113.269 E2.1017
G1 X146.745 Y114.924 E2.1795
G1 X140.652 Y114.924 E2.3821
G1 X139.901 Y115.053 E2.4075
G1 X139.899 Y117.005 E2.4724
G1 X139.840 Y117.863 E2.5010
G1 X139.673 Y118.688 E2.5290
G1 X139.400 Y119.484 E2.5570
G1 X139.025 Y120.238 E2.5850
G1 X138.570 Y120.919 E2.6123
G1 X138.017 Y121.550 E2.6402
G1 X137.387 Y122.102 E2.6680
G1 X136.691 Y122.567 E2.6959
G1 X135.942 Y122.937 E2.7237
G1 X135.151 Y123.205 E2.7515
G1 X134.336 Y123.368 E2.7791
G1 X133.305 Y123.424 E2.8134
G1 X126.614 Y123.424 E3.0360
G1 X125.646 Y123.364 E3.0682
G1 X124.849 Y123.205 E3.0952
G1 X124.058 Y122.937 E3.1230
G1 X123.309 Y122.567 E3.1508
G1 X122.613 Y122.102 E3.1787
G1 X121.983 Y121.550 E3.2065
G1 X121.430 Y120.919 E3.2344
G1 X120.963 Y120.220 E3.2624
G1 X120.591 Y119.466 E3.2903
G1 X120.321 Y118.669 E3.3183
G1 X120.156 Y117.843 E3.3464
G1 X120.100 Y116.984 E3.3750
G1 X120.100 Y114.924 E3.4435
G1 X118.855 Y114.924 E3.4849
G0 X118.120 Y115.129 F5400
G0 X119.833 Y115.182
G0 X120.268 Y115.559
;segType:Perimeter
G1 X119.644 Y115.310 E3.5073 F2100
G1 X113.085 Y115.310 E3.7254
G1 X111.200 Y113.425 E3.8141
G1 X111.200 Y104.195 E4.1211
G1 X148.800 Y104.195 E5.3716
G1 X148.800 Y113.425 E5.6786
G1 X146.915 Y115.310 E5.7673
G1 X140.688 Y115.310 E5.9744
G1 X140.300 Y115.376 E5.9875
G1 X140.299 Y117.018 E6.0420
G1 X140.237 Y117.912 E6.0719
G1 X140.061 Y118.786 E6.1015
G1 X139.772 Y119.628 E6.1311
G1 X139.375 Y120.426 E6.1608
G1 X138.892 Y121.149 E6.1897
G1 X138.306 Y121.818 E6.2193
G1 X137.637 Y122.405 E6.2489
G1 X136.897 Y122.899 E6.2785
G1 X136.100 Y123.292 E6.3080
G1 X135.258 Y123.578 E6.3376
G1 X134.388 Y123.751 E6.3671
G1 X133.317 Y123.810 E6.4028
G1 X126.601 Y123.810 E6.6262
G1 X125.592 Y123.747 E6.6598
G1 X124.742 Y123.578 E6.6886
G1 X123.900 Y123.292 E6.7182
G1 X123.103 Y122.899 E6.7477
G1 X122.363 Y122.405 E6.7773
G1 X121.694 Y121.818 E6.8069
G1 X121.108 Y121.149 E6.8365
G1 X120.613 Y120.409 E6.8661
G1 X120.219 Y119.610 E6.8958
G1 X119.932 Y118.766 E6.9254
G1 X119.759 Y117.892 E6.9550
G1 X119.700 Y116.996 E6.9849
G1 X119.700 Y115.364 E7.0392
G1 X119.441 Y114.762
;segType:Loop
G0 X117.635 Y114.538 F5400
G1 X113.425 Y114.538 E7.1792 F3000
G1 X112.000 Y113.113 E7.2462
G1 X112.000 Y104.967 E7.5172
G1 X128.849 Y104.967 E8.0776
G1 X128.490 Y105.009 E8.0896
G1 X127.506 Y105.242 E8.1232
G1 X126.557 Y105.587 E8.1568
G1 X125.655 Y106.040 E8.1904
G1 X124.814 Y106.594 E8.2239
G1 X124.043 Y107.240 E8.2574
G1 X123.353 Y107.971 E8.2908
G1 X122.754 Y108.776 E8.3241
G1 X122.253 Y109.644 E8.3575
G1 X121.857 Y110.563 E8.3908
G1 X121.570 Y111.521 E8.4240
G1 X121.397 Y112.505 E8.4573
G1 X121.339 Y113.502 E8.4905
G1 X121.397 Y114.500 E8.5237
G1 X121.570 Y115.484 E8.5570
G1 X121.857 Y116.442 E8.5902
G1 X122.253 Y117.361 E8.6235
G1 X122.754 Y118.229 E8.6568
G1 X123.353 Y119.034 E8.6902
G1 X124.043 Y119.765 E8.7236
G1 X124.814 Y120.411 E8.7571
G1 X125.655 Y120.965 E8.7906
G1 X126.559 Y121.419 E8.8242
G1 X127.540 Y121.772 E8.8589
G1 X128.495 Y121.997 E8.8915
G1 X129.485 Y122.113 E8.9247
G1 X130.498 Y122.114 E8.9584
G1 X131.496 Y121.998 E8.9918
G1 X132.456 Y121.772 E9.0246
G1 X133.441 Y121.419 E9.0594
G1 X134.345 Y120.965 E9.0931
G1 X135.186 Y120.411 E9.1266
G1 X135.957 Y119.765 E9.1600
G1 X136.647 Y119.034 E9.1934
G1 X137.246 Y118.229 E9.2268
G1 X137.746 Y117.361 E9.2601
G1 X138.143 Y116.442 E9.2934
G1 X138.430 Y115.484 E9.3267
G1 X138.603 Y114.500 E9.3599
G1 X138.661 Y113.502 E9.3932
G1 X138.605 Y112.526 E9.4257
G1 X138.424 Y111.500 E9.4603
G1 X138.143 Y110.562 E9.4929
G1 X137.746 Y109.644 E9.5262
G1 X137.246 Y108.776 E9.5595
G1 X136.647 Y107.971 E9.5929
G1 X135.957 Y107.240 E9.6263
G1 X135.186 Y106.594 E9.6598
G1 X134.345 Y106.040 E9.6933
G1 X133.443 Y105.587 E9.7268
G1 X132.494 Y105.242 E9.7604
G1 X131.510 Y105.009 E9.7940
G1 X131.151 Y104.967 E9.8061
G1 X148.000 Y104.967 E10.3665
G1 X148.000 Y113.113 E10.6374
G1 X146.575 Y114.538 E10.7044
G1 X140.617 Y114.538 E10.9026
G1 X139.501 Y114.730 E10.9403
G1 X139.499 Y116.992 E11.0155
G1 X139.442 Y117.813 E11.0429
G1 X139.285 Y118.590 E11.0693
G1 X139.028 Y119.340 E11.0956
G1 X138.676 Y120.049 E11.1220
G1 X138.248 Y120.689 E11.1476
G1 X137.729 Y121.282 E11.1738
G1 X137.137 Y121.800 E11.1999
G1 X136.485 Y122.236 E11.2260
G1 X135.784 Y122.582 E11.2520
G1 X135.044 Y122.833 E11.2780
G1 X134.284 Y122.984 E11.3038
G1 X133.294 Y123.038 E11.3367
G1 X126.627 Y123.038 E11.5585
G1 X125.699 Y122.980 E11.5894
G1 X124.956 Y122.833 E11.6146
G1 X124.216 Y122.582 E11.6406
G1 X123.515 Y122.236 E11.6666
G1 X122.863 Y121.800 E11.6927
G1 X122.272 Y121.282 E11.7189
G1 X121.752 Y120.689 E11.7451
G1 X121.313 Y120.032 E11.7713
G1 X120.963 Y119.323 E11.7976
G1 X120.709 Y118.572 E11.8240
G1 X120.554 Y117.794 E11.8504
G1 X120.500 Y116.972 E11.8778
G1 X120.500 Y114.538 E11.9587
G1 X117.823 Y114.538 E12.0478
G0 X119.833 Y115.182 F5400
G0 X125.189 Y119.943
G0 X126.808 Y120.878
G0 X128.605 Y121.415
G0 X130.462 Y121.523
G0 X132.247 Y121.425
G1 X131.424 Y121.618 E12.0759 F3000
G1 X130.475 Y121.728 E12.1077
G1 X129.510 Y121.728 E12.1398
G1 X128.567 Y121.617 E12.1714
G1 X127.658 Y121.403 E12.2024
G1 X126.722 Y121.066 E12.2355
G1 X125.861 Y120.633 E12.2676
G1 X125.059 Y120.106 E12.2995
G1 X124.323 Y119.488 E12.3315
G1 X123.665 Y118.791 E12.3634
G1 X123.092 Y118.022 E12.3952
G1 X122.614 Y117.193 E12.4271
G1 X122.235 Y116.314 E12.4589
G1 X121.961 Y115.398 E12.4907
G1 X121.795 Y114.457 E12.5225
G1 X121.739 Y113.502 E12.5543
G1 X121.795 Y112.548 E12.5861
G1 X121.961 Y111.607 E12.6179
G1 X122.235 Y110.691 E12.6497
G1 X122.614 Y109.812 E12.6815
G1 X123.092 Y108.983 E12.7134
G1 X123.665 Y108.214 E12.7452
G1 X124.323 Y107.517 E12.7771
G1 X125.059 Y106.899 E12.8091
G1 X125.861 Y106.372 E12.8410
G1 X126.721 Y105.940 E12.8730
G1 X127.625 Y105.611 E12.9050
G1 X128.562 Y105.389 E12.9370
G1 X129.518 Y105.277 E12.9691
G1 X130.482 Y105.277 E13.0011
G1 X131.438 Y105.389 E13.0331
G1 X132.375 Y105.611 E13.0652
G1 X133.279 Y105.940 E13.0972
G1 X134.139 Y106.372 E13.1292
G1 X134.941 Y106.899 E13.1611
G1 X135.677 Y107.517 E13.1930
G1 X136.335 Y108.214 E13.2249
G1 X136.907 Y108.983 E13.2568
G1 X137.386 Y109.812 E13.2887
G1 X137.765 Y110.691 E13.3205
G1 X138.033 Y111.587 E13.3516
G1 X138.207 Y112.569 E13.3848
G1 X138.261 Y113.502 E13.4159
G1 X138.205 Y114.457 E13.4477
G1 X138.039 Y115.398 E13.4795
G1 X137.765 Y116.314 E13.5113
G1 X137.386 Y117.193 E13.5431
G1 X136.907 Y118.022 E13.5749
G1 X136.335 Y118.791 E13.6068
G1 X135.677 Y119.488 E13.6387
G1 X134.941 Y120.106 E13.6706
G1 X134.139 Y120.633 E13.7026
G1 X133.278 Y121.066 E13.7346
G1 X132.427 Y121.372 E13.7647
;segType:Perimeter
G0 X133.701 Y120.946 F5400
G1 X133.062 Y120.732 E13.7871 F2100
G1 X132.221 Y121.034 E13.8169
G1 X131.352 Y121.238 E13.8465
G1 X130.451 Y121.343 E13.8767
G1 X129.534 Y121.342 E13.9072
G1 X128.639 Y121.237 E13.9372
G1 X127.776 Y121.033 E13.9667
G1 X126.885 Y120.713 E13.9982
G1 X126.067 Y120.302 E14.0286
G1 X125.303 Y119.800 E14.0590
G1 X124.603 Y119.212 E14.0894
G1 X123.976 Y118.548 E14.1198
G1 X123.431 Y117.815 E14.1502
G1 X122.975 Y117.024 E14.1805
G1 X122.613 Y116.186 E14.2109
G1 X122.351 Y115.312 E14.2413
G1 X122.193 Y114.413 E14.2716
G1 X122.140 Y113.502 E14.3020
G1 X122.193 Y112.592 E14.3323
G1 X122.351 Y111.693 E14.3626
G1 X122.613 Y110.819 E14.3930
G1 X122.975 Y109.981 E14.4234
G1 X123.431 Y109.190 E14.4537
G1 X123.976 Y108.457 E14.4841
G1 X124.603 Y107.793 E14.5145
G1 X125.303 Y107.205 E14.5449
G1 X126.067 Y106.703 E14.5753
G1 X126.884 Y106.293 E14.6057
G1 X127.744 Y105.980 E14.6361
G1 X128.634 Y105.769 E14.6665
G1 X129.542 Y105.663 E14.6970
G1 X130.458 Y105.663 E14.7274
G1 X131.366 Y105.769 E14.7578
G1 X132.256 Y105.980 E14.7883
G1 X133.116 Y106.293 E14.8187
G1 X133.933 Y106.703 E14.8491
G1 X134.697 Y107.205 E14.8795
G1 X135.397 Y107.793 E14.9099
G1 X136.024 Y108.457 E14.9403
G1 X136.569 Y109.190 E14.9707
G1 X137.025 Y109.980 E15.0010
G1 X137.387 Y110.819 E15.0314
G1 X137.643 Y111.673 E15.0610
G1 X137.809 Y112.613 E15.0928
G1 X137.860 Y113.502 E15.1224
G1 X137.807 Y114.413 E15.1528
G1 X137.649 Y115.312 E15.1831
G1 X137.387 Y116.186 E15.2135
G1 X137.025 Y117.025 E15.2438
G1 X136.569 Y117.815 E15.2742
G1 X136.024 Y118.548 E15.3046
G1 X135.397 Y119.212 E15.3350
G1 X134.697 Y119.800 E15.3654
G1 X133.933 Y120.302 E15.3958
G1 X133.165 Y120.688 E15.4243
G1 X132.903 Y121.288
;segType:HShell
G0 X128.170 Y122.119 F5400
G1 X128.924 Y122.845 E15.4591 F3000
G1 X129.455 Y122.845
G1 X128.815 Y122.229 E15.4887
G1 X129.420 Y122.300
G1 X129.986 Y122.845 E15.5148
G1 X130.517 Y122.845
G1 X129.958 Y122.307 E15.5406
G1 X130.489 Y122.307
G1 X131.048 Y122.845 E15.5664
G1 X131.579 Y122.845
G1 X130.966 Y122.254 E15.5948
G1 X131.439 Y122.199
G1 X132.110 Y122.845 E15.6257
G1 X132.641 Y122.845
G1 X131.876 Y122.107 E15.6611
G1 X132.302 Y122.007
G1 X133.172 Y122.845 E15.7013
G1 X133.681 Y122.824
G1 X132.709 Y121.887 E15.7461
G1 X133.096 Y121.748
G1 X134.183 Y122.797 E15.7964
G1 X134.633 Y122.718
G1 X133.483 Y121.609 E15.8495
G1 X133.836 Y121.438
G1 X135.064 Y122.621 E15.9062
G1 X135.457 Y122.488
G1 X134.185 Y121.262 E15.9649
G1 X134.526 Y121.079
G1 X135.834 Y122.340 E16.0254
G1 X136.186 Y122.167
G1 X134.842 Y120.871 E16.0875
G1 X135.158 Y120.664
G1 X136.520 Y121.978 E16.1504
G1 X136.834 Y121.768
G1 X135.457 Y120.440 E16.2141
G1 X135.741 Y120.202
G1 X137.132 Y121.544 E16.2784
G1 X137.410 Y121.300
G1 X136.024 Y119.964 E16.3424
G1 X136.285 Y119.703
G1 X137.675 Y121.043 E16.4066
G1 X137.919 Y120.766
G1 X136.538 Y119.435 E16.4704
G1 X136.791 Y119.167
G1 X138.151 Y120.478 E16.5332
G1 X138.359 Y120.167
G1 X137.015 Y118.870 E16.5954
G1 X137.236 Y118.572
G1 X138.556 Y119.844 E16.6563
G1 X138.728 Y119.498
G1 X137.452 Y118.268 E16.7152
G1 X137.642 Y117.939
G1 X138.886 Y119.139 E16.7728
G1 X139.018 Y118.754
G1 X137.832 Y117.610 E16.8276
G1 X138.005 Y117.265
G1 X139.130 Y118.350 E16.8796
G1 X139.217 Y117.921
G1 X138.161 Y116.903 E16.9284
G1 X138.317 Y116.542
G1 X139.266 Y117.457 E16.9722
G1 X139.299 Y116.976
G1 X138.439 Y116.148 E17.0119
G1 X138.558 Y115.751
G1 X139.299 Y116.465 E17.0461
G1 X139.300 Y115.953
G1 X138.659 Y115.336 E17.0757
G1 X138.736 Y114.898
G1 X139.300 Y115.442 E17.1018
G1 X139.301 Y114.930
G1 X138.806 Y114.454 E17.1246
G1 X138.835 Y113.969
G1 X139.433 Y114.546 E17.1523
G1 X139.884 Y114.468
G1 X138.860 Y113.482 E17.1995
G1 X138.829 Y112.939
G1 X140.334 Y114.391 E17.2691
G1 X140.818 Y114.345
G1 X138.782 Y112.382 E17.3632
G1 X138.674 Y111.766
G1 X141.349 Y114.345 E17.4868
G1 X141.880 Y114.345
G1 X138.512 Y111.097 E17.6424
G1 X138.268 Y110.351
G1 X142.411 Y114.345 E17.8338
G1 X142.942 Y114.345
G1 X137.861 Y109.446 E18.0686
G0 X147.222 Y105.160 F5400
G1 X147.800 Y105.717 E18.0953 F3000
G1 X147.800 Y106.229
G1 X146.691 Y105.160 E18.1465
G1 X146.160 Y105.160
G1 X147.800 Y106.741 E18.2223
G1 X147.800 Y107.253
G1 X145.629 Y105.160 E18.3226
G1 X145.098 Y105.160
G1 X147.800 Y107.765 E18.4474
G1 X147.800 Y108.277
G1 X144.567 Y105.160 E18.5968
G1 X144.036 Y105.160
G1 X147.800 Y108.789 E18.7707
G1 X147.800 Y109.301
G1 X143.505 Y105.160 E18.9692
G1 X142.974 Y105.160
G1 X147.800 Y109.813 E19.1921
G1 X147.800 Y110.325
G1 X142.443 Y105.160 E19.4397
G1 X141.912 Y105.160
G1 X147.800 Y110.837 E19.7117
G1 X147.800 Y111.349
G1 X141.381 Y105.160 E20.0083
G1 X140.850 Y105.160
G1 X147.800 Y111.861 E20.3294
G1 X147.800 Y112.373
G1 X140.319 Y105.160 E20.6751
G1 X139.788 Y105.160
G1 X147.800 Y112.885 E21.0452
G1 X147.616 Y113.220
G1 X139.257 Y105.160 E21.4315
G1 X138.726 Y105.160
G1 X147.355 Y113.480 E21.8302
G1 X147.095 Y113.741
G1 X138.195 Y105.160 E22.2414
G1 X137.664 Y105.160
G1 X146.834 Y114.002 E22.6651
G1 X146.573 Y114.262
G1 X137.133 Y105.160 E23.1013
G1 X136.602 Y105.160
G1 X146.128 Y114.345 E23.5414
G1 X145.597 Y114.345
G1 X136.071 Y105.160 E23.9816
G1 X135.539 Y105.160
G1 X145.066 Y114.345 E24.4218
G1 X144.535 Y114.345
G1 X135.008 Y105.160 E24.8619
G1 X134.477 Y105.160
G1 X144.004 Y114.345 E25.3021
G1 X143.473 Y114.345
G1 X136.970 Y108.075 E25.6026
G0 X135.203 Y106.371 F5400
G1 X133.946 Y105.160 E25.6606 F3000
G1 X133.415 Y105.160
G1 X133.840 Y105.569 E25.6803
G0 X126.691 Y105.332 F5400
G1 X126.512 Y105.160 E25.6885 F3000
G1 X125.981 Y105.160
G1 X126.322 Y105.488 E25.7043
G1 X125.972 Y105.663
G1 X125.450 Y105.160 E25.7284
G1 X124.919 Y105.160
G1 X125.623 Y105.839 E25.7610
G1 X125.301 Y106.040
G1 X124.388 Y105.160 E25.8031
G1 X123.857 Y105.160
G1 X124.985 Y106.247 E25.8553
G1 X124.672 Y106.457
G1 X123.326 Y105.160 E25.9174
G1 X122.795 Y105.160
G1 X124.388 Y106.695 E25.9910
G1 X124.104 Y106.934
G1 X122.264 Y105.160 E26.0761
G1 X121.733 Y105.160
G1 X123.829 Y107.181 E26.1729
G1 X123.576 Y107.449
G1 X121.202 Y105.160 E26.2826
G1 X120.671 Y105.160
G1 X123.323 Y107.717 E26.4051
G1 X123.086 Y108.000
G1 X120.140 Y105.160 E26.5413
G1 X119.609 Y105.160
G1 X122.864 Y108.298 E26.6917
G1 X122.642 Y108.596
G1 X119.078 Y105.160 E26.8563
G1 X118.547 Y105.160
G1 X122.444 Y108.917 E27.0364
G1 X122.254 Y109.246
G1 X118.016 Y105.160 E27.2322
G1 X117.485 Y105.160
G1 X122.066 Y109.577 E27.4439
G1 X121.910 Y109.938
G1 X116.954 Y105.160 E27.6728
G1 X116.423 Y105.160
G1 X121.754 Y110.300 E27.9191
G1 X121.614 Y110.677
G1 X115.892 Y105.160 E28.1836
G1 X115.361 Y105.160
G1 X121.495 Y111.075 E28.4670
G1 X121.376 Y111.472
G1 X114.830 Y105.160 E28.7695
G1 X114.298 Y105.160
G1 X121.299 Y111.909 E29.0929
G1 X121.222 Y112.347
G1 X113.767 Y105.160 E29.4373
G1 X113.236 Y105.160
G1 X121.178 Y112.817 E29.8042
G1 X121.150 Y113.302
G1 X112.705 Y105.160 E30.1944
G1 X112.200 Y105.184
G1 X121.157 Y113.820 E30.6082
G1 X121.188 Y114.363
G1 X112.200 Y105.696 E31.0235
G1 X112.200 Y106.208
G1 X120.639 Y114.345 E31.4134
G1 X120.108 Y114.345
G1 X112.200 Y106.720 E31.7788
G1 X112.200 Y107.232
G1 X119.577 Y114.345 E32.1196
G1 X119.046 Y114.345
G1 X112.200 Y107.744 E32.4359
G1 X112.200 Y108.256
G1 X118.515 Y114.345 E32.7277
G1 X117.984 Y114.345
G1 X112.200 Y108.768 E32.9950
G1 X112.200 Y109.280
G1 X117.453 Y114.345 E33.2377
G1 X116.922 Y114.345
G1 X112.200 Y109.792 E33.4558
G1 X112.200 Y110.304
G1 X116.391 Y114.345 E33.6494
G1 X115.860 Y114.345
G1 X112.200 Y110.816 E33.8185
G1 X112.200 Y111.329
G1 X115.329 Y114.345 E33.9631
G1 X114.798 Y114.345
G1 X112.200 Y111.841 E34.0831
G1 X112.200 Y112.353
G1 X114.267 Y114.345 E34.1786
G1 X113.736 Y114.345
G1 X112.200 Y112.865 E34.2496
G0 X120.700 Y114.404 F5400
G1 X121.274 Y114.958 E34.2761 F3000
G1 X121.391 Y115.583
G1 X120.700 Y114.916 E34.3081
G0 X121.939 Y117.135 F5400
G1 X120.700 Y115.940 E34.3653 F3000
G1 X120.700 Y116.452
G1 X122.503 Y118.191 E34.4486
G0 X127.464 Y121.950 F5400
G1 X128.393 Y122.845 E34.4915 F3000
G1 X127.862 Y122.845
G1 X126.617 Y121.646 E34.5490
G0 X125.552 Y121.130 F5400
G1 X127.331 Y122.845 E34.6311 F3000
G1 X126.800 Y122.845
G1 X120.700 Y116.964 E34.9130
G1 X120.736 Y117.510
G1 X126.243 Y122.821 E35.1674
G1 X125.667 Y122.777
G1 X120.819 Y118.103 E35.3914
G1 X120.989 Y118.779
G1 X124.995 Y122.641 E35.5765
G0 X121.332 Y119.622 F5400
G1 X124.137 Y122.326 E35.7061 F3000
; ------------------------------------
; Layer #2
; ------------------------------------
G21 ; mm
G90 ; abs
G92 E0 ; reset extr
M106 S0
G0 F1200 E-1.0000
G0 F300 Z0.600
G0 X123.010 Y118.114 F5400
G0 X121.882 Y113.903
G0 X121.319 Y111.797
G0 F1200 E0.0000
;segType:HShell
G1 X118.675 Y114.345 E0.1221 F3000
G1 X119.206 Y114.345
G1 X121.210 Y112.414 E0.2147
G1 X121.170 Y112.964
G1 X119.737 Y114.345 E0.2809
G1 X120.268 Y114.345
G1 X121.139 Y113.506 E0.3211
G1 X121.167 Y113.991
G1 X120.700 Y114.441 E0.3426
G1 X120.700 Y114.953
G1 X121.195 Y114.476 E0.3655
G1 X121.267 Y114.918
G1 X120.700 Y115.465 E0.3917
;segType:Perimeter
G0 X120.268 Y115.559 F5400
G1 X119.644 Y115.310 E0.4141 F2100
G1 X113.085 Y115.310 E0.6322
G1 X111.200 Y113.425 E0.7209
G1 X111.200 Y104.195 E1.0279
G1 X148.800 Y104.195 E2.2784
G1 X148.800 Y113.425 E2.5854
G1 X146.915 Y115.310 E2.6741
G1 X140.300 Y115.310 E2.8941
G1 X140.300 Y116.996 E2.9502
G1 X140.241 Y117.892 E2.9800
G1 X140.068 Y118.766 E3.0097
G1 X139.781 Y119.610 E3.0393
G1 X139.387 Y120.409 E3.0689
G1 X138.892 Y121.149 E3.0986
G1 X138.306 Y121.818 E3.1282
G1 X137.637 Y122.405 E3.1578
G1 X136.897 Y122.899 E3.1873
G1 X136.100 Y123.292 E3.2169
G1 X135.258 Y123.578 E3.2465
G1 X134.387 Y123.751 E3.2760
G1 X133.493 Y123.810 E3.3058
G1 X126.802 Y123.810 E3.5284
G1 X126.475 Y123.807 E3.5392
G1 X125.582 Y123.745 E3.5690
G1 X124.742 Y123.578 E3.5975
G1 X123.900 Y123.292 E3.6270
G1 X123.103 Y122.899 E3.6566
G1 X122.363 Y122.405 E3.6862
G1 X121.694 Y121.818 E3.7158
G1 X121.108 Y121.149 E3.7454
G1 X120.613 Y120.409 E3.7750
G1 X120.219 Y119.610 E3.8046
G1 X119.932 Y118.766 E3.8343
G1 X119.759 Y117.892 E3.8639
G1 X119.700 Y116.996 E3.8938
G1 X119.700 Y115.364 E3.9481
G1 X119.441 Y114.762
;segType:Loop
G0 X118.667 Y114.924 F5400
G1 X113.255 Y114.924 E4.1281 F3000
G1 X111.600 Y113.269 E4.2059
G1 X111.600 Y104.581 E4.4949
G1 X148.400 Y104.581 E5.7189
G1 X148.400 Y113.269 E6.0078
G1 X146.745 Y114.924 E6.0857
G1 X139.900 Y114.924 E6.3133
G1 X139.900 Y116.984 E6.3819
G1 X139.844 Y117.843 E6.4105
G1 X139.679 Y118.669 E6.4385
G1 X139.409 Y119.466 E6.4665
G1 X139.037 Y120.220 E6.4945
G1 X138.570 Y120.919 E6.5224
G1 X138.017 Y121.550 E6.5503
G1 X137.387 Y122.102 E6.5782
G1 X136.691 Y122.567 E6.6060
G1 X135.942 Y122.937 E6.6338
G1 X135.151 Y123.205 E6.6616
G1 X134.332 Y123.368 E6.6893
G1 X133.480 Y123.424 E6.7178
G1 X126.803 Y123.424 E6.9398
G1 X126.491 Y123.422 E6.9502
G1 X125.637 Y123.362 E6.9787
G1 X124.849 Y123.205 E7.0054
G1 X124.058 Y122.937 E7.0332
G1 X123.309 Y122.567 E7.0610
G1 X122.613 Y122.102 E7.0888
G1 X121.983 Y121.550 E7.1167
G1 X121.430 Y120.919 E7.1446
G1 X120.963 Y120.220 E7.1725
G1 X120.591 Y119.466 E7.2005
G1 X120.321 Y118.669 E7.2285
G1 X120.156 Y117.843 E7.2565
G1 X120.100 Y116.984 E7.2851
G1 X120.100 Y114.924 E7.3537
G1 X118.855 Y114.924 E7.3951
G0 X117.635 Y114.538 F5400
G1 X113.425 Y114.538 E7.5351 F3000
G1 X112.000 Y113.113 E7.6021
G1 X112.000 Y104.967 E7.8731
G1 X128.849 Y104.967 E8.4335
G1 X128.490 Y105.009 E8.4455
G1 X127.506 Y105.242 E8.4791
G1 X126.557 Y105.587 E8.5127
G1 X125.655 Y106.040 E8.5463
G1 X124.814 Y106.594 E8.5798
G1 X124.043 Y107.240 E8.6132
G1 X123.353 Y107.971 E8.6467
G1 X122.754 Y108.776 E8.6800
G1 X122.253 Y109.644 E8.7134
G1 X121.857 Y110.563 E8.7466
G1 X121.570 Y111.521 E8.7799
G1 X121.397 Y112.505 E8.8131
G1 X121.339 Y113.502 E8.8464
G1 X121.397 Y114.500 E8.8796
G1 X121.570 Y115.484 E8.9129
G1 X121.857 Y116.442 E8.9461
G1 X122.253 Y117.361 E8.9794
G1 X122.754 Y118.229 E9.0127
G1 X123.353 Y119.034 E9.0461
G1 X124.043 Y119.765 E9.0795
G1 X124.814 Y120.411 E9.1130
G1 X125.655 Y120.965 E9.1465
G1 X126.559 Y121.419 E9.1801
G1 X127.557 Y121.776 E9.2154
G1 X128.498 Y121.998 E9.2475
G1 X129.482 Y122.113 E9.2805
G1 X130.495 Y122.114 E9.3142
G1 X131.489 Y122.000 E9.3474
G1 X132.438 Y121.777 E9.3799
G1 X133.440 Y121.419 E9.4153
G1 X134.345 Y120.965 E9.4489
G1 X135.186 Y120.411 E9.4824
G1 X135.957 Y119.765 E9.5159
G1 X136.647 Y119.034 E9.5493
G1 X137.246 Y118.229 E9.5827
G1 X137.746 Y117.361 E9.6160
G1 X138.143 Y116.442 E9.6493
G1 X138.430 Y115.484 E9.6826
G1 X138.603 Y114.500 E9.7158
G1 X138.661 Y113.502 E9.7490
G1 X138.605 Y112.536 E9.7812
G1 X138.421 Y111.490 E9.8166
G1 X138.143 Y110.563 E9.8488
G1 X137.746 Y109.644 E9.8821
G1 X137.246 Y108.776 E9.9154
G1 X136.647 Y107.971 E9.9487
G1 X135.957 Y107.240 E9.9822
G1 X135.186 Y106.594 E10.0156
G1 X134.345 Y106.040 E10.0491
G1 X133.443 Y105.587 E10.0827
G1 X132.494 Y105.242 E10.1163
G1 X131.510 Y105.009 E10.1499
G1 X131.151 Y104.967 E10.1619
G1 X148.000 Y104.967 E10.7223
G1 X148.000 Y113.113 E10.9933
G1 X146.575 Y114.538 E11.0603
G1 X139.500 Y114.538 E11.2956
G1 X139.500 Y116.972 E11.3766
G1 X139.446 Y117.794 E11.4040
G1 X139.291 Y118.572 E11.4304
G1 X139.037 Y119.323 E11.4567
G1 X138.687 Y120.032 E11.4831
G1 X138.248 Y120.689 E11.5093
G1 X137.729 Y121.282 E11.5355
G1 X137.137 Y121.800 E11.5617
G1 X136.485 Y122.236 E11.5878
G1 X135.784 Y122.582 E11.6138
G1 X135.044 Y122.833 E11.6398
G1 X134.278 Y122.985 E11.6657
G1 X133.466 Y123.038 E11.6928
G1 X126.804 Y123.038 E11.9144
G1 X126.507 Y123.036 E11.9243
G1 X125.693 Y122.979 E11.9514
G1 X124.956 Y122.833 E11.9764
G1 X124.216 Y122.582 E12.0024
G1 X123.515 Y122.236 E12.0284
G1 X122.863 Y121.800 E12.0545
G1 X122.272 Y121.282 E12.0806
G1 X121.752 Y120.689 E12.1068
G1 X121.313 Y120.032 E12.1331
G1 X120.963 Y119.323 E12.1594
G1 X120.709 Y118.572 E12.1858
G1 X120.554 Y117.794 E12.2122
G1 X120.500 Y116.972 E12.2396
G1 X120.500 Y114.538 E12.3205
G1 X117.823 Y114.538 E12.4096
G0 X119.833 Y115.182 F5400
G0 X125.189 Y119.943
G0 X126.809 Y120.878
G0 X128.608 Y121.416
G0 X130.459 Y121.524
G0 X132.229 Y121.429
G1 X131.417 Y121.620 E12.4373 F3000
G1 X130.471 Y121.729 E12.4690
G1 X129.506 Y121.727 E12.5011
G1 X128.569 Y121.618 E12.5325
G1 X127.675 Y121.407 E12.5630
G1 X126.722 Y121.066 E12.5967
G1 X125.861 Y120.633 E12.6287
G1 X125.059 Y120.106 E12.6607
G1 X124.323 Y119.488 E12.6926
G1 X123.665 Y118.791 E12.7245
G1 X123.092 Y118.022 E12.7564
G1 X122.614 Y117.193 E12.7882
G1 X122.235 Y116.314 E12.8201
G1 X121.961 Y115.398 E12.8519
G1 X121.795 Y114.457 E12.8837
G1 X121.739 Y113.502 E12.9155
G1 X121.795 Y112.548 E12.9472
G1 X121.961 Y111.607 E12.9790
G1 X122.235 Y110.691 E13.0109
G1 X122.614 Y109.812 E13.0427
G1 X123.092 Y108.983 E13.0745
G1 X123.665 Y108.214 E13.1064
G1 X124.323 Y107.517 E13.1383
G1 X125.059 Y106.899 E13.1702
G1 X125.861 Y106.372 E13.2022
G1 X126.721 Y105.940 E13.2342
G1 X127.625 Y105.611 E13.2662
G1 X128.562 Y105.389 E13.2982
G1 X129.518 Y105.277 E13.3302
G1 X130.482 Y105.277 E13.3623
G1 X131.438 Y105.389 E13.3943
G1 X132.375 Y105.611 E13.4263
G1 X133.279 Y105.940 E13.4583
G1 X134.139 Y106.372 E13.4903
G1 X134.941 Y106.899 E13.5223
G1 X135.677 Y107.517 E13.5542
G1 X136.335 Y108.214 E13.5861
G1 X136.907 Y108.983 E13.6180
G1 X137.386 Y109.812 E13.6498
G1 X137.765 Y110.691 E13.6816
G1 X138.030 Y111.577 E13.7124
G1 X138.207 Y112.580 E13.7463
G1 X138.261 Y113.502 E13.7770
G1 X138.205 Y114.457 E13.8088
G1 X138.039 Y115.398 E13.8406
G1 X137.765 Y116.314 E13.8724
G1 X137.386 Y117.193 E13.9043
G1 X136.907 Y118.022 E13.9361
G1 X136.335 Y118.791 E13.9680
G1 X135.677 Y119.488 E13.9999
G1 X134.941 Y120.106 E14.0318
G1 X134.139 Y120.633 E14.0638
G1 X133.278 Y121.066 E14.0958
G1 X132.409 Y121.376 E14.1265
;segType:Perimeter
G0 X133.700 Y120.947 F5400
G1 X133.062 Y120.731 E14.1489 F2100
G1 X132.203 Y121.038 E14.1792
G1 X131.346 Y121.239 E14.2085
G1 X130.448 Y121.343 E14.2386
G1 X129.530 Y121.342 E14.2691
G1 X128.641 Y121.237 E14.2989
G1 X127.792 Y121.037 E14.3279
G1 X126.885 Y120.713 E14.3599
G1 X126.067 Y120.302 E14.3904
G1 X125.303 Y119.800 E14.4208
G1 X124.603 Y119.212 E14.4512
G1 X123.976 Y118.548 E14.4816
G1 X123.431 Y117.815 E14.5119
G1 X122.975 Y117.024 E14.5423
G1 X122.613 Y116.186 E14.5727
G1 X122.351 Y115.312 E14.6030
G1 X122.193 Y114.413 E14.6334
G1 X122.140 Y113.502 E14.6637
G1 X122.193 Y112.592 E14.6941
G1 X122.351 Y111.693 E14.7244
G1 X122.613 Y110.819 E14.7548
G1 X122.975 Y109.981 E14.7851
G1 X123.431 Y109.190 E14.8155
G1 X123.976 Y108.457 E14.8459
G1 X124.603 Y107.793 E14.8763
G1 X125.303 Y107.205 E14.9067
G1 X126.067 Y106.703 E14.9371
G1 X126.884 Y106.293 E14.9675
G1 X127.744 Y105.980 E14.9979
G1 X128.634 Y105.769 E15.0283
G1 X129.542 Y105.663 E15.0587
G1 X130.458 Y105.663 E15.0892
G1 X131.366 Y105.769 E15.1196
G1 X132.256 Y105.980 E15.1500
G1 X133.116 Y106.293 E15.1804
G1 X133.933 Y106.703 E15.2109
G1 X134.697 Y107.205 E15.2413
G1 X135.397 Y107.793 E15.2717
G1 X136.024 Y108.457 E15.3021
G1 X136.569 Y109.190 E15.3324
G1 X137.025 Y109.980 E15.3628
G1 X137.387 Y110.819 E15.3932
G1 X137.640 Y111.663 E15.4225
G1 X137.809 Y112.623 E15.4549
G1 X137.860 Y113.502 E15.4842
G1 X137.807 Y114.413 E15.5145
G1 X137.649 Y115.312 E15.5449
G1 X137.387 Y116.186 E15.5752
G1 X137.025 Y117.025 E15.6056
G1 X136.569 Y117.815 E15.6360
G1 X136.024 Y118.548 E15.6663
G1 X135.397 Y119.212 E15.6967
G1 X134.697 Y119.800 E15.7271
G1 X133.933 Y120.302 E15.7575
G1 X133.165 Y120.688 E15.7861
G1 X132.902 Y121.288
;segType:HShell
G0 X131.212 Y122.226 F5400
G1 X130.570 Y122.845 E15.8158 F3000
G1 X130.039 Y122.845
G1 X130.609 Y122.295 E15.8421
G1 X130.066 Y122.307
G1 X129.508 Y122.845 E15.8679
G1 X128.977 Y122.845
G1 X129.536 Y122.306 E15.8938
G1 X129.055 Y122.257
G1 X128.446 Y122.845 E15.9220
G1 X127.915 Y122.845
G1 X128.582 Y122.202 E15.9528
G1 X128.143 Y122.113
G1 X127.384 Y122.845 E15.9879
G1 X126.853 Y122.845
G1 X127.717 Y122.012 E16.0278
G1 X127.309 Y121.893
G1 X126.336 Y122.831 E16.0728
G1 X125.841 Y122.796
G1 X126.922 Y121.754 E16.1227
G1 X126.535 Y121.616
G1 X125.388 Y122.721 E16.1757
G1 X124.954 Y122.627
G1 X126.180 Y121.446 E16.2323
G1 X125.831 Y121.270
G1 X124.561 Y122.494 E16.2909
G1 X124.182 Y122.348
G1 X125.488 Y121.089 E16.3513
G1 X125.173 Y120.881
G1 X123.831 Y122.175 E16.4133
G1 X123.494 Y121.987
G1 X124.857 Y120.673 E16.4763
G1 X124.556 Y120.451
G1 X123.181 Y121.778 E16.5398
G1 X122.881 Y121.555
G1 X124.273 Y120.213 E16.6041
G1 X123.989 Y119.975
G1 X122.603 Y121.311 E16.6682
G1 X122.336 Y121.056
G1 X123.726 Y119.715 E16.7324
G1 X123.473 Y119.447
G1 X122.093 Y120.779 E16.7962
G1 X121.858 Y120.492
G1 X123.220 Y119.179 E16.8592
G1 X122.996 Y118.884
G1 X121.650 Y120.181 E16.9213
G1 X121.451 Y119.862
G1 X122.774 Y118.586 E16.9824
G1 X122.557 Y118.283
G1 X121.279 Y119.515 E17.0414
G1 X121.118 Y119.158
G1 X122.367 Y117.954 E17.0991
G1 X122.177 Y117.625
G1 X120.987 Y118.773 E17.1541
G1 X120.872 Y118.371
G1 X122.002 Y117.282 E17.2063
G1 X121.846 Y116.920
G1 X120.787 Y117.942 E17.2553
G1 X120.734 Y117.481
G1 X121.690 Y116.558 E17.2995
G1 X121.566 Y116.166
G1 X120.702 Y116.999 E17.3394
G1 X120.700 Y116.489
G1 X121.447 Y115.769 E17.3739
G1 X121.345 Y115.356
G1 X120.700 Y115.977 E17.4037
G0 X122.806 Y109.902 F5400
G0 X124.874 Y106.321
G1 X126.078 Y105.160 E17.4593 F3000
G1 X125.547 Y105.160
G1 X116.020 Y114.345 E17.8995
G1 X115.489 Y114.345
G1 X125.016 Y105.160 E18.3397
G1 X124.485 Y105.160
G1 X114.958 Y114.345 E18.7798
G1 X114.427 Y114.345
G1 X123.954 Y105.160 E19.2200
G1 X123.423 Y105.160
G1 X113.896 Y114.345 E19.6602
G1 X113.439 Y114.274
G1 X122.892 Y105.160 E20.0969
G1 X122.361 Y105.160
G1 X113.178 Y114.014 E20.5212
G1 X112.917 Y113.753
G1 X121.830 Y105.160 E20.9330
G1 X121.299 Y105.160
G1 X112.657 Y113.492 E21.3323
G1 X112.396 Y113.232
G1 X120.768 Y105.160 E21.7191
G1 X120.237 Y105.160
G1 X112.200 Y112.909 E22.0904
G1 X112.200 Y112.396
G1 X119.706 Y105.160 E22.4372
G1 X119.175 Y105.160
G1 X112.200 Y111.884 E22.7594
G1 X112.200 Y111.372
G1 X118.644 Y105.160 E23.0571
G1 X118.113 Y105.160
G1 X112.200 Y110.860 E23.3303
G1 X112.200 Y110.348
G1 X117.582 Y105.160 E23.5789
G1 X117.051 Y105.160
G1 X112.200 Y109.836 E23.8030
G1 X112.200 Y109.324
G1 X116.520 Y105.160 E24.0026
G1 X115.989 Y105.160
G1 X112.200 Y108.812 E24.1776
G1 X112.200 Y108.300
G1 X115.458 Y105.160 E24.3282
G1 X114.926 Y105.160
G1 X112.200 Y107.788 E24.4541
G1 X112.200 Y107.276
G1 X114.395 Y105.160 E24.5556
G1 X113.864 Y105.160
G1 X112.200 Y106.764 E24.6324
G1 X112.200 Y106.252
G1 X113.333 Y105.160 E24.6848
G1 X112.802 Y105.160
G1 X112.200 Y105.740 E24.7126
G1 X112.200 Y105.228
G1 X112.271 Y105.160 E24.7159
G0 X122.107 Y109.500 F5400
G1 X117.082 Y114.345 E24.9481 F3000
G1 X116.551 Y114.345
G1 X122.968 Y108.158 E25.2446
G0 X126.609 Y105.160 F5400
G1 X126.211 Y105.544 E25.2630 F3000
G0 X121.479 Y111.130 F5400
G1 X118.144 Y114.345 E25.4171 F3000
G1 X117.613 Y114.345
G1 X121.714 Y110.391 E25.6065
G0 X125.189 Y107.062 F5400
G0 X126.808 Y106.127
G0 X128.600 Y105.591
G0 X130.469 Y105.482
G0 X132.312 Y105.807
G0 X134.029 Y106.548
G0 X146.289 Y114.345
G1 X147.800 Y112.888 E25.6764 F3000
G1 X147.800 Y112.376
G1 X145.757 Y114.345 E25.7707
G1 X145.226 Y114.345
G1 X147.800 Y111.864 E25.8896
G1 X147.800 Y111.352
G1 X144.695 Y114.345 E26.0331
G1 X144.164 Y114.345
G1 X147.800 Y110.840 E26.2010
G1 X147.800 Y110.328
G1 X143.633 Y114.345 E26.3936
G1 X143.102 Y114.345
G1 X147.800 Y109.816 E26.6106
G1 X147.800 Y109.304
G1 X142.571 Y114.345 E26.8522
G1 X142.040 Y114.345
G1 X147.800 Y108.792 E27.1183
G1 X147.800 Y108.280
G1 X141.509 Y114.345 E27.4089
G1 X140.978 Y114.345
G1 X147.800 Y107.768 E27.7241
G1 X147.800 Y107.256
G1 X140.447 Y114.345 E28.0638
G1 X139.916 Y114.345
G1 X147.800 Y106.744 E28.4281
G1 X147.800 Y106.232
G1 X139.385 Y114.345 E28.8168
G1 X138.810 Y114.388
G1 X147.800 Y105.720 E29.2322
G1 X147.800 Y105.208
G1 X138.842 Y113.845 E29.6461
G1 X138.851 Y113.324
G1 X147.319 Y105.160 E30.0373
G1 X146.788 Y105.160
G1 X138.823 Y112.839 E30.4053
G1 X138.779 Y112.370
G1 X146.257 Y105.160 E30.7508
G1 X145.726 Y105.160
G1 X138.702 Y111.932 E31.0754
G1 X138.625 Y111.495
G1 X145.195 Y105.160 E31.3789
G1 X144.664 Y105.160
G1 X138.510 Y111.093 E31.6633
G1 X138.391 Y110.696
G1 X144.133 Y105.160 E31.9285
G1 X143.602 Y105.160
G1 X138.253 Y110.316 E32.1757
G1 X138.097 Y109.955
G1 X143.071 Y105.160 E32.4054
G1 X142.540 Y105.160
G1 X137.941 Y109.593 E32.6179
G1 X137.755 Y109.261
G1 X142.009 Y105.160 E32.8145
G1 X141.478 Y105.160
G1 X137.565 Y108.932 E32.9952
G1 X137.368 Y108.610
G1 X140.947 Y105.160 E33.1606
G1 X140.416 Y105.160
G1 X137.146 Y108.312 E33.3116
G1 X136.924 Y108.014
G1 X139.885 Y105.160 E33.4484
G1 X139.354 Y105.160
G1 X136.689 Y107.729 E33.5715
G1 X136.436 Y107.461
G1 X138.823 Y105.160 E33.6818
G1 X138.292 Y105.160
G1 X136.183 Y107.193 E33.7792
G1 X135.909 Y106.945
G1 X137.761 Y105.160 E33.8648
G1 X137.230 Y105.160
G1 X135.625 Y106.706 E33.9389
G1 X135.341 Y106.468
G1 X136.698 Y105.160 E34.0016
G1 X136.167 Y105.160
G1 X135.029 Y106.257 E34.0542
G1 X134.714 Y106.049
G1 X135.636 Y105.160 E34.0968
G1 X135.105 Y105.160
G1 X134.393 Y105.847 E34.1298
G1 X134.044 Y105.671
G1 X134.574 Y105.160 E34.1543
G1 X134.043 Y105.160
G1 X133.694 Y105.496 E34.1704
G1 X133.327 Y105.339
G1 X133.512 Y105.160 E34.1790
G0 X136.728 Y109.093 F5400
G0 X137.564 Y110.759
G0 X138.599 Y115.616
G1 X139.300 Y114.940 E34.2114 F3000
G1 X139.300 Y114.428
G1 X138.721 Y114.986 E34.2381
G0 X136.170 Y118.662 F5400
G0 X132.578 Y121.932
G1 X131.632 Y122.845 E34.2819 F3000
G1 X131.101 Y122.845
G1 X131.863 Y122.110 E34.3171
G0 X133.923 Y120.465 F5400
G0 X135.983 Y118.820
G0 X138.043 Y117.175
G1 X139.300 Y115.964 E34.3752 F3000
G1 X139.300 Y115.452
G1 X138.383 Y116.335 E34.4175
G0 X134.525 Y121.080 F5400
G1 X132.694 Y122.845 E34.5021 F3000
G1 X132.163 Y122.845
G1 X133.422 Y121.631 E34.5603
G0 X134.364 Y122.771 F5400
G1 X139.176 Y118.132 E34.7826 F3000
G1 X139.263 Y117.535
G1 X133.777 Y122.824 E35.0360
G1 X133.225 Y122.845
G1 X139.298 Y116.989 E35.3167
G1 X139.300 Y116.476
G1 X137.466 Y118.244 E35.4014
G0 X138.999 Y118.814 F5400
G1 X135.043 Y122.628 E35.5842 F3000
G1 X135.913 Y122.301
G1 X138.646 Y119.666 E35.7104
; ------------------------------------
; Layer #3
; ------------------------------------
G21 ; mm
G90 ; abs
G92 E0 ; reset extr
M106 S255
G0 F1200 E-1.0000
G0 F300 Z0.800
G0 X130.478 Y121.885 F5400
G0 X126.657 Y121.209
G0 X123.538 Y118.889
G0 X122.093 Y116.395
G0 X118.667 Y114.924
G0 F1200 E0.0000
;segType:Loop
G1 X113.255 Y114.924 E0.1800 F3000
G1 X111.600 Y113.269 E0.2579
G1 X111.600 Y104.581 E0.5468
G1 X148.400 Y104.581 E1.7708
G1 X148.400 Y113.269 E2.0598
G1 X146.745 Y114.924 E2.1376
G1 X139.900 Y114.924 E2.3653
G1 X139.900 Y116.984 E2.4338
G1 X139.844 Y117.843 E2.4624
G1 X139.679 Y118.669 E2.4904
G1 X139.409 Y119.466 E2.5184
G1 X139.037 Y120.220 E2.5464
G1 X138.570 Y120.919 E2.5743
G1 X138.017 Y121.550 E2.6022
G1 X137.387 Y122.102 E2.6301
G1 X136.691 Y122.567 E2.6580
G1 X135.942 Y122.937 E2.6858
G1 X135.151 Y123.205 E2.7135
G1 X134.332 Y123.368 E2.7413
G1 X133.480 Y123.424 E2.7697
G1 X126.903 Y123.424 E2.9884
G1 X126.481 Y123.421 E3.0025
G1 X125.627 Y123.360 E3.0310
G1 X124.849 Y123.205 E3.0573
G1 X124.058 Y122.937 E3.0851
G1 X123.309 Y122.567 E3.1129
G1 X122.613 Y122.102 E3.1407
G1 X121.983 Y121.550 E3.1686
G1 X121.430 Y120.919 E3.1965
G1 X120.963 Y120.220 E3.2245
G1 X120.591 Y119.466 E3.2524
G1 X120.321 Y118.669 E3.2804
G1 X120.156 Y117.843 E3.3084
G1 X120.100 Y116.984 E3.3371
G1 X120.100 Y114.924 E3.4056
G1 X118.855 Y114.924 E3.4470
G0 X118.120 Y115.129 F5400
G0 X119.833 Y115.182
G0 X120.268 Y115.559
;segType:Perimeter
G1 X119.644 Y115.310 E3.4694 F2100
G1 X113.085 Y115.310 E3.6875
G1 X111.200 Y113.425 E3.7762
G1 X111.200 Y104.195 E4.0831
G1 X148.800 Y104.195 E5.3337
G1 X148.800 Y113.425 E5.6407
G1 X146.915 Y115.310 E5.7294
G1 X140.300 Y115.310 E5.9494
G1 X140.300 Y116.996 E6.0055
G1 X140.241 Y117.892 E6.0353
G1 X140.068 Y118.766 E6.0650
G1 X139.781 Y119.610 E6.0946
G1 X139.387 Y120.409 E6.1242
G1 X138.892 Y121.149 E6.1538
G1 X138.306 Y121.818 E6.1834
G1 X137.637 Y122.405 E6.2130
G1 X136.897 Y122.899 E6.2426
G1 X136.100 Y123.292 E6.2722
G1 X135.258 Y123.578 E6.3017
G1 X134.387 Y123.751 E6.3313
G1 X133.493 Y123.810 E6.3611
G1 X126.902 Y123.810 E6.5803
G1 X126.465 Y123.807 E6.5948
G1 X125.572 Y123.743 E6.6246
G1 X124.742 Y123.578 E6.6528
G1 X123.900 Y123.292 E6.6823
G1 X123.103 Y122.899 E6.7119
G1 X122.363 Y122.405 E6.7415
G1 X121.694 Y121.818 E6.7711
G1 X121.108 Y121.149 E6.8007
G1 X120.613 Y120.409 E6.8303
G1 X120.219 Y119.610 E6.8599
G1 X119.932 Y118.766 E6.8896
G1 X119.759 Y117.892 E6.9192
G1 X119.700 Y116.996 E6.9490
G1 X119.700 Y115.364 E7.0033
G1 X119.441 Y114.762
;segType:Loop
G0 X117.635 Y114.538 F5400
G1 X113.425 Y114.538 E7.1434 F3000
G1 X112.000 Y113.113 E7.2104
G1 X112.000 Y104.967 E7.4813
G1 X128.849 Y104.967 E8.0417
G1 X128.490 Y105.009 E8.0538
G1 X127.506 Y105.242 E8.0874
G1 X126.557 Y105.587 E8.1210
G1 X125.655 Y106.040 E8.1545
G1 X124.814 Y106.594 E8.1881
G1 X124.043 Y107.240 E8.2215
G1 X123.353 Y107.971 E8.2549
G1 X122.754 Y108.776 E8.2883
G1 X122.253 Y109.644 E8.3216
G1 X121.857 Y110.563 E8.3549
G1 X121.570 Y111.521 E8.3882
G1 X121.397 Y112.505 E8.4214
G1 X121.339 Y113.502 E8.4547
G1 X121.397 Y114.500 E8.4879
G1 X121.570 Y115.484 E8.5211
G1 X121.857 Y116.442 E8.5544
G1 X122.253 Y117.361 E8.5877
G1 X122.754 Y118.229 E8.6210
G1 X123.353 Y119.034 E8.6544
G1 X124.043 Y119.765 E8.6878
G1 X124.814 Y120.411 E8.7213
G1 X125.655 Y120.965 E8.7548
G1 X126.560 Y121.419 E8.7884
G1 X127.574 Y121.780 E8.8242
G1 X128.500 Y121.998 E8.8559
G1 X129.477 Y122.113 E8.8886
G1 X130.492 Y122.114 E8.9223
G1 X131.481 Y122.001 E8.9554
G1 X132.419 Y121.782 E8.9875
G1 X133.439 Y121.420 E9.0235
G1 X134.345 Y120.965 E9.0572
G1 X135.186 Y120.411 E9.0907
G1 X135.957 Y119.765 E9.1242
G1 X136.647 Y119.034 E9.1576
G1 X137.246 Y118.229 E9.1910
G1 X137.746 Y117.361 E9.2243
G1 X138.143 Y116.442 E9.2576
G1 X138.430 Y115.484 E9.2908
G1 X138.603 Y114.500 E9.3241
G1 X138.661 Y113.502 E9.3573
G1 X138.606 Y112.547 E9.3891
G1 X138.418 Y111.480 E9.4252
G1 X138.143 Y110.563 E9.4570
G1 X137.746 Y109.644 E9.4903
G1 X137.246 Y108.776 E9.5236
G1 X136.647 Y107.971 E9.5570
G1 X135.957 Y107.240 E9.5904
G1 X135.186 Y106.594 E9.6239
G1 X134.345 Y106.040 E9.6574
G1 X133.443 Y105.587 E9.6910
G1 X132.494 Y105.242 E9.7246
G1 X131.510 Y105.009 E9.7582
G1 X131.151 Y104.967 E9.7702
G1 X148.000 Y104.967 E10.3306
G1 X148.000 Y113.113 E10.6016
G1 X146.575 Y114.538 E10.6686
G1 X139.500 Y114.538 E10.9039
G1 X139.500 Y116.972 E10.9848
G1 X139.446 Y117.794 E11.0123
G1 X139.291 Y118.572 E11.0386
G1 X139.037 Y119.323 E11.0650
G1 X138.687 Y120.032 E11.0913
G1 X138.248 Y120.689 E11.1176
G1 X137.729 Y121.282 E11.1438
G1 X137.137 Y121.800 E11.1699
G1 X136.485 Y122.236 E11.1960
G1 X135.784 Y122.582 E11.2221
G1 X135.044 Y122.833 E11.2480
G1 X134.278 Y122.985 E11.2740
G1 X133.466 Y123.038 E11.3011
G1 X126.904 Y123.038 E11.5193
G1 X126.497 Y123.036 E11.5329
G1 X125.683 Y122.977 E11.5600
G1 X124.956 Y122.833 E11.5846
G1 X124.216 Y122.582 E11.6106
G1 X123.515 Y122.236 E11.6366
G1 X122.863 Y121.800 E11.6627
G1 X122.272 Y121.282 E11.6889
G1 X121.752 Y120.689 E11.7151
G1 X121.313 Y120.032 E11.7414
G1 X120.963 Y119.323 E11.7677
G1 X120.709 Y118.572 E11.7940
G1 X120.554 Y117.794 E11.8204
G1 X120.500 Y116.972 E11.8478
G1 X120.500 Y114.538 E11.9288
G1 X117.823 Y114.538 E12.0178
G0 X119.833 Y115.182 F5400
G0 X125.189 Y119.943
G0 X126.809 Y120.878
G0 X128.610 Y121.416
G0 X130.456 Y121.524
G0 X132.211 Y121.434
G1 X131.410 Y121.621 E12.0452 F3000
G1 X130.468 Y121.729 E12.0767
G1 X129.502 Y121.727 E12.1089
G1 X128.572 Y121.618 E12.1400
G1 X127.691 Y121.411 E12.1701
G1 X126.723 Y121.066 E12.2043
G1 X125.861 Y120.633 E12.2364
G1 X125.059 Y120.106 E12.2683
G1 X124.323 Y119.488 E12.3002
G1 X123.665 Y118.791 E12.3321
G1 X123.092 Y118.022 E12.3640
G1 X122.614 Y117.193 E12.3959
G1 X122.235 Y116.314 E12.4277
G1 X121.961 Y115.398 E12.4595
G1 X121.795 Y114.457 E12.4913
G1 X121.739 Y113.502 E12.5231
G1 X121.795 Y112.548 E12.5549
G1 X121.961 Y111.607 E12.5867
G1 X122.235 Y110.691 E12.6185
G1 X122.614 Y109.812 E12.6503
G1 X123.092 Y108.983 E12.6821
G1 X123.665 Y108.214 E12.7140
G1 X124.323 Y107.517 E12.7459
G1 X125.059 Y106.899 E12.7778
G1 X125.861 Y106.372 E12.8098
G1 X126.721 Y105.940 E12.8418
G1 X127.625 Y105.611 E12.8738
G1 X128.562 Y105.389 E12.9058
G1 X129.518 Y105.277 E12.9378
G1 X130.482 Y105.277 E12.9699
G1 X131.438 Y105.389 E13.0019
G1 X132.375 Y105.611 E13.0339
G1 X133.279 Y105.940 E13.0660
G1 X134.139 Y106.372 E13.0979
G1 X134.941 Y106.899 E13.1299
G1 X135.677 Y107.517 E13.1618
G1 X136.335 Y108.214 E13.1937
G1 X136.907 Y108.983 E13.2256
G1 X137.386 Y109.812 E13.2574
G1 X137.765 Y110.691 E13.2893
G1 X138.027 Y111.567 E13.3197
G1 X138.208 Y112.590 E13.3542
G1 X138.261 Y113.502 E13.3846
G1 X138.205 Y114.457 E13.4164
G1 X138.039 Y115.398 E13.4482
G1 X137.765 Y116.314 E13.4800
G1 X137.386 Y117.193 E13.5119
G1 X136.907 Y118.022 E13.5437
G1 X136.335 Y118.791 E13.5756
G1 X135.677 Y119.488 E13.6075
G1 X134.941 Y120.106 E13.6394
G1 X134.139 Y120.633 E13.6714
G1 X133.277 Y121.066 E13.7034
G1 X132.390 Y121.381 E13.7347
;segType:Perimeter
G0 X133.700 Y120.947 F5400
G1 X133.062 Y120.731 E13.7571 F2100
G1 X132.186 Y121.043 E13.7881
G1 X131.339 Y121.240 E13.8170
G1 X130.445 Y121.343 E13.8469
G1 X129.526 Y121.341 E13.8775
G1 X128.643 Y121.238 E13.9070
G1 X127.808 Y121.042 E13.9356
G1 X126.885 Y120.713 E13.9682
G1 X126.067 Y120.302 E13.9986
G1 X125.303 Y119.800 E14.0290
G1 X124.603 Y119.212 E14.0594
G1 X123.976 Y118.548 E14.0898
G1 X123.431 Y117.815 E14.1202
G1 X122.975 Y117.024 E14.1505
G1 X122.613 Y116.186 E14.1809
G1 X122.351 Y115.312 E14.2112
G1 X122.193 Y114.413 E14.2416
G1 X122.140 Y113.502 E14.2719
G1 X122.193 Y112.592 E14.3023
G1 X122.351 Y111.693 E14.3326
G1 X122.613 Y110.819 E14.3630
G1 X122.975 Y109.981 E14.3934
G1 X123.431 Y109.190 E14.4237
G1 X123.976 Y108.457 E14.4541
G1 X124.603 Y107.793 E14.4845
G1 X125.303 Y107.205 E14.5149
G1 X126.067 Y106.703 E14.5453
G1 X126.884 Y106.293 E14.5757
G1 X127.744 Y105.980 E14.6061
G1 X128.634 Y105.769 E14.6365
G1 X129.542 Y105.663 E14.6670
G1 X130.458 Y105.663 E14.6974
G1 X131.366 Y105.769 E14.7278
G1 X132.256 Y105.980 E14.7583
G1 X133.116 Y106.293 E14.7887
G1 X133.933 Y106.703 E14.8191
G1 X134.697 Y107.205 E14.8495
G1 X135.397 Y107.793 E14.8799
G1 X136.024 Y108.457 E14.9103
G1 X136.569 Y109.190 E14.9407
G1 X137.025 Y109.980 E14.9710
G1 X137.387 Y110.819 E15.0014
G1 X137.637 Y111.653 E15.0303
G1 X137.810 Y112.633 E15.0635
G1 X137.860 Y113.502 E15.0924
G1 X137.807 Y114.413 E15.1228
G1 X137.649 Y115.312 E15.1531
G1 X137.387 Y116.186 E15.1835
G1 X137.025 Y117.025 E15.2138
G1 X136.569 Y117.815 E15.2442
G1 X136.024 Y118.548 E15.2746
G1 X135.397 Y119.212 E15.3050
G1 X134.697 Y119.800 E15.3354
G1 X133.933 Y120.302 E15.3658
G1 X133.165 Y120.688 E15.3943
G1 X132.901 Y121.288
;segType:Infill
G0 X132.906 Y122.845 F5400
G1 X132.392 Y121.988 E15.4276 F3750
G1 X132.756 Y121.871 E15.4403
G1 X133.340 Y122.845 E15.4781
G1 X133.178 Y122.845 E15.4834
G1 X134.100 Y121.306 E15.5431
G0 X135.340 Y120.538 F5400
G1 X138.111 Y120.538 E15.6353 F3750
G1 X138.353 Y120.176 E15.6498
G1 X135.771 Y120.176 E15.7356
G0 X138.296 Y120.261 F5400
G1 X137.263 Y118.536 E15.8025 F3750
G1 X137.023 Y118.859 E15.8159
G1 X138.065 Y120.599 E15.8834
G0 X137.918 Y117.460 F5400
G1 X139.268 Y117.460 E15.9282 F3750
G1 X139.237 Y117.823 E15.9403
G1 X137.709 Y117.823 E15.9912
G0 X136.185 Y122.167 F5400
G1 X135.249 Y120.604 E16.0518 F3750
G1 X134.938 Y120.808 E16.0642
G1 X135.851 Y122.332 E16.1232
G0 X134.762 Y120.924 F5400
G1 X133.618 Y122.835 E16.1973 F3750
G0 X137.294 Y121.402 F5400
G1 X139.138 Y118.323 E16.3167 F3750
G0 X139.284 Y117.205 F5400
G1 X138.510 Y115.912 E16.3668 F3750
G1 X138.645 Y115.414 E16.3840
G1 X139.300 Y116.507 E16.4264
G0 X140.824 Y114.345 F5400
G1 X135.323 Y105.160 E16.7825 F3750
G1 X135.757 Y105.160 E16.7969
G1 X141.257 Y114.345 E17.1530
G0 X138.699 Y115.107 F5400
G1 X139.300 Y115.107 E17.1730 F3750
G1 X139.300 Y114.745 E17.1850
G1 X138.763 Y114.745 E17.2029
G1 X138.825 Y114.138 E17.2232
G1 X144.201 Y105.160 E17.5713
G1 X143.768 Y105.160 E17.5857
G1 X138.854 Y113.365 E17.9038
G0 X138.723 Y112.030 F5400
G1 X147.800 Y112.030 E18.2057 F3750
G1 X147.800 Y112.392 E18.2177
G1 X138.787 Y112.392 E18.5175
G0 X138.089 Y109.936 F5400
G1 X140.949 Y105.160 E18.7027 F3750
G1 X140.516 Y105.160 E18.7171
G1 X137.904 Y109.521 E18.8862
G0 X141.519 Y114.345 F5400
G1 X147.020 Y105.160 E19.2423 F3750
G1 X147.453 Y105.160 E19.2567
G1 X141.953 Y114.345 E19.6128
G0 X144.076 Y114.345 F5400
G1 X138.575 Y105.160 E19.9689 F3750
G1 X139.009 Y105.160 E19.9834
G1 X144.509 Y114.345 E20.3395
G1 X144.771 Y114.345 E20.3482
G1 X147.800 Y109.287 E20.5443
G1 X147.800 Y110.011 E20.5684
G1 X145.205 Y114.345 E20.7364
G0 X147.014 Y113.822 F5400
G1 X141.827 Y105.160 E21.0722 F3750
G1 X142.261 Y105.160 E21.0866
G1 X147.285 Y113.551 E21.4119
G0 X147.800 Y108.980 F5400
G1 X145.512 Y105.160 E21.5600 F3750
G1 X145.079 Y105.160 E21.5744
G1 X147.800 Y109.704 E21.7506
G0 X137.977 Y109.676 F5400
G1 X147.800 Y109.676 E22.0773 F3750
G1 X147.800 Y109.314 E22.0893
G1 X137.785 Y109.314 E22.4224
G0 X135.497 Y106.599 F5400
G1 X147.800 Y106.599 E22.8316 F3750
G1 X147.800 Y106.961 E22.8436
G1 X135.929 Y106.961 E23.2385
G1 X136.365 Y107.386 E23.2587
G1 X137.698 Y105.160 E23.3450
G1 X137.264 Y105.160 E23.3595
G1 X136.099 Y107.105 E23.4349
G0 X133.784 Y105.541 F5400
G1 X134.012 Y105.160 E23.4496 F3750
G1 X134.446 Y105.160 E23.4641
G1 X134.117 Y105.708 E23.4853
G0 X131.487 Y105.651 F5400
G0 X128.857 Y105.593
G0 X126.227 Y105.536
G1 X126.001 Y105.160 E23.4999 F3750
G1 X125.568 Y105.160 E23.5143
G1 X125.893 Y105.703 E23.5354
G0 X115.938 Y114.345 F5400
G1 X121.438 Y105.160 E23.8915 F3750
G1 X121.005 Y105.160 E23.9059
G1 X115.504 Y114.345 E24.2621
G0 X112.200 Y109.726 F5400
G1 X114.935 Y105.160 E24.4391 F3750
G1 X114.501 Y105.160 E24.4535
G1 X112.200 Y109.002 E24.6025
G0 X118.494 Y114.345 F5400
G1 X112.994 Y105.160 E24.9586 F3750
G1 X112.560 Y105.160 E24.9730
G1 X118.061 Y114.345 E25.3291
G0 X120.700 Y115.107 F5400
G1 X121.301 Y115.107 E25.3491 F3750
G1 X121.237 Y114.745 E25.3613
G1 X120.700 Y114.745 E25.3792
G0 X120.717 Y117.226 F5400
G1 X121.494 Y115.927 E25.4295 F3750
G1 X121.358 Y115.431 E25.4466
G1 X120.700 Y116.530 E25.4892
G0 X124.229 Y120.176 F5400
G1 X121.647 Y120.176 E25.5751 F3750
G0 X124.160 Y122.337 F5400
G1 X125.072 Y120.815 E25.6341 F3750
G1 X124.761 Y120.610 E25.6465
G1 X123.825 Y122.172 E25.7071
G0 X120.763 Y117.823 F5400
G1 X122.291 Y117.823 E25.7579 F3750
G1 X122.082 Y117.460 E25.7718
G1 X120.732 Y117.460 E25.8167
G0 X121.147 Y113.346 F5400
G1 X116.246 Y105.160 E26.1340 F3750
G1 X115.812 Y105.160 E26.1484
G1 X121.174 Y114.114 E26.4955
G0 X112.995 Y113.830 F5400
G1 X118.186 Y105.160 E26.8317 F3750
G1 X117.753 Y105.160 E26.8461
G1 X112.723 Y113.559 E27.1717
G0 X119.190 Y114.345 F5400
G1 X122.538 Y108.753 E27.3885 F3750
G0 X115.243 Y114.345 F5400
G1 X112.200 Y109.264 E27.5855 F3750
G0 X122.594 Y108.661 F5400
G1 X124.690 Y105.160 E27.7212 F3750
G1 X124.257 Y105.160 E27.7356
G1 X118.756 Y114.345 E28.0917
G0 X123.910 Y107.097 F5400
G1 X122.750 Y105.160 E28.1668 F3750
G1 X122.316 Y105.160 E28.1813
G1 X123.644 Y107.377 E28.2672
G1 X124.071 Y106.961 E28.2871
G1 X112.200 Y106.961 E28.6819
G0 X121.916 Y109.923 F5400
G1 X119.064 Y105.160 E28.8666 F3750
G1 X119.498 Y105.160 E28.8810
G1 X122.102 Y109.509 E29.0496
G0 X112.200 Y106.599 F5400
G1 X124.503 Y106.599 E29.4588 F3750
G0 X112.200 Y112.392 F5400
G1 X121.214 Y112.392 E29.7586 F3750
G1 X121.277 Y112.030 E29.7708
G1 X112.200 Y112.030 E30.0727
G0 X112.200 Y109.988 F5400
G1 X114.809 Y114.345 E30.2416 F3750
G0 X112.200 Y109.676 F5400
G1 X122.023 Y109.676 E30.5683 F3750
G1 X122.215 Y109.314 E30.5820
G1 X112.200 Y109.314 E30.9150
G0 X119.833 Y115.182 F5400
G0 X120.856 Y118.289
G1 X122.735 Y121.427 E31.0367 F3750
G0 X121.943 Y120.609 F5400
G1 X122.985 Y118.869 E31.1041 F3750
G1 X122.744 Y118.547 E31.1175
G1 X121.711 Y120.272 E31.1844
G1 X121.889 Y120.538 E31.1950
G1 X124.660 Y120.538 E31.2872
G1 X125.261 Y120.939 E31.3112
G1 X126.397 Y122.836 E31.3848
G0 X129.654 Y122.845 F5400
G1 X129.321 Y122.289 E31.4063 F3750
G1 X129.766 Y122.308 E31.4211
G1 X130.088 Y122.845 E31.4419
G0 X125.919 Y121.315 F5400
G1 X126.836 Y122.845 E31.5013 F3750
G1 X126.674 Y122.845 E31.5067
G1 X127.260 Y121.866 E31.5446
G1 X127.620 Y121.990 E31.5573
G1 X127.108 Y122.845 E31.5904
G0 X129.926 Y122.845 F5400
G1 X130.248 Y122.308 E31.6113 F3750
G1 X130.693 Y122.288 E31.6261
G1 X130.359 Y122.845 E31.6477
; ------------------------------------
; Layer #4
; ------------------------------------
G21 ; mm
G90 ; abs
G92 E0 ; reset extr
M106 S255
G0 F1200 E-1.0000
G0 F300 Z1.000
G0 X124.959 Y120.230 F5400
G0 X120.263 Y115.310
G0 X118.667 Y114.924
G0 F1200 E0.0000
;segType:Loop
G1 X113.255 Y114.924 E0.1800 F3000
G1 X111.600 Y113.269 E0.2579
G1 X111.600 Y104.581 E0.5468
G1 X148.400 Y104.581 E1.7708
G1 X148.400 Y113.269 E2.0598
G1 X146.745 Y114.924 E2.1376
G1 X139.900 Y114.924 E2.3653
G1 X139.900 Y116.984 E2.4338
G1 X139.844 Y117.843 E2.4624
G1 X139.679 Y118.669 E2.4904
G1 X139.409 Y119.466 E2.5184
G1 X139.037 Y120.220 E2.5464
G1 X138.570 Y120.919 E2.5743
G1 X138.017 Y121.550 E2.6022
G1 X137.387 Y122.102 E2.6301
G1 X136.691 Y122.567 E2.6580
G1 X135.942 Y122.937 E2.6858
G1 X135.151 Y123.205 E2.7135
G1 X134.332 Y123.368 E2.7413
G1 X133.480 Y123.424 E2.7697
G1 X127.003 Y123.424 E2.9851
G1 X126.471 Y123.421 E3.0028
G1 X125.617 Y123.358 E3.0313
G1 X124.849 Y123.205 E3.0573
G1 X124.058 Y122.937 E3.0851
G1 X123.309 Y122.567 E3.1129
G1 X122.613 Y122.102 E3.1407
G1 X121.983 Y121.550 E3.1686
G1 X121.430 Y120.919 E3.1965
G1 X120.963 Y120.220 E3.2245
G1 X120.591 Y119.466 E3.2524
G1 X120.321 Y118.669 E3.2804
G1 X120.156 Y117.843 E3.3084
G1 X120.100 Y116.984 E3.3371
G1 X120.100 Y114.924 E3.4056
G1 X118.855 Y114.924 E3.4470
G0 X118.120 Y115.129 F5400
G0 X119.833 Y115.182
G0 X120.268 Y115.559
;segType:Perimeter
G1 X119.644 Y115.310 E3.4694 F2100
G1 X113.085 Y115.310 E3.6875
G1 X111.200 Y113.425 E3.7762
G1 X111.200 Y104.195 E4.0831
G1 X148.800 Y104.195 E5.3337
G1 X148.800 Y113.425 E5.6407
G1 X146.915 Y115.310 E5.7293
G1 X140.300 Y115.310 E5.9494
G1 X140.300 Y116.996 E6.0055
G1 X140.241 Y117.892 E6.0353
G1 X140.068 Y118.766 E6.0650
G1 X139.781 Y119.610 E6.0946
G1 X139.387 Y120.409 E6.1242
G1 X138.892 Y121.149 E6.1538
G1 X138.306 Y121.818 E6.1834
G1 X137.637 Y122.405 E6.2130
G1 X136.897 Y122.899 E6.2426
G1 X136.100 Y123.292 E6.2722
G1 X135.258 Y123.578 E6.3017
G1 X134.387 Y123.751 E6.3313
G1 X133.493 Y123.810 E6.3611
G1 X127.002 Y123.810 E6.5770
G1 X126.454 Y123.806 E6.5952
G1 X125.561 Y123.741 E6.6250
G1 X124.742 Y123.578 E6.6528
G1 X123.900 Y123.292 E6.6823
G1 X123.103 Y122.899 E6.7119
G1 X122.363 Y122.405 E6.7415
G1 X121.694 Y121.818 E6.7711
G1 X121.108 Y121.149 E6.8007
G1 X120.613 Y120.409 E6.8303
G1 X120.219 Y119.610 E6.8599
G1 X119.932 Y118.766 E6.8895
G1 X119.759 Y117.892 E6.9192
G1 X119.700 Y116.996 E6.9490
G1 X119.700 Y115.364 E7.0033
G1 X119.441 Y114.762
;segType:Loop
G0 X117.635 Y114.538 F5400
G1 X113.425 Y114.538 E7.1434 F3000
G1 X112.000 Y113.113 E7.2104
G1 X112.000 Y104.967 E7.4813
G1 X128.849 Y104.967 E8.0417
G1 X128.490 Y105.009 E8.0538
G1 X127.506 Y105.242 E8.0874
G1 X126.557 Y105.587 E8.1210
G1 X125.655 Y106.040 E8.1545
G1 X124.814 Y106.594 E8.1880
G1 X124.043 Y107.240 E8.2215
G1 X123.353 Y107.971 E8.2549
G1 X122.754 Y108.776 E8.2883
G1 X122.253 Y109.644 E8.3216
G1 X121.857 Y110.563 E8.3549
G1 X121.570 Y111.521 E8.3882
G1 X121.397 Y112.505 E8.4214
G1 X121.339 Y113.502 E8.4546
G1 X121.397 Y114.500 E8.4879
G1 X121.570 Y115.484 E8.5211
G1 X121.857 Y116.442 E8.5544
G1 X122.253 Y117.361 E8.5877
G1 X122.754 Y118.229 E8.6210
G1 X123.353 Y119.034 E8.6544
G1 X124.043 Y119.765 E8.6878
G1 X124.814 Y120.411 E8.7213
G1 X125.655 Y120.965 E8.7548
G1 X126.561 Y121.420 E8.7885
G1 X127.591 Y121.785 E8.8248
G1 X128.502 Y121.998 E8.8559
G1 X129.472 Y122.113 E8.8884
G1 X130.487 Y122.115 E8.9222
G1 X131.474 Y122.002 E8.9552
G1 X132.400 Y121.787 E8.9868
G1 X133.439 Y121.420 E9.0235
G1 X134.345 Y120.965 E9.0572
G1 X135.186 Y120.411 E9.0907
G1 X135.957 Y119.765 E9.1242
G1 X136.647 Y119.034 E9.1576
G1 X137.246 Y118.229 E9.1910
G1 X137.746 Y117.361 E9.2243
G1 X138.143 Y116.442 E9.2576
G1 X138.430 Y115.484 E9.2908
G1 X138.603 Y114.500 E9.3241
G1 X138.661 Y113.502 E9.3573
G1 X138.606 Y112.557 E9.3888
G1 X138.415 Y111.470 E9.4255
G1 X138.143 Y110.562 E9.4570
G1 X137.746 Y109.644 E9.4903
G1 X137.246 Y108.776 E9.5236
G1 X136.647 Y107.971 E9.5570
G1 X135.957 Y107.240 E9.5904
G1 X135.186 Y106.594 E9.6239
G1 X134.345 Y106.040 E9.6574
G1 X133.443 Y105.587 E9.6909
G1 X132.494 Y105.242 E9.7245
G1 X131.510 Y105.009 E9.7582
G1 X131.151 Y104.967 E9.7702
G1 X148.000 Y104.967 E10.3306
G1 X148.000 Y113.113 E10.6016
G1 X146.575 Y114.538 E10.6686
G1 X139.500 Y114.538 E10.9039
G1 X139.500 Y116.972 E10.9848
G1 X139.446 Y117.794 E11.0123
G1 X139.291 Y118.572 E11.0386
G1 X139.037 Y119.323 E11.0650
G1 X138.687 Y120.032 E11.0913
G1 X138.248 Y120.689 E11.1176
G1 X137.729 Y121.282 E11.1438
G1 X137.137 Y121.800 E11.1699
G1 X136.485 Y122.236 E11.1960
G1 X135.784 Y122.582 E11.2220
G1 X135.044 Y122.833 E11.2480
G1 X134.278 Y122.985 E11.2740
G1 X133.466 Y123.038 E11.3011
G1 X127.005 Y123.038 E11.5160
G1 X126.487 Y123.035 E11.5332
G1 X125.673 Y122.975 E11.5603
G1 X124.956 Y122.833 E11.5846
G1 X124.216 Y122.582 E11.6106
G1 X123.515 Y122.236 E11.6366
G1 X122.863 Y121.800 E11.6627
G1 X122.272 Y121.282 E11.6889
G1 X121.752 Y120.689 E11.7151
G1 X121.313 Y120.032 E11.7414
G1 X120.963 Y119.323 E11.7677
G1 X120.709 Y118.572 E11.7940
G1 X120.554 Y117.794 E11.8204
G1 X120.500 Y116.972 E11.8478
G1 X120.500 Y114.538 E11.9288
G1 X117.823 Y114.538 E12.0178
G0 X119.833 Y115.182 F5400
G0 X125.189 Y119.943
G0 X126.809 Y120.878
G0 X128.612 Y121.416
G0 X130.452 Y121.524
G0 X132.283 Y121.417
G1 X131.403 Y121.622 E12.0479 F3000
G1 X130.464 Y121.729 E12.0793
G1 X129.497 Y121.727 E12.1115
G1 X128.574 Y121.618 E12.1424
G1 X127.708 Y121.415 E12.1720
G1 X126.723 Y121.066 E12.2067
G1 X125.861 Y120.633 E12.2388
G1 X125.059 Y120.106 E12.2707
G1 X124.323 Y119.488 E12.3027
G1 X123.665 Y118.791 E12.3346
G1 X123.092 Y118.022 E12.3665
G1 X122.614 Y117.193 E12.3983
G1 X122.235 Y116.314 E12.4301
G1 X121.961 Y115.398 E12.4619
G1 X121.795 Y114.457 E12.4937
G1 X121.739 Y113.502 E12.5255
G1 X121.795 Y112.548 E12.5573
G1 X121.961 Y111.607 E12.5891
G1 X122.235 Y110.691 E12.6209
G1 X122.614 Y109.812 E12.6527
G1 X123.092 Y108.983 E12.6846
G1 X123.665 Y108.214 E12.7164
G1 X124.323 Y107.517 E12.7483
G1 X125.059 Y106.899 E12.7803
G1 X125.861 Y106.372 E12.8122
G1 X126.721 Y105.940 E12.8442
G1 X127.625 Y105.611 E12.8762
G1 X128.562 Y105.389 E12.9082
G1 X129.518 Y105.277 E12.9403
G1 X130.482 Y105.277 E12.9723
G1 X131.438 Y105.389 E13.0044
G1 X132.375 Y105.611 E13.0364
G1 X133.279 Y105.940 E13.0684
G1 X134.139 Y106.372 E13.1004
G1 X134.941 Y106.899 E13.1323
G1 X135.677 Y107.517 E13.1643
G1 X136.335 Y108.214 E13.1962
G1 X136.907 Y108.983 E13.2280
G1 X137.386 Y109.812 E13.2599
G1 X137.765 Y110.691 E13.2917
G1 X138.024 Y111.556 E13.3218
G1 X138.208 Y112.601 E13.3570
G1 X138.261 Y113.502 E13.3871
G1 X138.205 Y114.457 E13.4189
G1 X138.039 Y115.398 E13.4507
G1 X137.765 Y116.314 E13.4825
G1 X137.386 Y117.193 E13.5143
G1 X136.907 Y118.022 E13.5461
G1 X136.335 Y118.791 E13.5780
G1 X135.677 Y119.488 E13.6099
G1 X134.941 Y120.106 E13.6418
G1 X134.139 Y120.633 E13.6738
G1 X133.277 Y121.067 E13.7059
G1 X132.459 Y121.355 E13.7347
;segType:Perimeter
G0 X133.700 Y120.947 F5400
G1 X133.062 Y120.732 E13.7571 F2100
G1 X132.168 Y121.047 E13.7886
G1 X131.332 Y121.242 E13.8172
G1 X130.441 Y121.343 E13.8470
G1 X129.522 Y121.341 E13.8776
G1 X128.646 Y121.238 E13.9069
G1 X127.824 Y121.046 E13.9350
G1 X126.885 Y120.713 E13.9681
G1 X126.067 Y120.302 E13.9986
G1 X125.303 Y119.800 E14.0290
G1 X124.603 Y119.212 E14.0594
G1 X123.976 Y118.548 E14.0898
G1 X123.431 Y117.815 E14.1201
G1 X122.975 Y117.024 E14.1505
G1 X122.613 Y116.186 E14.1809
G1 X122.351 Y115.312 E14.2112
G1 X122.193 Y114.413 E14.2416
G1 X122.140 Y113.502 E14.2719
G1 X122.193 Y112.592 E14.3023
G1 X122.351 Y111.693 E14.3326
G1 X122.613 Y110.819 E14.3630
G1 X122.975 Y109.981 E14.3933
G1 X123.431 Y109.190 E14.4237
G1 X123.976 Y108.457 E14.4541
G1 X124.603 Y107.793 E14.4845
G1 X125.303 Y107.205 E14.5149
G1 X126.067 Y106.703 E14.5453
G1 X126.884 Y106.293 E14.5757
G1 X127.744 Y105.980 E14.6061
G1 X128.634 Y105.769 E14.6365
G1 X129.542 Y105.663 E14.6669
G1 X130.458 Y105.663 E14.6974
G1 X131.366 Y105.769 E14.7278
G1 X132.256 Y105.980 E14.7582
G1 X133.116 Y106.293 E14.7887
G1 X133.933 Y106.703 E14.8191
G1 X134.697 Y107.205 E14.8495
G1 X135.397 Y107.793 E14.8799
G1 X136.024 Y108.457 E14.9103
G1 X136.569 Y109.190 E14.9406
G1 X137.025 Y109.980 E14.9710
G1 X137.387 Y110.819 E15.0014
G1 X137.634 Y111.643 E15.0300
G1 X137.810 Y112.644 E15.0638
G1 X137.860 Y113.502 E15.0924
G1 X137.807 Y114.413 E15.1227
G1 X137.649 Y115.312 E15.1531
G1 X137.387 Y116.186 E15.1834
G1 X137.025 Y117.025 E15.2138
G1 X136.569 Y117.815 E15.2442
G1 X136.024 Y118.548 E15.2745
G1 X135.397 Y119.212 E15.3049
G1 X134.697 Y119.800 E15.3353
G1 X133.933 Y120.302 E15.3657
G1 X133.165 Y120.688 E15.3943
G1 X132.900 Y121.288
;segType:Infill
G0 X132.906 Y122.845 F5400
G1 X132.392 Y121.988 E15.4276 F3750
G1 X132.756 Y121.871 E15.4403
G1 X133.340 Y122.845 E15.4780
G1 X133.178 Y122.845 E15.4834
G1 X134.100 Y121.306 E15.5431
G0 X135.340 Y120.538 F5400
G1 X138.111 Y120.538 E15.6353 F3750
G1 X138.353 Y120.176 E15.6497
G1 X135.771 Y120.176 E15.7356
G0 X138.296 Y120.261 F5400
G1 X137.263 Y118.536 E15.8025 F3750
G1 X137.023 Y118.859 E15.8159
G1 X138.065 Y120.599 E15.8833
G0 X137.918 Y117.460 F5400
G1 X139.268 Y117.460 E15.9282 F3750
G1 X139.237 Y117.823 E15.9403
G1 X137.709 Y117.823 E15.9911
G0 X136.185 Y122.167 F5400
G1 X135.249 Y120.604 E16.0517 F3750
G1 X134.938 Y120.808 E16.0641
G1 X135.851 Y122.332 E16.1232
G0 X134.762 Y120.924 F5400
G1 X133.618 Y122.835 E16.1973 F3750
G0 X137.294 Y121.402 F5400
G1 X139.138 Y118.323 E16.3167 F3750
G0 X139.284 Y117.205 F5400
G1 X138.510 Y115.912 E16.3668 F3750
G1 X138.645 Y115.414 E16.3840
G1 X139.300 Y116.507 E16.4264
G0 X140.824 Y114.345 F5400
G1 X135.323 Y105.160 E16.7825 F3750
G1 X135.757 Y105.160 E16.7969
G1 X141.257 Y114.345 E17.1530
G0 X138.699 Y115.107 F5400
G1 X139.300 Y115.107 E17.1730 F3750
G1 X139.300 Y114.745 E17.1850
G1 X138.763 Y114.745 E17.2029
G1 X138.825 Y114.138 E17.2232
G1 X144.201 Y105.160 E17.5712
G1 X143.768 Y105.160 E17.5857
G1 X138.854 Y113.365 E17.9038
G0 X138.723 Y112.030 F5400
G1 X147.800 Y112.030 E18.2057 F3750
G1 X147.800 Y112.392 E18.2177
G1 X138.787 Y112.392 E18.5175
G0 X138.089 Y109.936 F5400
G1 X140.949 Y105.160 E18.7027 F3750
G1 X140.516 Y105.160 E18.7171
G1 X137.904 Y109.521 E18.8862
G0 X141.519 Y114.345 F5400
G1 X147.020 Y105.160 E19.2423 F3750
G1 X147.453 Y105.160 E19.2567
G1 X141.953 Y114.345 E19.6128
G0 X144.076 Y114.345 F5400
G1 X138.575 Y105.160 E19.9689 F3750
G1 X139.009 Y105.160 E19.9833
G1 X144.509 Y114.345 E20.3394
G1 X144.771 Y114.345 E20.3481
G1 X147.800 Y109.287 E20.5442
G1 X147.800 Y110.011 E20.5683
G1 X145.205 Y114.345 E20.7364
G0 X147.014 Y113.822 F5400
G1 X141.827 Y105.160 E21.0722 F3750
G1 X142.261 Y105.160 E21.0866
G1 X147.285 Y113.551 E21.4119
G0 X147.800 Y108.980 F5400
G1 X145.512 Y105.160 E21.5600 F3750
G1 X145.079 Y105.160 E21.5744
G1 X147.800 Y109.704 E21.7506
G0 X137.977 Y109.676 F5400
G1 X147.800 Y109.676 E22.0773 F3750
G1 X147.800 Y109.314 E22.0893
G1 X137.785 Y109.314 E22.4224
G0 X135.497 Y106.599 F5400
G1 X147.800 Y106.599 E22.8316 F3750
G1 X147.800 Y106.961 E22.8436
G1 X135.929 Y106.961 E23.2385
G1 X136.365 Y107.386 E23.2587
G1 X137.698 Y105.160 E23.3450
G1 X137.264 Y105.160 E23.3594
G1 X136.099 Y107.105 E23.4348
G0 X133.784 Y105.541 F5400
G1 X134.012 Y105.160 E23.4496 F3750
G1 X134.446 Y105.160 E23.4640
G1 X134.117 Y105.708 E23.4853
G0 X131.487 Y105.651 F5400
G0 X128.857 Y105.593
G0 X126.227 Y105.536
G1 X126.001 Y105.160 E23.4999 F3750
G1 X125.568 Y105.160 E23.5143
G1 X125.893 Y105.703 E23.5354
G0 X115.938 Y114.345 F5400
G1 X121.438 Y105.160 E23.8915 F3750
G1 X121.005 Y105.160 E23.9059
G1 X115.504 Y114.345 E24.2620
G0 X112.200 Y109.726 F5400
G1 X114.935 Y105.160 E24.4391 F3750
G1 X114.501 Y105.160 E24.4535
G1 X112.200 Y109.002 E24.6025
G0 X118.494 Y114.345 F5400
G1 X112.994 Y105.160 E24.9586 F3750
G1 X112.560 Y105.160 E24.9730
G1 X118.061 Y114.345 E25.3291
G0 X120.700 Y115.107 F5400
G1 X121.301 Y115.107 E25.3491 F3750
G1 X121.237 Y114.745 E25.3613
G1 X120.700 Y114.745 E25.3792
G0 X120.717 Y117.226 F5400
G1 X121.494 Y115.927 E25.4295 F3750
G1 X121.358 Y115.431 E25.4466
G1 X120.700 Y116.530 E25.4892
G0 X124.229 Y120.176 F5400
G1 X121.647 Y120.176 E25.5751 F3750
G0 X124.160 Y122.337 F5400
G1 X125.072 Y120.815 E25.6341 F3750
G1 X124.761 Y120.610 E25.6465
G1 X123.825 Y122.172 E25.7070
G0 X120.763 Y117.823 F5400
G1 X122.291 Y117.823 E25.7579 F3750
G1 X122.082 Y117.460 E25.7718
G1 X120.732 Y117.460 E25.8166
G0 X121.147 Y113.346 F5400
G1 X116.246 Y105.160 E26.1340 F3750
G1 X115.812 Y105.160 E26.1484
G1 X121.174 Y114.114 E26.4955
G0 X112.995 Y113.830 F5400
G1 X118.186 Y105.160 E26.8317 F3750
G1 X117.753 Y105.160 E26.8461
G1 X112.723 Y113.559 E27.1717
G0 X119.190 Y114.345 F5400
G1 X122.538 Y108.753 E27.3885 F3750
G0 X115.243 Y114.345 F5400
G1 X112.200 Y109.264 E27.5855 F3750
G0 X122.594 Y108.661 F5400
G1 X124.690 Y105.160 E27.7212 F3750
G1 X124.257 Y105.160 E27.7356
G1 X118.756 Y114.345 E28.0917
G0 X123.910 Y107.097 F5400
G1 X122.750 Y105.160 E28.1668 F3750
G1 X122.316 Y105.160 E28.1812
G1 X123.644 Y107.377 E28.2672
G1 X124.071 Y106.961 E28.2870
G1 X112.200 Y106.961 E28.6819
G0 X121.916 Y109.923 F5400
G1 X119.064 Y105.160 E28.8665 F3750
G1 X119.498 Y105.160 E28.8810
G1 X122.102 Y109.509 E29.0496
G0 X112.200 Y106.599 F5400
G1 X124.503 Y106.599 E29.4588 F3750
G0 X112.200 Y112.392 F5400
G1 X121.214 Y112.392 E29.7586 F3750
G1 X121.277 Y112.030 E29.7708
G1 X112.200 Y112.030 E30.0727
G0 X112.200 Y109.988 F5400
G1 X114.809 Y114.345 E30.2416 F3750
G0 X112.200 Y109.676 F5400
G1 X122.023 Y109.676 E30.5683 F3750
G1 X122.215 Y109.314 E30.5819
G1 X112.200 Y109.314 E30.9150
G0 X119.833 Y115.182 F5400
G0 X120.856 Y118.289
G1 X122.735 Y121.427 E31.0367 F3750
G0 X121.943 Y120.609 F5400
G1 X122.985 Y118.869 E31.1041 F3750
G1 X122.744 Y118.547 E31.1175
G1 X121.711 Y120.272 E31.1844
G1 X121.889 Y120.538 E31.1950
G1 X124.660 Y120.538 E31.2872
G1 X125.261 Y120.939 E31.3112
G1 X126.396 Y122.836 E31.3847
G0 X129.654 Y122.845 F5400
G1 X129.321 Y122.289 E31.4063 F3750
G1 X129.766 Y122.308 E31.4211
G1 X130.088 Y122.845 E31.4419
G0 X125.919 Y121.315 F5400
G1 X126.836 Y122.845 E31.5012 F3750
G1 X126.674 Y122.845 E31.5066
G1 X127.261 Y121.865 E31.5446
G1 X127.619 Y121.991 E31.5573
G1 X127.108 Y122.845 E31.5904
G0 X129.926 Y122.845 F5400
G1 X130.248 Y122.308 E31.6112 F3750
G1 X130.693 Y122.288 E31.6261
G1 X130.359 Y122.845 E31.6477
; ------------------------------------
; Layer #5
; ------------------------------------
G21 ; mm
G90 ; abs
G92 E0 ; reset extr
M106 S255
G0 F1200 E-1.0000
G0 F300 Z1.200
G0 X124.959 Y120.230 F5400
G0 X120.263 Y115.310
G0 X118.667 Y114.924
G0 F1200 E0.0000
;segType:Loop
G1 X113.255 Y114.924 E0.1800 F3000
G1 X111.600 Y113.269 E0.2579
G1 X111.600 Y104.581 E0.5468
G1 X148.400 Y104.581 E1.7708
G1 X148.400 Y113.269 E2.0598
G1 X146.745 Y114.924 E2.1376
G1 X139.900 Y114.924 E2.3653
G1 X139.900 Y116.984 E2.4338
G1 X139.844 Y117.843 E2.4624
G1 X139.679 Y118.669 E2.4904
G1 X139.409 Y119.466 E2.5184
G1 X139.037 Y120.220 E2.5464
G1 X138.570 Y120.919 E2.5743
G1 X138.017 Y121.550 E2.6022
G1 X137.387 Y122.102 E2.6301
G1 X136.691 Y122.567 E2.6580
G1 X135.942 Y122.937 E2.6858
G1 X135.151 Y123.205 E2.7135
G1 X134.332 Y123.368 E2.7413
G1 X133.480 Y123.424 E2.7697
G1 X127.104 Y123.424 E2.9818
G1 X126.458 Y123.420 E3.0033
G1 X125.668 Y123.368 E3.0296
G1 X124.849 Y123.205 E3.0573
G1 X124.058 Y122.937 E3.0851
G1 X123.309 Y122.567 E3.1129
G1 X122.613 Y122.102 E3.1408
G1 X121.983 Y121.550 E3.1686
G1 X121.430 Y120.919 E3.1965
G1 X120.963 Y120.220 E3.2245
G1 X120.591 Y119.466 E3.2524
G1 X120.321 Y118.669 E3.2804
G1 X120.156 Y117.843 E3.3085
G1 X120.100 Y116.984 E3.3371
G1 X120.100 Y114.924 E3.4056
G1 X118.855 Y114.924 E3.4470
G0 X118.120 Y115.129 F5400
G0 X119.833 Y115.182
G0 X120.268 Y115.559
;segType:Perimeter
G1 X119.644 Y115.310 E3.4694 F2100
G1 X113.085 Y115.310 E3.6875
G1 X111.200 Y113.425 E3.7762
G1 X111.200 Y104.195 E4.0832
G1 X148.800 Y104.195 E5.3337
G1 X148.800 Y113.425 E5.6407
G1 X146.915 Y115.310 E5.7294
G1 X140.300 Y115.310 E5.9494
G1 X140.300 Y116.996 E6.0055
G1 X140.241 Y117.892 E6.0353
G1 X140.068 Y118.766 E6.0650
G1 X139.781 Y119.610 E6.0946
G1 X139.387 Y120.409 E6.1242
G1 X138.892 Y121.149 E6.1538
G1 X138.306 Y121.818 E6.1834
G1 X137.637 Y122.405 E6.2130
G1 X136.897 Y122.899 E6.2426
G1 X136.100 Y123.292 E6.2722
G1 X135.258 Y123.578 E6.3018
G1 X134.387 Y123.751 E6.3313
G1 X133.493 Y123.810 E6.3611
G1 X127.103 Y123.810 E6.5736
G1 X126.443 Y123.805 E6.5956
G1 X125.613 Y123.751 E6.6232
G1 X124.742 Y123.578 E6.6528
G1 X123.900 Y123.292 E6.6823
G1 X123.103 Y122.899 E6.7119
G1 X122.363 Y122.405 E6.7415
G1 X121.694 Y121.818 E6.7711
G1 X121.108 Y121.149 E6.8007
G1 X120.613 Y120.409 E6.8303
G1 X120.219 Y119.610 E6.8599
G1 X119.932 Y118.766 E6.8896
G1 X119.759 Y117.892 E6.9192
G1 X119.700 Y116.996 E6.9491
G1 X119.700 Y115.364 E7.0034
G1 X119.441 Y114.762
;segType:Loop
G0 X117.635 Y114.538 F5400
G1 X113.425 Y114.538 E7.1434 F3000
G1 X112.000 Y113.113 E7.2104
G1 X112.000 Y104.967 E7.4814
G1 X128.849 Y104.967 E8.0418
G1 X128.490 Y105.009 E8.0538
G1 X127.506 Y105.242 E8.0874
G1 X126.557 Y105.587 E8.1210
G1 X125.655 Y106.040 E8.1546
G1 X124.814 Y106.594 E8.1881
G1 X124.043 Y107.240 E8.2215
G1 X123.353 Y107.971 E8.2550
G1 X122.754 Y108.776 E8.2883
G1 X122.253 Y109.644 E8.3217
G1 X121.857 Y110.563 E8.3549
G1 X121.570 Y111.521 E8.3882
G1 X121.397 Y112.505 E8.4214
G1 X121.339 Y113.502 E8.4547
G1 X121.397 Y114.500 E8.4879
G1 X121.570 Y115.484 E8.5212
G1 X121.857 Y116.442 E8.5544
G1 X122.253 Y117.361 E8.5877
G1 X122.754 Y118.229 E8.6210
G1 X123.353 Y119.034 E8.6544
G1 X124.043 Y119.765 E8.6878
G1 X124.814 Y120.411 E8.7213
G1 X125.655 Y120.965 E8.7548
G1 X126.578 Y121.428 E8.7891
G1 X126.849 Y121.513 E8.7986
G1 X127.615 Y121.790 E8.8257
G1 X128.538 Y122.004 E8.8572
G1 X129.521 Y122.115 E8.8901
G1 X130.539 Y122.112 E8.9239
G1 X131.498 Y121.998 E8.9561
G1 X132.397 Y121.788 E8.9868
G1 X133.151 Y121.513 E9.0135
G1 X133.422 Y121.428 E9.0229
G1 X134.345 Y120.965 E9.0572
G1 X135.186 Y120.411 E9.0907
G1 X135.957 Y119.765 E9.1242
G1 X136.647 Y119.034 E9.1576
G1 X137.246 Y118.229 E9.1910
G1 X137.746 Y117.361 E9.2243
G1 X138.143 Y116.442 E9.2576
G1 X138.430 Y115.484 E9.2909
G1 X138.603 Y114.500 E9.3241
G1 X138.662 Y113.499 E9.3575
G1 X138.592 Y112.436 E9.3929
G1 X138.411 Y111.457 E9.4260
G1 X138.143 Y110.563 E9.4570
G1 X137.746 Y109.644 E9.4904
G1 X137.246 Y108.776 E9.5237
G1 X136.647 Y107.971 E9.5570
G1 X135.957 Y107.240 E9.5905
G1 X135.186 Y106.594 E9.6239
G1 X134.345 Y106.040 E9.6574
G1 X133.443 Y105.587 E9.6910
G1 X132.494 Y105.242 E9.7246
G1 X131.510 Y105.009 E9.7582
G1 X131.151 Y104.967 E9.7702
G1 X148.000 Y104.967 E10.3306
G1 X148.000 Y113.113 E10.6016
G1 X146.575 Y114.538 E10.6686
G1 X139.500 Y114.538 E10.9039
G1 X139.500 Y116.972 E10.9849
G1 X139.446 Y117.794 E11.0123
G1 X139.291 Y118.572 E11.0387
G1 X139.037 Y119.323 E11.0650
G1 X138.687 Y120.032 E11.0913
G1 X138.248 Y120.689 E11.1176
G1 X137.729 Y121.282 E11.1438
G1 X137.137 Y121.800 E11.1700
G1 X136.485 Y122.236 E11.1961
G1 X135.784 Y122.582 E11.2221
G1 X135.044 Y122.833 E11.2481
G1 X134.278 Y122.985 E11.2740
G1 X133.466 Y123.038 E11.3011
G1 X127.105 Y123.038 E11.5127
G1 X126.473 Y123.034 E11.5337
G1 X125.722 Y122.985 E11.5587
G1 X124.956 Y122.833 E11.5847
G1 X124.216 Y122.582 E11.6107
G1 X123.515 Y122.236 E11.6367
G1 X122.863 Y121.800 E11.6628
G1 X122.272 Y121.282 E11.6889
G1 X121.752 Y120.689 E11.7151
G1 X121.313 Y120.032 E11.7414
G1 X120.963 Y119.323 E11.7677
G1 X120.709 Y118.572 E11.7941
G1 X120.554 Y117.794 E11.8205
G1 X120.500 Y116.972 E11.8479
G1 X120.500 Y114.538 E11.9288
G1 X117.823 Y114.538 E12.0179
G0 X119.833 Y115.182 F5400
G0 X125.189 Y119.943
G0 X127.052 Y120.956
G0 X128.645 Y121.422
G0 X130.501 Y121.521
G0 X132.283 Y121.417
G1 X132.279 Y121.419 E12.0180 F3000
G1 X131.426 Y121.618 E12.0472
G1 X130.514 Y121.726 E12.0777
G1 X129.544 Y121.729 E12.1100
G1 X128.608 Y121.624 E12.1413
G1 X127.732 Y121.421 E12.1712
G1 X126.981 Y121.149 E12.1978
G1 X126.733 Y121.071 E12.2064
G1 X125.861 Y120.633 E12.2389
G1 X125.059 Y120.106 E12.2708
G1 X124.323 Y119.488 E12.3027
G1 X123.665 Y118.791 E12.3347
G1 X123.092 Y118.022 E12.3665
G1 X122.614 Y117.193 E12.3984
G1 X122.235 Y116.314 E12.4302
G1 X121.961 Y115.398 E12.4620
G1 X121.795 Y114.457 E12.4938
G1 X121.739 Y113.502 E12.5256
G1 X121.795 Y112.548 E12.5574
G1 X121.961 Y111.607 E12.5892
G1 X122.235 Y110.691 E12.6210
G1 X122.614 Y109.812 E12.6528
G1 X123.092 Y108.983 E12.6846
G1 X123.665 Y108.214 E12.7165
G1 X124.323 Y107.517 E12.7484
G1 X125.059 Y106.899 E12.7804
G1 X125.861 Y106.372 E12.8123
G1 X126.721 Y105.940 E12.8443
G1 X127.625 Y105.611 E12.8763
G1 X128.562 Y105.389 E12.9083
G1 X129.518 Y105.277 E12.9404
G1 X130.482 Y105.277 E12.9724
G1 X131.438 Y105.389 E13.0044
G1 X132.375 Y105.611 E13.0365
G1 X133.279 Y105.940 E13.0685
G1 X134.139 Y106.372 E13.1004
G1 X134.941 Y106.899 E13.1324
G1 X135.677 Y107.517 E13.1643
G1 X136.335 Y108.214 E13.1962
G1 X136.907 Y108.983 E13.2281
G1 X137.386 Y109.812 E13.2599
G1 X137.765 Y110.691 E13.2918
G1 X138.021 Y111.544 E13.3214
G1 X138.194 Y112.482 E13.3531
G1 X138.261 Y113.500 E13.3871
G1 X138.205 Y114.457 E13.4189
G1 X138.039 Y115.398 E13.4507
G1 X137.765 Y116.314 E13.4825
G1 X137.386 Y117.193 E13.5144
G1 X136.907 Y118.022 E13.5462
G1 X136.335 Y118.791 E13.5781
G1 X135.677 Y119.488 E13.6100
G1 X134.941 Y120.106 E13.6419
G1 X134.139 Y120.633 E13.6739
G1 X133.267 Y121.071 E13.7063
G1 X133.019 Y121.149 E13.7150
G1 X132.459 Y121.353 E13.7348
;segType:Perimeter
G0 X133.694 Y120.953 F5400
G1 X133.058 Y120.731 E13.7572 F2100
G1 X132.886 Y120.785 E13.7632
G1 X132.160 Y121.049 E13.7889
G1 X131.355 Y121.238 E13.8164
G1 X130.489 Y121.340 E13.8454
G1 X129.566 Y121.343 E13.8761
G1 X128.678 Y121.243 E13.9058
G1 X127.850 Y121.051 E13.9341
G1 X127.114 Y120.785 E13.9601
G1 X126.888 Y120.714 E13.9680
G1 X126.067 Y120.302 E13.9985
G1 X125.303 Y119.800 E14.0289
G1 X124.603 Y119.212 E14.0593
G1 X123.976 Y118.548 E14.0897
G1 X123.431 Y117.815 E14.1201
G1 X122.975 Y117.024 E14.1504
G1 X122.613 Y116.186 E14.1808
G1 X122.351 Y115.312 E14.2112
G1 X122.193 Y114.413 E14.2415
G1 X122.140 Y113.502 E14.2719
G1 X122.193 Y112.592 E14.3022
G1 X122.351 Y111.693 E14.3326
G1 X122.613 Y110.819 E14.3629
G1 X122.975 Y109.981 E14.3933
G1 X123.431 Y109.190 E14.4236
G1 X123.976 Y108.457 E14.4540
G1 X124.603 Y107.793 E14.4844
G1 X125.303 Y107.205 E14.5148
G1 X126.067 Y106.703 E14.5452
G1 X126.884 Y106.293 E14.5756
G1 X127.744 Y105.980 E14.6060
G1 X128.634 Y105.769 E14.6365
G1 X129.542 Y105.663 E14.6669
G1 X130.458 Y105.663 E14.6973
G1 X131.366 Y105.769 E14.7278
G1 X132.256 Y105.980 E14.7582
G1 X133.116 Y106.293 E14.7886
G1 X133.933 Y106.703 E14.8190
G1 X134.697 Y107.205 E14.8494
G1 X135.397 Y107.793 E14.8798
G1 X136.024 Y108.457 E14.9102
G1 X136.569 Y109.190 E14.9406
G1 X137.025 Y109.980 E14.9709
G1 X137.387 Y110.819 E15.0013
G1 X137.631 Y111.632 E15.0295
G1 X137.796 Y112.528 E15.0598
G1 X137.860 Y113.502 E15.0923
G1 X137.807 Y114.413 E15.1227
G1 X137.649 Y115.312 E15.1530
G1 X137.387 Y116.186 E15.1834
G1 X137.025 Y117.025 E15.2137
G1 X136.569 Y117.815 E15.2441
G1 X136.024 Y118.548 E15.2745
G1 X135.397 Y119.212 E15.3049
G1 X134.697 Y119.800 E15.3353
G1 X133.933 Y120.302 E15.3657
G1 X133.162 Y120.689 E15.3944
G1 X132.880 Y121.282
;segType:Infill
G0 X132.906 Y122.845 F5400
G1 X132.392 Y121.988 E15.4276 F3750
G1 X132.756 Y121.870 E15.4403
G1 X133.340 Y122.845 E15.4781
G1 X133.178 Y122.845 E15.4835
G1 X134.100 Y121.306 E15.5432
G0 X135.340 Y120.538 F5400
G1 X138.111 Y120.538 E15.6354 F3750
G1 X138.353 Y120.176 E15.6498
G1 X135.771 Y120.176 E15.7357
G0 X138.296 Y120.261 F5400
G1 X137.263 Y118.536 E15.8026 F3750
G1 X137.023 Y118.859 E15.8159
G1 X138.065 Y120.599 E15.8834
G0 X137.918 Y117.460 F5400
G1 X139.268 Y117.460 E15.9283 F3750
G1 X139.237 Y117.823 E15.9404
G1 X137.709 Y117.823 E15.9912
G0 X136.185 Y122.167 F5400
G1 X135.249 Y120.604 E16.0518 F3750
G1 X134.938 Y120.808 E16.0642
G1 X135.851 Y122.332 E16.1233
G0 X134.762 Y120.924 F5400
G1 X133.618 Y122.835 E16.1974 F3750
G0 X137.294 Y121.402 F5400
G1 X139.138 Y118.323 E16.3168 F3750
G0 X139.284 Y117.205 F5400
G1 X138.510 Y115.912 E16.3669 F3750
G1 X138.645 Y115.414 E16.3841
G1 X139.300 Y116.507 E16.4265
G0 X140.824 Y114.345 F5400
G1 X135.323 Y105.160 E16.7826 F3750
G1 X135.757 Y105.160 E16.7970
G1 X141.257 Y114.345 E17.1531
G0 X138.699 Y115.107 F5400
G1 X139.300 Y115.107 E17.1731 F3750
G1 X139.300 Y114.745 E17.1851
G1 X138.763 Y114.745 E17.2030
G1 X138.825 Y114.138 E17.2232
G1 X144.201 Y105.160 E17.5713
G1 X143.768 Y105.160 E17.5858
G1 X138.854 Y113.365 E17.9039
G0 X138.723 Y112.030 F5400
G1 X147.800 Y112.030 E18.2058 F3750
G1 X147.800 Y112.392 E18.2178
G1 X138.787 Y112.392 E18.5176
G0 X138.089 Y109.936 F5400
G1 X140.949 Y105.160 E18.7028 F3750
G1 X140.516 Y105.160 E18.7172
G1 X137.904 Y109.521 E18.8863
G0 X141.519 Y114.345 F5400
G1 X147.020 Y105.160 E19.2424 F3750
G1 X147.453 Y105.160 E19.2568
G1 X141.953 Y114.345 E19.6129
G0 X144.076 Y114.345 F5400
G1 X138.575 Y105.160 E19.9690 F3750
G1 X139.009 Y105.160 E19.9834
G1 X144.509 Y114.345 E20.3395
G1 X144.771 Y114.345 E20.3482
G1 X147.800 Y109.287 E20.5443
G1 X147.800 Y110.011 E20.5684
G1 X145.205 Y114.345 E20.7364
G0 X147.014 Y113.822 F5400
G1 X141.827 Y105.160 E21.0723 F3750
G1 X142.261 Y105.160 E21.0867
G1 X147.285 Y113.551 E21.4120
G0 X147.800 Y108.980 F5400
G1 X145.512 Y105.160 E21.5601 F3750
G1 X145.079 Y105.160 E21.5745
G1 X147.800 Y109.704 E21.7506
G0 X137.977 Y109.676 F5400
G1 X147.800 Y109.676 E22.0774 F3750
G1 X147.800 Y109.314 E22.0894
G1 X137.785 Y109.314 E22.4225
G0 X135.497 Y106.599 F5400
G1 X147.800 Y106.599 E22.8317 F3750
G1 X147.800 Y106.961 E22.8437
G1 X135.929 Y106.961 E23.2386
G1 X136.365 Y107.386 E23.2588
G1 X137.698 Y105.160 E23.3451
G1 X137.264 Y105.160 E23.3595
G1 X136.099 Y107.105 E23.4349
G0 X133.784 Y105.541 F5400
G1 X134.012 Y105.160 E23.4497 F3750
G1 X134.446 Y105.160 E23.4641
G1 X134.117 Y105.708 E23.4854
G0 X131.487 Y105.651 F5400
G0 X128.857 Y105.593
G0 X126.227 Y105.536
G1 X126.001 Y105.160 E23.5000 F3750
G1 X125.568 Y105.160 E23.5144
G1 X125.893 Y105.703 E23.5355
G0 X115.938 Y114.345 F5400
G1 X121.438 Y105.160 E23.8916 F3750
G1 X121.005 Y105.160 E23.9060
G1 X115.504 Y114.345 E24.2621
G0 X112.200 Y109.726 F5400
G1 X114.935 Y105.160 E24.4392 F3750
G1 X114.501 Y105.160 E24.4536
G1 X112.200 Y109.002 E24.6026
G0 X118.494 Y114.345 F5400
G1 X112.994 Y105.160 E24.9587 F3750
G1 X112.560 Y105.160 E24.9731
G1 X118.061 Y114.345 E25.3292
G0 X120.700 Y115.107 F5400
G1 X121.301 Y115.107 E25.3492 F3750
G1 X121.237 Y114.745 E25.3614
G1 X120.700 Y114.745 E25.3792
G0 X120.717 Y117.226 F5400
G1 X121.494 Y115.927 E25.4296 F3750
G1 X121.358 Y115.431 E25.4467
G1 X120.700 Y116.530 E25.4893
G0 X124.229 Y120.176 F5400
G1 X121.647 Y120.176 E25.5751 F3750
G0 X124.160 Y122.337 F5400
G1 X125.072 Y120.815 E25.6342 F3750
G1 X124.761 Y120.610 E25.6466
G1 X123.825 Y122.172 E25.7071
G0 X120.763 Y117.823 F5400
G1 X122.291 Y117.823 E25.7579 F3750
G1 X122.082 Y117.460 E25.7718
G1 X120.732 Y117.460 E25.8167
G0 X121.147 Y113.346 F5400
G1 X116.246 Y105.160 E26.1341 F3750
G1 X115.812 Y105.160 E26.1485
G1 X121.174 Y114.114 E26.4956
G0 X112.995 Y113.830 F5400
G1 X118.186 Y105.160 E26.8317 F3750
G1 X117.753 Y105.160 E26.8462
G1 X112.723 Y113.559 E27.1718
G0 X119.190 Y114.345 F5400
G1 X122.538 Y108.753 E27.3886 F3750
G0 X115.243 Y114.345 F5400
G1 X112.200 Y109.264 E27.5856 F3750
G0 X122.594 Y108.661 F5400
G1 X124.690 Y105.160 E27.7213 F3750
G1 X124.257 Y105.160 E27.7357
G1 X118.756 Y114.345 E28.0918
G0 X123.910 Y107.097 F5400
G1 X122.750 Y105.160 E28.1669 F3750
G1 X122.316 Y105.160 E28.1813
G1 X123.644 Y107.377 E28.2673
G1 X124.071 Y106.961 E28.2871
G1 X112.200 Y106.961 E28.6820
G0 X121.916 Y109.923 F5400
G1 X119.064 Y105.160 E28.8666 F3750
G1 X119.498 Y105.160 E28.8811
G1 X122.102 Y109.509 E29.0497
G0 X112.200 Y106.599 F5400
G1 X124.503 Y106.599 E29.4589 F3750
G0 X112.200 Y112.392 F5400
G1 X121.214 Y112.392 E29.7587 F3750
G1 X121.277 Y112.030 E29.7709
G1 X112.200 Y112.030 E30.0728
G0 X112.200 Y109.988 F5400
G1 X114.809 Y114.345 E30.2417 F3750
G0 X112.200 Y109.676 F5400
G1 X122.023 Y109.676 E30.5684 F3750
G1 X122.215 Y109.314 E30.5820
G1 X112.200 Y109.314 E30.9151
G0 X119.833 Y115.182 F5400
G0 X120.856 Y118.289
G1 X122.735 Y121.427 E31.0368 F3750
G0 X121.943 Y120.609 F5400
G1 X122.985 Y118.869 E31.1042 F3750
G1 X122.744 Y118.547 E31.1176
G1 X121.711 Y120.272 E31.1845
G1 X121.889 Y120.538 E31.1951
G1 X124.660 Y120.538 E31.2873
G1 X125.261 Y120.939 E31.3113
G1 X126.396 Y122.836 E31.3848
G0 X129.654 Y122.845 F5400
G1 X129.321 Y122.289 E31.4064 F3750
G1 X129.766 Y122.308 E31.4212
G1 X130.088 Y122.845 E31.4420
G0 X125.919 Y121.315 F5400
G1 X126.836 Y122.845 E31.5013 F3750
G1 X126.675 Y122.844 E31.5067
G1 X127.262 Y121.863 E31.5447
G1 X127.619 Y121.991 E31.5573
G1 X127.108 Y122.845 E31.5905
G0 X129.926 Y122.845 F5400
G1 X130.248 Y122.308 E31.6113 F3750
G1 X130.693 Y122.288 E31.6261
G1 X130.359 Y122.845 E31.6477
; ------------------------------------
; Layer #6
; ------------------------------------
G21 ; mm
G90 ; abs
G92 E0 ; reset extr
M106 S255
G0 F1200 E-1.0000
G0 F300 Z1.400
G0 X124.959 Y120.230 F5400
G0 X120.263 Y115.310
G0 X118.667 Y114.924
G0 F1200 E0.0000
;segType:Loop
G1 X113.255 Y114.924 E0.1800 F3000
G1 X111.600 Y113.269 E0.2579
G1 X111.600 Y104.581 E0.5468
G1 X148.400 Y104.581 E1.7708
G1 X148.400 Y113.269 E2.0598
G1 X146.745 Y114.924 E2.1376
G1 X139.900 Y114.924 E2.3653
G1 X139.900 Y116.984 E2.4338
G1 X139.844 Y117.843 E2.4624
G1 X139.679 Y118.669 E2.4904
G1 X139.409 Y119.466 E2.5184
G1 X139.037 Y120.220 E2.5464
G1 X138.570 Y120.919 E2.5743
G1 X138.017 Y121.550 E2.6022
G1 X137.387 Y122.102 E2.6301
G1 X136.691 Y122.567 E2.6580
G1 X135.942 Y122.937 E2.6858
G1 X135.151 Y123.205 E2.7135
G1 X134.332 Y123.368 E2.7413
G1 X133.480 Y123.424 E2.7697
G1 X127.204 Y123.424 E2.9784
G1 X126.447 Y123.419 E3.0036
G1 X125.668 Y123.368 E3.0296
G1 X124.849 Y123.205 E3.0573
G1 X124.058 Y122.937 E3.0851
G1 X123.309 Y122.567 E3.1129
G1 X122.613 Y122.102 E3.1408
G1 X121.983 Y121.550 E3.1686
G1 X121.430 Y120.919 E3.1965
G1 X120.963 Y120.220 E3.2245
G1 X120.591 Y119.466 E3.2524
G1 X120.321 Y118.669 E3.2804
G1 X120.156 Y117.843 E3.3085
G1 X120.100 Y116.984 E3.3371
G1 X120.100 Y114.924 E3.4056
G1 X118.855 Y114.924 E3.4470
G0 X118.120 Y115.129 F5400
G0 X119.833 Y115.182
G0 X120.268 Y115.559
;segType:Perimeter
G1 X119.644 Y115.310 E3.4694 F2100
G1 X113.085 Y115.310 E3.6875
G1 X111.200 Y113.425 E3.7762
G1 X111.200 Y104.195 E4.0832
G1 X148.800 Y104.195 E5.3337
G1 X148.800 Y113.425 E5.6407
G1 X146.915 Y115.310 E5.7294
G1 X140.300 Y115.310 E5.9494
G1 X140.300 Y116.996 E6.0055
G1 X140.241 Y117.892 E6.0353
G1 X140.068 Y118.766 E6.0650
G1 X139.781 Y119.610 E6.0946
G1 X139.387 Y120.409 E6.1242
G1 X138.892 Y121.149 E6.1538
G1 X138.306 Y121.818 E6.1834
G1 X137.637 Y122.405 E6.2130
G1 X136.897 Y122.899 E6.2426
G1 X136.100 Y123.292 E6.2722
G1 X135.258 Y123.578 E6.3018
G1 X134.387 Y123.751 E6.3313
G1 X133.493 Y123.810 E6.3611
G1 X127.203 Y123.810 E6.5703
G1 X126.432 Y123.805 E6.5959
G1 X125.613 Y123.751 E6.6232
G1 X124.742 Y123.578 E6.6528
G1 X123.900 Y123.292 E6.6823
G1 X123.103 Y122.899 E6.7119
G1 X122.363 Y122.405 E6.7415
G1 X121.694 Y121.818 E6.7711
G1 X121.108 Y121.149 E6.8007
G1 X120.613 Y120.409 E6.8303
G1 X120.219 Y119.610 E6.8599
G1 X119.932 Y118.766 E6.8896
G1 X119.759 Y117.892 E6.9192
G1 X119.700 Y116.996 E6.9491
G1 X119.700 Y115.364 E7.0034
G1 X119.441 Y114.762
;segType:Loop
G0 X117.635 Y114.538 F5400
G1 X113.425 Y114.538 E7.1434 F3000
G1 X112.000 Y113.113 E7.2104
G1 X112.000 Y104.967 E7.4814
G1 X128.849 Y104.967 E8.0418
G1 X128.490 Y105.009 E8.0538
G1 X127.506 Y105.242 E8.0874
G1 X126.557 Y105.587 E8.1210
G1 X125.655 Y106.040 E8.1546
G1 X124.814 Y106.594 E8.1881
G1 X124.043 Y107.240 E8.2215
G1 X123.353 Y107.971 E8.2550
G1 X122.754 Y108.776 E8.2883
G1 X122.253 Y109.644 E8.3217
G1 X121.857 Y110.563 E8.3549
G1 X121.570 Y111.521 E8.3882
G1 X121.397 Y112.505 E8.4214
G1 X121.339 Y113.502 E8.4547
G1 X121.397 Y114.500 E8.4879
G1 X121.570 Y115.484 E8.5212
G1 X121.857 Y116.442 E8.5544
G1 X122.253 Y117.361 E8.5877
G1 X122.754 Y118.229 E8.6210
G1 X123.353 Y119.034 E8.6544
G1 X124.043 Y119.765 E8.6878
G1 X124.814 Y120.411 E8.7213
G1 X125.655 Y120.965 E8.7548
G1 X126.578 Y121.428 E8.7891
G1 X126.885 Y121.525 E8.7998
G1 X127.633 Y121.795 E8.8263
G1 X128.546 Y122.005 E8.8574
G1 X129.525 Y122.115 E8.8902
G1 X130.545 Y122.111 E8.9241
G1 X131.496 Y121.999 E8.9560
G1 X132.381 Y121.792 E8.9862
G1 X133.116 Y121.524 E9.0122
G1 X133.422 Y121.428 E9.0229
G1 X134.345 Y120.965 E9.0572
G1 X135.186 Y120.411 E9.0907
G1 X135.957 Y119.765 E9.1242
G1 X136.647 Y119.034 E9.1576
G1 X137.246 Y118.229 E9.1910
G1 X137.746 Y117.361 E9.2243
G1 X138.143 Y116.442 E9.2576
G1 X138.430 Y115.484 E9.2909
G1 X138.603 Y114.500 E9.3241
G1 X138.661 Y113.502 E9.3573
G1 X138.609 Y112.605 E9.3872
G1 X138.586 Y112.406 E9.3939
G1 X138.430 Y111.521 E9.4238
G1 X138.143 Y110.563 E9.4571
G1 X137.746 Y109.644 E9.4904
G1 X137.246 Y108.776 E9.5237
G1 X136.647 Y107.971 E9.5570
G1 X135.957 Y107.240 E9.5905
G1 X135.186 Y106.594 E9.6239
G1 X134.345 Y106.040 E9.6574
G1 X133.443 Y105.587 E9.6910
G1 X132.494 Y105.242 E9.7246
G1 X131.510 Y105.009 E9.7582
G1 X131.151 Y104.967 E9.7702
G1 X148.000 Y104.967 E10.3306
G1 X148.000 Y113.113 E10.6016
G1 X146.575 Y114.538 E10.6686
G1 X139.500 Y114.538 E10.9039
G1 X139.500 Y116.972 E10.9849
G1 X139.446 Y117.794 E11.0123
G1 X139.291 Y118.572 E11.0387
G1 X139.037 Y119.323 E11.0650
G1 X138.687 Y120.032 E11.0914
G1 X138.248 Y120.689 E11.1176
G1 X137.729 Y121.282 E11.1438
G1 X137.137 Y121.800 E11.1700
G1 X136.485 Y122.236 E11.1961
G1 X135.784 Y122.582 E11.2221
G1 X135.044 Y122.833 E11.2481
G1 X134.278 Y122.985 E11.2740
G1 X133.466 Y123.038 E11.3011
G1 X127.205 Y123.038 E11.5093
G1 X126.462 Y123.033 E11.5341
G1 X125.722 Y122.985 E11.5587
G1 X124.956 Y122.833 E11.5847
G1 X124.216 Y122.582 E11.6107
G1 X123.515 Y122.236 E11.6367
G1 X122.863 Y121.800 E11.6628
G1 X122.272 Y121.282 E11.6889
G1 X121.752 Y120.689 E11.7151
G1 X121.313 Y120.032 E11.7414
G1 X120.963 Y119.323 E11.7677
G1 X120.709 Y118.572 E11.7941
G1 X120.554 Y117.794 E11.8205
G1 X120.500 Y116.972 E11.8479
G1 X120.500 Y114.538 E11.9288
G1 X117.823 Y114.538 E12.0179
G0 X119.833 Y115.182 F5400
G0 X125.189 Y119.943
G0 X127.087 Y120.967
G0 X128.653 Y121.423
G0 X130.506 Y121.521
G0 X132.283 Y121.415
G1 X132.263 Y121.423 E12.0186 F3000
G1 X131.425 Y121.618 E12.0472
G1 X130.520 Y121.725 E12.0775
G1 X129.548 Y121.729 E12.1098
G1 X128.616 Y121.625 E12.1410
G1 X127.750 Y121.425 E12.1706
G1 X127.017 Y121.160 E12.1965
G1 X126.733 Y121.071 E12.2064
G1 X125.861 Y120.633 E12.2389
G1 X125.059 Y120.106 E12.2708
G1 X124.323 Y119.488 E12.3027
G1 X123.665 Y118.791 E12.3346
G1 X123.092 Y118.022 E12.3665
G1 X122.614 Y117.193 E12.3984
G1 X122.235 Y116.314 E12.4302
G1 X121.961 Y115.398 E12.4620
G1 X121.795 Y114.457 E12.4938
G1 X121.739 Y113.502 E12.5256
G1 X121.795 Y112.548 E12.5574
G1 X121.961 Y111.607 E12.5892
G1 X122.235 Y110.691 E12.6210
G1 X122.614 Y109.812 E12.6528
G1 X123.092 Y108.983 E12.6846
G1 X123.665 Y108.214 E12.7165
G1 X124.323 Y107.517 E12.7484
G1 X125.059 Y106.899 E12.7804
G1 X125.861 Y106.372 E12.8123
G1 X126.721 Y105.940 E12.8443
G1 X127.625 Y105.611 E12.8763
G1 X128.562 Y105.389 E12.9083
G1 X129.518 Y105.277 E12.9403
G1 X130.482 Y105.277 E12.9724
G1 X131.438 Y105.389 E13.0044
G1 X132.375 Y105.611 E13.0364
G1 X133.279 Y105.940 E13.0685
G1 X134.139 Y106.372 E13.1004
G1 X134.941 Y106.899 E13.1324
G1 X135.677 Y107.517 E13.1643
G1 X136.335 Y108.214 E13.1962
G1 X136.907 Y108.983 E13.2281
G1 X137.386 Y109.812 E13.2599
G1 X137.765 Y110.691 E13.2918
G1 X138.039 Y111.607 E13.3236
G1 X138.190 Y112.460 E13.3524
G1 X138.211 Y112.638 E13.3583
G1 X138.261 Y113.502 E13.3872
G1 X138.205 Y114.457 E13.4189
G1 X138.039 Y115.398 E13.4507
G1 X137.765 Y116.314 E13.4825
G1 X137.386 Y117.193 E13.5144
G1 X136.907 Y118.022 E13.5462
G1 X136.335 Y118.791 E13.5781
G1 X135.677 Y119.488 E13.6100
G1 X134.941 Y120.106 E13.6419
G1 X134.139 Y120.633 E13.6739
G1 X133.267 Y121.071 E13.7063
G1 X132.983 Y121.160 E13.7162
G1 X132.458 Y121.351 E13.7348
;segType:Perimeter
G0 X133.694 Y120.953 F5400
G1 X133.058 Y120.731 E13.7572 F2100
G1 X132.851 Y120.796 E13.7644
G1 X132.144 Y121.053 E13.7894
G1 X131.353 Y121.238 E13.8165
G1 X130.495 Y121.340 E13.8452
G1 X129.570 Y121.344 E13.8759
G1 X128.686 Y121.244 E13.9055
G1 X127.867 Y121.056 E13.9335
G1 X127.149 Y120.796 E13.9589
G1 X126.888 Y120.714 E13.9680
G1 X126.067 Y120.302 E13.9985
G1 X125.303 Y119.800 E14.0289
G1 X124.603 Y119.212 E14.0593
G1 X123.976 Y118.548 E14.0897
G1 X123.431 Y117.815 E14.1201
G1 X122.975 Y117.024 E14.1505
G1 X122.613 Y116.186 E14.1808
G1 X122.351 Y115.312 E14.2112
G1 X122.193 Y114.413 E14.2415
G1 X122.140 Y113.502 E14.2719
G1 X122.193 Y112.592 E14.3022
G1 X122.351 Y111.693 E14.3326
G1 X122.613 Y110.819 E14.3629
G1 X122.975 Y109.981 E14.3933
G1 X123.431 Y109.190 E14.4236
G1 X123.976 Y108.457 E14.4540
G1 X124.603 Y107.793 E14.4844
G1 X125.303 Y107.205 E14.5148
G1 X126.067 Y106.703 E14.5452
G1 X126.884 Y106.293 E14.5756
G1 X127.744 Y105.980 E14.6060
G1 X128.634 Y105.769 E14.6365
G1 X129.542 Y105.663 E14.6669
G1 X130.458 Y105.663 E14.6973
G1 X131.366 Y105.769 E14.7278
G1 X132.256 Y105.980 E14.7582
G1 X133.116 Y106.293 E14.7886
G1 X133.933 Y106.703 E14.8190
G1 X134.697 Y107.205 E14.8494
G1 X135.397 Y107.793 E14.8798
G1 X136.024 Y108.457 E14.9102
G1 X136.569 Y109.190 E14.9406
G1 X137.025 Y109.980 E14.9709
G1 X137.387 Y110.819 E15.0013
G1 X137.649 Y111.693 E15.0317
G1 X137.793 Y112.514 E15.0594
G1 X137.812 Y112.670 E15.0646
G1 X137.860 Y113.502 E15.0923
G1 X137.807 Y114.413 E15.1227
G1 X137.649 Y115.312 E15.1530
G1 X137.387 Y116.186 E15.1834
G1 X137.025 Y117.025 E15.2138
G1 X136.569 Y117.815 E15.2441
G1 X136.024 Y118.548 E15.2745
G1 X135.397 Y119.212 E15.3049
G1 X134.697 Y119.800 E15.3353
G1 X133.933 Y120.302 E15.3657
G1 X133.162 Y120.689 E15.3944
G1 X132.880 Y121.282
;segType:Infill
G0 X132.906 Y122.845 F5400
G1 X132.393 Y121.988 E15.4276 F3750
G1 X132.755 Y121.869 E15.4403
G1 X133.340 Y122.845 E15.4782
G1 X133.178 Y122.845 E15.4835
G1 X134.100 Y121.306 E15.5432
G0 X135.340 Y120.538 F5400
G1 X138.111 Y120.538 E15.6354 F3750
G1 X138.353 Y120.176 E15.6499
G1 X135.771 Y120.176 E15.7357
G0 X138.296 Y120.261 F5400
G1 X137.263 Y118.536 E15.8026 F3750
G1 X137.023 Y118.859 E15.8160
G1 X138.065 Y120.599 E15.8835
G0 X137.918 Y117.460 F5400
G1 X139.268 Y117.460 E15.9284 F3750
G1 X139.237 Y117.823 E15.9404
G1 X137.709 Y117.823 E15.9913
G0 X136.185 Y122.167 F5400
G1 X135.249 Y120.604 E16.0519 F3750
G1 X134.938 Y120.808 E16.0643
G1 X135.851 Y122.332 E16.1233
G0 X134.762 Y120.924 F5400
G1 X133.618 Y122.835 E16.1974 F3750
G0 X137.294 Y121.402 F5400
G1 X139.138 Y118.323 E16.3168 F3750
G0 X139.284 Y117.205 F5400
G1 X138.510 Y115.912 E16.3669 F3750
G1 X138.645 Y115.414 E16.3841
G1 X139.300 Y116.507 E16.4265
G0 X140.824 Y114.345 F5400
G1 X135.323 Y105.160 E16.7826 F3750
G1 X135.757 Y105.160 E16.7970
G1 X141.257 Y114.345 E17.1531
G0 X138.699 Y115.107 F5400
G1 X139.300 Y115.107 E17.1731 F3750
G1 X139.300 Y114.745 E17.1852
G1 X138.763 Y114.745 E17.2030
G1 X138.825 Y114.138 E17.2233
G1 X144.201 Y105.160 E17.5714
G1 X143.768 Y105.160 E17.5858
G1 X138.854 Y113.365 E17.9039
G0 X138.723 Y112.030 F5400
G1 X147.800 Y112.030 E18.2058 F3750
G1 X147.800 Y112.392 E18.2179
G1 X138.787 Y112.392 E18.5176
G0 X138.089 Y109.936 F5400
G1 X140.949 Y105.160 E18.7028 F3750
G1 X140.516 Y105.160 E18.7172
G1 X137.904 Y109.521 E18.8863
G0 X141.519 Y114.345 F5400
G1 X147.020 Y105.160 E19.2424 F3750
G1 X147.453 Y105.160 E19.2568
G1 X141.953 Y114.345 E19.6129
G0 X144.076 Y114.345 F5400
G1 X138.575 Y105.160 E19.9690 F3750
G1 X139.009 Y105.160 E19.9835
G1 X144.509 Y114.345 E20.3396
G1 X144.771 Y114.345 E20.3483
G1 X147.800 Y109.287 E20.5444
G1 X147.800 Y110.011 E20.5685
G1 X145.205 Y114.345 E20.7365
G0 X147.014 Y113.822 F5400
G1 X141.827 Y105.160 E21.0723 F3750
G1 X142.261 Y105.160 E21.0867
G1 X147.285 Y113.551 E21.4120
G0 X147.800 Y108.980 F5400
G1 X145.512 Y105.160 E21.5601 F3750
G1 X145.079 Y105.160 E21.5745
G1 X147.800 Y109.704 E21.7507
G0 X137.977 Y109.676 F5400
G1 X147.800 Y109.676 E22.0774 F3750
G1 X147.800 Y109.314 E22.0894
G1 X137.785 Y109.314 E22.4225
G0 X135.497 Y106.599 F5400
G1 X147.800 Y106.599 E22.8317 F3750
G1 X147.800 Y106.961 E22.8438
G1 X135.929 Y106.961 E23.2386
G1 X136.365 Y107.386 E23.2588
G1 X137.698 Y105.160 E23.3451
G1 X137.264 Y105.160 E23.3596
G1 X136.099 Y107.105 E23.4350
G0 X133.784 Y105.541 F5400
G1 X134.012 Y105.160 E23.4498 F3750
G1 X134.446 Y105.160 E23.4642
G1 X134.117 Y105.708 E23.4855
G0 X131.487 Y105.651 F5400
G0 X128.857 Y105.593
G0 X126.227 Y105.536
G1 X126.001 Y105.160 E23.5000 F3750
G1 X125.568 Y105.160 E23.5145
G1 X125.893 Y105.703 E23.5355
G0 X115.938 Y114.345 F5400
G1 X121.438 Y105.160 E23.8916 F3750
G1 X121.005 Y105.160 E23.9061
G1 X115.504 Y114.345 E24.2622
G0 X112.200 Y109.726 F5400
G1 X114.935 Y105.160 E24.4392 F3750
G1 X114.501 Y105.160 E24.4536
G1 X112.200 Y109.002 E24.6026
G0 X118.494 Y114.345 F5400
G1 X112.994 Y105.160 E24.9587 F3750
G1 X112.560 Y105.160 E24.9731
G1 X118.061 Y114.345 E25.3292
G0 X120.700 Y115.107 F5400
G1 X121.301 Y115.107 E25.3492 F3750
G1 X121.237 Y114.745 E25.3614
G1 X120.700 Y114.745 E25.3793
G0 X120.717 Y117.226 F5400
G1 X121.494 Y115.927 E25.4296 F3750
G1 X121.358 Y115.431 E25.4467
G1 X120.700 Y116.530 E25.4893
G0 X124.229 Y120.176 F5400
G1 X121.647 Y120.176 E25.5752 F3750
G0 X124.160 Y122.337 F5400
G1 X125.072 Y120.815 E25.6342 F3750
G1 X124.761 Y120.610 E25.6466
G1 X123.825 Y122.172 E25.7072
G0 X120.763 Y117.823 F5400
G1 X122.291 Y117.823 E25.7580 F3750
G1 X122.082 Y117.460 E25.7719
G1 X120.732 Y117.460 E25.8168
G0 X121.147 Y113.346 F5400
G1 X116.246 Y105.160 E26.1341 F3750
G1 X115.812 Y105.160 E26.1485
G1 X121.174 Y114.114 E26.4957
G0 X112.995 Y113.830 F5400
G1 X118.186 Y105.160 E26.8318 F3750
G1 X117.753 Y105.160 E26.8462
G1 X112.723 Y113.559 E27.1718
G0 X119.190 Y114.345 F5400
G1 X122.538 Y108.753 E27.3886 F3750
G0 X115.243 Y114.345 F5400
G1 X112.200 Y109.264 E27.5856 F3750
G0 X122.594 Y108.661 F5400
G1 X124.690 Y105.160 E27.7213 F3750
G1 X124.257 Y105.160 E27.7357
G1 X118.756 Y114.345 E28.0919
G0 X123.910 Y107.097 F5400
G1 X122.750 Y105.160 E28.1670 F3750
G1 X122.316 Y105.160 E28.1814
G1 X123.644 Y107.377 E28.2673
G1 X124.071 Y106.961 E28.2872
G1 X112.200 Y106.961 E28.6820
G0 X121.916 Y109.923 F5400
G1 X119.064 Y105.160 E28.8667 F3750
G1 X119.498 Y105.160 E28.8811
G1 X122.102 Y109.509 E29.0497
G0 X112.200 Y106.599 F5400
G1 X124.503 Y106.599 E29.4589 F3750
G0 X112.200 Y112.392 F5400
G1 X121.214 Y112.392 E29.7587 F3750
G1 X121.277 Y112.030 E29.7709
G1 X112.200 Y112.030 E30.0728
G0 X112.200 Y109.988 F5400
G1 X114.809 Y114.345 E30.2417 F3750
