; GCode generated by CraftWare

G28 X0 Y0
G28 Z0

M190 S65 ;set bed temp (wait)
M109 S240 ;set head temp (wait)
; ------------------------------------
; Layer #0
; ------------------------------------
G21 ; mm
G90 ; abs
G92 E0 ; reset extr
M106 S0
;segType:Skirt
G0 F1200 E-1.0000
G0 F300 Z0.200
G0 X86.305 Y166.276 F5400
G0 F1200 E0.0000
G1 X86.499 Y166.470 E0.0091 F3000
G1 X87.017 Y166.859 E0.0307
G1 X172.983 Y166.859 E2.8899
G1 X174.536 Y165.305 E2.9630
G1 X174.730 Y164.982 E2.9755
G1 X174.730 Y79.018 E5.8346
G1 X174.536 Y78.695 E5.8472
G1 X172.983 Y77.141 E5.9203
G1 X87.017 Y77.141 E8.7795
G1 X86.694 Y77.335 E8.7920
G1 X85.140 Y78.889 E8.8651
G1 X85.140 Y165.111 E11.7329
G1 X86.305 Y166.276 E11.7877
G1 X86.305 Y166.665 E11.8006
G1 X86.499 Y166.859 E11.8097
G1 X87.017 Y167.247 E11.8313
G1 X172.983 Y167.247 E14.6905
G1 X175.054 Y165.176 E14.7879
G1 X175.119 Y164.723 E14.8031
G1 X175.119 Y79.277 E17.6451
G1 X175.054 Y78.824 E17.6603
G1 X172.983 Y76.753 E17.7577
G1 X87.017 Y76.753 E20.6169
G1 X86.694 Y76.947 E20.6295
G1 X84.752 Y78.889 E20.7208
G1 X84.752 Y165.111 E23.5886
G1 X86.305 Y166.665 E23.6617
;segType:Loop
G0 F1200 E22.6617
G0 X88.099 Y163.230 F5400
G0 F1200 E23.6617
G1 X88.099 Y80.101 E26.4266 F3000
G1 X171.901 Y80.101 E29.2138
G1 X171.901 Y163.899 E32.0010
G1 X88.099 Y163.899 E34.7882
G1 X88.099 Y163.425 E34.8040
;segType:Perimeter
G0 X88.346 Y163.973 F5400
G1 X87.699 Y164.241 E34.8273 F2100
G1 X87.699 Y79.701 E37.6391
G1 X172.301 Y79.701 E40.4529
G1 X172.301 Y164.299 E43.2667
G1 X87.758 Y164.299 E46.0786
G1 X88.026 Y163.653
;segType:Loop
G0 X88.499 Y162.161 F5400
G1 X88.499 Y80.501 E48.7947 F3000
G1 X171.501 Y80.501 E51.5553
G1 X171.501 Y163.499 E54.3158
G1 X88.499 Y163.499 E57.0765
G1 X88.499 Y162.356 E57.1145
;segType:HShell
G0 X171.174 Y163.299 F5400
G1 X171.301 Y163.173 E57.1205 F3000
G1 X171.301 Y162.623
G1 X170.624 Y163.299 E57.1523
G1 X170.074 Y163.299
G1 X171.301 Y162.073 E57.2100
G1 X171.301 Y161.523
G1 X169.524 Y163.299 E57.2935
G1 X168.975 Y163.299
G1 X171.301 Y160.973 E57.4029
G1 X171.301 Y160.424
G1 X168.425 Y163.299 E57.5382
G1 X167.875 Y163.299
G1 X171.301 Y159.874 E57.6993
G1 X171.301 Y159.324
G1 X167.325 Y163.299 E57.8863
G1 X166.775 Y163.299
G1 X171.301 Y158.774 E58.0992
G1 X171.301 Y158.224
G1 X166.225 Y163.299 E58.3379
G1 X165.676 Y163.299
G1 X171.301 Y157.675 E58.6025
G1 X171.301 Y157.125
G1 X165.126 Y163.299 E58.8929
G1 X164.576 Y163.299
G1 X171.301 Y156.575 E59.2092
G1 X171.301 Y156.025
G1 X164.026 Y163.299 E59.5514
G1 X163.476 Y163.299
G1 X171.301 Y155.475 E59.9194
G1 X171.301 Y154.925
G1 X162.926 Y163.299 E60.3133
G1 X162.377 Y163.299
G1 X171.301 Y154.376 E60.7330
G1 X171.301 Y153.826
G1 X161.827 Y163.299 E61.1786
G1 X161.277 Y163.299
G1 X171.301 Y153.276 E61.6501
G1 X171.301 Y152.726
G1 X160.727 Y163.299 E62.1474
G1 X160.177 Y163.299
G1 X171.301 Y152.176 E62.6706
G1 X171.301 Y151.627
G1 X159.627 Y163.299 E63.2197
G1 X159.078 Y163.299
G1 X171.301 Y151.077 E63.7946
G1 X171.301 Y150.527
G1 X158.528 Y163.299 E64.3954
G1 X157.978 Y163.299
G1 X171.301 Y149.977 E65.0221
G1 X171.301 Y149.427
G1 X157.428 Y163.299 E65.6746
G1 X156.878 Y163.299
G1 X171.301 Y148.878 E66.3529
G1 X171.301 Y148.328
G1 X156.328 Y163.299 E67.0572
G1 X155.779 Y163.299
G1 X171.301 Y147.778 E67.7873
G1 X171.301 Y147.228
G1 X155.229 Y163.299 E68.5432
G1 X154.679 Y163.299
G1 X171.301 Y146.678 E69.3250
G1 X171.301 Y146.128
G1 X154.129 Y163.299 E70.1327
G1 X153.579 Y163.299
G1 X171.301 Y145.579 E70.9663
G1 X171.301 Y145.029
G1 X153.029 Y163.299 E71.8257
G1 X152.480 Y163.299
G1 X171.301 Y144.479 E72.7109
G1 X171.301 Y143.929
G1 X151.930 Y163.299 E73.6220
G1 X151.380 Y163.299
G1 X171.301 Y143.379 E74.5590
G1 X171.301 Y142.830
G1 X150.830 Y163.299 E75.5219
G1 X150.280 Y163.299
G1 X171.301 Y142.280 E76.5106
G1 X171.301 Y141.730
G1 X149.731 Y163.299 E77.5252
G1 X149.181 Y163.299
G1 X171.301 Y141.180 E78.5656
G1 X171.301 Y140.630
G1 X148.631 Y163.299 E79.6319
G1 X148.081 Y163.299
G1 X171.301 Y140.081 E80.7241
G1 X171.301 Y139.531
G1 X147.531 Y163.299 E81.8421
G1 X146.981 Y163.299
G1 X171.301 Y138.981 E82.9860
G1 X171.301 Y138.431
G1 X146.432 Y163.299 E84.1557
G1 X145.882 Y163.299
G1 X171.301 Y137.881 E85.3513
G1 X171.301 Y137.331
G1 X145.332 Y163.299 E86.5728
G1 X144.782 Y163.299
G1 X171.301 Y136.782 E87.8201
G1 X171.301 Y136.232
G1 X144.232 Y163.299 E89.0933
G1 X143.682 Y163.299
G1 X171.301 Y135.682 E90.3923
G1 X171.301 Y135.132
G1 X143.133 Y163.299 E91.7173
G1 X142.583 Y163.299
G1 X171.301 Y134.582 E93.0680
G1 X171.301 Y134.033
G1 X142.033 Y163.299 E94.4447
G1 X141.483 Y163.299
G1 X171.301 Y133.483 E95.8472
G1 X171.301 Y132.933
G1 X140.933 Y163.299 E97.2755
G1 X140.383 Y163.299
G1 X171.301 Y132.383 E98.7298
G1 X171.301 Y131.833
G1 X139.834 Y163.299 E100.2098
G1 X139.284 Y163.299
G1 X171.301 Y131.283 E101.7158
G1 X171.301 Y130.734
G1 X138.734 Y163.299 E103.2476
G1 X138.184 Y163.299
G1 X171.301 Y130.184 E104.8053
G1 X171.301 Y129.634
G1 X137.634 Y163.299 E106.3888
G1 X137.085 Y163.299
G1 X171.301 Y129.084 E107.9982
G1 X171.301 Y128.534
G1 X136.535 Y163.299 E109.6335
G1 X135.985 Y163.299
G1 X171.301 Y127.985 E111.2946
G1 X171.301 Y127.435
G1 X135.435 Y163.299 E112.9816
G1 X134.885 Y163.299
G1 X171.301 Y126.885 E114.6944
G1 X171.301 Y126.335
G1 X134.335 Y163.299 E116.4331
G1 X133.786 Y163.299
G1 X171.301 Y125.785 E118.1977
G1 X171.301 Y125.236
G1 X133.236 Y163.299 E119.9881
G1 X132.686 Y163.299
G1 X171.301 Y124.686 E121.8044
G1 X171.301 Y124.136
G1 X132.136 Y163.299 E123.6465
G1 X131.586 Y163.299
G1 X171.301 Y123.586 E125.5145
G1 X171.301 Y123.036
G1 X131.036 Y163.299 E127.4084
G1 X130.487 Y163.299
G1 X171.301 Y122.486 E129.3282
G1 X171.301 Y121.937
G1 X129.937 Y163.299 E131.2738
G1 X129.387 Y163.299
G1 X171.301 Y121.387 E133.2452
G1 X171.301 Y120.837
G1 X128.837 Y163.299 E135.2425
G1 X128.287 Y163.299
G1 X171.301 Y120.287 E137.2657
G1 X171.301 Y119.737
G1 X127.737 Y163.299 E139.3148
G1 X127.188 Y163.299
G1 X171.301 Y119.188 E141.3897
G1 X171.301 Y118.638
G1 X126.638 Y163.299 E143.4904
G1 X126.088 Y163.299
G1 X171.301 Y118.088 E145.6171
G1 X171.301 Y117.538
G1 X125.538 Y163.299 E147.7696
G1 X124.988 Y163.299
G1 X171.301 Y116.988 E149.9479
G1 X171.301 Y116.439
G1 X124.438 Y163.299 E152.1522
G1 X123.889 Y163.299
G1 X171.301 Y115.889 E154.3822
G1 X171.301 Y115.339
G1 X123.339 Y163.299 E156.6382
G1 X122.789 Y163.299
G1 X171.301 Y114.789 E158.9200
G1 X171.301 Y114.239
G1 X122.239 Y163.299 E161.2276
G1 X121.689 Y163.299
G1 X171.301 Y113.689 E163.5611
G1 X171.301 Y113.140
G1 X121.140 Y163.299 E165.9205
G1 X120.590 Y163.299
G1 X171.301 Y112.590 E168.3058
G1 X171.301 Y112.040
G1 X120.040 Y163.299 E170.7169
G1 X119.490 Y163.299
G1 X171.301 Y111.490 E173.1539
G1 X171.301 Y110.940
G1 X118.940 Y163.299 E175.6167
G1 X118.390 Y163.299
G1 X171.301 Y110.391 E178.1054
G1 X171.301 Y109.841
G1 X117.841 Y163.299 E180.6200
G1 X117.291 Y163.299
G1 X171.301 Y109.291 E183.1604
G1 X171.301 Y108.741
G1 X116.741 Y163.299 E185.7267
G1 X116.191 Y163.299
G1 X171.301 Y108.191 E188.3188
G1 X171.301 Y107.642
G1 X115.641 Y163.299 E190.9368
G1 X115.091 Y163.299
G1 X171.301 Y107.092 E193.5807
G1 X171.301 Y106.542
G1 X114.542 Y163.299 E196.2504
G1 X113.992 Y163.299
G1 X171.301 Y105.992 E198.9460
G1 X171.301 Y105.442
G1 X113.442 Y163.299 E201.6674
G1 X112.892 Y163.299
G1 X171.301 Y104.892 E204.4148
G1 X171.301 Y104.343
G1 X112.342 Y163.299 E207.1879
G1 X111.792 Y163.299
G1 X171.301 Y103.793 E209.9870
G1 X171.301 Y103.243
G1 X111.243 Y163.299 E212.8119
G1 X110.693 Y163.299
G1 X171.301 Y102.693 E215.6627
G1 X171.301 Y102.143
G1 X110.143 Y163.299 E218.5393
G1 X109.593 Y163.299
G1 X171.301 Y101.594 E221.4418
G1 X171.301 Y101.044
G1 X109.043 Y163.299 E224.3701
G1 X108.494 Y163.299
G1 X171.301 Y100.494 E227.3243
G1 X171.301 Y99.944
G1 X107.944 Y163.299 E230.3044
G1 X107.394 Y163.299
G1 X171.301 Y99.394 E233.3103
G1 X171.301 Y98.844
G1 X106.844 Y163.299 E236.3421
G1 X106.294 Y163.299
G1 X171.301 Y98.295 E239.3998
G1 X171.301 Y97.745
G1 X105.744 Y163.299 E242.4833
G1 X105.195 Y163.299
G1 X171.301 Y97.195 E245.5927
G1 X171.301 Y96.645
G1 X104.645 Y163.299 E248.7279
G1 X104.095 Y163.299
G1 X171.301 Y96.095 E251.8890
G1 X171.301 Y95.546
G1 X103.545 Y163.299 E255.0760
G1 X102.995 Y163.299
G1 X171.301 Y94.996 E258.2888
G1 X171.301 Y94.446
G1 X102.445 Y163.299 E261.5275
G1 X101.896 Y163.299
G1 X171.301 Y93.896 E264.7920
G1 X171.301 Y93.346
G1 X101.346 Y163.299 E268.0824
G1 X100.796 Y163.299
G1 X171.301 Y92.797 E271.3987
G1 X171.301 Y92.247
G1 X100.246 Y163.299 E274.7409
G1 X99.696 Y163.299
G1 X171.301 Y91.697 E278.1089
G1 X171.301 Y91.147
G1 X99.146 Y163.299 E281.5027
G1 X98.597 Y163.299
G1 X171.301 Y90.597 E284.9224
G1 X171.301 Y90.047
G1 X98.047 Y163.299 E288.3680
G1 X97.497 Y163.299
G1 X171.301 Y89.498 E291.8395
G1 X171.301 Y88.948
G1 X96.947 Y163.299 E295.3368
G1 X96.397 Y163.299
G1 X171.301 Y88.398 E298.8599
G1 X171.301 Y87.848
G1 X95.847 Y163.299 E302.4090
G1 X95.298 Y163.299
G1 X171.301 Y87.298 E305.9839
G1 X171.301 Y86.749
G1 X94.748 Y163.299 E309.5846
G1 X94.198 Y163.299
G1 X171.301 Y86.199 E313.2113
G1 X171.301 Y85.649
G1 X93.648 Y163.299 E316.8637
G1 X93.098 Y163.299
G1 X171.301 Y85.099 E320.5421
G1 X171.301 Y84.549
G1 X92.549 Y163.299 E324.2463
G1 X91.999 Y163.299
G1 X171.301 Y84.000 E327.9763
G1 X171.301 Y83.450
G1 X91.449 Y163.299 E331.7323
G1 X90.899 Y163.299
G1 X171.301 Y82.900 E335.5141
G1 X171.301 Y82.350
G1 X90.349 Y163.299 E339.3217
G1 X89.799 Y163.299
G1 X171.301 Y81.800 E343.1552
G1 X171.301 Y81.250
G1 X89.250 Y163.299 E347.0146
G1 X88.700 Y163.299
G1 X171.301 Y80.701 E350.8998
G1 X170.751 Y80.700
G1 X88.699 Y162.750 E354.7592
G1 X88.699 Y162.200
G1 X170.201 Y80.700 E358.5928
G1 X169.651 Y80.700
G1 X88.699 Y161.650 E362.4004
G1 X88.699 Y161.100
G1 X169.101 Y80.700 E366.1823
G1 X168.552 Y80.700
G1 X88.699 Y160.551 E369.9382
G1 X88.699 Y160.001
G1 X168.002 Y80.700 E373.6683
G1 X167.452 Y80.700
G1 X88.699 Y159.451 E377.3725
G1 X88.699 Y158.901
G1 X166.902 Y80.700 E381.0509
G1 X166.352 Y80.700
G1 X88.699 Y158.351 E384.7034
G1 X88.699 Y157.801
G1 X165.803 Y80.700 E388.3301
G1 X165.253 Y80.700
G1 X88.699 Y157.252 E391.9309
G1 X88.699 Y156.702
G1 X164.703 Y80.700 E395.5058
G1 X164.153 Y80.700
G1 X88.699 Y156.152 E399.0549
G1 X88.699 Y155.602
G1 X163.603 Y80.700 E402.5781
G1 X163.053 Y80.700
G1 X88.699 Y155.052 E406.0754
G1 X88.699 Y154.503
G1 X162.504 Y80.700 E409.5469
G1 X161.954 Y80.700
G1 X88.699 Y153.953 E412.9925
G1 X88.699 Y153.403
G1 X161.404 Y80.700 E416.4123
G1 X160.854 Y80.700
G1 X88.699 Y152.853 E419.8062
G1 X88.699 Y152.303
G1 X160.304 Y80.700 E423.1742
G1 X159.754 Y80.700
G1 X88.699 Y151.754 E426.5164
G1 X88.699 Y151.204
G1 X159.205 Y80.700 E429.8327
G1 X158.655 Y80.700
G1 X88.699 Y150.654 E433.1231
G1 X88.699 Y150.104
G1 X158.105 Y80.700 E436.3877
G1 X157.555 Y80.700
G1 X88.699 Y149.554 E439.6264
G1 X88.699 Y149.004
G1 X157.005 Y80.700 E442.8393
G1 X156.455 Y80.700
G1 X88.699 Y148.455 E446.0263
G1 X88.699 Y147.905
G1 X155.906 Y80.700 E449.1874
G1 X155.356 Y80.700
G1 X88.699 Y147.355 E452.3227
G1 X88.699 Y146.805
G1 X154.806 Y80.700 E455.4321
G1 X154.256 Y80.700
G1 X88.699 Y146.255 E458.5157
G1 X88.699 Y145.706
G1 X153.706 Y80.700 E461.5734
G1 X153.156 Y80.700
G1 X88.699 Y145.156 E464.6052
G1 X88.699 Y144.606
G1 X152.607 Y80.700 E467.6111
G1 X152.057 Y80.700
G1 X88.699 Y144.056 E470.5912
G1 X88.699 Y143.506
G1 X151.507 Y80.700 E473.5455
G1 X150.957 Y80.700
G1 X88.699 Y142.956 E476.4739
G1 X88.699 Y142.407
G1 X150.407 Y80.700 E479.3764
G1 X149.857 Y80.700
G1 X88.699 Y141.857 E482.2530
G1 X88.699 Y141.307
G1 X149.308 Y80.700 E485.1038
G1 X148.758 Y80.700
G1 X88.699 Y140.757 E487.9288
G1 X88.699 Y140.207
G1 X148.208 Y80.700 E490.7278
G1 X147.658 Y80.700
G1 X88.699 Y139.658 E493.5010
G1 X88.699 Y139.108
G1 X147.108 Y80.700 E496.2484
G1 X146.559 Y80.700
G1 X88.699 Y138.558 E498.9699
G1 X88.699 Y138.008
G1 X146.009 Y80.700 E501.6655
G1 X145.459 Y80.700
G1 X88.699 Y137.458 E504.3353
G1 X88.699 Y136.909
G1 X144.909 Y80.700 E506.9792
G1 X144.359 Y80.700
G1 X88.699 Y136.359 E509.5972
G1 X88.699 Y135.809
G1 X143.809 Y80.700 E512.1894
G1 X143.260 Y80.700
G1 X88.699 Y135.259 E514.7556
G1 X88.699 Y134.709
G1 X142.710 Y80.700 E517.2961
G1 X142.160 Y80.700
G1 X88.699 Y134.159 E519.8107
G1 X88.699 Y133.610
G1 X141.610 Y80.700 E522.2994
G1 X141.060 Y80.700
G1 X88.699 Y133.060 E524.7623
G1 X88.699 Y132.510
G1 X140.510 Y80.700 E527.1993
G1 X139.961 Y80.700
G1 X88.699 Y131.960 E529.6104
G1 X88.699 Y131.410
G1 X139.411 Y80.700 E531.9957
G1 X138.861 Y80.700
G1 X88.699 Y130.861 E534.3551
G1 X88.699 Y130.311
G1 X138.311 Y80.700 E536.6887
G1 X137.761 Y80.700
G1 X88.699 Y129.761 E538.9964
G1 X88.699 Y129.211
G1 X137.211 Y80.700 E541.2782
G1 X136.662 Y80.700
G1 X88.699 Y128.661 E543.5341
G1 X88.699 Y128.111
G1 X136.112 Y80.700 E545.7642
G1 X135.562 Y80.700
G1 X88.699 Y127.562 E547.9685
G1 X88.699 Y127.012
G1 X135.012 Y80.700 E550.1469
G1 X134.462 Y80.700
G1 X88.699 Y126.462 E552.2994
G1 X88.699 Y125.912
G1 X133.912 Y80.700 E554.4261
G1 X133.363 Y80.700
G1 X88.699 Y125.362 E556.5268
G1 X88.699 Y124.813
G1 X132.813 Y80.700 E558.6018
G1 X132.263 Y80.700
G1 X88.699 Y124.263 E560.6508
G1 X88.699 Y123.713
G1 X131.713 Y80.700 E562.6740
G1 X131.163 Y80.700
G1 X88.699 Y123.163 E564.6714
G1 X88.699 Y122.613
G1 X130.613 Y80.700 E566.6428
G1 X130.064 Y80.700
G1 X88.699 Y122.063 E568.5885
G1 X88.699 Y121.514
G1 X129.514 Y80.700 E570.5082
G1 X128.964 Y80.700
G1 X88.699 Y120.964 E572.4021
G1 X88.699 Y120.414
G1 X128.414 Y80.700 E574.2702
G1 X127.864 Y80.700
G1 X88.699 Y119.864 E576.1123
G1 X88.699 Y119.314
G1 X127.314 Y80.700 E577.9286
G1 X126.765 Y80.700
G1 X88.699 Y118.765 E579.7191
G1 X88.699 Y118.215
G1 X126.215 Y80.700 E581.4837
G1 X125.665 Y80.700
G1 X88.699 Y117.665 E583.2224
G1 X88.699 Y117.115
G1 X125.115 Y80.700 E584.9353
G1 X124.565 Y80.700
G1 X88.699 Y116.565 E586.6223
G1 X88.699 Y116.016
G1 X124.016 Y80.700 E588.2834
G1 X123.466 Y80.700
G1 X88.699 Y115.466 E589.9187
G1 X88.699 Y114.916
G1 X122.916 Y80.700 E591.5281
G1 X122.366 Y80.700
G1 X88.699 Y114.366 E593.1117
G1 X88.699 Y113.816
G1 X121.816 Y80.700 E594.6693
G1 X121.266 Y80.700
G1 X88.699 Y113.266 E596.2011
G1 X88.699 Y112.717
G1 X120.717 Y80.700 E597.7071
G1 X120.167 Y80.700
G1 X88.699 Y112.167 E599.1872
G1 X88.699 Y111.617
G1 X119.617 Y80.700 E600.6414
G1 X119.067 Y80.700
G1 X88.699 Y111.067 E602.0698
G1 X88.699 Y110.517
G1 X118.517 Y80.700 E603.4724
G1 X117.967 Y80.700
G1 X88.699 Y109.968 E604.8490
G1 X88.699 Y109.418
G1 X117.418 Y80.700 E606.1998
G1 X116.868 Y80.700
G1 X88.699 Y108.868 E607.5247
G1 X88.699 Y108.318
G1 X116.318 Y80.700 E608.8238
G1 X115.768 Y80.700
G1 X88.699 Y107.768 E610.0970
G1 X88.699 Y107.218
G1 X115.218 Y80.700 E611.3444
G1 X114.668 Y80.700
G1 X88.699 Y106.669 E612.5659
G1 X88.699 Y106.119
G1 X114.119 Y80.700 E613.7615
G1 X113.569 Y80.700
G1 X88.699 Y105.569 E614.9312
G1 X88.699 Y105.019
G1 X113.019 Y80.700 E616.0752
G1 X112.469 Y80.700
G1 X88.699 Y104.469 E617.1932
G1 X88.699 Y103.920
G1 X111.919 Y80.700 E618.2854
G1 X111.369 Y80.700
G1 X88.699 Y103.370 E619.3516
G1 X88.699 Y102.820
G1 X110.820 Y80.700 E620.3921
G1 X110.270 Y80.700
G1 X88.699 Y102.270 E621.4067
G1 X88.699 Y101.720
G1 X109.720 Y80.700 E622.3954
G1 X109.170 Y80.700
G1 X88.699 Y101.170 E623.3583
G1 X88.699 Y100.621
G1 X108.620 Y80.700 E624.2953
G1 X108.070 Y80.700
G1 X88.699 Y100.071 E625.2064
G1 X88.699 Y99.521
G1 X107.521 Y80.700 E626.0917
G1 X106.971 Y80.700
G1 X88.699 Y98.971 E626.9511
G1 X88.699 Y98.421
G1 X106.421 Y80.700 E627.7847
G1 X105.871 Y80.700
G1 X88.699 Y97.872 E628.5924
G1 X88.699 Y97.322
G1 X105.321 Y80.700 E629.3742
G1 X104.771 Y80.700
G1 X88.699 Y96.772 E630.1302
G1 X88.699 Y96.222
G1 X104.222 Y80.700 E630.8603
G1 X103.672 Y80.700
G1 X88.699 Y95.672 E631.5645
G1 X88.699 Y95.123
G1 X103.122 Y80.700 E632.2429
G1 X102.572 Y80.700
G1 X88.699 Y94.573 E632.8955
G1 X88.699 Y94.023
G1 X102.022 Y80.700 E633.5221
G1 X101.473 Y80.700
G1 X88.699 Y93.473 E634.1229
G1 X88.699 Y92.923
G1 X100.923 Y80.700 E634.6978
G1 X100.373 Y80.700
G1 X88.699 Y92.373 E635.2469
G1 X88.699 Y91.824
G1 X99.823 Y80.700 E635.7701
G1 X99.273 Y80.700
G1 X88.699 Y91.274 E636.2675
G1 X88.699 Y90.724
G1 X98.723 Y80.700 E636.7390
G1 X98.174 Y80.700
G1 X88.699 Y90.174 E637.1846
G1 X88.699 Y89.624
G1 X97.624 Y80.700 E637.6043
G1 X97.074 Y80.700
G1 X88.699 Y89.075 E637.9983
G1 X88.699 Y88.525
G1 X96.524 Y80.700 E638.3663
G1 X95.974 Y80.700
G1 X88.699 Y87.975 E638.7085
G1 X88.699 Y87.425
G1 X95.424 Y80.700 E639.0248
G1 X94.875 Y80.700
G1 X88.699 Y86.875 E639.3153
G1 X88.699 Y86.325
G1 X94.325 Y80.700 E639.5799
G1 X93.775 Y80.700
G1 X88.699 Y85.776 E639.8186
G1 X88.699 Y85.226
G1 X93.225 Y80.700 E640.0315
G1 X92.675 Y80.700
G1 X88.699 Y84.676 E640.2185
G1 X88.699 Y84.126
G1 X92.125 Y80.700 E640.3796
G1 X91.576 Y80.700
G1 X88.699 Y83.576 E640.5149
G1 X88.699 Y83.027
G1 X91.026 Y80.700 E640.6243
G1 X90.476 Y80.700
G1 X88.699 Y82.477 E640.7078
G1 X88.699 Y81.927
G1 X89.926 Y80.700 E640.7655
G1 X89.376 Y80.700
G1 X88.699 Y81.377 E640.7974
G1 X88.699 Y80.827
G1 X88.826 Y80.700 E640.8034
; ------------------------------------
; Layer #1
; ------------------------------------
G21 ; mm
G90 ; abs
G92 E0 ; reset extr
M106 S0
;segType:Loop
G0 F1200 E-1.0000
G0 F300 Z0.400
G0 X90.725 Y159.761 F5400
G0 F1200 E0.0000
G1 X90.725 Y81.630 E2.5986 F3000
G1 X169.525 Y81.630 E5.2195
G1 X169.525 Y100.282 E5.8399
G1 X161.890 Y107.916 E6.1990
G1 X109.376 Y160.430 E8.6691
G1 X90.725 Y160.430 E9.2894
G1 X90.725 Y159.955 E9.3052
;segType:Perimeter
G0 X90.972 Y160.504 F5400
G1 X90.325 Y160.772 E9.3285 F2100
G1 X90.325 Y81.230 E11.9741
G1 X169.925 Y81.230 E14.6216
G1 X169.925 Y100.448 E15.2607
G1 X162.173 Y108.199 E15.6254
G1 X109.542 Y160.830 E18.1010
G1 X90.383 Y160.830 E18.7382
G1 X90.651 Y160.184
;segType:Loop
G0 X91.125 Y158.692 F5400
G1 X91.125 Y82.030 E21.2880 F3000
G1 X169.125 Y82.030 E23.8822
G1 X169.125 Y100.116 E24.4838
G1 X109.211 Y160.030 E27.3020
G1 X91.125 Y160.030 E27.9035
G1 X91.125 Y158.886 E27.9415
G0 X102.093 Y151.464 F5400
G1 X101.815 Y151.694 E27.9535 F3000
G1 X101.100 Y152.031 E27.9798
G1 X100.323 Y152.179 E28.0061
G1 X99.534 Y152.129 E28.0324
G1 X98.782 Y151.885 E28.0587
G1 X98.114 Y151.461 E28.0850
G1 X97.573 Y150.885 E28.1113
G1 X97.192 Y150.192 E28.1376
G1 X96.995 Y149.426 E28.1639
G1 X96.995 Y148.635 E28.1903
G1 X97.192 Y147.869 E28.2165
G1 X97.573 Y147.176 E28.2428
G1 X98.114 Y146.600 E28.2692
G1 X98.782 Y146.176 E28.2954
G1 X99.534 Y145.931 E28.3218
G1 X100.323 Y145.882 E28.3481
G1 X101.100 Y146.030 E28.3744
G1 X101.815 Y146.367 E28.4007
G1 X102.425 Y146.871 E28.4270
G1 X102.890 Y147.510 E28.4533
G1 X103.180 Y148.246 E28.4796
G1 X103.280 Y149.030 E28.5059
G1 X103.180 Y149.815 E28.5322
G1 X102.890 Y150.550 E28.5585
G1 X102.425 Y151.190 E28.5848
G1 X102.243 Y151.340 E28.5926
;segType:Perimeter
G0 X103.161 Y150.166 F5400
G1 X102.502 Y150.403 E28.6159 F2100
G1 X102.131 Y150.914 E28.6369
G1 X101.599 Y151.353 E28.6598
G1 X100.975 Y151.647 E28.6828
G1 X100.298 Y151.776 E28.7057
G1 X99.610 Y151.733 E28.7286
G1 X98.953 Y151.520 E28.7516
G1 X98.371 Y151.150 E28.7745
G1 X97.899 Y150.648 E28.7975
G1 X97.567 Y150.043 E28.8204
G1 X97.395 Y149.375 E28.8433
G1 X97.395 Y148.685 E28.8663
G1 X97.567 Y148.017 E28.8892
G1 X97.899 Y147.413 E28.9122
G1 X98.371 Y146.910 E28.9351
G1 X98.953 Y146.541 E28.9580
G1 X99.610 Y146.327 E28.9810
G1 X100.298 Y146.284 E29.0039
G1 X100.975 Y146.413 E29.0269
G1 X101.599 Y146.707 E29.0498
G1 X102.131 Y147.147 E29.0727
G1 X102.536 Y147.705 E29.0957
G1 X102.790 Y148.346 E29.1186
G1 X102.877 Y149.030 E29.1416
G1 X102.790 Y149.714 E29.1645
G1 X102.558 Y150.302 E29.1855
G1 X102.711 Y150.985
;segType:Loop
G0 X101.345 Y152.357 F5400
G1 X101.225 Y152.414 E29.1899 F3000
G1 X100.348 Y152.581 E29.2196
G1 X99.458 Y152.525 E29.2493
G1 X98.610 Y152.250 E29.2789
G1 X97.857 Y151.772 E29.3086
G1 X97.247 Y151.122 E29.3382
G1 X96.817 Y150.340 E29.3679
G1 X96.595 Y149.476 E29.3976
G1 X96.595 Y148.584 E29.4272
G1 X96.817 Y147.721 E29.4569
G1 X97.247 Y146.939 E29.4866
G1 X97.857 Y146.289 E29.5162
G1 X98.610 Y145.811 E29.5459
G1 X99.458 Y145.535 E29.5756
G1 X100.348 Y145.480 E29.6052
G1 X101.225 Y145.647 E29.6349
G1 X102.031 Y146.026 E29.6645
G1 X102.719 Y146.594 E29.6942
G1 X103.243 Y147.316 E29.7239
G1 X103.571 Y148.146 E29.7535
G1 X103.683 Y149.030 E29.7832
G1 X103.571 Y149.915 E29.8128
G1 X103.243 Y150.744 E29.8425
G1 X102.719 Y151.466 E29.8722
G1 X102.031 Y152.034 E29.9018
G1 X101.521 Y152.274 E29.9206
;segType:HShell
G0 X122.355 Y137.026 F5400
G1 X127.144 Y141.814 E30.1459 F3000
G1 X127.419 Y141.540
G1 X122.743 Y136.865 E30.3658
;segType:Perimeter
G0 X122.113 Y136.597 F5400
G1 X121.485 Y136.287 E30.3890 F2100
G1 X120.196 Y136.457 E30.4323
G1 X118.850 Y136.280 E30.4774
G1 X117.595 Y135.760 E30.5226
G1 X116.528 Y134.941 E30.5673
G1 X112.974 Y131.387 E30.7345
G1 X112.156 Y130.320 E30.7792
G1 X111.636 Y129.066 E30.8244
G1 X111.459 Y127.719 E30.8696
G1 X111.636 Y126.373 E30.9147
G1 X112.156 Y125.118 E30.9599
G1 X112.974 Y124.052 E31.0046
G1 X133.146 Y103.880 E31.9535
G1 X134.213 Y103.061 E31.9982
G1 X135.468 Y102.541 E32.0433
G1 X136.814 Y102.364 E32.0885
G1 X138.161 Y102.541 E32.1337
G1 X139.415 Y103.061 E32.1788
G1 X140.482 Y103.880 E32.2236
G1 X144.036 Y107.433 E32.3907
G1 X144.855 Y108.500 E32.4355
G1 X145.325 Y109.636 E32.4763
G1 X145.391 Y109.883 E32.4849
G1 X145.551 Y111.101 E32.5257
G1 X145.374 Y112.448 E32.5709
G1 X144.855 Y113.702 E32.6161
G1 X144.036 Y114.769 E32.6608
G1 X123.864 Y134.941 E33.6096
G1 X122.797 Y135.760 E33.6544
G1 X121.597 Y136.257 E33.6976
G1 X121.208 Y136.839
;segType:Loop
G0 X120.535 Y136.815 F5400
G1 X120.196 Y136.860 E33.7089 F3000
G1 X118.746 Y136.669 E33.7576
G1 X117.393 Y136.109 E33.8063
G1 X116.264 Y135.243 E33.8536
G1 X112.673 Y131.651 E34.0225
G1 X111.806 Y130.522 E34.0699
G1 X111.246 Y129.170 E34.1186
G1 X111.055 Y127.719 E34.1672
G1 X111.246 Y126.269 E34.2159
G1 X111.806 Y124.917 E34.2646
G1 X112.673 Y123.787 E34.3119
G1 X132.882 Y103.578 E35.2625
G1 X134.011 Y102.712 E35.3098
G1 X135.363 Y102.152 E35.3585
G1 X136.814 Y101.960 E35.4072
G1 X138.265 Y102.152 E35.4558
G1 X139.617 Y102.712 E35.5045
G1 X140.746 Y103.578 E35.5519
G1 X144.337 Y107.169 E35.7208
G1 X145.204 Y108.299 E35.7681
G1 X145.704 Y109.507 E35.8116
G1 X145.784 Y109.805 E35.8219
G1 X145.955 Y111.101 E35.8654
G1 X145.764 Y112.552 E35.9140
G1 X145.204 Y113.904 E35.9627
G1 X144.337 Y115.033 E36.0101
G1 X124.128 Y135.243 E36.9606
G1 X122.999 Y136.109 E37.0080
G1 X121.647 Y136.669 E37.0566
G1 X120.728 Y136.790 E37.0875
G0 X119.423 Y137.162 F5400
G1 X118.641 Y137.059 E37.1137 F3000
G1 X117.192 Y136.459 E37.1659
G1 X116.000 Y135.544 E37.2159
G1 X112.372 Y131.916 E37.3865
G1 X111.457 Y130.724 E37.4365
G1 X110.857 Y129.274 E37.4887
G1 X110.652 Y127.719 E37.5408
G1 X110.857 Y126.164 E37.5930
G1 X111.457 Y124.715 E37.6452
G1 X112.372 Y123.523 E37.6952
G1 X132.618 Y103.277 E38.6475
G1 X133.810 Y102.362 E38.6974
G1 X135.259 Y101.762 E38.7496
G1 X136.814 Y101.557 E38.8018
G1 X138.370 Y101.762 E38.8540
G1 X139.819 Y102.362 E38.9061
G1 X141.010 Y103.277 E38.9561
G1 X144.639 Y106.905 E39.1268
G1 X145.553 Y108.097 E39.1767
G1 X146.084 Y109.378 E39.2229
G1 X146.177 Y109.727 E39.2349
G1 X146.359 Y111.101 E39.2810
G1 X146.154 Y112.656 E39.3332
G1 X145.553 Y114.106 E39.3853
G1 X144.639 Y115.298 E39.4353
G1 X124.392 Y135.544 E40.3876
G1 X123.200 Y136.459 E40.4376
G1 X121.752 Y137.059 E40.4898
G1 X120.196 Y137.263 E40.5419
G1 X119.615 Y137.187 E40.5614
G0 X112.828 Y131.515 F5400
G0 X103.576 Y120.447
;segType:HShell
G1 X110.496 Y127.367 E40.8869 F3000
G1 X110.560 Y126.881
G1 X103.731 Y120.052 E41.2081
;segType:Perimeter
G0 X103.161 Y120.166 F5400
G1 X102.502 Y120.403 E41.2314 F2100
G1 X102.131 Y120.914 E41.2524
G1 X101.599 Y121.353 E41.2754
G1 X100.975 Y121.647 E41.2983
G1 X100.298 Y121.776 E41.3212
G1 X99.610 Y121.733 E41.3442
G1 X98.954 Y121.520 E41.3671
G1 X98.371 Y121.150 E41.3901
G1 X97.899 Y120.648 E41.4130
G1 X97.567 Y120.043 E41.4359
G1 X97.395 Y119.375 E41.4589
G1 X97.395 Y118.685 E41.4818
G1 X97.567 Y118.018 E41.5048
G1 X97.899 Y117.413 E41.5277
G1 X98.371 Y116.910 E41.5506
G1 X98.953 Y116.541 E41.5736
G1 X99.610 Y116.327 E41.5965
G1 X100.298 Y116.284 E41.6195
G1 X100.975 Y116.413 E41.6424
G1 X101.599 Y116.707 E41.6653
G1 X102.131 Y117.147 E41.6883
G1 X102.536 Y117.705 E41.7112
G1 X102.790 Y118.346 E41.7342
G1 X102.877 Y119.030 E41.7571
G1 X102.790 Y119.714 E41.7800
G1 X102.558 Y120.302 E41.8010
G1 X102.711 Y120.985
;segType:Loop
G0 X102.093 Y121.464 F5400
G1 X101.815 Y121.694 E41.8130 F3000
G1 X101.100 Y122.030 E41.8393
G1 X100.323 Y122.179 E41.8656
G1 X99.534 Y122.129 E41.8919
G1 X98.782 Y121.885 E41.9182
G1 X98.114 Y121.461 E41.9445
G1 X97.573 Y120.885 E41.9708
G1 X97.192 Y120.192 E41.9971
G1 X96.995 Y119.426 E42.0234
G1 X96.995 Y118.635 E42.0498
G1 X97.192 Y117.869 E42.0760
G1 X97.573 Y117.176 E42.1023
G1 X98.114 Y116.600 E42.1287
G1 X98.782 Y116.176 E42.1550
G1 X99.534 Y115.931 E42.1813
G1 X100.323 Y115.882 E42.2076
G1 X101.100 Y116.030 E42.2339
G1 X101.815 Y116.367 E42.2602
G1 X102.425 Y116.871 E42.2865
G1 X102.890 Y117.511 E42.3128
G1 X103.180 Y118.246 E42.3391
G1 X103.280 Y119.030 E42.3654
G1 X103.180 Y119.815 E42.3917
G1 X102.890 Y120.550 E42.4180
G1 X102.425 Y121.190 E42.4443
G1 X102.243 Y121.340 E42.4521
G0 X101.345 Y122.357 F5400
G1 X101.225 Y122.414 E42.4565 F3000
G1 X100.348 Y122.581 E42.4862
G1 X99.458 Y122.525 E42.5158
G1 X98.610 Y122.250 E42.5455
G1 X97.857 Y121.772 E42.5752
G1 X97.247 Y121.122 E42.6048
G1 X96.817 Y120.340 E42.6345
G1 X96.595 Y119.476 E42.6642
G1 X96.595 Y118.584 E42.6938
G1 X96.817 Y117.721 E42.7235
G1 X97.247 Y116.939 E42.7532
G1 X97.857 Y116.289 E42.7828
G1 X98.610 Y115.811 E42.8125
G1 X99.458 Y115.535 E42.8421
G1 X100.348 Y115.479 E42.8718
G1 X101.225 Y115.647 E42.9015
G1 X102.031 Y116.026 E42.9311
G1 X102.719 Y116.594 E42.9608
G1 X103.243 Y117.316 E42.9905
G1 X103.571 Y118.146 E43.0201
G1 X103.683 Y119.030 E43.0498
G1 X103.571 Y119.915 E43.0794
G1 X103.243 Y120.744 E43.1091
G1 X102.719 Y121.466 E43.1388
G1 X102.031 Y122.034 E43.1684
G1 X101.520 Y122.274 E43.1872
;segType:HShell
G0 X126.140 Y109.472 F5400
G1 X123.826 Y107.158 E43.2960 F3000
G1 X123.961 Y106.743
G1 X126.415 Y109.197 E43.4114
G1 X126.690 Y108.922
G1 X124.016 Y106.248 E43.5372
;segType:Perimeter
G0 X123.523 Y106.269 F5400
G1 X122.947 Y106.667 E43.5605 F2100
G1 X122.749 Y107.146 E43.5778
G1 X122.407 Y107.592 E43.5964
G1 X116.687 Y113.312 E43.8655
G1 X116.241 Y113.654 E43.8842
G1 X115.710 Y113.874 E43.9033
G1 X115.140 Y113.949 E43.9224
G1 X114.571 Y113.874 E43.9415
G1 X114.039 Y113.654 E43.9606
G1 X113.584 Y113.304 E43.9797
G1 X113.234 Y112.848 E43.9989
G1 X113.019 Y112.329 E44.0175
G1 X110.925 Y104.515 E44.2866
G1 X110.852 Y103.959 E44.3053
G1 X110.927 Y103.389 E44.3244
G1 X111.147 Y102.858 E44.3435
G1 X111.497 Y102.402 E44.3626
G1 X111.953 Y102.052 E44.3817
G1 X112.484 Y101.832 E44.4008
G1 X113.054 Y101.757 E44.4200
G1 X113.610 Y101.830 E44.4386
G1 X121.424 Y103.924 E44.7077
G1 X121.943 Y104.139 E44.7264
G1 X122.399 Y104.489 E44.7455
G1 X122.749 Y104.945 E44.7646
G1 X122.969 Y105.476 E44.7837
G1 X123.037 Y105.997 E44.8012
G1 X122.976 Y106.555 E44.8199
G1 X123.289 Y107.181
;segType:Loop
G0 X122.766 Y107.780 F5400
G1 X122.708 Y107.856 E44.8231 F3000
G1 X116.951 Y113.613 E45.0939
G1 X116.443 Y114.003 E45.1152
G1 X115.815 Y114.264 E45.1378
G1 X115.140 Y114.352 E45.1604
G1 X114.466 Y114.264 E45.1830
G1 X113.838 Y114.003 E45.2057
G1 X113.298 Y113.589 E45.2283
G1 X112.884 Y113.050 E45.2509
G1 X112.639 Y112.458 E45.2722
G1 X110.532 Y104.594 E45.5430
G1 X110.448 Y103.959 E45.5643
G1 X110.537 Y103.284 E45.5869
G1 X110.797 Y102.656 E45.6095
G1 X111.211 Y102.117 E45.6322
G1 X111.751 Y101.702 E45.6548
G1 X112.379 Y101.442 E45.6774
G1 X113.054 Y101.353 E45.7000
G1 X113.689 Y101.437 E45.7213
G1 X121.553 Y103.544 E45.9921
G1 X122.145 Y103.789 E46.0134
G1 X122.684 Y104.203 E46.0360
G1 X123.098 Y104.743 E46.0586
G1 X123.358 Y105.371 E46.0813
G1 X123.440 Y105.993 E46.1021
G1 X123.361 Y106.714 E46.1262
G1 X123.098 Y107.348 E46.1491
G1 X122.885 Y107.626 E46.1607
G0 X122.302 Y108.828 F5400
G1 X117.215 Y113.915 E46.4000 F3000
G1 X116.645 Y114.353 E46.4239
G1 X115.919 Y114.653 E46.4501
G1 X115.140 Y114.755 E46.4762
G1 X114.362 Y114.653 E46.5023
G1 X113.636 Y114.353 E46.5284
G1 X113.013 Y113.874 E46.5546
G1 X112.535 Y113.251 E46.5807
G1 X112.260 Y112.587 E46.6046
G1 X110.139 Y104.672 E46.8771
G1 X110.044 Y103.959 E46.9011
G1 X110.147 Y103.180 E46.9272
G1 X110.448 Y102.454 E46.9533
G1 X110.926 Y101.831 E46.9794
G1 X111.549 Y101.353 E47.0056
G1 X112.275 Y101.053 E47.0317
G1 X113.054 Y100.950 E47.0578
G1 X113.767 Y101.044 E47.0818
G1 X121.682 Y103.165 E47.3543
G1 X122.346 Y103.440 E47.3782
G1 X122.969 Y103.918 E47.4043
G1 X123.448 Y104.541 E47.4304
G1 X123.748 Y105.267 E47.4566
G1 X123.843 Y105.989 E47.4808
G1 X123.752 Y106.814 E47.5084
G1 X123.448 Y107.550 E47.5349
G1 X123.010 Y108.120 E47.5588
G1 X122.440 Y108.690 E47.5856
G0 X123.149 Y106.688 F5400
G0 X125.386 Y89.946
G0 X126.247 Y88.760
G0 X127.573 Y88.136
G0 X128.746 Y87.962
G1 X129.100 Y88.030 E47.5976 F3000
G1 X129.815 Y88.367 E47.6239
G1 X130.425 Y88.870 E47.6502
G1 X130.890 Y89.510 E47.6765
G1 X131.181 Y90.246 E47.7028
G1 X131.280 Y91.030 E47.7291
G1 X131.181 Y91.815 E47.7554
G1 X130.890 Y92.550 E47.7817
G1 X130.425 Y93.190 E47.8080
G1 X129.815 Y93.694 E47.8343
G1 X129.100 Y94.031 E47.8606
G1 X128.323 Y94.179 E47.8869
G1 X127.534 Y94.129 E47.9132
G1 X126.782 Y93.885 E47.9395
G1 X126.114 Y93.461 E47.9658
G1 X125.573 Y92.885 E47.9921
G1 X125.192 Y92.191 E48.0184
G1 X124.995 Y91.426 E48.0447
G1 X124.995 Y90.635 E48.0710
G1 X125.192 Y89.869 E48.0973
G1 X125.573 Y89.176 E48.1236
G1 X126.114 Y88.599 E48.1499
G1 X126.782 Y88.176 E48.1762
G1 X127.534 Y87.931 E48.2025
G1 X128.323 Y87.882 E48.2288
G1 X128.555 Y87.926 E48.2367
;segType:Perimeter
G0 X127.065 Y87.968 F5400
G1 X127.668 Y88.324 E48.2600 F2100
G1 X128.298 Y88.284 E48.2809
G1 X128.975 Y88.413 E48.3039
G1 X129.599 Y88.707 E48.3268
G1 X130.131 Y89.147 E48.3498
G1 X130.536 Y89.705 E48.3727
G1 X130.790 Y90.346 E48.3957
G1 X130.877 Y91.030 E48.4186
G1 X130.790 Y91.715 E48.4415
G1 X130.536 Y92.356 E48.4645
G1 X130.131 Y92.914 E48.4874
G1 X129.599 Y93.353 E48.5103
G1 X128.975 Y93.647 E48.5333
G1 X128.298 Y93.776 E48.5562
G1 X127.610 Y93.733 E48.5792
G1 X126.954 Y93.520 E48.6021
G1 X126.371 Y93.150 E48.6251
G1 X125.899 Y92.648 E48.6480
G1 X125.567 Y92.043 E48.6709
G1 X125.395 Y91.375 E48.6939
G1 X125.395 Y90.685 E48.7168
G1 X125.567 Y90.017 E48.7398
G1 X125.899 Y89.413 E48.7627
G1 X126.371 Y88.910 E48.7856
G1 X126.954 Y88.541 E48.8086
G1 X127.554 Y88.345 E48.8296
G1 X127.983 Y87.792
;segType:Loop
G0 X129.911 Y87.970 F5400
G1 X130.031 Y88.026 E48.8340 F3000
G1 X130.719 Y88.594 E48.8637
G1 X131.243 Y89.316 E48.8933
G1 X131.571 Y90.146 E48.9230
G1 X131.683 Y91.030 E48.9527
G1 X131.571 Y91.915 E48.9823
G1 X131.243 Y92.744 E49.0120
G1 X130.719 Y93.466 E49.0416
G1 X130.031 Y94.034 E49.0713
G1 X129.225 Y94.414 E49.1010
G1 X128.348 Y94.581 E49.1306
G1 X127.458 Y94.525 E49.1603
G1 X126.610 Y94.250 E49.1899
G1 X125.857 Y93.772 E49.2196
G1 X125.247 Y93.121 E49.2493
G1 X124.817 Y92.340 E49.2789
G1 X124.595 Y91.476 E49.3086
G1 X124.595 Y90.584 E49.3383
G1 X124.817 Y89.720 E49.3679
G1 X125.247 Y88.939 E49.3976
G1 X125.857 Y88.289 E49.4273
G1 X126.610 Y87.811 E49.4569
G1 X127.458 Y87.535 E49.4866
G1 X128.348 Y87.479 E49.5162
G1 X129.225 Y87.647 E49.5459
G1 X129.735 Y87.887 E49.5647
;segType:HShell
G0 X156.944 Y87.492 F5400
G1 X151.682 Y82.230 E49.8122 F3000
G1 X152.231 Y82.230
G1 X157.359 Y87.357 E50.0534
;segType:Perimeter
G0 X157.065 Y87.968 F5400
G1 X157.668 Y88.324 E50.0767 F2100
G1 X158.298 Y88.284 E50.0977
G1 X158.975 Y88.413 E50.1206
G1 X159.600 Y88.707 E50.1435
G1 X160.131 Y89.147 E50.1665
G1 X160.536 Y89.705 E50.1894
G1 X160.790 Y90.346 E50.2124
G1 X160.877 Y91.030 E50.2353
G1 X160.790 Y91.715 E50.2582
G1 X160.536 Y92.356 E50.2812
G1 X160.131 Y92.914 E50.3041
G1 X159.600 Y93.353 E50.3271
G1 X158.975 Y93.647 E50.3500
G1 X158.298 Y93.776 E50.3729
G1 X157.609 Y93.733 E50.3959
G1 X156.953 Y93.520 E50.4188
G1 X156.371 Y93.150 E50.4418
G1 X155.899 Y92.648 E50.4647
G1 X155.567 Y92.043 E50.4876
G1 X155.395 Y91.375 E50.5106
G1 X155.395 Y90.685 E50.5335
G1 X155.567 Y90.017 E50.5565
G1 X155.899 Y89.413 E50.5794
G1 X156.371 Y88.910 E50.6023
G1 X156.954 Y88.541 E50.6253
G1 X157.554 Y88.345 E50.6463
G1 X157.983 Y87.792
;segType:Loop
G0 X158.745 Y87.962 F5400
G1 X159.100 Y88.030 E50.6583 F3000
G1 X159.815 Y88.367 E50.6846
G1 X160.425 Y88.870 E50.7109
G1 X160.890 Y89.510 E50.7372
G1 X161.181 Y90.246 E50.7635
G1 X161.280 Y91.030 E50.7898
G1 X161.181 Y91.815 E50.8161
G1 X160.890 Y92.550 E50.8424
G1 X160.425 Y93.190 E50.8687
G1 X159.815 Y93.694 E50.8950
G1 X159.100 Y94.031 E50.9213
G1 X158.323 Y94.179 E50.9476
G1 X157.534 Y94.129 E50.9739
G1 X156.782 Y93.885 E51.0002
G1 X156.114 Y93.461 E51.0265
G1 X155.573 Y92.885 E51.0528
G1 X155.192 Y92.191 E51.0791
G1 X154.995 Y91.426 E51.1054
G1 X154.995 Y90.635 E51.1317
G1 X155.192 Y89.869 E51.1580
G1 X155.573 Y89.176 E51.1843
G1 X156.114 Y88.599 E51.2106
G1 X156.782 Y88.176 E51.2369
G1 X157.534 Y87.931 E51.2632
G1 X158.323 Y87.882 E51.2895
G1 X158.555 Y87.926 E51.2974
G0 X159.911 Y87.970 F5400
G1 X160.031 Y88.026 E51.3018 F3000
G1 X160.718 Y88.594 E51.3314
G1 X161.243 Y89.316 E51.3611
G1 X161.571 Y90.146 E51.3908
G1 X161.683 Y91.030 E51.4204
G1 X161.571 Y91.915 E51.4501
G1 X161.243 Y92.744 E51.4798
G1 X160.718 Y93.466 E51.5094
G1 X160.031 Y94.034 E51.5391
G1 X159.225 Y94.414 E51.5687
G1 X158.348 Y94.581 E51.5984
G1 X157.458 Y94.525 E51.6281
G1 X156.610 Y94.250 E51.6577
G1 X155.857 Y93.771 E51.6874
G1 X155.247 Y93.121 E51.7171
G1 X154.817 Y92.340 E51.7467
G1 X154.595 Y91.476 E51.7764
G1 X154.595 Y90.584 E51.8060
G1 X154.817 Y89.720 E51.8357
G1 X155.247 Y88.939 E51.8654
G1 X155.857 Y88.289 E51.8950
G1 X156.610 Y87.811 E51.9247
G1 X157.458 Y87.535 E51.9544
G1 X158.348 Y87.479 E51.9840
G1 X159.225 Y87.647 E52.0137
G1 X159.735 Y87.887 E52.0325
G0 X127.573 Y88.136 F5400
G0 X103.234 Y90.672
G1 X103.280 Y91.030 E52.0445 F3000
G1 X103.180 Y91.815 E52.0708
G1 X102.890 Y92.550 E52.0971
G1 X102.425 Y93.190 E52.1234
G1 X101.815 Y93.694 E52.1497
G1 X101.100 Y94.031 E52.1760
G1 X100.323 Y94.179 E52.2023
G1 X99.534 Y94.129 E52.2286
G1 X98.782 Y93.885 E52.2549
G1 X98.114 Y93.461 E52.2812
G1 X97.573 Y92.885 E52.3075
G1 X97.192 Y92.191 E52.3338
G1 X96.995 Y91.426 E52.3601
G1 X96.995 Y90.635 E52.3864
G1 X97.192 Y89.869 E52.4127
G1 X97.573 Y89.176 E52.4390
G1 X98.114 Y88.599 E52.4653
G1 X98.782 Y88.176 E52.4916
G1 X99.534 Y87.931 E52.5179
G1 X100.323 Y87.882 E52.5442
G1 X101.100 Y88.030 E52.5705
G1 X101.815 Y88.367 E52.5968
G1 X102.425 Y88.870 E52.6231
G1 X102.890 Y89.510 E52.6494
G1 X103.180 Y90.246 E52.6757
G1 X103.210 Y90.479 E52.6835
;segType:Perimeter
G0 X102.711 Y89.076 F5400
G1 X102.558 Y89.759 E52.7068 F2100
G1 X102.790 Y90.346 E52.7278
G1 X102.877 Y91.030 E52.7507
G1 X102.790 Y91.715 E52.7737
G1 X102.536 Y92.356 E52.7966
G1 X102.131 Y92.914 E52.8196
G1 X101.599 Y93.353 E52.8425
G1 X100.975 Y93.647 E52.8654
G1 X100.298 Y93.776 E52.8884
G1 X99.610 Y93.733 E52.9113
G1 X98.953 Y93.520 E52.9343
G1 X98.371 Y93.150 E52.9572
G1 X97.899 Y92.648 E52.9801
G1 X97.567 Y92.043 E53.0031
G1 X97.395 Y91.375 E53.0260
G1 X97.395 Y90.685 E53.0490
G1 X97.567 Y90.017 E53.0719
G1 X97.899 Y89.413 E53.0948
G1 X98.371 Y88.910 E53.1178
G1 X98.954 Y88.541 E53.1407
G1 X99.610 Y88.327 E53.1637
G1 X100.298 Y88.284 E53.1866
G1 X100.975 Y88.413 E53.2095
G1 X101.599 Y88.707 E53.2325
G1 X102.131 Y89.147 E53.2554
G1 X102.502 Y89.657 E53.2764
G1 X103.161 Y89.895
;segType:Loop
G0 X103.588 Y91.783 F5400
G1 X103.571 Y91.915 E53.2808 F3000
G1 X103.243 Y92.744 E53.3105
G1 X102.719 Y93.466 E53.3402
G1 X102.031 Y94.034 E53.3698
G1 X101.225 Y94.414 E53.3995
G1 X100.348 Y94.581 E53.4291
G1 X99.458 Y94.525 E53.4588
G1 X98.610 Y94.250 E53.4885
G1 X97.857 Y93.771 E53.5181
G1 X97.247 Y93.122 E53.5478
G1 X96.817 Y92.340 E53.5775
G1 X96.595 Y91.476 E53.6071
G1 X96.595 Y90.584 E53.6368
G1 X96.817 Y89.721 E53.6665
G1 X97.247 Y88.939 E53.6961
G1 X97.857 Y88.289 E53.7258
G1 X98.610 Y87.811 E53.7555
G1 X99.458 Y87.535 E53.7851
G1 X100.348 Y87.479 E53.8148
G1 X101.225 Y87.647 E53.8444
G1 X102.031 Y88.026 E53.8741
G1 X102.719 Y88.594 E53.9037
G1 X103.243 Y89.316 E53.9334
G1 X103.571 Y90.146 E53.9631
G1 X103.683 Y91.030 E53.9927
G1 X103.612 Y91.590 E54.0115
G0 X101.035 Y93.832 F5400
G0 X98.332 Y94.310
;segType:HShell
G1 X110.385 Y106.362 E54.5784 F3000
G1 X110.586 Y107.113
G1 X91.325 Y87.853 E55.4844
G1 X91.325 Y87.303
G1 X96.865 Y92.843 E55.7450
G0 X96.506 Y91.934 F5400
G1 X91.325 Y86.754 E55.9887 F3000
G1 X91.325 Y86.204
G1 X96.395 Y91.274 E56.2271
G1 X96.395 Y90.724
G1 X91.325 Y85.654 E56.4656
G1 X91.325 Y85.104
G1 X96.474 Y90.253 E56.7078
G1 X96.586 Y89.815
G1 X91.325 Y84.554 E56.9552
G1 X91.325 Y84.005
G1 X96.749 Y89.428 E57.2103
G1 X96.944 Y89.074
G1 X91.325 Y83.455 E57.4746
G1 X91.325 Y82.905
G1 X97.160 Y88.739 E57.7491
G1 X97.426 Y88.456
G1 X91.325 Y82.355 E58.0360
G1 X91.750 Y82.230
G1 X97.692 Y88.172 E58.3155
G1 X98.019 Y87.949
G1 X92.300 Y82.230 E58.5845
G1 X92.850 Y82.230
G1 X98.356 Y87.736 E58.8435
G1 X98.731 Y87.562
G1 X93.400 Y82.230 E59.0943
G1 X93.949 Y82.230
G1 X99.146 Y87.427 E59.3387
G1 X99.596 Y87.326
G1 X94.499 Y82.230 E59.5784
G1 X95.049 Y82.230
G1 X100.113 Y87.294 E59.8166
G1 X100.715 Y87.346
G1 X95.599 Y82.230 E60.0572
G1 X96.149 Y82.230
G1 X101.451 Y87.532 E60.3066
G0 X103.604 Y89.685 F5400
G1 X115.118 Y101.199 E60.8482 F3000
G1 X115.869 Y101.400
G1 X96.699 Y82.230 E61.7499
G1 X97.248 Y82.230
G1 X116.620 Y101.601 E62.6611
G1 X117.371 Y101.803
G1 X97.798 Y82.230 E63.5818
G1 X98.348 Y82.230
G1 X118.122 Y102.004 E64.5119
G0 X122.040 Y103.970 F5400
G0 X124.005 Y105.687
G1 X126.965 Y108.647 E64.6511 F3000
G1 X127.240 Y108.372
G1 X123.844 Y104.977 E64.8108
G0 X125.865 Y109.747 F5400
G1 X123.665 Y107.547 E64.9143 F3000
G1 X123.447 Y107.879
G1 X125.590 Y110.021 E65.0150
G1 X125.315 Y110.296
G1 X123.209 Y108.190 E65.1141
G1 X122.941 Y108.472
G1 X125.040 Y110.571 E65.2129
G1 X124.766 Y110.846
G1 X122.666 Y108.747 E65.3116
G1 X122.391 Y109.022
G1 X124.491 Y111.121 E65.4104
G1 X124.216 Y111.396
G1 X122.116 Y109.297 E65.5091
G1 X121.841 Y109.572
G1 X123.941 Y111.671 E65.6079
G1 X123.666 Y111.946
G1 X121.567 Y109.846 E65.7066
G1 X121.292 Y110.121
G1 X123.391 Y112.221 E65.8054
G1 X123.116 Y112.496
G1 X121.017 Y110.396 E65.9041
G1 X120.742 Y110.671
G1 X122.841 Y112.771 E66.0029
G1 X122.566 Y113.045
G1 X120.467 Y110.946 E66.1016
G1 X120.192 Y111.221
G1 X122.291 Y113.320 E66.2004
G1 X122.016 Y113.595
G1 X119.917 Y111.496 E66.2991
G1 X119.642 Y111.771
G1 X121.742 Y113.870 E66.3979
G1 X121.467 Y114.145
G1 X119.367 Y112.046 E66.4966
G1 X119.092 Y112.321
G1 X121.192 Y114.420 E66.5953
G1 X120.917 Y114.695
G1 X118.817 Y112.596 E66.6941
G1 X118.543 Y112.871
G1 X120.642 Y114.970 E66.7928
G1 X120.367 Y115.245
G1 X118.268 Y113.145 E66.8916
G1 X117.993 Y113.420
G1 X120.092 Y115.520 E66.9903
G1 X119.817 Y115.795
G1 X117.718 Y113.695 E67.0891
G1 X117.443 Y113.970
G1 X119.542 Y116.070 E67.1878
G1 X119.267 Y116.344
G1 X117.144 Y114.221 E67.2877
G1 X116.833 Y114.460
G1 X118.992 Y116.619 E67.3893
G1 X118.718 Y116.894
G1 X116.466 Y114.643 E67.4951
G1 X116.078 Y114.804
G1 X118.443 Y117.169 E67.6064
G1 X118.168 Y117.444
G1 X115.618 Y114.895 E67.7263
G1 X115.130 Y114.956
G1 X117.893 Y117.719 E67.8563
G1 X117.618 Y117.994
G1 X114.497 Y114.873 E68.0031
G0 X112.313 Y113.239 F5400
G1 X91.325 Y92.252 E68.9903 F3000
G1 X91.325 Y91.702
G1 X111.994 Y112.370 E69.9625
G0 X98.871 Y116.365 F5400
G0 X97.742 Y117.299
G0 X96.520 Y119.989
G1 X91.325 Y114.794 E70.2068 F3000
G1 X91.325 Y115.344
G1 X96.915 Y120.933 E70.4697
G0 X99.573 Y121.924 F5400
G0 X101.035 Y121.832
G0 X102.273 Y121.047
G0 X102.978 Y119.763
G0 X103.630 Y117.752
G1 X111.051 Y125.172 E70.8188 F3000
G1 X110.890 Y125.561
G1 X103.816 Y118.487 E71.1515
G1 X103.876 Y119.097
G1 X110.729 Y125.950 E71.4739
G1 X110.624 Y126.395
G1 X103.814 Y119.585 E71.7942
G0 X101.703 Y121.518 F5400
G0 X99.174 Y122.643
G1 X122.745 Y146.213 E72.9029 F3000
G1 X123.020 Y145.938
G1 X99.830 Y122.749 E73.9937
G1 X100.405 Y122.774
G1 X123.295 Y145.663 E75.0703
G1 X123.570 Y145.388
G1 X100.867 Y122.686 E76.1382
G1 X101.320 Y122.590
G1 X123.845 Y145.113 E77.1977
G1 X124.120 Y144.838
G1 X101.694 Y122.414 E78.2525
G1 X102.068 Y122.238
G1 X124.395 Y144.564 E79.3026
G1 X124.669 Y144.289
G1 X116.760 Y136.380 E79.6746
G0 X110.948 Y130.018 F5400
G1 X102.684 Y121.754 E80.0633 F3000
G1 X102.383 Y122.003
G1 X111.536 Y131.156 E80.4939
G0 X111.264 Y127.719 F5400
G0 X113.648 Y114.574
G1 X117.343 Y118.269 E80.6677 F3000
G1 X117.068 Y118.544
G1 X91.325 Y92.802 E81.8785
G1 X91.325 Y93.351
G1 X116.793 Y118.819 E83.0764
G1 X116.518 Y119.094
G1 X91.325 Y93.901 E84.2614
G1 X91.325 Y94.451
G1 X116.243 Y119.368 E85.4335
G1 X115.968 Y119.643
G1 X91.325 Y95.001 E86.5926
G1 X91.325 Y95.551
G1 X115.694 Y119.918 E87.7388
G1 X115.419 Y120.193
G1 X91.325 Y96.100 E88.8721
G1 X91.325 Y96.650
G1 X115.144 Y120.468 E89.9924
G1 X114.869 Y120.743
G1 X91.325 Y97.200 E91.0998
G1 X91.325 Y97.750
G1 X114.594 Y121.018 E92.1943
G1 X114.319 Y121.293
G1 X91.325 Y98.300 E93.2758
G1 X91.325 Y98.849
G1 X114.044 Y121.568 E94.3444
G1 X113.769 Y121.843
G1 X91.325 Y99.399 E95.4001
G1 X91.325 Y99.949
G1 X113.494 Y122.118 E96.4429
G1 X113.219 Y122.392
G1 X91.325 Y100.499 E97.4727
G1 X91.325 Y101.049
G1 X112.944 Y122.667 E98.4896
G1 X112.670 Y122.942
G1 X91.325 Y101.599 E99.4935
G1 X91.325 Y102.148
G1 X112.395 Y123.217 E100.4846
G1 X112.133 Y123.505
G1 X91.325 Y102.698 E101.4633
G1 X91.325 Y103.248
G1 X111.894 Y123.816 E102.4308
G1 X111.655 Y124.128
G1 X91.325 Y103.798 E103.3870
G1 X91.325 Y104.348
G1 X111.417 Y124.439 E104.3321
G1 X111.212 Y124.783
G1 X91.325 Y104.897 E105.2675
G1 X91.325 Y105.447
G1 X101.375 Y115.496 E105.7401
G0 X111.793 Y111.619 F5400
G1 X91.325 Y91.152 E106.7029 F3000
G1 X91.325 Y90.602
G1 X111.592 Y110.868 E107.6561
G1 X111.391 Y110.117
G1 X91.325 Y90.052 E108.6000
G1 X91.325 Y89.503
G1 X111.189 Y109.366 E109.5343
G1 X110.988 Y108.615
G1 X91.325 Y88.953 E110.4592
G1 X91.325 Y88.403
G1 X110.787 Y107.864 E111.3746
G0 X100.664 Y115.336 F5400
G1 X91.325 Y105.997 E111.8139 F3000
G1 X91.325 Y106.547
G1 X100.075 Y115.296 E112.2254
G1 X99.558 Y115.329
G1 X91.325 Y107.097 E112.6126
G1 X91.325 Y107.647
G1 X99.115 Y115.437 E112.9791
G1 X98.700 Y115.571
G1 X91.325 Y108.196 E113.3260
G1 X91.325 Y108.746
G1 X98.331 Y115.751 E113.6555
G1 X97.995 Y115.965
G1 X91.325 Y109.296 E113.9692
G1 X91.325 Y109.846
G1 X97.673 Y116.193 E114.2678
G1 X97.407 Y116.477
G1 X91.325 Y110.396 E114.5538
G1 X91.325 Y110.945
G1 X97.140 Y116.760 E114.8273
G1 X96.930 Y117.100
G1 X91.325 Y111.495 E115.0909
G1 X91.325 Y112.045
G1 X96.735 Y117.454 E115.3454
G1 X96.578 Y117.847
G1 X91.325 Y112.595 E115.5924
G1 X91.325 Y113.145
G1 X96.465 Y118.285 E115.8342
G1 X96.395 Y118.764
G1 X91.325 Y113.694 E116.0727
G1 X91.325 Y114.244
G1 X96.395 Y119.314 E116.3112
G0 X98.247 Y121.300 F5400
G0 X110.640 Y129.160
G1 X102.957 Y121.478 E116.6725 F3000
G1 X103.189 Y121.159
G1 X110.556 Y128.526 E117.0190
G1 X110.473 Y127.893
G1 X103.420 Y120.841 E117.3508
G0 X101.035 Y121.832 F5400
G0 X98.221 Y122.239
G1 X122.470 Y146.488 E118.4914 F3000
G1 X122.195 Y146.763
G1 X91.325 Y115.894 E119.9434
G1 X91.325 Y116.444
G1 X121.920 Y147.038 E121.3825
G1 X121.645 Y147.313
G1 X91.325 Y116.993 E122.8086
G1 X91.325 Y117.543
G1 X121.371 Y147.588 E124.2218
G1 X121.096 Y147.863
G1 X91.325 Y118.093 E125.6221
G1 X91.325 Y118.643
G1 X120.821 Y148.137 E127.0095
G1 X120.546 Y148.412
G1 X91.325 Y119.193 E128.3839
G1 X91.325 Y119.742
G1 X120.271 Y148.687 E129.7454
G1 X119.996 Y148.962
G1 X91.325 Y120.292 E131.0940
G1 X91.325 Y120.842
G1 X119.721 Y149.237 E132.4296
G1 X119.446 Y149.512
G1 X91.325 Y121.392 E133.7523
G1 X91.325 Y121.942
G1 X119.171 Y149.787 E135.0621
G1 X118.896 Y150.062
G1 X91.325 Y122.491 E136.3589
G1 X91.325 Y123.041
G1 X118.621 Y150.337 E137.6428
G1 X118.347 Y150.612
G1 X91.325 Y123.591 E138.9138
G1 X91.325 Y124.141
G1 X118.072 Y150.887 E140.1719
G1 X117.797 Y151.161
G1 X91.325 Y124.691 E141.4170
G1 X91.325 Y125.241
G1 X117.522 Y151.436 E142.6492
G1 X117.247 Y151.711
G1 X91.325 Y125.790 E143.8684
G1 X91.325 Y126.340
G1 X116.972 Y151.986 E145.0748
G1 X116.697 Y152.261
G1 X91.325 Y126.890 E146.2681
G1 X91.325 Y127.440
G1 X116.422 Y152.536 E147.4486
G1 X116.147 Y152.811
G1 X91.325 Y127.990 E148.6162
G1 X91.325 Y128.539
G1 X115.872 Y153.086 E149.7708
G1 X115.597 Y153.361
G1 X91.325 Y129.089 E150.9124
G1 X91.325 Y129.639
G1 X115.322 Y153.636 E152.0412
G1 X115.048 Y153.911
G1 X91.325 Y130.189 E153.1570
G1 X91.325 Y130.739
G1 X114.773 Y154.185 E154.2599
G1 X114.498 Y154.460
G1 X91.325 Y131.288 E155.3498
G1 X91.325 Y131.838
G1 X114.223 Y154.735 E156.4268
G1 X113.948 Y155.010
G1 X91.325 Y132.388 E157.4909
G1 X91.325 Y132.938
G1 X113.673 Y155.285 E158.5421
G1 X113.398 Y155.560
G1 X91.325 Y133.488 E159.5803
G1 X91.325 Y134.038
G1 X113.123 Y155.835 E160.6056
G1 X112.848 Y156.110
G1 X91.325 Y134.587 E161.6180
G1 X91.325 Y135.137
G1 X101.960 Y145.772 E162.1182
G0 X101.048 Y145.409 F5400
G1 X91.325 Y135.687 E162.5755 F3000
G1 X91.325 Y136.237
G1 X100.368 Y145.280 E163.0009
G1 X99.849 Y145.310
G1 X91.325 Y136.787 E163.4018
G1 X91.325 Y137.336
G1 X99.350 Y145.361 E163.7792
G1 X98.934 Y145.495
G1 X91.325 Y137.886 E164.1372
G1 X91.325 Y138.436
G1 X98.520 Y145.631 E164.4756
G1 X98.184 Y145.845
G1 X91.325 Y138.986 E164.7982
G1 X91.325 Y139.536
G1 X97.848 Y146.058 E165.1050
G1 X97.557 Y146.317
G1 X91.325 Y140.086 E165.3981
G1 X91.325 Y140.635
G1 X97.290 Y146.600 E165.6787
G1 X97.040 Y146.900
G1 X91.325 Y141.185 E165.9475
G1 X91.325 Y141.735
G1 X96.845 Y147.254 E166.2071
G1 X96.650 Y147.609
G1 X91.325 Y142.285 E166.4576
G1 X91.325 Y142.835
G1 X96.529 Y148.038 E166.7023
G1 X96.417 Y148.476
G1 X91.325 Y143.384 E166.9418
G1 X91.325 Y143.934
G1 X96.395 Y149.004 E167.1802
G1 X96.413 Y149.572
G1 X91.325 Y144.484 E167.4196
G1 X91.325 Y145.034
G1 X96.603 Y150.311 E167.6678
G0 X91.826 Y159.830 F5400
G1 X91.325 Y159.329 E167.6914 F3000
G1 X91.325 Y158.779
G1 X92.376 Y159.830 E167.7408
G1 X92.926 Y159.830
G1 X91.325 Y158.229 E167.8161
G1 X91.325 Y157.680
G1 X93.476 Y159.830 E167.9173
G1 X94.026 Y159.830
G1 X91.325 Y157.130 E168.0443
G1 X91.325 Y156.580
G1 X94.576 Y159.830 E168.1972
G1 X95.125 Y159.830
G1 X91.325 Y156.030 E168.3759
G1 X91.325 Y155.480
G1 X95.675 Y159.830 E168.5805
G1 X96.225 Y159.830
G1 X91.325 Y154.930 E168.8110
G1 X91.325 Y154.381
G1 X96.775 Y159.830 E169.0673
G1 X97.325 Y159.830
G1 X91.325 Y153.831 E169.3495
G1 X91.325 Y153.281
G1 X97.875 Y159.830 E169.6576
G1 X98.424 Y159.830
G1 X91.325 Y152.731 E169.9915
G1 X91.325 Y152.181
G1 X98.974 Y159.830 E170.3513
G1 X99.524 Y159.830
G1 X91.325 Y151.632 E170.7369
G1 X91.325 Y151.082
G1 X100.074 Y159.830 E171.1484
G1 X100.624 Y159.830
G1 X91.325 Y150.532 E171.5858
G1 X91.325 Y149.982
G1 X101.174 Y159.830 E172.0490
G1 X101.723 Y159.830
G1 X91.325 Y149.432 E172.5381
G1 X91.325 Y148.883
G1 X102.273 Y159.830 E173.0531
G1 X102.823 Y159.830
G1 X91.325 Y148.333 E173.5939
G1 X91.325 Y147.783
G1 X103.373 Y159.830 E174.1606
G1 X103.923 Y159.830
G1 X91.325 Y147.233 E174.7531
G1 X91.325 Y146.683
G1 X104.472 Y159.830 E175.3715
G1 X105.022 Y159.830
G1 X91.325 Y146.133 E176.0158
G1 X91.325 Y145.584
G1 X105.572 Y159.830 E176.6859
G1 X106.122 Y159.830
G1 X98.819 Y152.528 E177.0294
G1 X99.574 Y152.733
G1 X106.672 Y159.830 E177.3632
G1 X107.222 Y159.830
G1 X100.161 Y152.770 E177.6953
G1 X100.665 Y152.724
G1 X107.771 Y159.830 E178.0296
G1 X108.321 Y159.830
G1 X101.127 Y152.636 E178.3680
G1 X101.531 Y152.490
G1 X108.871 Y159.830 E178.7132
G1 X109.274 Y159.684
G1 X101.905 Y152.314 E179.0598
G1 X102.252 Y152.111
G1 X109.549 Y159.409 E179.4031
G1 X109.824 Y159.134
G1 X102.553 Y151.863 E179.7451
G1 X102.854 Y151.614
G1 X110.099 Y158.859 E180.0859
G1 X110.374 Y158.584
G1 X103.088 Y151.298 E180.4286
G1 X103.319 Y150.980
G1 X110.649 Y158.309 E180.7734
G1 X110.924 Y158.034
G1 X103.508 Y150.618 E181.1222
G1 X103.664 Y150.224
G1 X111.199 Y157.759 E181.4766
G1 X111.474 Y157.484
G1 X103.787 Y149.798 E181.8382
G1 X103.849 Y149.310
G1 X111.749 Y157.209 E182.2098
G1 X112.024 Y156.935
G1 X103.850 Y148.762 E182.5942
G1 X103.771 Y148.132
G1 X112.298 Y156.660 E182.9953
G1 X112.573 Y156.385
G1 X103.428 Y147.239 E183.4255
G0 X117.898 Y136.968 F5400
G1 X124.944 Y144.014 E183.7569 F3000
G1 X125.219 Y143.739
G1 X118.756 Y137.276 E184.0609
G1 X119.389 Y137.359
G1 X125.494 Y143.464 E184.3481
G1 X125.769 Y143.189
G1 X120.022 Y137.442 E184.6184
G1 X120.548 Y137.419
G1 X126.044 Y142.914 E184.8769
G1 X126.319 Y142.639
G1 X121.034 Y137.355 E185.1255
G1 X121.520 Y137.291
G1 X126.594 Y142.364 E185.3641
G1 X126.869 Y142.089
G1 X121.966 Y137.187 E185.5947
G0 X123.132 Y136.703 F5400
G1 X127.693 Y141.265 E185.8093 F3000
G1 X127.968 Y140.990
G1 X123.477 Y136.499 E186.0205
G1 X123.788 Y136.260
G1 X128.243 Y140.715 E186.2301
G1 X128.518 Y140.440
G1 X124.099 Y136.021 E186.4379
G1 X124.410 Y135.782
G1 X128.793 Y140.165 E186.6441
G1 X129.068 Y139.890
G1 X124.699 Y135.521 E186.8496
G1 X124.974 Y135.246
G1 X129.343 Y139.615 E187.0551
G1 X129.618 Y139.340
G1 X125.248 Y134.971 E187.2606
G1 X125.523 Y134.696
G1 X129.893 Y139.065 E187.4662
G1 X130.168 Y138.790
G1 X125.798 Y134.421 E187.6717
G1 X126.073 Y134.146
G1 X130.443 Y138.516 E187.8772
G1 X130.717 Y138.241
G1 X126.348 Y133.871 E188.0827
G1 X126.623 Y133.596
G1 X130.992 Y137.966 E188.2882
G1 X131.267 Y137.691
G1 X126.898 Y133.322 E188.4938
G1 X127.173 Y133.047
G1 X131.542 Y137.416 E188.6993
G1 X131.817 Y137.141
G1 X127.448 Y132.772 E188.9048
G1 X127.723 Y132.497
G1 X132.092 Y136.866 E189.1103
G1 X132.367 Y136.591
G1 X127.998 Y132.222 E189.3158
G1 X128.272 Y131.947
G1 X132.642 Y136.316 E189.5214
G1 X132.917 Y136.041
G1 X128.547 Y131.672 E189.7269
G1 X128.822 Y131.397
G1 X133.192 Y135.766 E189.9324
G1 X133.467 Y135.492
G1 X129.097 Y131.122 E190.1379
G1 X129.372 Y130.847
G1 X133.742 Y135.217 E190.3435
G1 X134.016 Y134.942
G1 X129.647 Y130.572 E190.5490
G1 X129.922 Y130.298
G1 X134.291 Y134.667 E190.7545
G1 X134.566 Y134.392
G1 X130.197 Y130.023 E190.9600
G1 X130.472 Y129.748
G1 X134.841 Y134.117 E191.1655
G1 X135.116 Y133.842
G1 X130.747 Y129.473 E191.3711
G1 X131.022 Y129.198
G1 X135.391 Y133.567 E191.5766
G1 X135.666 Y133.292
G1 X131.296 Y128.923 E191.7821
G1 X131.571 Y128.648
G1 X135.941 Y133.017 E191.9876
G1 X136.216 Y132.742
G1 X131.846 Y128.373 E192.1931
G1 X132.121 Y128.098
G1 X136.491 Y132.468 E192.3987
G1 X136.766 Y132.193
G1 X132.396 Y127.823 E192.6042
G1 X132.671 Y127.548
G1 X137.040 Y131.918 E192.8097
G1 X137.315 Y131.643
G1 X132.946 Y127.273 E193.0152
G1 X133.221 Y126.999
G1 X137.590 Y131.368 E193.2207
G1 X137.865 Y131.093
G1 X133.496 Y126.724 E193.4263
G1 X133.771 Y126.449
G1 X138.140 Y130.818 E193.6318
G1 X138.415 Y130.543
G1 X134.046 Y126.174 E193.8373
G1 X134.320 Y125.899
G1 X138.690 Y130.268 E194.0428
G1 X138.965 Y129.993
G1 X134.595 Y125.624 E194.2483
G1 X134.870 Y125.349
G1 X139.240 Y129.718 E194.4539
G1 X139.515 Y129.444
G1 X135.145 Y125.074 E194.6594
G1 X135.420 Y124.799
G1 X139.790 Y129.169 E194.8649
G1 X140.064 Y128.894
G1 X135.695 Y124.524 E195.0704
G1 X135.970 Y124.249
G1 X140.339 Y128.619 E195.2759
G1 X140.614 Y128.344
G1 X136.245 Y123.975 E195.4815
G1 X136.520 Y123.700
G1 X140.889 Y128.069 E195.6870
G1 X141.164 Y127.794
G1 X136.795 Y123.425 E195.8925
G1 X137.070 Y123.150
G1 X141.439 Y127.519 E196.0980
G1 X141.714 Y127.244
G1 X137.344 Y122.875 E196.3035
G1 X137.619 Y122.600
G1 X141.989 Y126.969 E196.5091
G1 X142.264 Y126.694
G1 X137.894 Y122.325 E196.7146
G1 X138.169 Y122.050
G1 X142.539 Y126.419 E196.9201
G1 X142.814 Y126.145
G1 X138.444 Y121.775 E197.1256
G1 X138.719 Y121.500
G1 X143.088 Y125.870 E197.3312
G1 X143.363 Y125.595
G1 X138.994 Y121.225 E197.5367
G1 X139.269 Y120.951
G1 X143.638 Y125.320 E197.7422
G1 X143.913 Y125.045
G1 X139.544 Y120.676 E197.9477
G1 X139.819 Y120.401
G1 X144.188 Y124.770 E198.1532
G1 X144.463 Y124.495
G1 X140.094 Y120.126 E198.3588
G1 X140.368 Y119.851
G1 X144.738 Y124.220 E198.5643
G1 X145.013 Y123.945
G1 X140.643 Y119.576 E198.7698
G1 X140.918 Y119.301
G1 X145.288 Y123.670 E198.9753
G1 X145.563 Y123.395
G1 X141.193 Y119.026 E199.1808
G1 X141.468 Y118.751
G1 X145.838 Y123.121 E199.3864
G1 X146.112 Y122.846
G1 X141.743 Y118.476 E199.5919
G1 X142.018 Y118.201
G1 X146.387 Y122.571 E199.7974
G1 X146.662 Y122.296
G1 X142.293 Y117.926 E200.0029
G1 X142.568 Y117.652
G1 X146.937 Y122.021 E200.2084
G1 X147.212 Y121.746
G1 X142.843 Y117.377 E200.4140
G1 X143.118 Y117.102
G1 X147.487 Y121.471 E200.6195
G1 X147.762 Y121.196
G1 X143.392 Y116.827 E200.8250
G1 X143.667 Y116.552
G1 X148.037 Y120.921 E201.0305
G1 X148.312 Y120.646
G1 X143.942 Y116.277 E201.2360
G1 X144.217 Y116.002
G1 X148.587 Y120.371 E201.4416
G1 X148.862 Y120.097
G1 X144.492 Y115.727 E201.6471
G1 X144.767 Y115.452
G1 X149.137 Y119.822 E201.8526
G1 X149.411 Y119.547
G1 X145.009 Y115.144 E202.0597
G1 X145.247 Y114.833
G1 X149.686 Y119.272 E202.2685
G1 X149.961 Y118.997
G1 X145.486 Y114.522 E202.4790
G1 X145.725 Y114.211
G1 X150.236 Y118.722 E202.6912
G1 X150.511 Y118.447
G1 X145.887 Y113.823 E202.9087
G1 X146.048 Y113.434
G1 X150.786 Y118.172 E203.1315
G1 X151.061 Y117.897
G1 X146.209 Y113.046 E203.3597
G1 X146.357 Y112.644
G1 X151.336 Y117.622 E203.5939
G1 X151.611 Y117.347
G1 X146.421 Y112.158 E203.8380
G1 X146.485 Y111.672
G1 X151.886 Y117.073 E204.0920
G1 X152.161 Y116.798
G1 X146.549 Y111.186 E204.3560
G1 X146.491 Y110.579
G1 X152.435 Y116.523 E204.6356
G1 X152.710 Y116.248
G1 X146.408 Y109.946 E204.9320
G1 X146.237 Y109.225
G1 X152.985 Y115.973 E205.2494
G1 X153.260 Y115.698
G1 X145.848 Y108.286 E205.5980
G0 X156.838 Y94.534 F5400
G1 X165.631 Y103.327 E206.0116 F3000
G1 X165.906 Y103.052
G1 X157.587 Y94.734 E206.4029
G1 X158.174 Y94.770
G1 X166.181 Y102.777 E206.7795
G1 X166.456 Y102.502
G1 X158.676 Y94.722 E207.1455
G1 X159.137 Y94.634
G1 X166.731 Y102.227 E207.5026
G1 X167.006 Y101.952
G1 X159.540 Y94.487 E207.8538
G1 X159.913 Y94.311
G1 X167.281 Y101.678 E208.2004
G1 X167.556 Y101.403
G1 X160.258 Y94.106 E208.5436
G1 X160.560 Y93.857
G1 X167.830 Y101.128 E208.8856
G1 X168.105 Y100.853
G1 X160.861 Y93.608 E209.2264
G1 X161.093 Y93.291
G1 X168.380 Y100.578 E209.5691
G1 X168.655 Y100.303
G1 X161.324 Y92.972 E209.9140
G1 X161.511 Y92.610
G1 X168.925 Y100.023 E210.2627
G1 X168.925 Y99.473
G1 X161.667 Y92.216 E210.6040
G1 X161.789 Y91.787
G1 X168.925 Y98.923 E210.9397
G1 X168.925 Y98.373
G1 X161.850 Y91.299 E211.2724
G1 X161.849 Y90.748
G1 X168.925 Y97.824 E211.6053
G1 X168.925 Y97.274
G1 X161.769 Y90.118 E211.9419
G0 X168.925 Y82.429 F5400
G1 X168.726 Y82.230 E211.9512 F3000
G1 X168.176 Y82.230
G1 X168.925 Y82.979 E211.9864
G1 X168.925 Y83.528
G1 X167.627 Y82.230 E212.0475
G1 X167.077 Y82.230
G1 X168.925 Y84.078 E212.1344
G1 X168.925 Y84.628
G1 X166.527 Y82.230 E212.2472
G1 X165.977 Y82.230
G1 X168.925 Y85.178 E212.3858
G1 X168.925 Y85.728
G1 X165.427 Y82.230 E212.5504
G1 X164.877 Y82.230
G1 X168.925 Y86.278 E212.7408
G1 X168.925 Y86.827
G1 X164.328 Y82.230 E212.9570
G1 X163.778 Y82.230
G1 X168.925 Y87.377 E213.1991
G1 X168.925 Y87.927
G1 X163.228 Y82.230 E213.4670
G1 X162.678 Y82.230
G1 X168.925 Y88.477 E213.7609
G1 X168.925 Y89.027
G1 X162.128 Y82.230 E214.0805
G1 X161.578 Y82.230
G1 X168.925 Y89.576 E214.4261
G1 X168.925 Y90.126
G1 X161.029 Y82.230 E214.7975
G1 X160.479 Y82.230
G1 X168.925 Y90.676 E215.1948
G1 X168.925 Y91.226
G1 X159.929 Y82.230 E215.6179
G1 X159.379 Y82.230
G1 X168.925 Y91.776 E216.0669
G1 X168.925 Y92.325
G1 X158.829 Y82.230 E216.5418
G1 X158.279 Y82.230
G1 X168.925 Y92.875 E217.0425
G1 X168.925 Y93.425
G1 X157.730 Y82.230 E217.5691
G1 X157.180 Y82.230
G1 X168.925 Y93.975 E218.1215
G1 X168.925 Y94.525
G1 X156.630 Y82.230 E218.6998
G1 X156.080 Y82.230
G1 X168.925 Y95.075 E219.3040
G1 X168.925 Y95.624
G1 X155.530 Y82.230 E219.9340
G1 X154.980 Y82.230
G1 X168.925 Y96.174 E220.5899
G1 X168.925 Y96.724
G1 X161.419 Y89.218 E220.9430
G0 X158.383 Y87.282 F5400
G1 X153.331 Y82.230 E221.1806 F3000
G1 X152.781 Y82.230
G1 X157.861 Y87.310 E221.4196
G0 X159.063 Y87.412 F5400
G1 X153.881 Y82.230 E221.6633 F3000
G1 X154.431 Y82.230
G1 X159.984 Y87.783 E221.9245
G0 X156.529 Y87.627 F5400
G1 X151.132 Y82.230 E222.1784 F3000
G1 X150.582 Y82.230
G1 X156.192 Y87.840 E222.4422
G1 X155.855 Y88.053
G1 X150.032 Y82.230 E222.7161
G1 X149.482 Y82.230
G1 X155.563 Y88.310 E223.0021
G1 X155.296 Y88.594
G1 X148.932 Y82.230 E223.3014
G1 X148.383 Y82.230
G1 X155.044 Y88.892 E223.6148
G1 X154.849 Y89.247
G1 X147.833 Y82.230 E223.9448
G1 X147.283 Y82.230
G1 X154.654 Y89.601 E224.2915
G1 X154.532 Y90.028
G1 X146.733 Y82.230 E224.6584
G1 X146.183 Y82.230
G1 X154.419 Y90.466 E225.0457
G1 X154.395 Y90.992
G1 X145.633 Y82.230 E225.4578
G1 X145.084 Y82.230
G1 X154.409 Y91.555 E225.8965
G1 X154.599 Y92.296
G1 X144.534 Y82.230 E226.3699
G1 X143.984 Y82.230
G1 X165.356 Y103.602 E227.3752
G1 X165.081 Y103.877
G1 X143.434 Y82.230 E228.3934
G1 X142.884 Y82.230
G1 X164.806 Y104.152 E229.4245
G1 X164.532 Y104.427
G1 X142.334 Y82.230 E230.4686
G1 X141.785 Y82.230
G1 X164.257 Y104.702 E231.5256
G1 X163.982 Y104.976
G1 X141.235 Y82.230 E232.5955
G1 X140.685 Y82.230
G1 X163.707 Y105.251 E233.6784
G1 X163.432 Y105.526
G1 X140.135 Y82.230 E234.7742
G1 X139.585 Y82.230
G1 X163.157 Y105.801 E235.8829
G1 X162.882 Y106.076
G1 X139.035 Y82.230 E237.0046
G1 X138.486 Y82.230
G1 X162.607 Y106.351 E238.1392
G1 X162.332 Y106.626
G1 X137.936 Y82.230 E239.2867
G1 X137.386 Y82.230
G1 X162.057 Y106.901 E240.4471
G1 X161.782 Y107.176
G1 X136.836 Y82.230 E241.6205
G1 X136.286 Y82.230
G1 X161.508 Y107.451 E242.8068
G1 X161.233 Y107.726
G1 X135.736 Y82.230 E244.0061
G1 X135.187 Y82.230
G1 X160.958 Y108.000 E245.2182
G1 X160.683 Y108.275
G1 X134.637 Y82.230 E246.4433
G1 X134.087 Y82.230
G1 X160.408 Y108.550 E247.6814
G1 X160.133 Y108.825
G1 X133.537 Y82.230 E248.9323
G1 X132.987 Y82.230
G1 X159.858 Y109.100 E250.1962
G1 X159.583 Y109.375
G1 X132.437 Y82.230 E251.4731
G1 X131.888 Y82.230
G1 X159.308 Y109.650 E252.7628
G1 X159.033 Y109.925
G1 X131.338 Y82.230 E254.0655
G1 X130.788 Y82.230
G1 X158.758 Y110.200 E255.3811
G1 X158.483 Y110.475
G1 X130.238 Y82.230 E256.7097
G1 X129.688 Y82.230
G1 X158.209 Y110.750 E258.0512
G1 X157.934 Y111.025
G1 X129.139 Y82.230 E259.4056
G1 X128.589 Y82.230
G1 X157.659 Y111.299 E260.7730
G1 X157.384 Y111.574
G1 X128.039 Y82.230 E262.1532
G1 X127.489 Y82.230
G1 X157.109 Y111.849 E263.5465
G1 X156.834 Y112.124
G1 X126.939 Y82.230 E264.9526
G1 X126.389 Y82.230
G1 X156.559 Y112.399 E266.3717
G1 X156.284 Y112.674
G1 X125.840 Y82.230 E267.8037
G1 X125.290 Y82.230
G1 X156.009 Y112.949 E269.2486
G1 X155.734 Y113.224
G1 X124.740 Y82.230 E270.7065
G1 X124.190 Y82.230
G1 X129.529 Y87.569 E270.9576
G1 X128.766 Y87.355
G1 X123.640 Y82.230 E271.1987
G1 X123.090 Y82.230
G1 X128.152 Y87.291 E271.4367
G1 X127.634 Y87.324
G1 X122.541 Y82.230 E271.6763
G1 X121.991 Y82.230
G1 X127.177 Y87.417 E271.9203
G1 X126.762 Y87.551
G1 X121.441 Y82.230 E272.1706
G1 X120.891 Y82.230
G1 X126.381 Y87.720 E272.4288
G1 X126.044 Y87.933
G1 X120.341 Y82.230 E272.6971
G1 X119.791 Y82.230
G1 X125.712 Y88.151 E272.9756
G1 X125.446 Y88.434
G1 X119.242 Y82.230 E273.2674
G1 X118.692 Y82.230
G1 X125.180 Y88.718 E273.5726
G1 X124.959 Y89.047
G1 X118.142 Y82.230 E273.8932
G1 X117.592 Y82.230
G1 X124.764 Y89.402 E274.2306
G1 X124.595 Y89.782
G1 X117.042 Y82.230 E274.5858
G1 X116.492 Y82.230
G1 X124.482 Y90.220 E274.9617
G1 X124.395 Y90.682
G1 X115.943 Y82.230 E275.3592
G1 X115.393 Y82.230
G1 X124.395 Y91.232 E275.7827
G1 X124.492 Y91.879
G1 X114.843 Y82.230 E276.2365
G1 X114.293 Y82.230
G1 X124.816 Y92.753 E276.7315
G0 X139.629 Y102.067 F5400
G1 X130.992 Y93.430 E277.1377 F3000
G1 X131.223 Y93.112
G1 X153.535 Y115.423 E278.1872
G1 X153.810 Y115.148
G1 X131.443 Y92.782 E279.2393
G1 X131.599 Y92.388
G1 X154.085 Y114.873 E280.2969
G1 X154.360 Y114.598
G1 X131.755 Y91.994 E281.3602
G1 X131.823 Y91.513
G1 X154.635 Y114.323 E282.4331
G1 X154.910 Y114.049
G1 X131.883 Y91.023 E283.5162
G1 X131.804 Y90.394
G1 X155.185 Y113.774 E284.6159
G1 X155.459 Y113.499
G1 X131.577 Y89.617 E285.7393
G0 X130.707 Y92.449 F5400
G0 X121.911 Y103.043
G1 X101.097 Y82.230 E286.7183 F3000
G1 X101.647 Y82.230
G1 X127.515 Y108.097 E287.9350
G1 X127.790 Y107.822
G1 X102.197 Y82.230 E289.1388
G1 X102.747 Y82.230
G1 X128.064 Y107.547 E290.3296
G1 X128.339 Y107.272
G1 X103.297 Y82.230 E291.5076
G1 X103.846 Y82.230
G1 X128.614 Y106.997 E292.6725
G1 X128.889 Y106.722
G1 X104.396 Y82.230 E293.8246
G1 X104.946 Y82.230
G1 X129.164 Y106.448 E294.9637
G1 X129.439 Y106.173
G1 X105.496 Y82.230 E296.0899
G1 X106.046 Y82.230
G1 X129.714 Y105.898 E297.2032
G1 X129.989 Y105.623
G1 X106.596 Y82.230 E298.3035
G1 X107.145 Y82.230
G1 X130.264 Y105.348 E299.3909
G1 X130.539 Y105.073
G1 X107.695 Y82.230 E300.4654
G1 X108.245 Y82.230
G1 X130.814 Y104.798 E301.5270
G1 X131.088 Y104.523
G1 X108.795 Y82.230 E302.5756
G1 X109.345 Y82.230
G1 X131.363 Y104.248 E303.6112
G1 X131.638 Y103.973
G1 X109.894 Y82.230 E304.6340
G1 X110.444 Y82.230
G1 X131.913 Y103.698 E305.6438
G1 X132.188 Y103.424
G1 X110.994 Y82.230 E306.6407
G1 X111.544 Y82.230
G1 X132.463 Y103.149 E307.6246
G1 X132.771 Y102.907
G1 X112.094 Y82.230 E308.5972
G1 X112.644 Y82.230
G1 X133.082 Y102.668 E309.5586
G1 X133.393 Y102.429
G1 X113.193 Y82.230 E310.5087
G1 X113.743 Y82.230
G1 X133.704 Y102.191 E311.4476
G1 X134.092 Y102.029
G1 X126.444 Y94.381 E311.8074
G0 X120.376 Y102.608 F5400
G1 X99.998 Y82.230 E312.7659 F3000
G1 X100.547 Y82.230
G1 X121.127 Y102.809 E313.7338
G0 X138.690 Y101.678 F5400
G1 X130.729 Y93.717 E314.1083 F3000
G1 X130.428 Y93.966
G1 X137.969 Y101.507 E314.4630
G1 X137.336 Y101.424
G1 X130.124 Y94.212 E314.8023
G1 X129.750 Y94.388
G1 X136.729 Y101.366 E315.1305
G1 X136.243 Y101.430
G1 X129.376 Y94.564 E315.4535
G1 X128.935 Y94.673
G1 X135.757 Y101.494 E315.7744
G1 X135.271 Y101.558
G1 X128.474 Y94.761 E316.0941
G1 X127.917 Y94.754
G1 X134.870 Y101.707 E316.4211
G1 X134.481 Y101.868
G1 X127.296 Y94.682 E316.7591
G0 X119.625 Y102.406 F5400
G1 X99.448 Y82.230 E317.7081 F3000
G1 X98.898 Y82.230
G1 X118.873 Y102.205 E318.6477
G0 X103.810 Y90.441 F5400
G1 X114.367 Y100.998 E319.1443 F3000
G1 X113.646 Y100.826
G1 X103.880 Y91.061 E319.6036
G1 X103.819 Y91.549
G1 X113.022 Y100.752 E320.0365
G1 X112.536 Y100.816
G1 X103.743 Y92.023 E320.4501
G1 X103.587 Y92.417
G1 X112.085 Y100.915 E320.8498
G1 X111.696 Y101.076
G1 X103.431 Y92.812 E321.2385
G1 X103.206 Y93.136
G1 X111.335 Y101.265 E321.6209
G1 X111.024 Y101.504
G1 X102.974 Y93.454 E321.9996
G1 X102.706 Y93.736
G1 X110.730 Y101.759 E322.3769
G1 X110.491 Y102.070
G1 X102.405 Y93.985 E322.7572
G1 X102.096 Y94.225
G1 X110.259 Y102.388 E323.1412
G1 X110.098 Y102.777
G1 X101.722 Y94.401 E323.5352
G1 X101.348 Y94.577
G1 X109.946 Y103.175 E323.9396
G1 X109.882 Y103.660
G1 X100.901 Y94.679 E324.3621
G1 X100.439 Y94.767
G1 X109.875 Y104.203 E324.8059
G1 X109.982 Y104.860
G1 X99.873 Y94.752 E325.2814
G1 X99.235 Y94.663
G1 X110.183 Y105.611 E325.7964
; ------------------------------------
; Layer #2
; ------------------------------------
G21 ; mm
G90 ; abs
G92 E0 ; reset extr
M106 S0
;segType:Loop
G0 F1200 E-1.0000
G0 F300 Z0.600
G0 X90.725 Y159.761 F5400
G0 F1200 E0.0000
G1 X90.725 Y81.630 E2.5986 F3000
G1 X169.525 Y81.630 E5.2195
G1 X169.525 Y100.282 E5.8399
G1 X157.987 Y111.819 E6.3826
G1 X109.376 Y160.430 E8.6691
G1 X90.725 Y160.430 E9.2894
G1 X90.725 Y159.955 E9.3052
;segType:Perimeter
G0 X90.972 Y160.504 F5400
G1 X90.325 Y160.772 E9.3285 F2100
G1 X90.325 Y81.230 E11.9741
G1 X169.925 Y81.230 E14.6216
G1 X169.925 Y100.448 E15.2607
G1 X158.270 Y112.102 E15.8090
G1 X109.542 Y160.830 E18.1010
G1 X90.383 Y160.830 E18.7382
G1 X90.651 Y160.184
;segType:Loop
G0 X91.125 Y158.692 F5400
G1 X91.125 Y82.030 E21.2880 F3000
G1 X169.125 Y82.030 E23.8822
G1 X169.125 Y100.116 E24.4838
G1 X157.704 Y111.537 E25.0210
G1 X109.211 Y160.030 E27.3020
G1 X91.125 Y160.030 E27.9035
G1 X91.125 Y158.886 E27.9415
G0 X102.093 Y151.464 F5400
G1 X101.815 Y151.694 E27.9535 F3000
G1 X101.100 Y152.031 E27.9798
G1 X100.323 Y152.179 E28.0061
G1 X99.534 Y152.129 E28.0324
G1 X98.782 Y151.885 E28.0587
G1 X98.114 Y151.461 E28.0850
G1 X97.573 Y150.885 E28.1113
G1 X97.192 Y150.192 E28.1376
G1 X96.995 Y149.426 E28.1639
G1 X96.995 Y148.635 E28.1903
G1 X97.192 Y147.869 E28.2165
G1 X97.573 Y147.176 E28.2428
G1 X98.114 Y146.600 E28.2692
G1 X98.782 Y146.176 E28.2954
G1 X99.534 Y145.931 E28.3218
G1 X100.323 Y145.882 E28.3481
G1 X101.100 Y146.030 E28.3744
G1 X101.815 Y146.367 E28.4007
G1 X102.425 Y146.871 E28.4270
G1 X102.890 Y147.510 E28.4533
G1 X103.180 Y148.246 E28.4796
G1 X103.280 Y149.030 E28.5059
G1 X103.180 Y149.815 E28.5322
G1 X102.890 Y150.550 E28.5585
G1 X102.425 Y151.190 E28.5848
G1 X102.243 Y151.340 E28.5926
;segType:Perimeter
G0 X103.161 Y150.166 F5400
G1 X102.502 Y150.403 E28.6159 F2100
G1 X102.131 Y150.914 E28.6369
G1 X101.599 Y151.353 E28.6598
G1 X100.975 Y151.647 E28.6828
G1 X100.298 Y151.776 E28.7057
G1 X99.610 Y151.733 E28.7286
G1 X98.953 Y151.520 E28.7516
G1 X98.371 Y151.150 E28.7745
G1 X97.899 Y150.648 E28.7975
G1 X97.567 Y150.043 E28.8204
G1 X97.395 Y149.375 E28.8433
G1 X97.395 Y148.685 E28.8663
G1 X97.567 Y148.017 E28.8892
G1 X97.899 Y147.413 E28.9122
G1 X98.371 Y146.910 E28.9351
G1 X98.953 Y146.541 E28.9580
G1 X99.610 Y146.327 E28.9810
G1 X100.298 Y146.284 E29.0039
G1 X100.975 Y146.413 E29.0269
G1 X101.599 Y146.707 E29.0498
G1 X102.131 Y147.147 E29.0727
G1 X102.536 Y147.705 E29.0957
G1 X102.790 Y148.346 E29.1186
G1 X102.877 Y149.030 E29.1416
G1 X102.790 Y149.714 E29.1645
G1 X102.558 Y150.302 E29.1855
G1 X102.711 Y150.985
;segType:Loop
G0 X101.345 Y152.357 F5400
G1 X101.225 Y152.414 E29.1899 F3000
G1 X100.348 Y152.581 E29.2196
G1 X99.458 Y152.525 E29.2493
G1 X98.610 Y152.250 E29.2789
G1 X97.857 Y151.772 E29.3086
G1 X97.247 Y151.122 E29.3382
G1 X96.817 Y150.340 E29.3679
G1 X96.595 Y149.476 E29.3976
G1 X96.595 Y148.584 E29.4272
G1 X96.817 Y147.721 E29.4569
G1 X97.247 Y146.939 E29.4866
G1 X97.857 Y146.289 E29.5162
G1 X98.610 Y145.811 E29.5459
G1 X99.458 Y145.535 E29.5756
G1 X100.348 Y145.480 E29.6052
G1 X101.225 Y145.647 E29.6349
G1 X102.031 Y146.026 E29.6645
G1 X102.719 Y146.594 E29.6942
G1 X103.243 Y147.316 E29.7239
G1 X103.571 Y148.146 E29.7535
G1 X103.683 Y149.030 E29.7832
G1 X103.571 Y149.915 E29.8128
G1 X103.243 Y150.744 E29.8425
G1 X102.719 Y151.466 E29.8722
G1 X102.031 Y152.034 E29.9018
G1 X101.521 Y152.274 E29.9206
G0 X120.535 Y136.815 F5400
G1 X120.196 Y136.860 E29.9320 F3000
G1 X118.746 Y136.669 E29.9806
G1 X117.393 Y136.109 E30.0293
G1 X116.264 Y135.243 E30.0766
G1 X112.673 Y131.651 E30.2456
G1 X111.806 Y130.522 E30.2929
G1 X111.246 Y129.170 E30.3416
G1 X111.055 Y127.719 E30.3903
G1 X111.246 Y126.269 E30.4389
G1 X111.806 Y124.917 E30.4876
G1 X112.673 Y123.787 E30.5349
G1 X132.882 Y103.578 E31.4855
G1 X134.011 Y102.712 E31.5329
G1 X135.363 Y102.152 E31.5815
G1 X136.814 Y101.960 E31.6302
G1 X138.265 Y102.152 E31.6789
G1 X139.617 Y102.712 E31.7276
G1 X140.746 Y103.578 E31.7749
G1 X144.337 Y107.169 E31.9438
G1 X145.204 Y108.299 E31.9912
G1 X145.764 Y109.651 E32.0398
G1 X145.955 Y111.101 E32.0885
G1 X145.764 Y112.552 E32.1372
G1 X145.204 Y113.904 E32.1858
G1 X144.337 Y115.033 E32.2332
G1 X124.128 Y135.243 E33.1838
G1 X122.999 Y136.109 E33.2311
G1 X121.647 Y136.669 E33.2798
G1 X120.728 Y136.790 E33.3106
;segType:Perimeter
G0 X122.113 Y136.597 F5400
G1 X121.485 Y136.287 E33.3339 F2100
G1 X120.196 Y136.457 E33.3771
G1 X118.850 Y136.280 E33.4223
G1 X117.595 Y135.760 E33.4675
G1 X116.528 Y134.941 E33.5122
G1 X112.974 Y131.387 E33.6794
G1 X112.156 Y130.320 E33.7241
G1 X111.636 Y129.066 E33.7693
G1 X111.459 Y127.719 E33.8144
G1 X111.636 Y126.373 E33.8596
G1 X112.156 Y125.118 E33.9048
G1 X112.974 Y124.052 E33.9495
G1 X133.146 Y103.880 E34.8983
G1 X134.213 Y103.061 E34.9430
G1 X135.468 Y102.541 E34.9882
G1 X136.814 Y102.364 E35.0334
G1 X138.161 Y102.541 E35.0785
G1 X139.415 Y103.061 E35.1237
G1 X140.482 Y103.880 E35.1684
G1 X144.036 Y107.433 E35.3356
G1 X144.855 Y108.500 E35.3803
G1 X145.374 Y109.755 E35.4255
G1 X145.551 Y111.101 E35.4707
G1 X145.374 Y112.448 E35.5158
G1 X144.855 Y113.702 E35.5610
G1 X144.036 Y114.769 E35.6057
G1 X123.864 Y134.941 E36.5546
G1 X122.797 Y135.760 E36.5993
G1 X121.597 Y136.257 E36.6425
G1 X121.208 Y136.839
;segType:Loop
G0 X119.423 Y137.162 F5400
G1 X118.641 Y137.059 E36.6687 F3000
G1 X117.192 Y136.459 E36.7209
G1 X116.000 Y135.544 E36.7709
G1 X112.372 Y131.916 E36.9415
G1 X111.457 Y130.724 E36.9915
G1 X110.857 Y129.274 E37.0437
G1 X110.652 Y127.719 E37.0958
G1 X110.857 Y126.164 E37.1480
G1 X111.457 Y124.715 E37.2002
G1 X112.372 Y123.523 E37.2502
G1 X132.618 Y103.277 E38.2025
G1 X133.810 Y102.362 E38.2525
G1 X135.259 Y101.762 E38.3046
G1 X136.814 Y101.557 E38.3568
G1 X138.370 Y101.762 E38.4090
G1 X139.819 Y102.362 E38.4611
G1 X141.010 Y103.277 E38.5111
G1 X144.639 Y106.905 E38.6818
G1 X145.553 Y108.097 E38.7317
G1 X146.154 Y109.546 E38.7839
G1 X146.358 Y111.101 E38.8361
G1 X146.154 Y112.656 E38.8883
G1 X145.553 Y114.106 E38.9404
G1 X144.639 Y115.298 E38.9904
G1 X124.392 Y135.544 E39.9427
G1 X123.200 Y136.459 E39.9927
G1 X121.752 Y137.059 E40.0449
G1 X120.196 Y137.263 E40.0970
G1 X119.615 Y137.187 E40.1165
G0 X112.828 Y131.515 F5400
G0 X111.987 Y130.417
G0 X111.448 Y129.116
G0 X111.264 Y127.719
G0 X111.909 Y112.050
;segType:HShell
G1 X103.617 Y120.342 E40.5065 F3000
;segType:Perimeter
G0 X103.161 Y120.166 F5400
G1 X102.502 Y120.403 E40.5298 F2100
G1 X102.131 Y120.914 E40.5508
G1 X101.599 Y121.353 E40.5737
G1 X100.975 Y121.647 E40.5967
G1 X100.298 Y121.776 E40.6196
G1 X99.610 Y121.733 E40.6426
G1 X98.954 Y121.520 E40.6655
G1 X98.371 Y121.150 E40.6884
G1 X97.899 Y120.648 E40.7114
G1 X97.567 Y120.043 E40.7343
G1 X97.395 Y119.375 E40.7573
G1 X97.395 Y118.685 E40.7802
G1 X97.567 Y118.018 E40.8031
G1 X97.899 Y117.413 E40.8261
G1 X98.371 Y116.910 E40.8490
G1 X98.953 Y116.541 E40.8719
G1 X99.610 Y116.327 E40.8949
G1 X100.298 Y116.284 E40.9178
G1 X100.975 Y116.413 E40.9408
G1 X101.599 Y116.707 E40.9637
G1 X102.131 Y117.147 E40.9867
G1 X102.536 Y117.705 E41.0096
G1 X102.790 Y118.346 E41.0325
G1 X102.877 Y119.030 E41.0555
G1 X102.790 Y119.714 E41.0784
G1 X102.558 Y120.302 E41.0994
G1 X102.711 Y120.985
;segType:Loop
G0 X102.093 Y121.464 F5400
G1 X101.815 Y121.694 E41.1114 F3000
G1 X101.100 Y122.030 E41.1377
G1 X100.323 Y122.179 E41.1640
G1 X99.534 Y122.129 E41.1903
G1 X98.782 Y121.885 E41.2166
G1 X98.114 Y121.461 E41.2429
G1 X97.573 Y120.885 E41.2692
G1 X97.192 Y120.192 E41.2955
G1 X96.995 Y119.426 E41.3218
G1 X96.995 Y118.635 E41.3481
G1 X97.192 Y117.869 E41.3744
G1 X97.573 Y117.176 E41.4007
G1 X98.114 Y116.600 E41.4270
G1 X98.782 Y116.176 E41.4533
G1 X99.534 Y115.931 E41.4796
G1 X100.323 Y115.882 E41.5059
G1 X101.100 Y116.030 E41.5322
G1 X101.815 Y116.367 E41.5585
G1 X102.425 Y116.871 E41.5848
G1 X102.890 Y117.511 E41.6111
G1 X103.180 Y118.246 E41.6374
G1 X103.280 Y119.030 E41.6637
G1 X103.180 Y119.815 E41.6900
G1 X102.890 Y120.550 E41.7163
G1 X102.425 Y121.190 E41.7426
G1 X102.243 Y121.340 E41.7505
G0 X101.345 Y122.357 F5400
G1 X101.225 Y122.414 E41.7549 F3000
G1 X100.348 Y122.581 E41.7846
G1 X99.458 Y122.525 E41.8142
G1 X98.610 Y122.250 E41.8439
G1 X97.857 Y121.772 E41.8735
G1 X97.247 Y121.122 E41.9032
G1 X96.817 Y120.340 E41.9329
G1 X96.595 Y119.476 E41.9625
G1 X96.595 Y118.584 E41.9922
G1 X96.817 Y117.721 E42.0219
G1 X97.247 Y116.939 E42.0515
G1 X97.857 Y116.289 E42.0812
G1 X98.610 Y115.811 E42.1108
G1 X99.458 Y115.535 E42.1405
G1 X100.348 Y115.479 E42.1702
G1 X101.225 Y115.647 E42.1998
G1 X102.031 Y116.026 E42.2295
G1 X102.719 Y116.594 E42.2592
G1 X103.243 Y117.316 E42.2888
G1 X103.571 Y118.146 E42.3185
G1 X103.683 Y119.030 E42.3481
G1 X103.571 Y119.915 E42.3778
G1 X103.243 Y120.744 E42.4075
G1 X102.719 Y121.466 E42.4372
G1 X102.031 Y122.034 E42.4668
G1 X101.520 Y122.274 E42.4856
G0 X116.815 Y113.458 F5400
G0 X122.765 Y107.782
G1 X122.708 Y107.856 E42.4887 F3000
G1 X116.951 Y113.613 E42.7595
G1 X116.443 Y114.003 E42.7808
G1 X115.815 Y114.264 E42.8034
G1 X115.140 Y114.352 E42.8260
G1 X114.466 Y114.264 E42.8486
G1 X113.838 Y114.003 E42.8713
G1 X113.298 Y113.589 E42.8939
G1 X112.884 Y113.050 E42.9165
G1 X112.639 Y112.458 E42.9378
G1 X110.532 Y104.594 E43.2086
G1 X110.448 Y103.959 E43.2299
G1 X110.537 Y103.284 E43.2525
G1 X110.797 Y102.656 E43.2751
G1 X111.211 Y102.117 E43.2978
G1 X111.751 Y101.702 E43.3204
G1 X112.379 Y101.442 E43.3430
G1 X113.054 Y101.353 E43.3656
G1 X113.689 Y101.437 E43.3869
G1 X121.553 Y103.544 E43.6577
G1 X122.145 Y103.789 E43.6790
G1 X122.684 Y104.203 E43.7016
G1 X123.098 Y104.743 E43.7242
G1 X123.358 Y105.371 E43.7469
G1 X123.447 Y106.045 E43.7695
G1 X123.358 Y106.720 E43.7921
G1 X123.098 Y107.348 E43.8147
G1 X122.883 Y107.628 E43.8265
;segType:Perimeter
G0 X123.528 Y106.281 F5400
G1 X122.946 Y106.669 E43.8497 F2100
G1 X122.749 Y107.146 E43.8669
G1 X122.407 Y107.592 E43.8856
G1 X116.687 Y113.312 E44.1546
G1 X116.241 Y113.654 E44.1733
G1 X115.710 Y113.874 E44.1924
G1 X115.140 Y113.949 E44.2116
G1 X114.571 Y113.874 E44.2307
G1 X114.039 Y113.654 E44.2498
G1 X113.584 Y113.304 E44.2689
G1 X113.234 Y112.848 E44.2880
G1 X113.019 Y112.329 E44.3067
G1 X110.925 Y104.515 E44.5758
G1 X110.852 Y103.959 E44.5944
G1 X110.927 Y103.389 E44.6136
G1 X111.147 Y102.858 E44.6327
G1 X111.497 Y102.402 E44.6518
G1 X111.953 Y102.052 E44.6709
G1 X112.484 Y101.832 E44.6900
G1 X113.054 Y101.757 E44.7091
G1 X113.610 Y101.830 E44.7278
G1 X121.424 Y103.924 E44.9969
G1 X121.943 Y104.139 E45.0155
G1 X122.399 Y104.489 E45.0347
G1 X122.749 Y104.945 E45.0538
G1 X122.969 Y105.476 E45.0729
G1 X123.044 Y106.045 E45.0920
G1 X122.976 Y106.558 E45.1092
G1 X123.286 Y107.185
;segType:Loop
G0 X122.301 Y108.829 F5400
G1 X117.215 Y113.915 E45.3484 F3000
G1 X116.645 Y114.353 E45.3723
G1 X115.919 Y114.653 E45.3984
G1 X115.140 Y114.755 E45.4246
G1 X114.362 Y114.653 E45.4507
G1 X113.636 Y114.353 E45.4768
G1 X113.013 Y113.874 E45.5029
G1 X112.535 Y113.251 E45.5291
G1 X112.260 Y112.587 E45.5530
G1 X110.139 Y104.672 E45.8255
G1 X110.044 Y103.959 E45.8495
G1 X110.147 Y103.180 E45.8756
G1 X110.448 Y102.454 E45.9017
G1 X110.926 Y101.831 E45.9278
G1 X111.549 Y101.353 E45.9539
G1 X112.275 Y101.053 E45.9801
G1 X113.054 Y100.950 E46.0062
G1 X113.767 Y101.044 E46.0301
G1 X121.682 Y103.165 E46.3027
G1 X122.346 Y103.440 E46.3266
G1 X122.969 Y103.918 E46.3527
G1 X123.448 Y104.541 E46.3788
G1 X123.748 Y105.267 E46.4049
G1 X123.851 Y106.045 E46.4311
G1 X123.748 Y106.824 E46.4572
G1 X123.448 Y107.550 E46.4833
G1 X123.010 Y108.120 E46.5072
G1 X122.438 Y108.692 E46.5341
G0 X123.148 Y106.690 F5400
G0 X125.386 Y89.946
G0 X126.247 Y88.760
G0 X127.573 Y88.136
G0 X128.746 Y87.962
G1 X129.100 Y88.030 E46.5461 F3000
G1 X129.815 Y88.367 E46.5724
G1 X130.425 Y88.870 E46.5987
G1 X130.890 Y89.510 E46.6250
G1 X131.181 Y90.246 E46.6513
G1 X131.280 Y91.030 E46.6776
G1 X131.181 Y91.815 E46.7039
G1 X130.890 Y92.550 E46.7302
G1 X130.425 Y93.190 E46.7565
G1 X129.815 Y93.694 E46.7828
G1 X129.100 Y94.031 E46.8091
G1 X128.323 Y94.179 E46.8354
G1 X127.534 Y94.129 E46.8617
G1 X126.782 Y93.885 E46.8880
G1 X126.114 Y93.461 E46.9143
G1 X125.573 Y92.885 E46.9406
G1 X125.192 Y92.191 E46.9669
G1 X124.995 Y91.426 E46.9932
G1 X124.995 Y90.635 E47.0195
G1 X125.192 Y89.869 E47.0458
G1 X125.573 Y89.176 E47.0721
G1 X126.114 Y88.599 E47.0984
G1 X126.782 Y88.176 E47.1247
G1 X127.534 Y87.931 E47.1510
G1 X128.323 Y87.882 E47.1773
G1 X128.555 Y87.926 E47.1852
;segType:Perimeter
G0 X127.065 Y87.968 F5400
G1 X127.668 Y88.324 E47.2084 F2100
G1 X128.298 Y88.284 E47.2294
G1 X128.975 Y88.413 E47.2524
G1 X129.599 Y88.707 E47.2753
G1 X130.131 Y89.147 E47.2983
G1 X130.536 Y89.705 E47.3212
G1 X130.790 Y90.346 E47.3441
G1 X130.877 Y91.030 E47.3671
G1 X130.790 Y91.715 E47.3900
G1 X130.536 Y92.356 E47.4130
G1 X130.131 Y92.914 E47.4359
G1 X129.599 Y93.353 E47.4588
G1 X128.975 Y93.647 E47.4818
G1 X128.298 Y93.776 E47.5047
G1 X127.610 Y93.733 E47.5277
G1 X126.954 Y93.520 E47.5506
G1 X126.371 Y93.150 E47.5735
G1 X125.899 Y92.648 E47.5965
G1 X125.567 Y92.043 E47.6194
G1 X125.395 Y91.375 E47.6424
G1 X125.395 Y90.685 E47.6653
G1 X125.567 Y90.017 E47.6883
G1 X125.899 Y89.413 E47.7112
G1 X126.371 Y88.910 E47.7341
G1 X126.954 Y88.541 E47.7571
G1 X127.554 Y88.345 E47.7781
G1 X127.983 Y87.792
;segType:Loop
G0 X129.911 Y87.970 F5400
G1 X130.031 Y88.026 E47.7825 F3000
G1 X130.719 Y88.594 E47.8121
G1 X131.243 Y89.316 E47.8418
G1 X131.571 Y90.146 E47.8715
G1 X131.683 Y91.030 E47.9011
G1 X131.571 Y91.915 E47.9308
G1 X131.243 Y92.744 E47.9605
G1 X130.719 Y93.466 E47.9901
G1 X130.031 Y94.034 E48.0198
G1 X129.225 Y94.414 E48.0495
G1 X128.348 Y94.581 E48.0791
G1 X127.458 Y94.525 E48.1088
G1 X126.610 Y94.250 E48.1384
G1 X125.857 Y93.772 E48.1681
G1 X125.247 Y93.121 E48.1978
G1 X124.817 Y92.340 E48.2274
G1 X124.595 Y91.476 E48.2571
G1 X124.595 Y90.584 E48.2868
G1 X124.817 Y89.720 E48.3164
G1 X125.247 Y88.939 E48.3461
G1 X125.857 Y88.289 E48.3758
G1 X126.610 Y87.811 E48.4054
G1 X127.458 Y87.535 E48.4351
G1 X128.348 Y87.479 E48.4647
G1 X129.225 Y87.647 E48.4944
G1 X129.735 Y87.887 E48.5132
G0 X158.745 Y87.962 F5400
G1 X159.100 Y88.030 E48.5252 F3000
G1 X159.815 Y88.367 E48.5515
G1 X160.425 Y88.870 E48.5778
G1 X160.890 Y89.510 E48.6041
G1 X161.181 Y90.246 E48.6304
G1 X161.280 Y91.030 E48.6567
G1 X161.181 Y91.815 E48.6830
G1 X160.890 Y92.550 E48.7093
G1 X160.425 Y93.190 E48.7356
G1 X159.815 Y93.694 E48.7619
G1 X159.100 Y94.031 E48.7882
G1 X158.323 Y94.179 E48.8145
G1 X157.534 Y94.129 E48.8408
G1 X156.782 Y93.885 E48.8671
G1 X156.114 Y93.461 E48.8934
G1 X155.573 Y92.885 E48.9197
G1 X155.192 Y92.191 E48.9460
G1 X154.995 Y91.426 E48.9723
G1 X154.995 Y90.635 E48.9986
G1 X155.192 Y89.869 E49.0249
G1 X155.573 Y89.176 E49.0512
G1 X156.114 Y88.599 E49.0775
G1 X156.782 Y88.176 E49.1038
G1 X157.534 Y87.931 E49.1301
G1 X158.323 Y87.882 E49.1564
G1 X158.555 Y87.926 E49.1643
;segType:Perimeter
G0 X157.065 Y87.968 F5400
G1 X157.668 Y88.324 E49.1875 F2100
G1 X158.298 Y88.284 E49.2085
G1 X158.975 Y88.413 E49.2315
G1 X159.600 Y88.707 E49.2544
G1 X160.131 Y89.147 E49.2773
G1 X160.536 Y89.705 E49.3003
G1 X160.790 Y90.346 E49.3232
G1 X160.877 Y91.030 E49.3462
G1 X160.790 Y91.715 E49.3691
G1 X160.536 Y92.356 E49.3921
G1 X160.131 Y92.914 E49.4150
G1 X159.600 Y93.353 E49.4379
G1 X158.975 Y93.647 E49.4609
G1 X158.298 Y93.776 E49.4838
G1 X157.609 Y93.733 E49.5068
G1 X156.953 Y93.520 E49.5297
G1 X156.371 Y93.150 E49.5526
G1 X155.899 Y92.648 E49.5756
G1 X155.567 Y92.043 E49.5985
G1 X155.395 Y91.375 E49.6215
G1 X155.395 Y90.685 E49.6444
G1 X155.567 Y90.017 E49.6673
G1 X155.899 Y89.413 E49.6903
G1 X156.371 Y88.910 E49.7132
G1 X156.954 Y88.541 E49.7362
G1 X157.554 Y88.345 E49.7572
G1 X157.983 Y87.792
;segType:Loop
G0 X159.911 Y87.970 F5400
G1 X160.031 Y88.026 E49.7616 F3000
G1 X160.718 Y88.594 E49.7912
G1 X161.243 Y89.316 E49.8209
G1 X161.571 Y90.146 E49.8506
G1 X161.683 Y91.030 E49.8802
G1 X161.571 Y91.915 E49.9099
G1 X161.243 Y92.744 E49.9396
G1 X160.718 Y93.466 E49.9692
G1 X160.031 Y94.034 E49.9989
G1 X159.225 Y94.414 E50.0285
G1 X158.348 Y94.581 E50.0582
G1 X157.458 Y94.525 E50.0879
G1 X156.610 Y94.250 E50.1175
G1 X155.857 Y93.771 E50.1472
G1 X155.247 Y93.121 E50.1769
G1 X154.817 Y92.340 E50.2065
G1 X154.595 Y91.476 E50.2362
G1 X154.595 Y90.584 E50.2658
G1 X154.817 Y89.720 E50.2955
G1 X155.247 Y88.939 E50.3252
G1 X155.857 Y88.289 E50.3548
G1 X156.610 Y87.811 E50.3845
G1 X157.458 Y87.535 E50.4142
G1 X158.348 Y87.479 E50.4438
G1 X159.225 Y87.647 E50.4735
G1 X159.735 Y87.887 E50.4923
G0 X127.573 Y88.136 F5400
G0 X103.234 Y90.672
G1 X103.280 Y91.030 E50.5043 F3000
G1 X103.180 Y91.815 E50.5306
G1 X102.890 Y92.550 E50.5569
G1 X102.425 Y93.190 E50.5832
G1 X101.815 Y93.694 E50.6095
G1 X101.100 Y94.031 E50.6358
G1 X100.323 Y94.179 E50.6621
G1 X99.534 Y94.129 E50.6884
G1 X98.782 Y93.885 E50.7147
G1 X98.114 Y93.461 E50.7410
G1 X97.573 Y92.885 E50.7673
G1 X97.192 Y92.191 E50.7936
G1 X96.995 Y91.426 E50.8199
G1 X96.995 Y90.635 E50.8462
G1 X97.192 Y89.869 E50.8725
G1 X97.573 Y89.176 E50.8988
G1 X98.114 Y88.599 E50.9251
G1 X98.782 Y88.176 E50.9514
G1 X99.534 Y87.931 E50.9777
G1 X100.323 Y87.882 E51.0040
G1 X101.100 Y88.030 E51.0303
G1 X101.815 Y88.367 E51.0566
G1 X102.425 Y88.870 E51.0829
G1 X102.890 Y89.510 E51.1092
G1 X103.180 Y90.246 E51.1355
G1 X103.210 Y90.479 E51.1433
;segType:Perimeter
G0 X102.711 Y89.076 F5400
G1 X102.558 Y89.759 E51.1666 F2100
G1 X102.790 Y90.346 E51.1876
G1 X102.877 Y91.030 E51.2105
G1 X102.790 Y91.715 E51.2335
G1 X102.536 Y92.356 E51.2564
G1 X102.131 Y92.914 E51.2794
G1 X101.599 Y93.353 E51.3023
G1 X100.975 Y93.647 E51.3252
G1 X100.298 Y93.776 E51.3482
G1 X99.610 Y93.733 E51.3711
G1 X98.953 Y93.520 E51.3941
G1 X98.371 Y93.150 E51.4170
G1 X97.899 Y92.648 E51.4399
G1 X97.567 Y92.043 E51.4629
G1 X97.395 Y91.375 E51.4858
G1 X97.395 Y90.685 E51.5087
G1 X97.567 Y90.017 E51.5317
G1 X97.899 Y89.413 E51.5546
G1 X98.371 Y88.910 E51.5776
G1 X98.954 Y88.541 E51.6005
G1 X99.610 Y88.327 E51.6235
G1 X100.298 Y88.284 E51.6464
G1 X100.975 Y88.413 E51.6693
G1 X101.599 Y88.707 E51.6923
G1 X102.131 Y89.147 E51.7152
G1 X102.502 Y89.657 E51.7362
G1 X103.161 Y89.895
;segType:Loop
G0 X103.588 Y91.783 F5400
G1 X103.571 Y91.915 E51.7406 F3000
G1 X103.243 Y92.744 E51.7703
G1 X102.719 Y93.466 E51.8000
G1 X102.031 Y94.034 E51.8296
G1 X101.225 Y94.414 E51.8593
G1 X100.348 Y94.581 E51.8889
G1 X99.458 Y94.525 E51.9186
G1 X98.610 Y94.250 E51.9483
G1 X97.857 Y93.771 E51.9779
G1 X97.247 Y93.122 E52.0076
G1 X96.817 Y92.340 E52.0373
G1 X96.595 Y91.476 E52.0669
G1 X96.595 Y90.584 E52.0966
G1 X96.817 Y89.721 E52.1262
G1 X97.247 Y88.939 E52.1559
G1 X97.857 Y88.289 E52.1856
G1 X98.610 Y87.811 E52.2152
G1 X99.458 Y87.535 E52.2449
G1 X100.348 Y87.479 E52.2746
G1 X101.225 Y87.647 E52.3042
G1 X102.031 Y88.026 E52.3339
G1 X102.719 Y88.594 E52.3635
G1 X103.243 Y89.316 E52.3932
G1 X103.571 Y90.146 E52.4229
G1 X103.683 Y91.030 E52.4525
G1 X103.612 Y91.590 E52.4713
G0 X102.707 Y89.611 F5400
G0 X101.703 Y88.543
G0 X100.310 Y88.090
G0 X98.871 Y88.365
G0 X96.940 Y89.082
;segType:HShell
G1 X91.325 Y94.696 E52.7354 F3000
G1 X91.325 Y95.246
G1 X96.527 Y90.044 E52.9801
G0 X97.742 Y92.762 F5400
G0 X98.871 Y93.696
G0 X100.310 Y93.970
G0 X101.703 Y93.517
G0 X103.644 Y92.275
G1 X113.688 Y82.230 E53.4526 F3000
G1 X113.139 Y82.230
G1 X103.819 Y91.550 E53.8909
G1 X103.873 Y90.945
G1 X112.589 Y82.230 E54.3009
G1 X112.039 Y82.230
G1 X103.812 Y90.457 E54.6878
G1 X103.726 Y89.993
G1 X111.489 Y82.230 E55.0530
G1 X110.939 Y82.230
G1 X103.570 Y89.599 E55.3996
G1 X103.412 Y89.208
G1 X110.389 Y82.230 E55.7278
G1 X109.840 Y82.230
G1 X103.180 Y88.889 E56.0411
G1 X102.949 Y88.571
G1 X109.290 Y82.230 E56.3393
G1 X108.740 Y82.230
G1 X102.673 Y88.297 E56.6247
G1 X102.372 Y88.048
G1 X108.190 Y82.230 E56.8984
G1 X107.640 Y82.230
G1 X102.054 Y87.816 E57.1611
G1 X101.680 Y87.640
G1 X107.090 Y82.230 E57.4156
G1 X106.541 Y82.230
G1 X101.306 Y87.464 E57.6618
G1 X100.849 Y87.371
G1 X105.991 Y82.230 E57.9036
G1 X105.441 Y82.230
G1 X100.388 Y87.283 E58.1413
G1 X99.808 Y87.313
G1 X104.891 Y82.230 E58.3804
G1 X104.341 Y82.230
G1 X99.144 Y87.427 E58.6249
G0 X124.890 Y89.173 F5400
G1 X113.284 Y100.778 E59.1708 F3000
G1 X112.721 Y100.792
G1 X131.283 Y82.230 E60.0439
G1 X130.733 Y82.230
G1 X112.022 Y100.941 E60.9240
G0 X102.869 Y93.599 F5400
G1 X114.238 Y82.230 E61.4587 F3000
G1 X114.788 Y82.230
G1 X91.325 Y105.692 E62.5623
G1 X91.325 Y106.242
G1 X115.338 Y82.230 E63.6918
G1 X115.888 Y82.230
G1 X91.325 Y106.792 E64.8471
G1 X91.325 Y107.342
G1 X116.438 Y82.230 E66.0283
G1 X116.987 Y82.230
G1 X91.325 Y107.892 E67.2353
G1 X91.325 Y108.441
G1 X117.537 Y82.230 E68.4683
G1 X118.087 Y82.230
G1 X91.325 Y108.991 E69.7270
G1 X91.325 Y109.541
G1 X118.637 Y82.230 E71.0117
G1 X119.187 Y82.230
G1 X91.325 Y110.091 E72.3222
G1 X91.325 Y110.641
G1 X119.737 Y82.230 E73.6585
G1 X120.286 Y82.230
G1 X91.325 Y111.190 E75.0208
G1 X91.325 Y111.740
G1 X120.836 Y82.230 E76.4088
G1 X121.386 Y82.230
G1 X91.325 Y112.290 E77.8228
G1 X91.325 Y112.840
G1 X121.936 Y82.230 E79.2626
G1 X122.486 Y82.230
G1 X91.325 Y113.390 E80.7283
G1 X91.325 Y113.940
G1 X123.035 Y82.230 E82.2198
G1 X123.585 Y82.230
G1 X91.325 Y114.489 E83.7372
G1 X91.325 Y115.039
G1 X124.135 Y82.230 E85.2805
G1 X124.685 Y82.230
G1 X91.325 Y115.589 E86.8496
G1 X91.325 Y116.139
G1 X125.235 Y82.230 E88.4446
G1 X125.785 Y82.230
G1 X91.325 Y116.689 E90.0654
G1 X91.325 Y117.238
G1 X126.334 Y82.230 E91.7121
G1 X126.884 Y82.230
G1 X91.325 Y117.788 E93.3847
G1 X91.325 Y118.338
G1 X127.434 Y82.230 E95.0831
G1 X127.984 Y82.230
G1 X91.325 Y118.888 E96.8074
G1 X91.325 Y119.438
G1 X128.534 Y82.230 E98.5575
G1 X129.084 Y82.230
G1 X91.325 Y119.988 E100.3336
G1 X91.325 Y120.537
G1 X129.633 Y82.230 E102.1354
G1 X130.183 Y82.230
G1 X91.325 Y121.087 E103.9632
G1 X91.325 Y121.637
G1 X110.035 Y102.927 E104.8432
G0 X101.336 Y94.582 F5400
G1 X91.325 Y104.593 E105.3141 F3000
G1 X91.325 Y105.143
G1 X102.857 Y93.611 E105.8565
G0 X110.781 Y125.824 F5400
G1 X91.325 Y145.279 E106.7716 F3000
G1 X91.325 Y145.829
G1 X110.604 Y126.551 E107.6784
G1 X110.520 Y127.184
G1 X91.325 Y146.379 E108.5813
G1 X91.325 Y146.928
G1 X110.460 Y127.794 E109.4813
G1 X110.524 Y128.280
G1 X91.325 Y147.478 E110.3843
G1 X91.325 Y148.028
G1 X110.588 Y128.766 E111.2904
G1 X110.652 Y129.252
G1 X91.325 Y148.578 E112.1994
G1 X91.325 Y149.128
G1 X110.798 Y129.655 E113.1154
G1 X110.959 Y130.044
G1 X91.325 Y149.677 E114.0389
G1 X91.325 Y150.227
G1 X111.120 Y130.433 E114.9699
G1 X111.281 Y130.822
G1 X91.325 Y150.777 E115.9086
G1 X91.325 Y151.327
G1 X111.519 Y131.134 E116.8584
G1 X111.758 Y131.445
G1 X91.325 Y151.877 E117.8195
G1 X91.325 Y152.427
G1 X111.997 Y131.756 E118.7918
G1 X112.238 Y132.065
G1 X98.745 Y145.557 E119.4264
G0 X96.620 Y147.681 F5400
G1 X91.325 Y152.976 E119.6755 F3000
G1 X91.325 Y153.526
G1 X96.431 Y148.421 E119.9156
G1 X96.395 Y149.006
G1 X91.325 Y154.076 E120.1541
G1 X91.325 Y154.626
G1 X96.406 Y149.545 E120.3931
G1 X96.519 Y149.982
G1 X91.325 Y155.176 E120.6374
G1 X91.325 Y155.725
G1 X96.632 Y150.419 E120.8870
G1 X96.827 Y150.774
G1 X91.325 Y156.275 E121.1458
G1 X91.325 Y156.825
G1 X97.022 Y151.128 E121.4137
G1 X97.266 Y151.434
G1 X91.325 Y157.375 E121.6931
G1 X91.325 Y157.925
G1 X97.532 Y151.718 E121.9851
G1 X97.817 Y151.983
G1 X91.325 Y158.474 E122.2904
G1 X91.325 Y159.024
G1 X98.153 Y152.196 E122.6116
G1 X98.490 Y152.410
G1 X91.325 Y159.574 E122.9486
G1 X91.619 Y159.830
G1 X98.897 Y152.553 E123.2909
G1 X99.311 Y152.688
G1 X92.169 Y159.830 E123.6269
G1 X92.719 Y159.830
G1 X99.802 Y152.747 E123.9600
G1 X100.319 Y152.780
G1 X93.268 Y159.830 E124.2917
G1 X93.818 Y159.830
G1 X100.986 Y152.663 E124.6288
G1 X101.865 Y152.333
G1 X94.368 Y159.830 E124.9815
G1 X94.918 Y159.830
G1 X117.815 Y136.933 E126.0585
G1 X118.204 Y137.094
G1 X95.468 Y159.830 E127.1279
G1 X96.018 Y159.830
G1 X118.594 Y137.254 E128.1898
G1 X119.080 Y137.318
G1 X96.567 Y159.830 E129.2487
G1 X97.117 Y159.830
G1 X119.566 Y137.382 E130.3046
G1 X120.052 Y137.446
G1 X97.667 Y159.830 E131.3575
G1 X98.217 Y159.830
G1 X120.641 Y137.407 E132.4123
G1 X121.274 Y137.323
G1 X98.767 Y159.830 E133.4709
G1 X99.317 Y159.830
G1 X121.957 Y137.190 E134.5358
G0 X122.896 Y136.801 F5400
G1 X99.866 Y159.830 E135.6191 F3000
G1 X100.416 Y159.830
G1 X168.925 Y91.323 E138.8415
G1 X168.925 Y91.873
G1 X100.966 Y159.830 E142.0380
G1 X101.516 Y159.830
G1 X168.925 Y92.423 E145.2087
G1 X168.925 Y92.973
G1 X102.066 Y159.830 E148.3535
G1 X102.616 Y159.830
G1 X168.925 Y93.523 E151.4724
G1 X168.925 Y94.073
G1 X103.165 Y159.830 E154.5655
G1 X103.715 Y159.830
G1 X168.925 Y94.622 E157.6327
G1 X168.925 Y95.172
G1 X104.265 Y159.830 E160.6741
G1 X104.815 Y159.830
G1 X168.925 Y95.722 E163.6896
G1 X168.925 Y96.272
G1 X105.365 Y159.830 E166.6792
G1 X105.914 Y159.830
G1 X168.925 Y96.822 E169.6430
G1 X168.925 Y97.371
G1 X106.464 Y159.830 E172.5809
G1 X107.014 Y159.830
G1 X168.925 Y97.921 E175.4929
G1 X168.925 Y98.471
G1 X107.564 Y159.830 E178.3791
G1 X108.114 Y159.830
G1 X168.925 Y99.021 E181.2394
G1 X168.925 Y99.571
G1 X108.664 Y159.830 E184.0739
G0 X103.461 Y150.738 F5400
G1 X117.427 Y136.772 E184.7308 F3000
G1 X117.048 Y136.601
G1 X103.778 Y149.871 E185.3550
G1 X103.858 Y149.241
G1 X116.737 Y136.362 E185.9608
G1 X116.426 Y136.123
G1 X103.843 Y148.706 E186.5527
G1 X103.782 Y148.218
G1 X116.115 Y135.885 E187.1328
G1 X115.811 Y135.638
G1 X103.649 Y147.800 E187.7049
G1 X103.494 Y147.406
G1 X115.536 Y135.364 E188.2713
G1 X115.262 Y135.089
G1 X103.298 Y147.052 E188.8340
G1 X103.067 Y146.733
G1 X114.987 Y134.814 E189.3947
G1 X114.712 Y134.539
G1 X102.826 Y146.424 E189.9537
G1 X102.525 Y146.175
G1 X114.437 Y134.264 E190.5140
G1 X114.162 Y133.989
G1 X102.224 Y145.926 E191.0755
G1 X101.871 Y145.730
G1 X113.887 Y133.714 E191.6407
G1 X113.612 Y133.439
G1 X101.497 Y145.554 E192.2106
G1 X101.085 Y145.416
G1 X113.337 Y133.164 E192.7869
G1 X113.062 Y132.889
G1 X100.623 Y145.328 E193.3720
G1 X100.107 Y145.294
G1 X112.787 Y132.614 E193.9684
G1 X112.513 Y132.339
G1 X99.520 Y145.331 E194.5795
G0 X116.462 Y114.645 F5400
G1 X91.325 Y139.781 E195.7619 F3000
G1 X91.325 Y140.331
G1 X149.427 Y82.230 E198.4948
G1 X149.977 Y82.230
G1 X91.325 Y140.880 E201.2535
G1 X91.325 Y141.430
G1 X150.527 Y82.230 E204.0382
G1 X151.077 Y82.230
G1 X91.325 Y141.980 E206.8487
G1 X91.325 Y142.530
G1 X151.627 Y82.230 E209.6850
G1 X152.176 Y82.230
G1 X91.325 Y143.080 E212.5472
G1 X91.325 Y143.629
G1 X152.726 Y82.230 E215.4353
G1 X153.276 Y82.230
G1 X91.325 Y144.179 E218.3492
G1 X91.325 Y144.729
G1 X111.170 Y124.885 E219.2827
G0 X115.669 Y114.888 F5400
G1 X91.325 Y139.231 E220.4277 F3000
G1 X91.325 Y138.681
G1 X115.060 Y114.947 E221.5441
G1 X114.574 Y114.883
G1 X91.325 Y138.131 E222.6376
G1 X91.325 Y137.582
G1 X114.133 Y114.775 E223.7104
G1 X113.744 Y114.614
G1 X91.325 Y137.032 E224.7649
G1 X91.325 Y136.482
G1 X113.391 Y114.417 E225.8028
G1 X113.080 Y114.178
G1 X91.325 Y135.932 E226.8261
G1 X91.325 Y135.382
G1 X112.793 Y113.915 E227.8358
G1 X112.554 Y113.605
G1 X91.325 Y134.832 E228.8343
G1 X91.325 Y134.283
G1 X112.330 Y113.279 E229.8223
G1 X112.168 Y112.890
G1 X91.325 Y133.733 E230.8027
G1 X91.325 Y133.183
G1 X112.025 Y112.484 E231.7763
G0 X101.413 Y122.546 F5400
G1 X91.325 Y132.633 E232.2508 F3000
G1 X91.325 Y132.083
G1 X100.689 Y122.720 E232.6912
G1 X100.094 Y122.765
G1 X91.325 Y131.534 E233.1037
G1 X91.325 Y130.984
G1 X99.576 Y122.733 E233.4918
G1 X99.131 Y122.629
G1 X91.325 Y130.434 E233.8589
G1 X91.325 Y129.884
G1 X98.716 Y122.494 E234.2065
G1 X98.343 Y122.317
G1 X91.325 Y129.334 E234.5366
G1 X91.325 Y128.785
G1 X98.007 Y122.103 E234.8509
G1 X97.682 Y121.878
G1 X91.325 Y128.235 E235.1499
G1 X91.325 Y127.685
G1 X97.416 Y121.594 E235.4364
G1 X97.150 Y121.311
G1 X91.325 Y127.135 E235.7104
G1 X91.325 Y126.585
G1 X96.937 Y120.974 E235.9743
G1 X96.742 Y120.619
G1 X91.325 Y126.035 E236.2291
G1 X91.325 Y125.486
G1 X96.582 Y120.229 E236.4763
G1 X96.470 Y119.792
G1 X91.325 Y124.936 E236.7183
G1 X91.325 Y124.386
G1 X96.395 Y119.316 E236.9568
G1 X96.395 Y118.766
G1 X91.325 Y123.836 E237.1952
G1 X91.325 Y123.286
G1 X96.513 Y118.098 E237.4393
G0 X98.871 Y116.365 F5400
G0 X100.310 Y116.090
G0 X101.703 Y116.543
G0 X102.707 Y117.611
G0 X103.813 Y119.596
G1 X111.792 Y111.617 E237.8146 F3000
G1 X111.676 Y111.183
G1 X103.878 Y118.981 E238.1814
G1 X103.816 Y118.493
G1 X111.560 Y110.750 E238.5457
G1 X111.444 Y110.316
G1 X103.737 Y118.022 E238.9082
G1 X103.581 Y117.628
G1 X111.328 Y109.882 E239.2725
G1 X111.212 Y109.449
G1 X103.426 Y117.234 E239.6388
G1 X103.197 Y116.913
G1 X111.095 Y109.015 E240.0103
G1 X110.979 Y108.581
G1 X102.966 Y116.594 E240.3872
G1 X102.695 Y116.315
G1 X110.863 Y108.148 E240.7714
G1 X110.747 Y107.714
G1 X102.394 Y116.067 E241.1643
G1 X102.082 Y115.829
G1 X110.631 Y107.280 E241.5664
G1 X110.514 Y106.847
G1 X101.708 Y115.653 E241.9806
G1 X101.334 Y115.477
G1 X110.398 Y106.413 E242.4069
G1 X110.282 Y105.980
G1 X100.883 Y115.378 E242.8490
G1 X100.422 Y115.290
G1 X110.166 Y105.546 E243.3074
G1 X110.050 Y105.112
G1 X99.851 Y115.310 E243.7870
G1 X99.204 Y115.408
G1 X109.937 Y104.675 E244.2919
G1 X109.873 Y104.189
G1 X98.275 Y115.787 E244.8374
G0 X96.890 Y117.172 F5400
G1 X91.325 Y122.737 E245.0992 F3000
G1 X91.325 Y122.187
G1 X109.887 Y103.626 E245.9723
G0 X100.639 Y94.729 F5400
G1 X91.325 Y104.043 E246.4104 F3000
G1 X91.325 Y103.493
G1 X100.056 Y94.763 E246.8210
G1 X99.538 Y94.730
G1 X91.325 Y102.943 E247.2073
G1 X91.325 Y102.393
G1 X99.100 Y94.619 E247.5730
G1 X98.685 Y94.484
G1 X91.325 Y101.844 E247.9192
G1 X91.325 Y101.294
G1 X98.318 Y94.301 E248.2481
G1 X97.982 Y94.087
G1 X91.325 Y100.744 E248.5612
G1 X91.325 Y100.194
G1 X97.663 Y93.857 E248.8593
G1 X97.397 Y93.573
G1 X91.325 Y99.644 E249.1449
G1 X91.325 Y99.095
G1 X97.130 Y93.290 E249.4179
G1 X96.923 Y92.948
G1 X91.325 Y98.545 E249.6812
G1 X91.325 Y97.995
G1 X96.728 Y92.593 E249.9353
G1 X96.574 Y92.197
G1 X91.325 Y97.445 E250.1822
G1 X91.325 Y96.895
G1 X96.461 Y91.759 E250.4237
G1 X96.395 Y91.276
G1 X91.325 Y96.346 E250.6622
G1 X91.325 Y95.796
G1 X96.395 Y90.726 E250.9007
G0 X98.247 Y93.300 F5400
G0 X99.573 Y93.924
G0 X138.211 Y102.353
G0 X139.512 Y102.893
G0 X140.610 Y103.733
G0 X144.182 Y107.305
G0 X145.023 Y108.403
G0 X145.562 Y109.705
G0 X145.896 Y113.802
G1 X168.925 Y90.774 E251.9839 F3000
G1 X168.925 Y90.224
G1 X146.284 Y112.864 E253.0488
G1 X146.418 Y112.180
G1 X168.925 Y89.674 E254.1074
G1 X168.925 Y89.124
G1 X146.501 Y111.547 E255.1622
G1 X146.541 Y110.958
G1 X168.925 Y88.574 E256.2150
G1 X168.925 Y88.025
G1 X146.477 Y110.472 E257.2709
G1 X146.413 Y109.986
G1 X168.925 Y87.475 E258.3297
G1 X168.925 Y86.925
G1 X146.349 Y109.500 E259.3916
G1 X146.189 Y109.110
G1 X168.925 Y86.375 E260.4610
G1 X168.925 Y85.825
G1 X146.028 Y108.721 E261.5379
G1 X145.867 Y108.332
G1 X159.868 Y94.332 E262.1965
G0 X156.870 Y93.696 F5400
G0 X155.742 Y92.762
G0 X155.202 Y91.400
G0 X154.620 Y89.683
G1 X141.160 Y103.143 E262.8296 F3000
G1 X141.435 Y103.418
G1 X154.430 Y90.423 E263.4409
G1 X154.395 Y91.008
G1 X141.710 Y103.693 E264.0375
G1 X141.985 Y103.968
G1 X154.407 Y91.546 E264.6218
G1 X154.519 Y91.984
G1 X142.259 Y104.243 E265.1985
G1 X142.534 Y104.518
G1 X154.633 Y92.420 E265.7676
G1 X154.828 Y92.774
G1 X142.809 Y104.793 E266.3329
G1 X143.084 Y105.067
G1 X155.023 Y93.129 E266.8944
G1 X155.267 Y93.435
G1 X143.359 Y105.342 E267.4545
G1 X143.634 Y105.617
G1 X155.533 Y93.718 E268.0142
G1 X155.818 Y93.983
G1 X143.909 Y105.892 E268.5744
G1 X144.184 Y106.167
G1 X156.154 Y94.197 E269.1374
G1 X156.490 Y94.411
G1 X144.459 Y106.442 E269.7033
G1 X144.734 Y106.717
G1 X156.898 Y94.553 E270.2755
G1 X157.313 Y94.688
G1 X144.980 Y107.021 E270.8556
G1 X145.218 Y107.332
G1 X157.803 Y94.747 E271.4475
G1 X158.321 Y94.780
G1 X145.457 Y107.643 E272.0526
G1 X145.696 Y107.954
G1 X158.988 Y94.663 E272.6777
G0 X160.707 Y92.449 F5400
G0 X161.071 Y91.030
G0 X160.707 Y89.611
G0 X159.704 Y88.543
G0 X157.522 Y87.331
G1 X162.623 Y82.230 E272.9177 F3000
G1 X163.173 Y82.230
G1 X158.109 Y87.294 E273.1559
G1 X158.624 Y87.329
G1 X163.723 Y82.230 E273.3957
G1 X164.273 Y82.230
G1 X159.086 Y87.417 E273.6396
G1 X159.498 Y87.554
G1 X164.823 Y82.230 E273.8901
G1 X165.372 Y82.230
G1 X159.872 Y87.730 E274.1488
G1 X160.225 Y87.927
G1 X165.922 Y82.230 E274.4168
G1 X166.472 Y82.230
G1 X160.526 Y88.176 E274.6964
G1 X160.827 Y88.425
G1 X167.022 Y82.230 E274.9878
G1 X167.572 Y82.230
G1 X161.067 Y88.734 E275.2937
G1 X161.299 Y89.053
G1 X168.121 Y82.230 E275.6147
G1 X168.671 Y82.230
G1 X161.494 Y89.407 E275.9523
G1 X161.650 Y89.801
G1 X168.925 Y82.526 E276.2944
G1 X168.925 Y83.076
G1 X161.782 Y90.219 E276.6304
G1 X161.844 Y90.707
G1 X168.925 Y83.626 E276.9635
G1 X168.925 Y84.176
G1 X161.858 Y91.243 E277.2959
G1 X161.778 Y91.872
G1 X168.925 Y84.726 E277.6321
G1 X168.925 Y85.276
G1 X161.459 Y92.741 E277.9832
G0 X160.979 Y90.298 F5400
G0 X160.272 Y89.013
G0 X159.035 Y88.228
G0 X156.747 Y87.556
G1 X162.073 Y82.230 E278.2337 F3000
G1 X161.524 Y82.230
G1 X140.851 Y102.902 E279.2061
G1 X140.540 Y102.663
G1 X160.974 Y82.230 E280.1672
G1 X160.424 Y82.230
G1 X140.229 Y102.425 E281.1171
G1 X139.917 Y102.186
G1 X159.874 Y82.230 E282.0558
G1 X159.324 Y82.230
G1 X139.528 Y102.025 E282.9869
G1 X139.140 Y101.864
G1 X158.774 Y82.230 E283.9104
G1 X158.225 Y82.230
G1 X138.751 Y101.703 E284.8264
G1 X138.347 Y101.557
G1 X157.675 Y82.230 E285.7355
G1 X157.125 Y82.230
G1 X137.861 Y101.493 E286.6416
G1 X137.376 Y101.429
G1 X156.575 Y82.230 E287.5446
G1 X156.025 Y82.230
G1 X136.890 Y101.365 E288.4447
G1 X136.280 Y101.425
G1 X155.475 Y82.230 E289.3476
G1 X154.926 Y82.230
G1 X135.646 Y101.509 E290.2544
G0 X131.617 Y92.343 F5400
G1 X141.730 Y82.230 E290.7301 F3000
G1 X142.280 Y82.230
G1 X121.579 Y102.930 E291.7037
G1 X121.985 Y103.074
G1 X142.829 Y82.230 E292.6842
G1 X143.379 Y82.230
G1 X122.374 Y103.235 E293.6722
G1 X122.700 Y103.459
G1 X143.929 Y82.230 E294.6708
G1 X144.479 Y82.230
G1 X123.011 Y103.698 E295.6806
G1 X123.273 Y103.985
