; GCode generated by CraftWare

G28 X0 Y0
G28 Z0

M190 S70 ;set bed temp (wait)
M109 S240 ;set head temp (wait)
; ------------------------------------
; Layer #0
; ------------------------------------
G21 ; mm
G90 ; abs
G92 E0 ; reset extr
M106 S0
;segType:Skirt
G0 F1500 E-1.0000
G0 F300 Z0.200
G0 X92.287 Y123.839 F10800
G0 F1500 E0.0000
G1 X95.852 Y127.089 E0.1605 F600
G1 X96.170 Y127.263 E0.1725
G1 X96.425 Y127.379 E0.1818
G1 X97.189 Y127.495 E0.2075
G1 X110.686 Y127.495 E0.6564
G1 X110.813 Y127.379 E0.6622
G1 X111.577 Y127.379 E0.6876
G1 X111.705 Y127.263 E0.6933
G1 X112.214 Y127.263 E0.7103
G1 X112.596 Y127.147 E0.7235
G1 X113.105 Y127.147 E0.7405
G1 X113.233 Y127.031 E0.7462
G1 X113.997 Y127.031 E0.7716
G1 X114.124 Y126.915 E0.7773
G1 X114.633 Y126.915 E0.7943
G1 X115.015 Y126.799 E0.8076
G1 X115.525 Y126.799 E0.8245
G1 X115.652 Y126.683 E0.8302
G1 X116.416 Y126.683 E0.8556
G1 X116.543 Y126.567 E0.8614
G1 X117.053 Y126.567 E0.8783
G1 X117.435 Y126.451 E0.8916
G1 X117.944 Y126.451 E0.9085
G1 X118.071 Y126.335 E0.9143
G1 X118.835 Y126.335 E0.9397
G1 X118.963 Y126.219 E0.9454
G1 X119.472 Y126.219 E0.9623
G1 X119.854 Y126.102 E0.9756
G1 X120.363 Y126.102 E0.9926
G1 X120.491 Y125.986 E0.9983
G1 X121.255 Y125.986 E1.0237
G1 X121.382 Y125.870 E1.0294
G1 X121.891 Y125.870 E1.0464
G1 X122.273 Y125.754 E1.0597
G1 X122.783 Y125.754 E1.0766
G1 X122.910 Y125.638 E1.0823
G1 X123.674 Y125.638 E1.1077
G1 X123.801 Y125.522 E1.1135
G1 X124.311 Y125.522 E1.1304
G1 X124.693 Y125.406 E1.1437
G1 X124.947 Y125.406 E1.1522
G1 X125.075 Y125.290 E1.1579
G1 X125.329 Y125.290 E1.1664
G1 X125.457 Y125.174 E1.1721
G1 X125.711 Y125.174 E1.1806
G1 X125.966 Y124.942 E1.1920
G1 X126.284 Y124.768 E1.2041
G1 X128.321 Y122.911 E1.2958
G1 X128.576 Y122.795 E1.3051
G1 X128.576 Y124.884 E1.3746
G1 X131.378 Y127.438 E1.5007
G1 X131.823 Y127.495 E1.5156
G1 X145.066 Y127.495 E1.9560
G1 X145.193 Y127.379 E1.9618
G1 X145.448 Y127.379 E1.9702
G1 X146.084 Y127.031 E1.9944
G1 X149.395 Y124.013 E2.1434
G1 X149.586 Y123.723 E2.1549
G1 X149.840 Y123.491 E2.1664
G1 X150.222 Y122.446 E2.2034
G1 X150.222 Y107.589 E2.6975
G1 X150.222 Y101.554 E2.8983
G1 X150.095 Y101.438 E2.9040
G1 X150.095 Y101.205 E2.9117
G1 X149.968 Y101.089 E2.9175
G1 X149.968 Y100.857 E2.9252
G1 X149.395 Y99.987 E2.9598
G1 X146.594 Y97.433 E3.0859
G1 X146.275 Y97.259 E3.0980
G1 X146.020 Y97.027 E3.1094
G1 X145.702 Y96.853 E3.1215
G1 X145.320 Y96.737 E3.1348
G1 X145.193 Y96.621 E3.1405
G1 X144.684 Y96.621 E3.1574
G1 X144.302 Y96.505 E3.1707
G1 X131.569 Y96.505 E3.5942
G1 X131.250 Y96.679 E3.6063
G1 X128.576 Y99.116 E3.7266
G1 X128.576 Y101.205 E3.7961
G1 X128.321 Y101.089 E3.8054
G1 X126.539 Y99.464 E3.8857
G1 X126.221 Y99.290 E3.8977
G1 X125.966 Y99.058 E3.9092
G1 X125.584 Y98.942 E3.9225
G1 X125.457 Y98.826 E3.9282
G1 X125.202 Y98.826 E3.9367
G1 X125.075 Y98.710 E3.9424
G1 X124.183 Y98.594 E3.9723
G1 X123.929 Y98.594 E3.9808
G1 X123.801 Y98.478 E3.9865
G1 X123.037 Y98.478 E4.0119
G1 X122.910 Y98.362 E4.0176
G1 X122.401 Y98.362 E4.0346
G1 X122.019 Y98.246 E4.0479
G1 X121.509 Y98.246 E4.0648
G1 X121.382 Y98.130 E4.0705
G1 X120.618 Y98.130 E4.0959
G1 X120.491 Y98.014 E4.1017
G1 X119.981 Y98.014 E4.1186
G1 X119.599 Y97.898 E4.1319
G1 X119.090 Y97.898 E4.1488
G1 X118.963 Y97.781 E4.1546
G1 X118.199 Y97.781 E4.1800
G1 X118.071 Y97.665 E4.1857
G1 X117.562 Y97.665 E4.2026
G1 X117.180 Y97.549 E4.2159
G1 X116.671 Y97.549 E4.2329
G1 X116.289 Y97.433 E4.2461
G1 X115.779 Y97.433 E4.2631
G1 X115.652 Y97.317 E4.2688
G1 X115.143 Y97.317 E4.2858
G1 X114.761 Y97.201 E4.2990
G1 X114.251 Y97.201 E4.3160
G1 X113.869 Y97.085 E4.3292
G1 X113.360 Y97.085 E4.3462
G1 X113.233 Y96.969 E4.3519
G1 X112.723 Y96.969 E4.3689
G1 X112.341 Y96.853 E4.3821
G1 X111.832 Y96.853 E4.3991
G1 X111.450 Y96.737 E4.4124
G1 X110.941 Y96.737 E4.4293
G1 X110.813 Y96.621 E4.4350
G1 X110.559 Y96.621 E4.4435
G1 X110.431 Y96.505 E4.4492
G1 X97.698 Y96.505 E4.8727
G1 X96.807 Y96.621 E4.9026
G1 X96.425 Y96.737 E4.9159
G1 X96.298 Y96.853 E4.9216
G1 X96.043 Y96.853 E4.9301
G1 X95.534 Y97.317 E4.9530
G1 X95.216 Y97.491 E4.9651
G1 X92.414 Y100.045 E5.0912
G1 X92.032 Y100.625 E5.1143
G1 X91.650 Y101.670 E5.1513
G1 X91.650 Y116.527 E5.6454
G1 X91.650 Y122.563 E5.8462
G1 X91.778 Y122.679 E5.8519
G1 X91.778 Y122.911 E5.8596
G1 X91.905 Y123.027 E5.8654
G1 X91.905 Y123.259 E5.8731
G1 X92.287 Y123.839 E5.8962
G1 X91.905 Y123.839 E5.9089
G1 X95.725 Y127.321 E6.0808
G1 X96.170 Y127.611 E6.0985
G1 X96.425 Y127.727 E6.1078
G1 X97.189 Y127.844 E6.1335
G1 X110.686 Y127.844 E6.5824
G1 X110.813 Y127.727 E6.5881
G1 X111.577 Y127.727 E6.6135
G1 X111.705 Y127.611 E6.6193
G1 X112.214 Y127.611 E6.6362
G1 X112.596 Y127.495 E6.6495
G1 X113.105 Y127.495 E6.6664
G1 X113.233 Y127.379 E6.6722
G1 X113.997 Y127.379 E6.6976
G1 X114.124 Y127.263 E6.7033
G1 X114.633 Y127.263 E6.7203
G1 X115.015 Y127.147 E6.7335
G1 X115.525 Y127.147 E6.7505
G1 X115.652 Y127.031 E6.7562
G1 X116.416 Y127.031 E6.7816
G1 X116.543 Y126.915 E6.7873
G1 X117.053 Y126.915 E6.8043
G1 X117.435 Y126.799 E6.8176
G1 X117.944 Y126.799 E6.8345
G1 X118.071 Y126.683 E6.8402
G1 X118.835 Y126.683 E6.8656
G1 X118.963 Y126.567 E6.8714
G1 X119.472 Y126.567 E6.8883
G1 X119.854 Y126.451 E6.9016
G1 X120.363 Y126.451 E6.9185
G1 X120.491 Y126.335 E6.9243
G1 X121.255 Y126.335 E6.9497
G1 X121.382 Y126.219 E6.9554
G1 X121.891 Y126.219 E6.9723
G1 X122.273 Y126.102 E6.9856
G1 X122.783 Y126.102 E7.0026
G1 X122.910 Y125.986 E7.0083
G1 X123.674 Y125.986 E7.0337
G1 X123.801 Y125.870 E7.0394
G1 X124.311 Y125.870 E7.0564
G1 X124.693 Y125.754 E7.0697
G1 X124.947 Y125.754 E7.0781
G1 X125.075 Y125.638 E7.0839
G1 X125.329 Y125.638 E7.0923
G1 X125.457 Y125.522 E7.0981
G1 X125.711 Y125.522 E7.1065
G1 X125.966 Y125.290 E7.1180
G1 X126.284 Y125.116 E7.1300
G1 X128.067 Y123.491 E7.2103
G1 X128.194 Y123.491 E7.2145
G1 X128.194 Y124.884 E7.2609
G1 X131.250 Y127.670 E7.3984
G1 X131.569 Y127.844 E7.4104
G1 X145.066 Y127.844 E7.8594
G1 X145.147 Y127.770 E7.8630
G0 F1500 E6.8630
G0 X137.910 Y124.823 F10800
G0 X135.497 Y123.841
G0 X133.085 Y122.859
G0 F1500 E7.8630
;segType:Loop
G1 X133.085 Y100.547 E8.6051 F600
G1 X143.442 Y100.547 E8.9496
G1 X144.091 Y100.632 E8.9714
G1 X144.662 Y100.869 E8.9919
G1 X145.160 Y101.251 E9.0128
G1 X145.548 Y101.757 E9.0340
G1 X145.796 Y102.355 E9.0555
G1 X145.885 Y103.033 E9.0783
G1 X145.885 Y120.390 E9.6556
G1 X145.882 Y120.990 E9.6755
G1 X145.787 Y121.665 E9.6982
G1 X145.534 Y122.262 E9.7198
G1 X145.160 Y122.749 E9.7402
G1 X144.662 Y123.131 E9.7611
G1 X144.091 Y123.368 E9.7816
G1 X143.442 Y123.453 E9.8034
G1 X133.085 Y123.453 E10.1479
G1 X133.085 Y123.033 E10.1618
;segType:Perimeter
G0 X133.321 Y123.525 F10800
G1 X132.685 Y123.765 E10.1844 F479
G1 X132.685 Y100.182 E10.9688
G1 X143.471 Y100.182 E11.3276
G1 X144.205 Y100.279 E11.3522
G1 X144.877 Y100.557 E11.3764
G1 X145.457 Y101.003 E11.4007
G1 X145.905 Y101.586 E11.4252
G1 X146.187 Y102.267 E11.4497
G1 X146.285 Y103.011 E11.4746
G1 X146.285 Y120.391 E12.0527
G1 X146.282 Y121.014 E12.0734
G1 X146.178 Y121.755 E12.0983
G1 X145.889 Y122.434 E12.1229
G1 X145.457 Y122.997 E12.1465
G1 X144.877 Y123.443 E12.1708
G1 X144.205 Y123.721 E12.1950
G1 X143.471 Y123.818 E12.2196
G1 X132.742 Y123.818 E12.5765
G1 X133.006 Y123.238
;segType:Loop
G0 X133.485 Y121.901 F10800
G1 X133.485 Y100.911 E13.2746 F600
G1 X143.413 Y100.911 E13.6048
G1 X143.977 Y100.986 E13.6237
G1 X144.446 Y101.180 E13.6406
G1 X144.862 Y101.499 E13.6580
G1 X145.192 Y101.929 E13.6760
G1 X145.404 Y102.442 E13.6945
G1 X145.485 Y103.054 E13.7151
G1 X145.485 Y120.389 E14.2916
G1 X145.482 Y120.966 E14.3108
G1 X145.396 Y121.575 E14.3313
G1 X145.178 Y122.089 E14.3498
G1 X144.862 Y122.501 E14.3671
G1 X144.446 Y122.820 E14.3845
G1 X143.977 Y123.014 E14.4014
G1 X143.413 Y123.089 E14.4203
G1 X133.485 Y123.089 E14.7506
G1 X133.485 Y122.075 E14.7843
G0 X138.289 Y121.891 F10800
G1 X137.902 Y121.609 E14.8002 F600
G1 X137.544 Y121.177 E14.8189
G1 X137.308 Y120.676 E14.8373
G1 X137.205 Y120.137 E14.8555
G1 X137.240 Y119.591 E14.8737
G1 X137.410 Y119.067 E14.8921
G1 X137.708 Y118.597 E14.9106
G1 X138.121 Y118.209 E14.9294
G1 X138.626 Y117.931 E14.9486
G1 X139.192 Y117.786 E14.9680
G1 X139.778 Y117.786 E14.9875
G1 X140.344 Y117.931 E15.0069
G1 X140.849 Y118.209 E15.0261
G1 X141.262 Y118.597 E15.0449
G1 X141.561 Y119.069 E15.0635
G1 X141.731 Y119.607 E15.0823
G1 X141.765 Y120.137 E15.1000
G1 X141.662 Y120.676 E15.1182
G1 X141.426 Y121.177 E15.1366
G1 X141.068 Y121.609 E15.1553
G1 X140.606 Y121.945 E15.1743
G1 X140.066 Y122.159 E15.1936
G1 X139.485 Y122.232 E15.2131
G1 X138.904 Y122.159 E15.2326
G1 X138.452 Y121.980 E15.2488
;segType:Perimeter
G0 X139.947 Y122.269 F10800
G1 X139.428 Y121.857 E15.2708 F479
G1 X139.013 Y121.804 E15.2847
G1 X138.572 Y121.630 E15.3005
G1 X138.191 Y121.353 E15.3162
G1 X137.892 Y120.992 E15.3317
G1 X137.694 Y120.572 E15.3472
G1 X137.607 Y120.116 E15.3626
G1 X137.636 Y119.654 E15.3780
G1 X137.780 Y119.212 E15.3935
G1 X138.030 Y118.818 E15.4090
G1 X138.372 Y118.497 E15.4246
G1 X138.786 Y118.269 E15.4403
G1 X139.247 Y118.151 E15.4561
G1 X139.723 Y118.151 E15.4720
G1 X140.184 Y118.269 E15.4878
G1 X140.598 Y118.497 E15.5035
G1 X140.940 Y118.818 E15.5191
G1 X141.190 Y119.213 E15.5347
G1 X141.335 Y119.668 E15.5506
G1 X141.363 Y120.116 E15.5655
G1 X141.276 Y120.572 E15.5809
G1 X141.078 Y120.992 E15.5964
G1 X140.779 Y121.353 E15.6119
G1 X140.398 Y121.630 E15.6276
G1 X139.957 Y121.804 E15.6434
G1 X139.542 Y121.857 E15.6573
G1 X139.023 Y122.269
;segType:Loop
G0 X137.248 Y121.424 F10800
G1 X137.195 Y121.361 E15.6600 F600
G1 X136.922 Y120.781 E15.6814
G1 X136.804 Y120.158 E15.7025
G1 X136.843 Y119.528 E15.7235
G1 X137.040 Y118.922 E15.7447
G1 X137.387 Y118.375 E15.7662
G1 X137.870 Y117.921 E15.7882
G1 X138.466 Y117.594 E15.8109
G1 X139.136 Y117.422 E15.8339
G1 X139.834 Y117.422 E15.8571
G1 X140.504 Y117.594 E15.8801
G1 X141.100 Y117.921 E15.9027
G1 X141.583 Y118.375 E15.9248
G1 X141.932 Y118.925 E15.9464
G1 X142.128 Y119.545 E15.9680
G1 X142.166 Y120.158 E15.9885
G1 X142.048 Y120.781 E16.0096
G1 X141.775 Y121.361 E16.0309
G1 X141.357 Y121.866 E16.0527
G1 X140.814 Y122.261 E16.0750
G1 X140.176 Y122.513 E16.0978
G1 X139.485 Y122.600 E16.1210
G1 X138.794 Y122.513 E16.1441
G1 X138.156 Y122.261 E16.1670
G1 X137.613 Y121.866 E16.1893
G1 X137.363 Y121.563 E16.2024
G0 X138.289 Y105.890 F10800
G1 X137.902 Y105.609 E16.2183 F600
G1 X137.544 Y105.177 E16.2370
G1 X137.308 Y104.676 E16.2554
G1 X137.205 Y104.137 E16.2736
G1 X137.240 Y103.591 E16.2918
G1 X137.410 Y103.067 E16.3101
G1 X137.708 Y102.597 E16.3287
G1 X138.121 Y102.209 E16.3475
G1 X138.626 Y101.931 E16.3667
G1 X139.192 Y101.786 E16.3861
G1 X139.778 Y101.786 E16.4056
G1 X140.344 Y101.931 E16.4250
G1 X140.849 Y102.209 E16.4442
G1 X141.262 Y102.597 E16.4630
G1 X141.561 Y103.069 E16.4816
G1 X141.731 Y103.607 E16.5004
G1 X141.765 Y104.137 E16.5180
G1 X141.662 Y104.676 E16.5363
G1 X141.427 Y105.177 E16.5547
G1 X141.068 Y105.609 E16.5734
G1 X140.606 Y105.945 E16.5924
G1 X140.067 Y106.159 E16.6117
G1 X139.485 Y106.232 E16.6312
G1 X138.903 Y106.159 E16.6507
G1 X138.452 Y105.980 E16.6668
;segType:Perimeter
G0 X139.947 Y106.269 F10800
G1 X139.428 Y105.857 E16.6889 F479
G1 X139.012 Y105.804 E16.7028
G1 X138.572 Y105.630 E16.7186
G1 X138.191 Y105.353 E16.7343
G1 X137.892 Y104.992 E16.7498
G1 X137.694 Y104.571 E16.7653
G1 X137.607 Y104.116 E16.7807
G1 X137.636 Y103.654 E16.7961
G1 X137.780 Y103.212 E16.8116
G1 X138.030 Y102.818 E16.8271
G1 X138.372 Y102.497 E16.8427
G1 X138.786 Y102.269 E16.8584
G1 X139.247 Y102.151 E16.8742
G1 X139.723 Y102.151 E16.8901
G1 X140.184 Y102.269 E16.9059
G1 X140.598 Y102.497 E16.9216
G1 X140.940 Y102.818 E16.9372
G1 X141.190 Y103.213 E16.9528
G1 X141.335 Y103.668 E16.9687
G1 X141.363 Y104.116 E16.9836
G1 X141.276 Y104.571 E16.9990
G1 X141.078 Y104.992 E17.0145
G1 X140.779 Y105.353 E17.0300
G1 X140.398 Y105.630 E17.0457
G1 X139.958 Y105.804 E17.0615
G1 X139.542 Y105.857 E17.0754
G1 X139.023 Y106.269
;segType:Loop
G0 X137.247 Y105.424 F10800
G1 X137.195 Y105.361 E17.0781 F600
G1 X136.922 Y104.780 E17.0995
G1 X136.804 Y104.158 E17.1205
G1 X136.843 Y103.528 E17.1415
G1 X137.040 Y102.922 E17.1627
G1 X137.387 Y102.375 E17.1843
G1 X137.870 Y101.921 E17.2063
G1 X138.466 Y101.594 E17.2289
G1 X139.136 Y101.422 E17.2520
G1 X139.834 Y101.422 E17.2751
G1 X140.504 Y101.594 E17.2982
G1 X141.100 Y101.921 E17.3208
G1 X141.583 Y102.375 E17.3428
G1 X141.932 Y102.925 E17.3645
G1 X142.128 Y103.545 E17.3861
G1 X142.166 Y104.158 E17.4066
G1 X142.048 Y104.780 E17.4276
G1 X141.775 Y105.361 E17.4490
G1 X141.357 Y105.866 E17.4708
G1 X140.814 Y106.260 E17.4931
G1 X140.176 Y106.513 E17.5159
G1 X139.485 Y106.600 E17.5391
G1 X138.794 Y106.513 E17.5622
G1 X138.156 Y106.260 E17.5851
G1 X137.613 Y105.866 E17.6074
G1 X137.363 Y105.563 E17.6204
G0 X138.646 Y105.769 F10800
G0 X140.810 Y106.460
;segType:HShell
G1 X133.685 Y112.955 E17.9411 F600
G1 X133.685 Y112.462
G1 X139.983 Y106.721 E18.2246
G1 X139.386 Y106.772
G1 X133.685 Y111.970 E18.4812
G1 X133.685 Y111.477
G1 X138.912 Y106.712 E18.7164
G1 X138.499 Y106.595
G1 X133.685 Y110.984 E18.9331
G1 X133.685 Y110.491
G1 X138.122 Y106.445 E19.1328
G1 X137.807 Y106.240
G1 X133.685 Y109.998 E19.3184
G1 X133.685 Y109.505
G1 X137.506 Y106.021 E19.4903
G1 X137.265 Y105.748
G1 X133.685 Y109.012 E19.6515
G1 X133.685 Y108.519
G1 X137.032 Y105.467 E19.8021
G1 X136.867 Y105.125
G1 X133.685 Y108.026 E19.9454
G1 X133.685 Y107.533
G1 X136.717 Y104.769 E20.0818
G1 X136.637 Y104.349
G1 X133.685 Y107.040 E20.2147
G1 X133.685 Y106.547
G1 X136.621 Y103.870 E20.3469
G1 X136.709 Y103.297
G1 X133.685 Y106.054 E20.4830
G1 X133.685 Y105.561
G1 X137.123 Y102.427 E20.6377
G0 X134.260 Y101.094 F10800
G1 X133.685 Y101.618 E20.6636 F600
G1 X133.685 Y102.111
G1 X134.800 Y101.094 E20.7138
G1 X135.341 Y101.094
G1 X133.685 Y102.604 E20.7884
G1 X133.685 Y103.097
G1 X135.882 Y101.094 E20.8872
G1 X136.423 Y101.094
G1 X133.685 Y103.590 E21.0105
G1 X133.685 Y104.082
G1 X136.964 Y101.094 E21.1580
G1 X137.504 Y101.094
G1 X133.685 Y104.575 E21.3299
G1 X133.685 Y105.068
G1 X138.045 Y101.094 E21.5262
G1 X138.586 Y101.094
G1 X137.975 Y101.650 E21.5537
G0 X138.911 Y101.290 F10800
G1 X139.127 Y101.094 E21.5634 F600
G1 X139.667 Y101.094
G1 X139.507 Y101.240 E21.5706
G1 X140.007 Y101.277
G1 X140.208 Y101.094 E21.5796
G1 X140.749 Y101.094
G1 X140.429 Y101.385 E21.5940
G1 X140.798 Y101.542
G1 X141.290 Y101.094 E21.6162
G1 X141.830 Y101.094
G1 X141.135 Y101.727 E21.6475
G1 X141.420 Y101.960
G1 X142.371 Y101.094 E21.6903
G1 X142.912 Y101.094
G1 X141.687 Y102.211 E21.7454
G1 X141.899 Y102.510
G1 X143.446 Y101.100 E21.8150
G1 X143.918 Y101.162
G1 X142.098 Y102.822 E21.8969
G1 X142.226 Y103.197
G1 X144.291 Y101.316 E21.9898
G1 X144.594 Y101.532
G1 X142.331 Y103.595 E22.0917
G1 X142.361 Y104.061
G1 X144.845 Y101.796 E22.2035
G1 X145.050 Y102.102
G1 X142.280 Y104.627 E22.3282
G1 X141.976 Y105.398
G1 X145.198 Y102.460 E22.4732
G1 X145.263 Y102.894
G1 X133.685 Y113.448 E22.9943
G1 X133.685 Y113.941
G1 X145.285 Y103.367 E23.5163
G1 X145.285 Y103.860
G1 X133.685 Y114.434 E24.0384
G1 X133.685 Y114.927
G1 X145.285 Y104.352 E24.5605
G1 X145.285 Y104.845
G1 X133.685 Y115.420 E25.0826
G1 X133.685 Y115.913
G1 X145.285 Y105.338 E25.6047
G1 X145.285 Y105.831
G1 X133.685 Y116.406 E26.1268
G1 X133.685 Y116.899
G1 X145.285 Y106.324 E26.6489
G1 X145.285 Y106.817
G1 X133.685 Y117.392 E27.1710
G1 X133.685 Y117.885
G1 X145.285 Y107.310 E27.6931
G1 X145.285 Y107.803
G1 X133.685 Y118.378 E28.2151
G1 X133.685 Y118.871
G1 X145.285 Y108.296 E28.7372
G1 X145.285 Y108.789
G1 X133.685 Y119.364 E29.2593
G1 X133.685 Y119.857
G1 X145.285 Y109.282 E29.7814
G1 X145.285 Y109.775
G1 X133.685 Y120.350 E30.3035
G1 X133.685 Y120.843
G1 X145.285 Y110.268 E30.8256
G1 X145.285 Y110.761
G1 X133.685 Y121.335 E31.3477
G1 X133.685 Y121.828
G1 X136.814 Y118.976 E31.4885
G1 X136.636 Y119.631
G1 X133.685 Y122.321 E31.6213
G1 X133.685 Y122.814
G1 X136.604 Y120.154 E31.7527
G1 X136.680 Y120.576
G1 X134.124 Y122.906 E31.8677
G1 X134.665 Y122.906
G1 X136.792 Y120.967 E31.9635
G1 X136.955 Y121.312
G1 X135.206 Y122.906 E32.0422
G1 X135.747 Y122.906
G1 X137.159 Y121.619 E32.1057
G1 X137.391 Y121.900
G1 X136.287 Y122.906 E32.1554
G1 X136.828 Y122.906
G1 X137.669 Y122.140 E32.1932
G1 X137.970 Y122.358
G1 X137.369 Y122.906 E32.2203
G1 X137.910 Y122.906
G1 X138.326 Y122.527 E32.2390
G1 X138.704 Y122.676
G1 X138.451 Y122.906 E32.2504
G1 X138.991 Y122.906
G1 X139.169 Y122.744 E32.2584
G1 X139.695 Y122.758
G1 X139.532 Y122.906 E32.2657
G1 X140.073 Y122.906
G1 X140.372 Y122.634 E32.2792
G0 X138.054 Y121.474 F10800
G0 X137.511 Y120.621
G0 X137.448 Y119.624
G0 X138.566 Y117.379
G1 X145.285 Y111.254 E32.5816 F600
G1 X145.285 Y111.747
G1 X139.259 Y117.240 E32.8528
G1 X139.800 Y117.240
G1 X145.285 Y112.240 E33.0996
G1 X145.285 Y112.732
G1 X140.236 Y117.335 E33.3269
G1 X140.643 Y117.457
G1 X145.285 Y113.225 E33.5358
G1 X145.285 Y113.718
G1 X140.981 Y117.642 E33.7296
G1 X141.298 Y117.846
G1 X145.285 Y114.211 E33.9090
G1 X145.285 Y114.704
G1 X141.565 Y118.096 E34.0764
G1 X141.809 Y118.366
G1 X145.285 Y115.197 E34.2329
G1 X145.285 Y115.690
G1 X142.007 Y118.679 E34.3805
G1 X142.171 Y119.022
G1 X145.285 Y116.183 E34.5206
G1 X145.285 Y116.676
G1 X142.292 Y119.405 E34.6553
G1 X142.347 Y119.847
G1 X145.285 Y117.169 E34.7876
G1 X145.285 Y117.662
G1 X142.332 Y120.354 E34.9205
G0 X143.945 Y122.828 F10800
G1 X145.095 Y121.779 E34.9723 F600
G1 X145.256 Y121.139
G1 X143.317 Y122.906 E35.0595
G1 X142.777 Y122.906
G1 X145.284 Y120.621 E35.1724
G1 X145.285 Y120.127
G1 X142.236 Y122.906 E35.3096
G1 X141.695 Y122.906
G1 X145.285 Y119.634 E35.4712
G1 X145.285 Y119.141
G1 X141.154 Y122.906 E35.6571
G1 X140.614 Y122.906
G1 X145.285 Y118.648 E35.8673
G1 X145.285 Y118.155
G1 X142.161 Y121.003 E36.0080
G0 F1500 E35.0080
G0 X140.112 Y122.308 F10800
G0 X125.946 Y121.433
G0 X123.569 Y121.367
G0 F1500 E36.0080
;segType:Loop
G1 X109.283 Y123.453 E36.4882 F600
G1 X98.558 Y123.453 E36.8449
G1 X97.909 Y123.368 E36.8667
G1 X97.338 Y123.131 E36.8872
G1 X96.840 Y122.749 E36.9081
G1 X96.452 Y122.243 E36.9293
G1 X96.204 Y121.645 E36.9508
G1 X96.115 Y120.967 E36.9736
G1 X96.115 Y103.033 E37.5701
G1 X96.204 Y102.355 E37.5928
G1 X96.452 Y101.757 E37.6143
G1 X96.840 Y101.251 E37.6355
G1 X97.338 Y100.869 E37.6564
G1 X97.909 Y100.632 E37.6770
G1 X98.558 Y100.547 E37.6987
G1 X109.283 Y100.575 E38.0555
G1 X123.773 Y102.663 E38.5424
G1 X124.461 Y102.865 E38.5662
G1 X125.033 Y103.233 E38.5888
G1 X125.487 Y103.757 E38.6119
G1 X125.779 Y104.397 E38.6353
G1 X125.885 Y105.134 E38.6601
G1 X125.885 Y118.866 E39.1168
G1 X125.779 Y119.603 E39.1416
G1 X125.487 Y120.243 E39.1650
G1 X125.033 Y120.767 E39.1880
G1 X124.461 Y121.135 E39.2106
G1 X123.773 Y121.337 E39.2345
G1 X123.758 Y121.339 E39.2350
;segType:Perimeter
G0 X124.755 Y120.872 F10800
G1 X124.587 Y121.481 E39.2560 F479
G1 X123.866 Y121.693 E39.2810
G1 X109.315 Y123.818 E39.7701
G1 X98.529 Y123.818 E40.1288
G1 X97.795 Y123.721 E40.1534
G1 X97.123 Y123.443 E40.1776
G1 X96.543 Y122.997 E40.2020
G1 X96.095 Y122.414 E40.2264
G1 X95.813 Y121.733 E40.2509
G1 X95.715 Y120.989 E40.2759
G1 X95.715 Y103.011 E40.8738
G1 X95.813 Y102.267 E40.8988
G1 X96.095 Y101.586 E40.9233
G1 X96.543 Y101.003 E40.9478
G1 X97.123 Y100.557 E40.9721
G1 X97.795 Y100.279 E40.9963
G1 X98.529 Y100.182 E41.0209
G1 X109.315 Y100.210 E41.3797
G1 X123.866 Y102.307 E41.8686
G1 X124.642 Y102.535 E41.8955
G1 X125.311 Y102.965 E41.9220
G1 X125.835 Y103.570 E41.9486
G1 X126.169 Y104.301 E41.9753
G1 X126.285 Y105.111 E42.0025
G1 X126.285 Y118.889 E42.4608
G1 X126.169 Y119.699 E42.4880
G1 X125.835 Y120.430 E42.5147
G1 X125.311 Y121.035 E42.5413
G1 X124.689 Y121.435 E42.5660
G1 X124.054 Y121.192
;segType:Loop
G0 X122.467 Y121.158 F10800
G1 X109.251 Y123.089 E43.0102 F600
G1 X98.587 Y123.089 E43.3649
G1 X98.023 Y123.014 E43.3838
G1 X97.554 Y122.820 E43.4007
G1 X97.138 Y122.501 E43.4181
G1 X96.808 Y122.071 E43.4361
G1 X96.596 Y121.558 E43.4546
G1 X96.515 Y120.946 E43.4752
G1 X96.515 Y103.054 E44.0702
G1 X96.596 Y102.442 E44.0908
G1 X96.808 Y101.929 E44.1092
G1 X97.138 Y101.499 E44.1273
G1 X97.554 Y101.180 E44.1447
G1 X98.023 Y100.986 E44.1616
G1 X98.586 Y100.912 E44.1805
G1 X109.251 Y100.939 E44.5352
G1 X123.680 Y103.019 E45.0201
G1 X124.280 Y103.195 E45.0409
G1 X124.755 Y103.500 E45.0596
G1 X125.139 Y103.943 E45.0791
G1 X125.389 Y104.492 E45.0992
G1 X125.485 Y105.158 E45.1216
G1 X125.485 Y118.842 E45.5767
G1 X125.389 Y119.508 E45.5991
G1 X125.139 Y120.057 E45.6191
G1 X124.755 Y120.500 E45.6386
G1 X124.280 Y120.805 E45.6574
G1 X123.679 Y120.981 E45.6782
G1 X122.656 Y121.131 E45.7126
G0 X122.966 Y111.985 F10800
G0 X122.862 Y111.230
G0 X122.566 Y110.526
G0 X121.868 Y109.496
G1 X122.250 Y109.786 E45.7286 F600
G1 X122.753 Y110.434 E45.7559
G1 X123.068 Y111.184 E45.7829
G1 X123.178 Y111.984 E45.8098
G1 X123.074 Y112.800 E45.8371
G1 X122.763 Y113.552 E45.8642
G1 X122.263 Y114.204 E45.8915
G1 X121.603 Y114.710 E45.9192
G1 X120.826 Y115.032 E45.9472
G1 X120.028 Y115.137 E45.9739
G1 X116.942 Y115.137 E46.0766
G1 X116.144 Y115.032 E46.1033
G1 X115.367 Y114.710 E46.1313
G1 X114.707 Y114.204 E46.1590
G1 X114.207 Y113.552 E46.1863
G1 X113.896 Y112.802 E46.2133
G1 X113.791 Y112.000 E46.2402
G1 X113.896 Y111.198 E46.2671
G1 X114.207 Y110.448 E46.2941
G1 X114.707 Y109.796 E46.3214
G1 X115.367 Y109.290 E46.3491
G1 X116.144 Y108.968 E46.3771
G1 X116.928 Y108.865 E46.4034
G1 X119.964 Y108.863 E46.5043
G1 X120.807 Y108.965 E46.5326
G1 X121.588 Y109.283 E46.5606
G1 X121.721 Y109.384 E46.5662
;segType:Perimeter
G0 X120.371 Y108.816 F10800
G1 X120.749 Y109.341 E46.5877 F479
G1 X121.375 Y109.596 E46.6101
G1 X121.954 Y110.036 E46.6343
G1 X122.398 Y110.608 E46.6584
G1 X122.677 Y111.273 E46.6824
G1 X122.775 Y111.986 E46.7063
G1 X122.683 Y112.714 E46.7307
G1 X122.406 Y113.381 E46.7548
G1 X121.965 Y113.955 E46.7788
G1 X121.388 Y114.399 E46.8031
G1 X120.712 Y114.678 E46.8274
G1 X120.000 Y114.772 E46.8513
G1 X116.971 Y114.772 E46.9520
G1 X116.258 Y114.678 E46.9759
G1 X115.582 Y114.399 E47.0003
G1 X115.005 Y113.955 E47.0245
G1 X114.564 Y113.381 E47.0486
G1 X114.287 Y112.714 E47.0726
G1 X114.193 Y112.000 E47.0965
G1 X114.287 Y111.286 E47.1205
G1 X114.564 Y110.619 E47.1445
G1 X115.005 Y110.045 E47.1686
G1 X115.582 Y109.601 E47.1928
G1 X116.258 Y109.322 E47.2171
G1 X116.957 Y109.229 E47.2406
G1 X119.938 Y109.228 E47.3397
G1 X120.640 Y109.312 E47.3632
G1 X121.264 Y109.047
;segType:Loop
G0 X122.897 Y109.988 F10800
G1 X123.109 Y110.261 E47.3747 F600
G1 X123.459 Y111.095 E47.4048
G1 X123.580 Y111.982 E47.4346
G1 X123.466 Y112.887 E47.4649
G1 X123.119 Y113.724 E47.4951
G1 X122.561 Y114.452 E47.5256
G1 X121.819 Y115.021 E47.5567
G1 X120.939 Y115.385 E47.5883
G1 X120.057 Y115.501 E47.6179
G1 X116.913 Y115.501 E47.7225
G1 X116.031 Y115.385 E47.7521
G1 X115.151 Y115.021 E47.7838
G1 X114.409 Y114.452 E47.8149
G1 X113.851 Y113.724 E47.8454
G1 X113.505 Y112.889 E47.8755
G1 X113.388 Y112.000 E47.9053
G1 X113.505 Y111.111 E47.9351
G1 X113.851 Y110.276 E47.9652
G1 X114.409 Y109.548 E47.9957
G1 X115.151 Y108.979 E48.0268
G1 X116.031 Y108.615 E48.0584
G1 X116.900 Y108.500 E48.0876
G1 X119.990 Y108.499 E48.1904
G1 X120.917 Y108.610 E48.2214
G1 X121.802 Y108.971 E48.2532
G1 X122.547 Y109.536 E48.2843
G1 X122.787 Y109.846 E48.2973
G0 X120.749 Y109.152 F10800
G0 X101.314 Y105.900
G1 X100.925 Y105.617 E48.3134 F600
G1 X100.565 Y105.182 E48.3321
G1 X100.329 Y104.679 E48.3506
G1 X100.226 Y104.138 E48.3689
G1 X100.260 Y103.589 E48.3872
G1 X100.431 Y103.063 E48.4056
G1 X100.731 Y102.591 E48.4242
G1 X101.145 Y102.201 E48.4431
G1 X101.652 Y101.922 E48.4624
G1 X102.220 Y101.776 E48.4819
G1 X102.810 Y101.776 E48.5015
G1 X103.378 Y101.922 E48.5210
G1 X103.885 Y102.201 E48.5403
G1 X104.299 Y102.591 E48.5592
G1 X104.599 Y103.063 E48.5778
G1 X104.770 Y103.589 E48.5962
G1 X104.804 Y104.125 E48.6140
G1 X104.702 Y104.677 E48.6327
G1 X104.465 Y105.182 E48.6513
G1 X104.105 Y105.617 E48.6700
G1 X103.641 Y105.954 E48.6891
G1 X103.099 Y106.168 E48.7085
G1 X102.515 Y106.242 E48.7281
G1 X101.931 Y106.168 E48.7477
G1 X101.477 Y105.989 E48.7639
;segType:Perimeter
G0 X102.977 Y106.279 F10800
G1 X102.458 Y105.867 E48.7860 F479
G1 X102.040 Y105.814 E48.8000
G1 X101.597 Y105.639 E48.8158
G1 X101.214 Y105.360 E48.8316
G1 X100.914 Y104.998 E48.8472
G1 X100.715 Y104.574 E48.8628
G1 X100.627 Y104.116 E48.8783
G1 X100.657 Y103.652 E48.8938
G1 X100.801 Y103.208 E48.9093
G1 X101.052 Y102.812 E48.9249
G1 X101.396 Y102.489 E48.9406
G1 X101.812 Y102.260 E48.9564
G1 X102.276 Y102.141 E48.9723
G1 X102.755 Y102.141 E48.9883
G1 X103.218 Y102.260 E49.0042
G1 X103.634 Y102.489 E49.0200
G1 X103.978 Y102.812 E49.0357
G1 X104.229 Y103.208 E49.0513
G1 X104.374 Y103.652 E49.0668
G1 X104.402 Y104.105 E49.0819
G1 X104.316 Y104.574 E49.0977
G1 X104.116 Y104.998 E49.1133
G1 X103.816 Y105.360 E49.1290
G1 X103.433 Y105.639 E49.1447
G1 X102.990 Y105.814 E49.1606
G1 X102.572 Y105.867 E49.1746
G1 X102.053 Y106.279
;segType:Loop
G0 X100.272 Y105.433 F10800
G1 X100.216 Y105.366 E49.1775 F600
G1 X99.943 Y104.783 E49.1989
G1 X99.824 Y104.159 E49.2201
G1 X99.863 Y103.526 E49.2411
G1 X100.061 Y102.918 E49.2624
G1 X100.409 Y102.369 E49.2840
G1 X100.894 Y101.913 E49.3062
G1 X101.492 Y101.585 E49.3288
G1 X102.165 Y101.412 E49.3520
G1 X102.865 Y101.412 E49.3752
G1 X103.538 Y101.585 E49.3984
G1 X104.136 Y101.913 E49.4211
G1 X104.621 Y102.369 E49.4432
G1 X104.969 Y102.918 E49.4648
G1 X105.167 Y103.526 E49.4861
G1 X105.206 Y104.145 E49.5067
G1 X105.089 Y104.781 E49.5282
G1 X104.814 Y105.366 E49.5497
G1 X104.394 Y105.873 E49.5716
G1 X103.849 Y106.269 E49.5940
G1 X103.208 Y106.523 E49.6169
G1 X102.515 Y106.610 E49.6402
G1 X101.822 Y106.523 E49.6634
G1 X101.181 Y106.269 E49.6863
G1 X100.636 Y105.873 E49.7088
G1 X100.387 Y105.572 E49.7217
G0 X100.531 Y120.624 F10800
G0 X101.314 Y121.900
G1 X100.925 Y121.617 E49.7377 F600
G1 X100.565 Y121.182 E49.7565
G1 X100.329 Y120.679 E49.7750
G1 X100.226 Y120.138 E49.7933
G1 X100.260 Y119.589 E49.8116
G1 X100.431 Y119.063 E49.8300
G1 X100.731 Y118.590 E49.8486
G1 X101.145 Y118.201 E49.8675
G1 X101.652 Y117.922 E49.8868
G1 X102.220 Y117.777 E49.9063
G1 X102.810 Y117.777 E49.9259
G1 X103.378 Y117.922 E49.9454
G1 X103.885 Y118.201 E49.9647
G1 X104.299 Y118.590 E49.9836
G1 X104.599 Y119.063 E50.0022
G1 X104.770 Y119.589 E50.0206
G1 X104.804 Y120.125 E50.0384
G1 X104.702 Y120.677 E50.0571
G1 X104.465 Y121.182 E50.0757
G1 X104.105 Y121.617 E50.0944
G1 X103.641 Y121.954 E50.1135
G1 X103.099 Y122.168 E50.1329
G1 X102.515 Y122.242 E50.1525
G1 X101.931 Y122.168 E50.1721
G1 X101.477 Y121.988 E50.1883
;segType:Perimeter
G0 X102.977 Y122.279 F10800
G1 X102.458 Y121.867 E50.2104 F479
G1 X102.040 Y121.814 E50.2244
G1 X101.597 Y121.638 E50.2402
G1 X101.214 Y121.360 E50.2560
G1 X100.914 Y120.998 E50.2716
G1 X100.715 Y120.574 E50.2872
G1 X100.627 Y120.117 E50.3027
G1 X100.657 Y119.652 E50.3182
G1 X100.801 Y119.208 E50.3337
G1 X101.052 Y118.812 E50.3493
G1 X101.396 Y118.489 E50.3650
G1 X101.812 Y118.260 E50.3808
G1 X102.276 Y118.141 E50.3967
G1 X102.755 Y118.141 E50.4126
G1 X103.218 Y118.260 E50.4285
G1 X103.634 Y118.489 E50.4443
G1 X103.978 Y118.812 E50.4600
G1 X104.229 Y119.208 E50.4756
G1 X104.374 Y119.652 E50.4912
G1 X104.402 Y120.105 E50.5063
G1 X104.316 Y120.574 E50.5221
G1 X104.116 Y120.998 E50.5377
G1 X103.816 Y121.360 E50.5533
G1 X103.433 Y121.638 E50.5691
G1 X102.990 Y121.814 E50.5850
G1 X102.572 Y121.867 E50.5990
G1 X102.053 Y122.279
;segType:Loop
G0 X100.272 Y121.433 F10800
G1 X100.216 Y121.366 E50.6019 F600
G1 X99.943 Y120.783 E50.6233
G1 X99.824 Y120.159 E50.6444
G1 X99.863 Y119.526 E50.6655
G1 X100.061 Y118.918 E50.6868
G1 X100.409 Y118.369 E50.7084
G1 X100.894 Y117.914 E50.7305
G1 X101.492 Y117.584 E50.7532
G1 X102.165 Y117.412 E50.7764
G1 X102.865 Y117.412 E50.7996
G1 X103.538 Y117.584 E50.8227
G1 X104.136 Y117.914 E50.8454
G1 X104.621 Y118.369 E50.8676
G1 X104.969 Y118.918 E50.8892
G1 X105.167 Y119.526 E50.9105
G1 X105.206 Y120.145 E50.9311
G1 X105.089 Y120.781 E50.9526
G1 X104.814 Y121.366 E50.9741
G1 X104.394 Y121.873 E50.9960
G1 X103.849 Y122.269 E51.0184
G1 X103.208 Y122.523 E51.0413
G1 X102.515 Y122.610 E51.0646
G1 X101.822 Y122.523 E51.0878
G1 X101.181 Y122.269 E51.1107
G1 X100.636 Y121.873 E51.1331
G1 X100.387 Y121.572 E51.1461
;segType:HShell
G0 X99.745 Y119.246 F10800
G1 X96.919 Y121.822 E51.2733 F600
G1 X97.108 Y122.143
G1 X99.644 Y119.832 E51.3874
G1 X99.651 Y120.318
G1 X97.344 Y122.421 E51.4912
G1 X97.638 Y122.646
G1 X99.731 Y120.738 E51.5855
G1 X99.874 Y121.101
G1 X98.003 Y122.806 E51.6697
G1 X98.455 Y122.887
G1 X100.036 Y121.446 E51.7408
G1 X100.266 Y121.729
G1 X98.975 Y122.906 E51.7989
G1 X99.516 Y122.906
G1 X100.501 Y122.008 E51.8433
G1 X100.802 Y122.227
G1 X100.056 Y122.906 E51.8768
G1 X100.597 Y122.906
G1 X101.109 Y122.439 E51.8999
G1 X101.486 Y122.589
G1 X101.138 Y122.906 E51.9156
G1 X101.679 Y122.906
G1 X101.889 Y122.715 E51.9250
G1 X102.363 Y122.775
G1 X102.219 Y122.906 E51.9315
G1 X102.760 Y122.906
G1 X102.942 Y122.740 E51.9397
G0 X101.077 Y121.482 F10800
G0 X100.531 Y120.624
G0 X100.468 Y119.622
G0 X100.910 Y117.692
G1 X117.743 Y102.348 E52.6973 F600
G1 X118.209 Y102.415
G1 X101.887 Y117.294 E53.4318
G1 X102.498 Y117.230
G1 X118.676 Y102.482 E54.1599
G1 X119.143 Y102.550
G1 X103.007 Y117.259 E54.8862
G1 X103.429 Y117.367
G1 X119.610 Y102.617 E55.6144
G1 X120.077 Y102.684
G1 X103.805 Y117.518 E56.3468
G1 X104.142 Y117.704
G1 X120.544 Y102.752 E57.0850
G1 X121.011 Y102.819
G1 X104.433 Y117.931 E57.8310
G1 X104.700 Y118.181
G1 X114.155 Y109.561 E58.2566
G0 X113.470 Y110.679 F10800
G1 X104.919 Y118.474 E58.6414 F600
G1 X105.117 Y118.786
G1 X113.271 Y111.353 E59.0084
G1 X113.198 Y111.913
G1 X105.255 Y119.154 E59.3659
G1 X105.368 Y119.543
G1 X113.235 Y112.372 E59.7200
G1 X113.293 Y112.812
G1 X105.398 Y120.009 E60.0753
G1 X105.331 Y120.562
G1 X113.417 Y113.192 E60.4392
G1 X113.565 Y113.550
G1 X105.062 Y121.301 E60.8219
G0 X124.166 Y120.647 F10800
G1 X124.999 Y119.887 E60.8594 F600
G1 X125.235 Y119.179
G1 X123.419 Y120.835 E60.9411
G1 X122.775 Y120.929
G1 X125.285 Y118.640 E61.0541
G1 X125.285 Y118.147
G1 X122.131 Y121.023 E61.1961
G1 X121.487 Y121.117
G1 X125.285 Y117.654 E61.3670
G1 X125.285 Y117.161
G1 X120.843 Y121.211 E61.5670
G1 X120.199 Y121.305
G1 X125.285 Y116.669 E61.7959
G1 X125.285 Y116.176
G1 X119.555 Y121.399 E62.0538
G1 X118.911 Y121.493
G1 X125.285 Y115.683 E62.3406
G1 X125.285 Y115.190
G1 X118.267 Y121.587 E62.6565
G1 X117.623 Y121.681
G1 X125.285 Y114.697 E63.0013
G1 X125.285 Y114.204
G1 X116.979 Y121.775 E63.3751
G1 X116.335 Y121.869
G1 X125.285 Y113.711 E63.7779
G1 X125.285 Y113.218
G1 X115.691 Y121.963 E64.2097
G1 X115.047 Y122.058
G1 X125.285 Y112.725 E64.6705
G1 X125.285 Y112.232
G1 X114.403 Y122.152 E65.1602
G1 X113.759 Y122.246
G1 X121.171 Y115.490 E65.4938
G0 X123.470 Y113.394 F10800
G1 X125.285 Y111.739 E65.5755 F600
G1 X125.285 Y111.246
G1 X123.691 Y112.699 E65.6472
G1 X123.762 Y112.142
G1 X125.285 Y110.753 E65.7158
G1 X125.285 Y110.260
G1 X123.739 Y111.670 E65.7854
G1 X123.679 Y111.231
G1 X125.285 Y109.767 E65.8576
G1 X125.285 Y109.274
G1 X123.567 Y110.841 E65.9350
G1 X123.417 Y110.485
G1 X125.285 Y108.781 E66.0191
G1 X125.285 Y108.289
G1 X123.258 Y110.137 E66.1103
G1 X123.034 Y109.848
G1 X125.285 Y107.796 E66.2117
G1 X125.285 Y107.303
G1 X122.809 Y109.559 E66.3231
G1 X122.551 Y109.302
G1 X125.285 Y106.810 E66.4461
G1 X125.285 Y106.317
G1 X122.256 Y109.078 E66.5825
G1 X121.961 Y108.854
G1 X125.285 Y105.824 E66.7321
G1 X125.285 Y105.331
G1 X121.601 Y108.689 E66.8979
G1 X121.227 Y108.537
G1 X125.243 Y104.876 E67.0786
G1 X125.158 Y104.461
G1 X120.821 Y108.415 E67.2738
G1 X120.343 Y108.357
G1 X124.999 Y104.113 E67.4834
G1 X124.778 Y103.821
G1 X119.847 Y108.316 E67.7053
G1 X119.306 Y108.317
G1 X124.514 Y103.569 E67.9397
G1 X124.197 Y103.365
G1 X118.765 Y108.317 E68.1842
G1 X118.224 Y108.317
G1 X123.790 Y103.243 E68.4347
G1 X123.346 Y103.155
G1 X117.683 Y108.318 E68.6896
G1 X117.141 Y108.318
G1 X122.879 Y103.088 E68.9478
G1 X122.412 Y103.021
G1 X116.553 Y108.362 E69.2115
G1 X115.891 Y108.472
G1 X121.945 Y102.953 E69.4840
G1 X121.478 Y102.886
G1 X114.546 Y109.205 E69.7959
G0 X101.498 Y105.788 F10800
G0 X96.968 Y102.061
G1 X97.847 Y101.259 E69.8355 F600
G0 X101.480 Y101.398 F10800
G1 X101.804 Y101.102 E69.8501 F600
G1 X102.343 Y101.104
G1 X102.205 Y101.230 E69.8563
G1 X102.746 Y101.230
G1 X102.883 Y101.105 E69.8625
G1 X103.422 Y101.107
G1 X103.200 Y101.309 E69.8725
G1 X103.622 Y101.417
G1 X103.961 Y101.108 E69.8877
G1 X104.500 Y101.109
G1 X103.959 Y101.603 E69.9121
G1 X104.289 Y101.795
G1 X105.040 Y101.111 E69.9459
G1 X105.579 Y101.112
G1 X104.555 Y102.045 E69.9920
G1 X104.811 Y102.305
G1 X106.118 Y101.114 E70.0508
G1 X106.657 Y101.115
G1 X105.010 Y102.617 E70.1249
G1 X105.188 Y102.948
G1 X107.197 Y101.116 E70.2153
G1 X107.736 Y101.118
G1 X105.311 Y103.328 E70.3244
G1 X105.382 Y103.757
G1 X108.275 Y101.119 E70.4547
G1 X108.814 Y101.121
G1 X105.391 Y104.241 E70.6087
G1 X105.281 Y104.835
G1 X109.338 Y101.136 E70.7913
G1 X109.804 Y101.204
G1 X96.715 Y113.136 E71.3804
G1 X96.715 Y113.629
G1 X110.271 Y101.271 E71.9905
G1 X110.738 Y101.338
G1 X96.715 Y114.122 E72.6217
G1 X96.715 Y114.615
G1 X111.205 Y101.406 E73.2738
G1 X111.672 Y101.473
G1 X96.715 Y115.108 E73.9470
G1 X96.715 Y115.601
G1 X112.139 Y101.540 E74.6412
G1 X112.606 Y101.608
G1 X96.715 Y116.094 E75.3564
G1 X96.715 Y116.587
G1 X113.073 Y101.675 E76.0926
G1 X113.540 Y101.742
G1 X96.715 Y117.080 E76.8498
G1 X96.715 Y117.572
G1 X114.007 Y101.809 E77.6281
G1 X114.474 Y101.877
G1 X96.715 Y118.065 E78.4273
G1 X96.715 Y118.558
G1 X114.941 Y101.944 E79.2476
G1 X115.408 Y102.011
G1 X96.715 Y119.051 E80.0889
G1 X96.715 Y119.544
G1 X115.875 Y102.079 E80.9512
G1 X116.342 Y102.146
G1 X96.715 Y120.037 E81.8345
G1 X96.715 Y120.530
G1 X116.809 Y102.213 E82.7388
G1 X117.276 Y102.280
G1 X96.725 Y121.014 E83.6637
G1 X96.783 Y121.453
G1 X100.193 Y118.346 E83.8171
G0 X99.661 Y103.549 F10800
G1 X96.715 Y106.235 E83.9497 F600
G1 X96.715 Y106.728
G1 X99.629 Y104.071 E84.0809
G1 X99.688 Y104.510
G1 X96.715 Y107.221 E84.2147
G1 X96.715 Y107.714
G1 X99.786 Y104.914 E84.3529
G1 X99.948 Y105.259
G1 X96.715 Y108.207 E84.4985
G1 X96.715 Y108.699
G1 X100.140 Y105.577 E84.6526
G1 X100.373 Y105.858
G1 X96.715 Y109.192 E84.8173
G1 X96.715 Y109.685
G1 X100.639 Y106.108 E84.9939
G1 X100.940 Y106.327
G1 X96.715 Y110.178 E85.1840
G1 X96.715 Y110.671
G1 X101.282 Y106.508 E85.3896
G1 X101.659 Y106.657
G1 X96.715 Y111.164 E85.6121
G1 X96.715 Y111.657
G1 X102.106 Y106.743 E85.8547
G1 X102.602 Y106.783
G1 X96.715 Y112.150 E86.1197
G1 X96.715 Y112.643
G1 X103.230 Y106.704 E86.4129
G0 X101.077 Y105.482 F10800
G0 X100.531 Y104.624
G0 X99.869 Y102.867
G1 X96.715 Y105.742 E86.5549 F600
G1 X96.715 Y105.249
G1 X101.265 Y101.101 E86.7596
G1 X100.726 Y101.100
G1 X96.715 Y104.756 E86.9402
G1 X96.715 Y104.263
G1 X100.187 Y101.098 E87.0964
G1 X99.647 Y101.097
G1 X96.715 Y103.770 E87.2284
G1 X96.715 Y103.277
G1 X99.108 Y101.095 E87.3361
G1 X98.564 Y101.099
G1 X96.757 Y102.746 E87.4174
G0 X115.480 Y114.546 F10800
G0 X116.204 Y114.846
G0 X120.475 Y115.631
G1 X113.116 Y122.340 E87.7486 F600
G1 X112.472 Y122.434
G1 X119.876 Y115.684 E88.0819
G1 X119.336 Y115.684
G1 X111.828 Y122.528 E88.4198
G1 X111.184 Y122.622
G1 X118.795 Y115.684 E88.7624
G1 X118.254 Y115.684
G1 X110.540 Y122.716 E89.1095
G1 X109.896 Y122.810
G1 X117.713 Y115.684 E89.4614
G1 X117.173 Y115.684
G1 X109.252 Y122.904 E89.8179
G1 X108.709 Y122.906
G1 X116.666 Y115.653 E90.1760
G1 X116.193 Y115.591
G1 X108.168 Y122.906 E90.5371
G1 X107.627 Y122.906
G1 X115.774 Y115.479 E90.9038
G1 X115.403 Y115.325
G1 X107.086 Y122.906 E91.2781
G1 X106.545 Y122.906
G1 X115.034 Y115.169 E91.6601
G1 X114.740 Y114.944
G1 X106.005 Y122.906 E92.0532
G1 X105.464 Y122.906
G1 X114.446 Y114.718 E92.4575
G1 X114.179 Y114.469
G1 X104.923 Y122.906 E92.8740
G1 X104.382 Y122.906
G1 X113.956 Y114.179 E93.3049
G1 X113.734 Y113.889
G1 X103.842 Y122.906 E93.7501
G1 X103.301 Y122.906
G1 X103.731 Y122.515 E93.7695
; ------------------------------------
; Layer #1
; ------------------------------------
G21 ; mm
G90 ; abs
G92 E0 ; reset extr
M106 S0
;segType:Loop
G0 F1500 E-1.0000
G0 F300 Z0.400
G0 X123.569 Y121.367 F10800
G0 F1500 E0.0000
G1 X109.283 Y123.453 E0.4802 F3000
G1 X98.558 Y123.453 E0.8369
G1 X97.909 Y123.368 E0.8587
G1 X97.338 Y123.131 E0.8792
G1 X96.840 Y122.749 E0.9001
G1 X96.452 Y122.243 E0.9213
G1 X96.204 Y121.645 E0.9428
G1 X96.115 Y120.967 E0.9656
G1 X96.115 Y103.033 E1.5621
G1 X96.204 Y102.355 E1.5848
G1 X96.452 Y101.757 E1.6063
G1 X96.840 Y101.251 E1.6276
G1 X97.338 Y100.869 E1.6485
G1 X97.909 Y100.632 E1.6690
G1 X98.558 Y100.547 E1.6908
G1 X109.283 Y100.575 E2.0475
G1 X123.773 Y102.663 E2.5344
G1 X124.461 Y102.865 E2.5583
G1 X125.033 Y103.233 E2.5809
G1 X125.487 Y103.757 E2.6039
G1 X125.779 Y104.397 E2.6273
G1 X125.885 Y105.134 E2.6521
G1 X125.885 Y118.866 E3.1088
G1 X125.779 Y119.603 E3.1336
G1 X125.487 Y120.243 E3.1570
G1 X125.033 Y120.767 E3.1800
G1 X124.461 Y121.135 E3.2027
G1 X123.773 Y121.337 E3.2265
G1 X123.758 Y121.339 E3.2270
;segType:Perimeter
G0 X124.755 Y120.872 F10800
G1 X124.587 Y121.481 E3.2480 F2399
G1 X123.866 Y121.693 E3.2730
G1 X109.315 Y123.818 E3.7621
G1 X98.529 Y123.818 E4.1208
G1 X97.795 Y123.721 E4.1455
G1 X97.123 Y123.443 E4.1697
G1 X96.543 Y122.997 E4.1940
G1 X96.095 Y122.414 E4.2184
G1 X95.813 Y121.733 E4.2430
G1 X95.715 Y120.989 E4.2679
G1 X95.715 Y103.011 E4.8659
G1 X95.813 Y102.267 E4.8908
G1 X96.095 Y101.586 E4.9154
G1 X96.543 Y101.003 E4.9398
G1 X97.123 Y100.557 E4.9641
G1 X97.795 Y100.279 E4.9883
G1 X98.529 Y100.182 E5.0130
G1 X109.315 Y100.210 E5.3717
G1 X123.866 Y102.307 E5.8607
G1 X124.642 Y102.535 E5.8876
G1 X125.311 Y102.965 E5.9140
G1 X125.835 Y103.570 E5.9406
G1 X126.169 Y104.301 E5.9674
G1 X126.285 Y105.111 E5.9946
G1 X126.285 Y118.889 E6.4528
G1 X126.169 Y119.699 E6.4800
G1 X125.835 Y120.430 E6.5068
G1 X125.311 Y121.035 E6.5334
G1 X124.689 Y121.435 E6.5580
G1 X124.054 Y121.192
;segType:Loop
G0 X122.467 Y121.158 F10800
G1 X109.251 Y123.089 E7.0022 F3000
G1 X98.587 Y123.089 E7.3569
G1 X98.023 Y123.014 E7.3759
G1 X97.554 Y122.820 E7.3927
G1 X97.138 Y122.501 E7.4102
G1 X96.808 Y122.071 E7.4282
G1 X96.596 Y121.558 E7.4467
G1 X96.515 Y120.946 E7.4672
G1 X96.515 Y103.054 E8.0623
G1 X96.596 Y102.442 E8.0828
G1 X96.808 Y101.929 E8.1013
G1 X97.138 Y101.499 E8.1193
G1 X97.554 Y101.180 E8.1367
G1 X98.023 Y100.986 E8.1536
G1 X98.586 Y100.912 E8.1725
G1 X109.251 Y100.939 E8.5272
G1 X123.680 Y103.019 E9.0121
G1 X124.280 Y103.195 E9.0329
G1 X124.755 Y103.500 E9.0517
G1 X125.139 Y103.943 E9.0712
G1 X125.389 Y104.492 E9.0912
G1 X125.485 Y105.158 E9.1136
G1 X125.485 Y118.842 E9.5687
G1 X125.389 Y119.508 E9.5911
G1 X125.139 Y120.057 E9.6112
G1 X124.755 Y120.500 E9.6307
G1 X124.280 Y120.805 E9.6494
G1 X123.679 Y120.981 E9.6703
G1 X122.656 Y121.131 E9.7047
G0 X122.964 Y111.970 F10800
G0 X122.857 Y111.216
G0 X121.856 Y109.489
G1 X122.237 Y109.776 E9.7205 F3000
G1 X122.744 Y110.421 E9.7478
G1 X123.062 Y111.169 E9.7748
G1 X123.176 Y111.968 E9.8017
G1 X123.075 Y112.799 E9.8295
G1 X122.763 Y113.552 E9.8566
G1 X122.263 Y114.204 E9.8839
G1 X121.603 Y114.710 E9.9116
G1 X120.826 Y115.032 E9.9396
G1 X120.028 Y115.137 E9.9663
G1 X116.942 Y115.137 E10.0690
G1 X116.144 Y115.032 E10.0958
G1 X115.367 Y114.710 E10.1237
G1 X114.707 Y114.204 E10.1514
G1 X114.207 Y113.552 E10.1787
G1 X113.896 Y112.802 E10.2057
G1 X113.791 Y112.000 E10.2326
G1 X113.896 Y111.198 E10.2595
G1 X114.207 Y110.448 E10.2866
G1 X114.707 Y109.796 E10.3139
G1 X115.367 Y109.290 E10.3415
G1 X116.144 Y108.968 E10.3695
G1 X116.942 Y108.863 E10.3963
G1 X120.028 Y108.863 E10.4989
G1 X120.796 Y108.964 E10.5247
G1 X121.573 Y109.277 E10.5525
G1 X121.708 Y109.378 E10.5582
;segType:Perimeter
G0 X120.363 Y108.812 F10800
G1 X120.737 Y109.339 E10.5796 F2399
G1 X121.361 Y109.590 E10.6020
G1 X121.942 Y110.027 E10.6262
G1 X122.389 Y110.596 E10.6503
G1 X122.672 Y111.259 E10.6743
G1 X122.773 Y111.972 E10.6982
G1 X122.683 Y112.713 E10.7230
G1 X122.406 Y113.381 E10.7471
G1 X121.965 Y113.955 E10.7712
G1 X121.388 Y114.399 E10.7954
G1 X120.712 Y114.678 E10.8197
G1 X120.000 Y114.772 E10.8436
G1 X116.971 Y114.772 E10.9443
G1 X116.258 Y114.678 E10.9682
G1 X115.582 Y114.399 E10.9926
G1 X115.005 Y113.955 E11.0168
G1 X114.564 Y113.381 E11.0409
G1 X114.287 Y112.714 E11.0649
G1 X114.193 Y112.000 E11.0888
G1 X114.287 Y111.286 E11.1128
G1 X114.564 Y110.619 E11.1368
G1 X115.005 Y110.045 E11.1609
G1 X115.582 Y109.601 E11.1851
G1 X116.258 Y109.322 E11.2094
G1 X116.971 Y109.228 E11.2333
G1 X120.000 Y109.228 E11.3341
G1 X120.627 Y109.310 E11.3551
G1 X121.251 Y109.044
;segType:Loop
G0 X122.887 Y109.977 F10800
G1 X123.098 Y110.246 E11.3665 F3000
G1 X123.453 Y111.078 E11.3966
G1 X123.579 Y111.965 E11.4264
G1 X123.467 Y112.885 E11.4572
G1 X123.120 Y113.724 E11.4874
G1 X122.561 Y114.452 E11.5179
G1 X121.819 Y115.021 E11.5490
G1 X120.939 Y115.385 E11.5807
G1 X120.057 Y115.501 E11.6103
G1 X116.913 Y115.501 E11.7149
G1 X116.031 Y115.385 E11.7445
G1 X115.151 Y115.021 E11.7761
G1 X114.409 Y114.452 E11.8072
G1 X113.851 Y113.724 E11.8377
G1 X113.505 Y112.889 E11.8678
G1 X113.388 Y112.000 E11.8976
G1 X113.505 Y111.111 E11.9274
G1 X113.851 Y110.276 E11.9575
G1 X114.409 Y109.548 E11.9880
G1 X115.151 Y108.979 E12.0191
G1 X116.031 Y108.615 E12.0508
G1 X116.913 Y108.499 E12.0804
G1 X120.057 Y108.499 E12.1850
G1 X120.907 Y108.611 E12.2135
G1 X121.785 Y108.963 E12.2449
G1 X122.532 Y109.525 E12.2760
G1 X122.776 Y109.835 E12.2891
G0 X120.737 Y109.150 F10800
G0 X101.314 Y105.900
G1 X100.925 Y105.617 E12.3052 F3000
G1 X100.565 Y105.182 E12.3239
G1 X100.329 Y104.679 E12.3424
G1 X100.226 Y104.138 E12.3607
G1 X100.260 Y103.589 E12.3790
G1 X100.431 Y103.063 E12.3974
G1 X100.731 Y102.591 E12.4160
G1 X101.145 Y102.201 E12.4349
G1 X101.652 Y101.922 E12.4542
G1 X102.220 Y101.776 E12.4737
G1 X102.810 Y101.776 E12.4933
G1 X103.378 Y101.922 E12.5128
G1 X103.885 Y102.201 E12.5321
G1 X104.299 Y102.591 E12.5510
G1 X104.599 Y103.063 E12.5696
G1 X104.770 Y103.589 E12.5880
G1 X104.803 Y104.112 E12.6054
G1 X104.703 Y104.676 E12.6245
G1 X104.465 Y105.182 E12.6431
G1 X104.105 Y105.617 E12.6618
G1 X103.641 Y105.954 E12.6809
G1 X103.099 Y106.168 E12.7003
G1 X102.515 Y106.242 E12.7199
G1 X101.931 Y106.168 E12.7395
G1 X101.477 Y105.989 E12.7557
;segType:Perimeter
G0 X102.977 Y106.279 F10800
G1 X102.458 Y105.867 E12.7778 F2399
G1 X102.040 Y105.814 E12.7918
G1 X101.597 Y105.639 E12.8076
G1 X101.214 Y105.360 E12.8234
G1 X100.914 Y104.998 E12.8390
G1 X100.715 Y104.574 E12.8546
G1 X100.627 Y104.116 E12.8701
G1 X100.657 Y103.652 E12.8856
G1 X100.801 Y103.208 E12.9011
G1 X101.052 Y102.812 E12.9167
G1 X101.396 Y102.489 E12.9324
G1 X101.812 Y102.260 E12.9482
G1 X102.276 Y102.141 E12.9641
G1 X102.755 Y102.141 E12.9800
G1 X103.218 Y102.260 E12.9959
G1 X103.634 Y102.489 E13.0117
G1 X103.978 Y102.812 E13.0274
G1 X104.229 Y103.208 E13.0430
G1 X104.374 Y103.652 E13.0586
G1 X104.401 Y104.093 E13.0733
G1 X104.316 Y104.573 E13.0895
G1 X104.116 Y104.998 E13.1051
G1 X103.816 Y105.360 E13.1207
G1 X103.433 Y105.639 E13.1365
G1 X102.990 Y105.814 E13.1524
G1 X102.572 Y105.867 E13.1664
G1 X102.053 Y106.279
;segType:Loop
G0 X100.272 Y105.433 F10800
G1 X100.216 Y105.366 E13.1693 F3000
G1 X99.943 Y104.783 E13.1907
G1 X99.824 Y104.159 E13.2118
G1 X99.863 Y103.526 E13.2329
G1 X100.061 Y102.918 E13.2542
G1 X100.409 Y102.369 E13.2758
G1 X100.894 Y101.913 E13.2979
G1 X101.492 Y101.585 E13.3206
G1 X102.165 Y101.412 E13.3437
G1 X102.865 Y101.412 E13.3670
G1 X103.538 Y101.585 E13.3901
G1 X104.136 Y101.913 E13.4128
G1 X104.621 Y102.369 E13.4350
G1 X104.969 Y102.918 E13.4566
G1 X105.167 Y103.526 E13.4778
G1 X105.205 Y104.131 E13.4980
G1 X105.090 Y104.778 E13.5199
G1 X104.814 Y105.366 E13.5415
G1 X104.394 Y105.873 E13.5634
G1 X103.849 Y106.269 E13.5858
G1 X103.208 Y106.523 E13.6087
G1 X102.515 Y106.610 E13.6319
G1 X101.822 Y106.523 E13.6552
G1 X101.181 Y106.269 E13.6781
G1 X100.636 Y105.873 E13.7005
G1 X100.387 Y105.572 E13.7135
G0 X100.531 Y120.624 F10800
G0 X101.314 Y121.900
G1 X100.925 Y121.617 E13.7295 F3000
G1 X100.565 Y121.182 E13.7483
G1 X100.329 Y120.679 E13.7668
G1 X100.226 Y120.138 E13.7851
G1 X100.260 Y119.589 E13.8034
G1 X100.431 Y119.063 E13.8218
G1 X100.731 Y118.590 E13.8404
G1 X101.145 Y118.201 E13.8593
G1 X101.652 Y117.922 E13.8785
G1 X102.220 Y117.777 E13.8981
G1 X102.810 Y117.777 E13.9177
G1 X103.378 Y117.922 E13.9372
G1 X103.885 Y118.201 E13.9564
G1 X104.299 Y118.590 E13.9753
G1 X104.599 Y119.063 E13.9939
G1 X104.770 Y119.589 E14.0123
G1 X104.803 Y120.112 E14.0298
G1 X104.703 Y120.676 E14.0488
G1 X104.465 Y121.182 E14.0674
G1 X104.105 Y121.617 E14.0862
G1 X103.641 Y121.954 E14.1053
G1 X103.099 Y122.168 E14.1247
G1 X102.515 Y122.242 E14.1442
G1 X101.931 Y122.168 E14.1638
G1 X101.477 Y121.988 E14.1801
;segType:Perimeter
G0 X102.977 Y122.279 F10800
G1 X102.458 Y121.867 E14.2021 F2399
G1 X102.040 Y121.814 E14.2161
G1 X101.597 Y121.638 E14.2320
G1 X101.214 Y121.360 E14.2477
G1 X100.914 Y120.998 E14.2634
G1 X100.715 Y120.574 E14.2789
G1 X100.627 Y120.117 E14.2944
G1 X100.657 Y119.652 E14.3099
G1 X100.801 Y119.208 E14.3254
G1 X101.052 Y118.812 E14.3410
G1 X101.396 Y118.489 E14.3567
G1 X101.812 Y118.260 E14.3725
G1 X102.276 Y118.141 E14.3884
G1 X102.755 Y118.141 E14.4044
G1 X103.218 Y118.260 E14.4203
G1 X103.634 Y118.489 E14.4361
G1 X103.978 Y118.812 E14.4518
G1 X104.229 Y119.208 E14.4674
G1 X104.374 Y119.652 E14.4829
G1 X104.401 Y120.093 E14.4976
G1 X104.316 Y120.573 E14.5138
G1 X104.116 Y120.998 E14.5294
G1 X103.816 Y121.360 E14.5451
G1 X103.433 Y121.638 E14.5608
G1 X102.990 Y121.814 E14.5767
G1 X102.572 Y121.867 E14.5907
G1 X102.053 Y122.279
;segType:Loop
G0 X100.272 Y121.433 F10800
G1 X100.216 Y121.366 E14.5936 F3000
G1 X99.943 Y120.783 E14.6150
G1 X99.824 Y120.159 E14.6362
G1 X99.863 Y119.526 E14.6573
G1 X100.061 Y118.918 E14.6785
G1 X100.409 Y118.369 E14.7002
G1 X100.894 Y117.914 E14.7223
G1 X101.492 Y117.584 E14.7450
G1 X102.165 Y117.412 E14.7681
G1 X102.865 Y117.412 E14.7914
G1 X103.538 Y117.584 E14.8145
G1 X104.136 Y117.914 E14.8372
G1 X104.621 Y118.369 E14.8593
G1 X104.969 Y118.918 E14.8809
G1 X105.167 Y119.526 E14.9022
G1 X105.205 Y120.131 E14.9224
G1 X105.090 Y120.778 E14.9442
G1 X104.814 Y121.366 E14.9658
G1 X104.394 Y121.873 E14.9877
G1 X103.849 Y122.269 E15.0101
G1 X103.208 Y122.523 E15.0330
G1 X102.515 Y122.610 E15.0563
G1 X101.822 Y122.523 E15.0795
G1 X101.181 Y122.269 E15.1024
G1 X100.636 Y121.873 E15.1249
G1 X100.387 Y121.572 E15.1378
;segType:HShell
G0 X102.347 Y122.773 F10800
G1 X102.493 Y122.906 E15.1444 F3000
G1 X103.034 Y122.906
G1 X102.862 Y122.750 E15.1521
G1 X103.322 Y122.676
G1 X103.574 Y122.906 E15.1635
G1 X104.115 Y122.906
G1 X103.699 Y122.527 E15.1822
G1 X104.051 Y122.355
G1 X104.656 Y122.906 E15.2094
G1 X105.197 Y122.906
G1 X104.352 Y122.137 E15.2474
G1 X104.627 Y121.894
G1 X105.737 Y122.906 E15.2974
G1 X106.278 Y122.906
G1 X104.860 Y121.613 E15.3612
G1 X105.061 Y121.304
G1 X106.819 Y122.906 E15.4403
G1 X107.360 Y122.906
G1 X105.223 Y120.958 E15.5365
G1 X105.331 Y120.564
G1 X107.900 Y122.906 E15.6522
G1 X108.441 Y122.906
G1 X105.406 Y120.139 E15.7888
G1 X105.373 Y119.617
G1 X108.982 Y122.906 E15.9512
G1 X109.483 Y122.870
G1 X105.191 Y118.958 E16.1444
G0 X102.059 Y106.737 F10800
G1 X118.339 Y121.577 E16.8771 F3000
G1 X118.805 Y121.509
G1 X102.645 Y106.778 E17.6043
G1 X103.120 Y106.718
G1 X119.271 Y121.441 E18.3312
G1 X119.737 Y121.373
G1 X103.526 Y106.595 E19.0608
G1 X103.903 Y106.446
G1 X120.203 Y121.304 E19.7943
G1 X120.669 Y121.236
G1 X104.214 Y106.237 E20.5349
G1 X104.516 Y106.018
G1 X121.135 Y121.168 E21.2829
G1 X121.601 Y121.100
G1 X115.152 Y115.222 E21.5731
G0 X103.452 Y117.373 F10800
G1 X96.715 Y111.231 E21.8763 F3000
G1 X96.715 Y110.738
G1 X109.949 Y122.802 E22.4719
G1 X110.415 Y122.734
G1 X96.715 Y110.245 E23.0885
G1 X96.715 Y109.752
G1 X110.881 Y122.666 E23.7261
G1 X111.347 Y122.598
G1 X96.715 Y109.259 E24.3846
G1 X96.715 Y108.766
G1 X111.813 Y122.530 E25.0642
G1 X112.280 Y122.462
G1 X96.715 Y108.273 E25.7647
G1 X96.715 Y107.780
G1 X112.746 Y122.394 E26.4861
G1 X113.212 Y122.326
G1 X96.715 Y107.287 E27.2286
G1 X96.715 Y106.795
G1 X113.678 Y122.258 E27.9920
G1 X114.144 Y122.189
G1 X96.715 Y106.302 E28.7764
G1 X96.715 Y105.809
G1 X114.610 Y122.121 E29.5818
G1 X115.076 Y122.053
G1 X96.715 Y105.316 E30.4082
G1 X96.715 Y104.823
G1 X115.542 Y121.985 E31.2555
G1 X116.008 Y121.917
G1 X96.715 Y104.330 E32.1238
G1 X96.715 Y103.837
G1 X116.474 Y121.849 E33.0131
G1 X116.940 Y121.781
G1 X96.715 Y103.344 E33.9233
G1 X96.740 Y102.874
G1 X117.406 Y121.713 E34.8534
G1 X117.873 Y121.645
G1 X101.256 Y106.497 E35.6013
G0 X113.386 Y113.119 F10800
G1 X104.986 Y105.461 E35.9794 F3000
G1 X104.753 Y105.742
G1 X113.834 Y114.020 E36.3880
G0 X116.082 Y115.576 F10800
G1 X122.067 Y121.032 E36.6574 F3000
G1 X122.533 Y120.964
G1 X116.714 Y115.659 E36.9193
G1 X117.281 Y115.684
G1 X122.999 Y120.896 E37.1766
G1 X123.466 Y120.828
G1 X117.822 Y115.684 E37.4306
G1 X118.363 Y115.684
G1 X123.895 Y120.726 E37.6796
G1 X124.278 Y120.583
G1 X118.904 Y115.684 E37.9214
G1 X119.445 Y115.684
G1 X124.595 Y120.379 E38.1533
G1 X124.839 Y120.108
G1 X119.985 Y115.684 E38.3717
G1 X120.469 Y115.631
G1 X125.040 Y119.798 E38.5774
G1 X125.196 Y119.448
G1 X120.941 Y115.569 E38.7689
G1 X121.325 Y115.426
G1 X125.259 Y119.012 E38.9460
G1 X125.285 Y118.543
G1 X121.697 Y115.272 E39.1075
G1 X122.039 Y115.091
G1 X125.285 Y118.050 E39.2536
G1 X125.285 Y117.557
G1 X122.332 Y114.865 E39.3865
G1 X122.626 Y114.640
G1 X125.285 Y117.064 E39.5062
G1 X125.285 Y116.571
G1 X122.869 Y114.369 E39.6150
G1 X123.091 Y114.079
G1 X125.285 Y116.078 E39.7137
G1 X125.285 Y115.586
G1 X123.309 Y113.784 E39.8027
G1 X123.457 Y113.426
G1 X125.285 Y115.093 E39.8850
G1 X125.285 Y114.600
G1 X123.605 Y113.068 E39.9606
G1 X123.695 Y112.658
G1 X125.285 Y114.107 E40.0321
G1 X125.285 Y113.614
G1 X123.750 Y112.214 E40.1013
G1 X123.745 Y111.717
G1 X125.285 Y113.121 E40.1706
G1 X125.285 Y112.628
G1 X123.665 Y111.151 E40.2435
G1 X123.376 Y110.394
G1 X125.285 Y112.135 E40.3294
G1 X125.285 Y111.642
G1 X114.591 Y101.894 E40.8107
G1 X115.233 Y101.986
G1 X125.285 Y111.149 E41.2631
G1 X125.285 Y110.656
G1 X115.876 Y102.079 E41.6866
G1 X116.518 Y102.171
G1 X125.285 Y110.163 E42.0812
G1 X125.285 Y109.670
G1 X117.160 Y102.264 E42.4468
G1 X117.803 Y102.356
G1 X125.285 Y109.177 E42.7836
G1 X125.285 Y108.684
G1 X118.445 Y102.449 E43.0914
G1 X119.087 Y102.542
G1 X125.285 Y108.191 E43.3704
G1 X125.285 Y107.698
G1 X119.730 Y102.634 E43.6204
G1 X120.372 Y102.727
G1 X125.285 Y107.206 E43.8415
G1 X125.285 Y106.713
G1 X121.014 Y102.819 E44.0338
G1 X121.657 Y102.912
G1 X125.285 Y106.220 E44.1971
G1 X125.285 Y105.727
G1 X122.299 Y103.004 E44.3315
G1 X122.941 Y103.097
G1 X125.285 Y105.234 E44.4370
G1 X125.214 Y104.676
G1 X123.583 Y103.190 E44.5103
G0 X121.432 Y108.622 F10800
G1 X113.949 Y101.801 E44.8471 F3000
G1 X113.307 Y101.708
G1 X120.637 Y108.391 E45.1770
G1 X120.015 Y108.316
G1 X112.664 Y101.616 E45.5078
G1 X112.022 Y101.523
G1 X119.474 Y108.316 E45.8432
G1 X118.933 Y108.316
G1 X111.380 Y101.431 E46.1832
G1 X110.737 Y101.338
G1 X118.392 Y108.316 E46.5277
G1 X117.852 Y108.316
G1 X110.095 Y101.246 E46.8768
G1 X109.453 Y101.153
G1 X117.311 Y108.316 E47.2304
G1 X116.786 Y108.331
G1 X108.876 Y101.121 E47.5864
G1 X108.334 Y101.119
G1 X116.314 Y108.393 E47.9455
G1 X115.869 Y108.481
G1 X107.792 Y101.118 E48.3091
G1 X107.250 Y101.117
G1 X115.498 Y108.635 E48.6803
G1 X115.126 Y108.789
G1 X106.707 Y101.115 E49.0592
G1 X106.165 Y101.114
G1 X114.815 Y108.999 E49.4485
G1 X114.521 Y109.224
G1 X105.623 Y101.112 E49.8489
G1 X105.080 Y101.111
G1 X114.236 Y109.457 E50.2610
G1 X114.013 Y109.747
G1 X104.538 Y101.109 E50.6874
G1 X103.996 Y101.108
G1 X113.791 Y110.037 E51.1282
G1 X113.603 Y110.359
G1 X104.871 Y102.399 E51.5212
G0 X104.057 Y101.657 F10800
G1 X103.453 Y101.107 E51.5484 F3000
G1 X102.911 Y101.105
G1 X103.108 Y101.285 E51.5572
G1 X102.507 Y101.230
G1 X102.369 Y101.104 E51.5634
G1 X101.826 Y101.102
G1 X102.004 Y101.264 E51.5714
G1 X101.582 Y101.372
G1 X101.284 Y101.101 E51.5848
G1 X100.742 Y101.100
G1 X101.210 Y101.526 E51.6059
G1 X100.873 Y101.712
G1 X100.200 Y101.098 E51.6362
G1 X99.657 Y101.097
G1 X100.585 Y101.942 E51.6779
G1 X100.318 Y102.192
G1 X99.115 Y101.095 E51.7321
G1 X98.576 Y101.097
G1 X100.102 Y102.488 E51.8008
G1 X99.904 Y102.801
G1 X98.104 Y101.160 E51.8818
G1 X97.727 Y101.309
G1 X99.770 Y103.171 E51.9737
G1 X99.660 Y103.564
G1 X97.419 Y101.521 E52.0746
G1 X97.165 Y101.782
G1 X99.631 Y104.031 E52.1856
G1 X99.703 Y104.589
G1 X96.957 Y102.086 E52.3092
G1 X96.809 Y102.444
G1 X99.987 Y105.341 E52.4522
G0 X102.515 Y106.048 F10800
G0 X103.532 Y105.788
G0 X104.282 Y105.085
G0 X105.295 Y103.279
G1 X113.454 Y110.716 E52.8194 F3000
G1 X113.308 Y111.076
G1 X105.388 Y103.856 E53.1759
G1 X105.371 Y104.334
G1 X113.250 Y111.516 E53.5304
G1 X113.192 Y111.956
G1 X105.296 Y104.758 E53.8858
G1 X105.148 Y105.117
G1 X113.252 Y112.504 E54.2505
G0 X102.755 Y117.230 F10800
G1 X96.715 Y111.724 E54.5223 F3000
G1 X96.715 Y112.217
G1 X102.214 Y117.230 E54.7698
G1 X101.775 Y117.322
G1 X96.715 Y112.710 E54.9976
G1 X96.715 Y113.203
G1 X101.364 Y117.441 E55.2068
G1 X101.027 Y117.627
G1 X96.715 Y113.696 E55.4009
G1 X96.715 Y114.189
G1 X100.707 Y117.828 E55.5806
G1 X100.440 Y118.078
G1 X96.715 Y114.682 E55.7482
G1 X96.715 Y115.175
G1 X100.193 Y118.345 E55.9048
G1 X99.995 Y118.657
G1 X96.715 Y115.668 E56.0524
G1 X96.715 Y116.160
G1 X99.826 Y118.997 E56.1924
G1 X99.703 Y119.377
G1 X96.715 Y116.653 E56.3269
G1 X96.715 Y117.146
G1 X99.645 Y119.817 E56.4588
G1 X99.651 Y120.316
G1 X96.715 Y117.639 E56.5909
G1 X96.715 Y118.132
G1 X99.802 Y120.946 E56.7299
G0 X101.693 Y122.670 F10800
G1 X101.952 Y122.906 E56.7415 F3000
G1 X101.411 Y122.906
G1 X96.715 Y118.625 E56.9529
G1 X96.715 Y119.118
G1 X100.871 Y122.906 E57.1399
G1 X100.330 Y122.906
G1 X96.715 Y119.611 E57.3026
G1 X96.715 Y120.104
G1 X99.789 Y122.906 E57.4410
G1 X99.248 Y122.906
G1 X96.715 Y120.597 E57.5550
G1 X96.738 Y121.111
G1 X98.707 Y122.906 E57.6436
G1 X98.093 Y122.839
G1 X96.884 Y121.737 E57.6981
G0 F1500 E56.6981
G0 X99.470 Y121.817 F10800
G0 X102.056 Y121.897
G0 X107.227 Y122.058
G0 X133.085 Y122.859
G0 F1500 E57.6981
;segType:Loop
G1 X133.085 Y100.547 E58.4402 F3000
G1 X143.442 Y100.547 E58.7846
G1 X144.091 Y100.632 E58.8064
G1 X144.662 Y100.869 E58.8270
G1 X145.160 Y101.251 E58.8478
G1 X145.548 Y101.757 E58.8691
G1 X145.796 Y102.355 E58.8906
G1 X145.885 Y103.033 E58.9133
G1 X145.885 Y119.782 E59.4704
G1 X145.878 Y121.018 E59.5115
G1 X145.796 Y121.645 E59.5326
G1 X145.548 Y122.243 E59.5541
G1 X145.160 Y122.749 E59.5753
G1 X144.662 Y123.131 E59.5962
G1 X144.091 Y123.368 E59.6167
G1 X143.442 Y123.453 E59.6385
G1 X133.085 Y123.453 E59.9830
G1 X133.085 Y123.033 E59.9969
;segType:Perimeter
G0 X133.321 Y123.525 F10800
G1 X132.685 Y123.765 E60.0195 F2399
G1 X132.685 Y100.182 E60.8039
G1 X143.471 Y100.182 E61.1627
G1 X144.205 Y100.279 E61.1873
G1 X144.877 Y100.557 E61.2115
G1 X145.457 Y101.003 E61.2358
G1 X145.905 Y101.586 E61.2603
G1 X146.187 Y102.267 E61.2848
G1 X146.285 Y103.011 E61.3097
G1 X146.285 Y119.782 E61.8676
G1 X146.278 Y121.040 E61.9094
G1 X146.187 Y121.733 E61.9326
G1 X145.905 Y122.414 E61.9572
G1 X145.457 Y122.997 E61.9816
G1 X144.877 Y123.443 E62.0059
G1 X144.205 Y123.721 E62.0302
G1 X143.471 Y123.818 E62.0548
G1 X132.742 Y123.818 E62.4116
G1 X133.006 Y123.238
;segType:Loop
G0 X133.485 Y121.901 F10800
G1 X133.485 Y100.911 E63.1097 F3000
G1 X143.413 Y100.911 E63.4399
G1 X143.977 Y100.986 E63.4589
G1 X144.446 Y101.180 E63.4757
G1 X144.862 Y101.499 E63.4932
G1 X145.192 Y101.929 E63.5112
G1 X145.404 Y102.442 E63.5297
G1 X145.485 Y103.054 E63.5502
G1 X145.485 Y119.781 E64.1065
G1 X145.479 Y120.995 E64.1469
G1 X145.404 Y121.558 E64.1658
G1 X145.192 Y122.071 E64.1843
G1 X144.862 Y122.501 E64.2023
G1 X144.446 Y122.820 E64.2197
G1 X143.977 Y123.014 E64.2366
G1 X143.413 Y123.089 E64.2555
G1 X133.485 Y123.089 E64.5857
G1 X133.485 Y122.075 E64.6195
G0 X138.289 Y121.891 F10800
G1 X137.902 Y121.609 E64.6354 F3000
G1 X137.544 Y121.177 E64.6541
G1 X137.308 Y120.676 E64.6725
G1 X137.205 Y120.137 E64.6907
G1 X137.240 Y119.591 E64.7089
G1 X137.410 Y119.067 E64.7272
G1 X137.708 Y118.597 E64.7458
G1 X138.121 Y118.209 E64.7646
G1 X138.626 Y117.931 E64.7838
G1 X139.192 Y117.786 E64.8032
G1 X139.778 Y117.786 E64.8227
G1 X140.344 Y117.931 E64.8421
G1 X140.849 Y118.209 E64.8613
G1 X141.262 Y118.597 E64.8801
G1 X141.562 Y119.070 E64.8988
G1 X141.732 Y119.623 E64.9180
G1 X141.765 Y120.137 E64.9351
G1 X141.662 Y120.676 E64.9534
G1 X141.426 Y121.177 E64.9718
G1 X141.068 Y121.609 E64.9905
G1 X140.606 Y121.945 E65.0095
G1 X140.066 Y122.159 E65.0288
G1 X139.485 Y122.232 E65.0483
G1 X138.904 Y122.159 E65.0678
G1 X138.452 Y121.980 E65.0839
;segType:Perimeter
G0 X139.947 Y122.269 F10800
G1 X139.428 Y121.857 E65.1060 F2399
G1 X139.013 Y121.804 E65.1199
G1 X138.572 Y121.630 E65.1357
G1 X138.191 Y121.353 E65.1514
G1 X137.892 Y120.992 E65.1669
G1 X137.694 Y120.572 E65.1824
G1 X137.607 Y120.116 E65.1978
G1 X137.636 Y119.654 E65.2132
G1 X137.780 Y119.212 E65.2287
G1 X138.030 Y118.818 E65.2442
G1 X138.372 Y118.497 E65.2598
G1 X138.786 Y118.269 E65.2755
G1 X139.247 Y118.151 E65.2913
G1 X139.723 Y118.151 E65.3072
G1 X140.184 Y118.269 E65.3230
G1 X140.598 Y118.497 E65.3387
G1 X140.940 Y118.818 E65.3543
G1 X141.191 Y119.213 E65.3699
G1 X141.336 Y119.683 E65.3862
G1 X141.363 Y120.116 E65.4007
G1 X141.276 Y120.572 E65.4161
G1 X141.078 Y120.992 E65.4315
G1 X140.779 Y121.353 E65.4471
G1 X140.398 Y121.630 E65.4628
G1 X139.957 Y121.804 E65.4786
G1 X139.542 Y121.857 E65.4925
G1 X139.023 Y122.269
;segType:Loop
G0 X137.248 Y121.424 F10800
G1 X137.195 Y121.361 E65.4952 F3000
G1 X136.922 Y120.781 E65.5165
G1 X136.804 Y120.158 E65.5376
G1 X136.843 Y119.528 E65.5586
G1 X137.040 Y118.922 E65.5798
G1 X137.387 Y118.375 E65.6014
G1 X137.870 Y117.921 E65.6234
G1 X138.466 Y117.594 E65.6460
G1 X139.136 Y117.422 E65.6690
G1 X139.834 Y117.422 E65.6922
G1 X140.504 Y117.594 E65.7153
G1 X141.100 Y117.921 E65.7379
G1 X141.583 Y118.375 E65.7599
G1 X141.934 Y118.928 E65.7817
G1 X142.129 Y119.563 E65.8038
G1 X142.166 Y120.158 E65.8236
G1 X142.048 Y120.781 E65.8447
G1 X141.775 Y121.361 E65.8660
G1 X141.357 Y121.866 E65.8878
G1 X140.814 Y122.261 E65.9102
G1 X140.176 Y122.513 E65.9330
G1 X139.485 Y122.600 E65.9561
G1 X138.794 Y122.513 E65.9793
G1 X138.156 Y122.261 E66.0021
G1 X137.613 Y121.866 E66.0245
G1 X137.363 Y121.563 E66.0375
G0 X138.289 Y105.890 F10800
G1 X137.902 Y105.609 E66.0534 F3000
G1 X137.544 Y105.177 E66.0721
G1 X137.308 Y104.676 E66.0905
G1 X137.205 Y104.137 E66.1088
G1 X137.240 Y103.591 E66.1270
G1 X137.410 Y103.067 E66.1453
G1 X137.708 Y102.597 E66.1638
G1 X138.121 Y102.209 E66.1827
G1 X138.626 Y101.931 E66.2018
G1 X139.192 Y101.786 E66.2212
G1 X139.778 Y101.786 E66.2408
G1 X140.344 Y101.931 E66.2602
G1 X140.849 Y102.209 E66.2793
G1 X141.262 Y102.597 E66.2982
G1 X141.562 Y103.070 E66.3168
G1 X141.732 Y103.623 E66.3361
G1 X141.765 Y104.137 E66.3532
G1 X141.662 Y104.676 E66.3714
G1 X141.427 Y105.177 E66.3899
G1 X141.068 Y105.609 E66.4085
G1 X140.606 Y105.945 E66.4275
G1 X140.067 Y106.159 E66.4468
G1 X139.485 Y106.232 E66.4663
G1 X138.903 Y106.159 E66.4858
G1 X138.452 Y105.980 E66.5020
;segType:Perimeter
G0 X139.947 Y106.269 F10800
G1 X139.428 Y105.857 E66.5240 F2399
G1 X139.012 Y105.804 E66.5380
G1 X138.572 Y105.630 E66.5537
G1 X138.191 Y105.353 E66.5694
G1 X137.892 Y104.992 E66.5850
G1 X137.694 Y104.571 E66.6005
G1 X137.607 Y104.116 E66.6159
G1 X137.636 Y103.654 E66.6313
G1 X137.780 Y103.212 E66.6467
G1 X138.030 Y102.818 E66.6622
G1 X138.372 Y102.497 E66.6778
G1 X138.786 Y102.269 E66.6936
G1 X139.247 Y102.151 E66.7094
G1 X139.723 Y102.151 E66.7252
G1 X140.184 Y102.269 E66.7410
G1 X140.598 Y102.497 E66.7568
G1 X140.940 Y102.818 E66.7724
G1 X141.191 Y103.213 E66.7879
G1 X141.336 Y103.683 E66.8043
G1 X141.363 Y104.116 E66.8187
G1 X141.276 Y104.571 E66.8341
G1 X141.078 Y104.992 E66.8496
G1 X140.779 Y105.353 E66.8652
G1 X140.398 Y105.630 E66.8808
G1 X139.958 Y105.804 E66.8966
G1 X139.542 Y105.857 E66.9105
G1 X139.023 Y106.269
;segType:Loop
G0 X137.247 Y105.424 F10800
G1 X137.195 Y105.361 E66.9133 F3000
G1 X136.922 Y104.780 E66.9346
G1 X136.804 Y104.158 E66.9557
G1 X136.843 Y103.528 E66.9767
G1 X137.040 Y102.922 E66.9979
G1 X137.387 Y102.375 E67.0194
G1 X137.870 Y101.921 E67.0415
G1 X138.466 Y101.594 E67.0641
G1 X139.136 Y101.422 E67.0871
G1 X139.834 Y101.422 E67.1103
G1 X140.504 Y101.594 E67.1333
G1 X141.100 Y101.921 E67.1559
G1 X141.583 Y102.375 E67.1780
G1 X141.934 Y102.928 E67.1997
G1 X142.129 Y103.562 E67.2218
G1 X142.166 Y104.158 E67.2417
G1 X142.048 Y104.780 E67.2627
G1 X141.775 Y105.361 E67.2841
G1 X141.357 Y105.866 E67.3059
G1 X140.814 Y106.260 E67.3282
G1 X140.176 Y106.513 E67.3510
G1 X139.485 Y106.600 E67.3742
G1 X138.794 Y106.513 E67.3973
G1 X138.156 Y106.260 E67.4202
G1 X137.613 Y105.866 E67.4425
G1 X137.363 Y105.563 E67.4556
;segType:HShell
G0 X137.448 Y105.969 F10800
G1 X133.685 Y102.539 E67.6249 F3000
G1 X133.685 Y103.032
G1 X145.285 Y113.606 E68.1470
G1 X145.285 Y114.099
G1 X133.685 Y103.524 E68.6691
G1 X133.685 Y104.017
G1 X145.285 Y114.592 E69.1912
G1 X145.285 Y115.085
G1 X133.685 Y104.510 E69.7133
G1 X133.685 Y105.003
G1 X145.285 Y115.578 E70.2354
G1 X145.285 Y116.071
G1 X133.685 Y105.496 E70.7574
G1 X133.685 Y105.989
G1 X145.285 Y116.564 E71.2795
G1 X145.285 Y117.057
G1 X133.685 Y106.482 E71.8016
G1 X133.685 Y106.975
G1 X145.285 Y117.550 E72.3237
G1 X145.285 Y118.043
G1 X133.685 Y107.468 E72.8458
G1 X133.685 Y107.961
G1 X145.285 Y118.536 E73.3679
G1 X145.285 Y119.029
G1 X133.685 Y108.454 E73.8900
G1 X133.685 Y108.947
G1 X145.285 Y119.522 E74.4121
G1 X145.284 Y120.013
G1 X133.685 Y109.440 E74.9341
G1 X133.685 Y109.933
G1 X145.281 Y120.504 E75.4560
G1 X145.277 Y120.993
G1 X133.685 Y110.426 E75.9777
G1 X133.685 Y110.919
G1 X141.182 Y117.753 E76.3152
G1 X141.745 Y118.266
G1 X145.219 Y121.433 E76.4715
G1 X145.088 Y121.806
G1 X142.224 Y119.196 E76.6004
G0 X140.916 Y121.474 F10800
G0 X140.009 Y121.972
G0 X138.961 Y121.972
G0 X136.939 Y121.279
G1 X133.685 Y118.313 E76.7469 F3000
G1 X133.685 Y118.806
G1 X138.183 Y122.906 E76.9493
G1 X137.642 Y122.906
G1 X133.685 Y119.299 E77.1274
G1 X133.685 Y119.792
G1 X137.102 Y122.906 E77.2812
G1 X136.561 Y122.906
G1 X133.685 Y120.285 E77.4107
G1 X133.685 Y120.777
G1 X136.020 Y122.906 E77.5158
G1 X135.479 Y122.906
G1 X133.685 Y121.270 E77.5965
G1 X133.685 Y121.763
G1 X134.939 Y122.906 E77.6530
G1 X134.398 Y122.906
G1 X133.685 Y122.256 E77.6851
G1 X133.685 Y122.749
G1 X133.857 Y122.906 E77.6928
G0 X136.674 Y120.545 F10800
G1 X133.685 Y117.820 E77.8274 F3000
G1 X133.685 Y117.327
G1 X136.613 Y119.997 E77.9592
G1 X136.642 Y119.530
G1 X133.685 Y116.834 E78.0923
G1 X133.685 Y116.341
G1 X136.759 Y119.144 E78.2307
G1 X136.900 Y118.779
G1 X133.685 Y115.848 E78.3754
G1 X133.685 Y115.355
G1 X137.098 Y118.466 E78.5290
G1 X137.320 Y118.176
G1 X133.685 Y114.862 E78.6926
G1 X133.685 Y114.369
G1 X137.586 Y117.926 E78.8682
G1 X137.881 Y117.702
G1 X133.685 Y113.876 E79.0570
G1 X133.685 Y113.383
G1 X138.219 Y117.516 E79.2611
G1 X138.599 Y117.370
G1 X133.685 Y112.890 E79.4823
G1 X133.685 Y112.397
G1 X139.021 Y117.262 E79.7224
G1 X139.537 Y117.240
G1 X133.685 Y111.905 E79.9858
G1 X133.685 Y111.412
G1 X140.163 Y117.317 E80.2774
G0 X138.253 Y118.360 F10800
G0 X137.604 Y119.143
G0 X137.416 Y120.126
G0 X138.293 Y122.513
G1 X138.724 Y122.906 E80.2968 F3000
G1 X139.265 Y122.906
G1 X139.074 Y122.732 E80.3054
G1 X139.649 Y122.764
G1 X139.806 Y122.906 E80.3124
G1 X140.346 Y122.906
G1 X140.124 Y122.703 E80.3225
G1 X140.523 Y122.574
G1 X140.887 Y122.906 E80.3389
G1 X141.428 Y122.906
G1 X140.900 Y122.425 E80.3626
G1 X141.204 Y122.210
G1 X141.969 Y122.906 E80.3970
G1 X142.509 Y122.906
G1 X141.504 Y121.990 E80.4422
G1 X141.737 Y121.709
G1 X143.050 Y122.906 E80.5013
G1 X143.567 Y122.884
G1 X141.963 Y121.423 E80.5735
G1 X142.126 Y121.078
G1 X144.014 Y122.799 E80.6585
G1 X144.376 Y122.636
G1 X142.264 Y120.711 E80.7535
G1 X142.344 Y120.291
G1 X144.669 Y122.411 E80.8582
G1 X144.902 Y122.130
G1 X142.344 Y119.798 E80.9733
G0 X142.085 Y102.802 F10800
G1 X145.285 Y105.719 E81.1173 F3000
G1 X145.285 Y106.212
G1 X142.321 Y103.510 E81.2507
G1 X142.359 Y104.038
G1 X145.285 Y106.705 E81.3824
G1 X145.285 Y107.198
G1 X142.307 Y104.483 E81.5164
G1 X142.213 Y104.891
G1 X145.285 Y107.691 E81.6547
G1 X145.285 Y108.184
G1 X142.051 Y105.236 E81.8002
G1 X141.863 Y105.557
G1 X145.285 Y108.677 E81.9542
G1 X145.285 Y109.170
G1 X141.630 Y105.838 E82.1187
G1 X141.367 Y106.091
G1 X145.285 Y109.663 E82.2950
G1 X145.285 Y110.156
G1 X141.066 Y106.310 E82.4849
G1 X140.727 Y106.493
G1 X145.285 Y110.649 E82.6901
G1 X145.285 Y111.142
G1 X140.350 Y106.643 E82.9122
G1 X139.906 Y106.731
G1 X145.285 Y111.635 E83.1543
G1 X145.285 Y112.127
G1 X139.414 Y106.776 E83.4185
G1 X138.786 Y106.696
G1 X145.285 Y112.620 E83.7110
G1 X145.285 Y113.113
G1 X137.502 Y106.018 E84.0613
G0 X140.009 Y105.972 F10800
G0 X140.916 Y105.474
G0 X145.018 Y102.025
G1 X144.198 Y101.277 E84.0982 F3000
G1 X143.465 Y101.102
G1 X145.239 Y102.720 E84.1781
G1 X145.285 Y103.254
G1 X142.915 Y101.094 E84.2848
G1 X142.374 Y101.094
G1 X145.285 Y103.747 E84.4158
G1 X145.285 Y104.240
G1 X141.833 Y101.094 E84.5711
G1 X141.292 Y101.094
G1 X145.285 Y104.733 E84.7508
G1 X145.285 Y105.226
G1 X140.752 Y101.094 E84.9549
G1 X140.211 Y101.094
G1 X140.570 Y101.421 E84.9710
G1 X139.830 Y101.240
G1 X139.670 Y101.094 E84.9783
G1 X139.129 Y101.094
G1 X139.290 Y101.240 E84.9855
G1 X138.828 Y101.312
G1 X138.589 Y101.094 E84.9962
G1 X138.048 Y101.094
G1 X138.406 Y101.420 E85.0123
G1 X138.064 Y101.601
G1 X137.507 Y101.094 E85.0374
G1 X136.966 Y101.094
G1 X137.731 Y101.790 E85.0718
G1 X137.464 Y102.040
G1 X136.426 Y101.094 E85.1185
G1 X135.885 Y101.094
G1 X137.205 Y102.297 E85.1780
G1 X137.007 Y102.610
G1 X135.344 Y101.094 E85.2528
G1 X134.803 Y101.094
G1 X136.826 Y102.938 E85.3438
G1 X136.702 Y103.318
G1 X134.263 Y101.094 E85.4536
G1 X133.722 Y101.094
G1 X136.629 Y103.744 E85.5845
G1 X136.613 Y104.222
G1 X133.685 Y101.553 E85.7163
G1 X133.685 Y102.046
G1 X136.727 Y104.819 E85.8532
; ------------------------------------
; Layer #2
; ------------------------------------
G21 ; mm
G90 ; abs
G92 E0 ; reset extr
M106 S0
;segType:Loop
G0 F1500 E-1.0000
G0 F300 Z0.600
G0 X133.085 Y122.859 F10800
G0 F1500 E0.0000
G1 X133.085 Y100.547 E0.7421 F3000
G1 X143.442 Y100.547 E1.0866
G1 X144.091 Y100.632 E1.1084
G1 X144.662 Y100.869 E1.1289
G1 X145.160 Y101.251 E1.1498
G1 X145.548 Y101.757 E1.1710
G1 X145.796 Y102.355 E1.1925
G1 X145.885 Y103.033 E1.2153
G1 X145.885 Y120.967 E1.8118
G1 X145.796 Y121.645 E1.8345
G1 X145.548 Y122.243 E1.8560
G1 X145.160 Y122.749 E1.8773
G1 X144.662 Y123.131 E1.8981
G1 X144.091 Y123.368 E1.9187
G1 X143.442 Y123.453 E1.9405
G1 X133.085 Y123.453 E2.2849
G1 X133.085 Y123.033 E2.2989
;segType:Perimeter
G0 X133.321 Y123.525 F10800
G1 X132.685 Y123.765 E2.3215 F2399
G1 X132.685 Y100.182 E3.1059
G1 X143.471 Y100.182 E3.4646
G1 X144.205 Y100.279 E3.4892
G1 X144.877 Y100.557 E3.5135
G1 X145.457 Y101.003 E3.5378
G1 X145.905 Y101.586 E3.5622
G1 X146.187 Y102.267 E3.5868
G1 X146.285 Y103.011 E3.6117
G1 X146.285 Y120.989 E4.2097
G1 X146.187 Y121.733 E4.2346
G1 X145.905 Y122.414 E4.2591
G1 X145.457 Y122.997 E4.2836
G1 X144.877 Y123.443 E4.3079
G1 X144.205 Y123.721 E4.3321
G1 X143.471 Y123.818 E4.3568
G1 X132.742 Y123.818 E4.7136
G1 X133.006 Y123.238
;segType:Loop
G0 X133.485 Y121.901 F10800
G1 X133.485 Y100.911 E5.4117 F3000
G1 X143.413 Y100.911 E5.7419
G1 X143.977 Y100.986 E5.7608
G1 X144.446 Y101.180 E5.7777
G1 X144.862 Y101.499 E5.7951
G1 X145.192 Y101.929 E5.8132
G1 X145.404 Y102.442 E5.8316
G1 X145.485 Y103.054 E5.8522
G1 X145.485 Y120.946 E6.4472
G1 X145.404 Y121.558 E6.4678
G1 X145.192 Y122.071 E6.4863
G1 X144.862 Y122.501 E6.5043
G1 X144.446 Y122.820 E6.5217
G1 X143.977 Y123.014 E6.5386
G1 X143.413 Y123.089 E6.5575
G1 X133.485 Y123.089 E6.8877
G1 X133.485 Y122.075 E6.9215
G0 X138.289 Y121.891 F10800
G1 X137.902 Y121.609 E6.9374 F3000
G1 X137.544 Y121.177 E6.9561
G1 X137.308 Y120.676 E6.9745
G1 X137.205 Y120.137 E6.9927
G1 X137.240 Y119.591 E7.0109
G1 X137.410 Y119.067 E7.0292
G1 X137.708 Y118.597 E7.0478
G1 X138.121 Y118.209 E7.0666
G1 X138.626 Y117.931 E7.0858
G1 X139.192 Y117.786 E7.1052
G1 X139.778 Y117.786 E7.1247
G1 X140.344 Y117.931 E7.1441
G1 X140.849 Y118.209 E7.1633
G1 X141.262 Y118.597 E7.1821
G1 X141.563 Y119.072 E7.2008
G1 X141.733 Y119.638 E7.2205
G1 X141.765 Y120.137 E7.2371
G1 X141.662 Y120.676 E7.2554
G1 X141.426 Y121.177 E7.2738
G1 X141.068 Y121.609 E7.2925
G1 X140.606 Y121.945 E7.3115
G1 X140.066 Y122.159 E7.3308
G1 X139.485 Y122.232 E7.3503
G1 X138.904 Y122.159 E7.3697
G1 X138.452 Y121.980 E7.3859
;segType:Perimeter
G0 X139.947 Y122.269 F10800
G1 X139.428 Y121.857 E7.4080 F2399
G1 X139.013 Y121.804 E7.4219
G1 X138.572 Y121.630 E7.4377
G1 X138.191 Y121.353 E7.4533
G1 X137.892 Y120.992 E7.4689
G1 X137.694 Y120.572 E7.4844
G1 X137.607 Y120.116 E7.4998
G1 X137.636 Y119.654 E7.5152
G1 X137.780 Y119.212 E7.5306
G1 X138.030 Y118.818 E7.5461
G1 X138.372 Y118.497 E7.5618
G1 X138.786 Y118.269 E7.5775
G1 X139.247 Y118.151 E7.5933
G1 X139.723 Y118.151 E7.6091
G1 X140.184 Y118.269 E7.6250
G1 X140.598 Y118.497 E7.6407
G1 X140.940 Y118.818 E7.6563
G1 X141.191 Y119.214 E7.6719
G1 X141.336 Y119.697 E7.6887
G1 X141.363 Y120.116 E7.7026
G1 X141.276 Y120.572 E7.7180
G1 X141.078 Y120.992 E7.7335
G1 X140.779 Y121.353 E7.7491
G1 X140.398 Y121.630 E7.7648
G1 X139.957 Y121.804 E7.7805
G1 X139.542 Y121.857 E7.7945
G1 X139.023 Y122.269
;segType:Loop
G0 X137.248 Y121.424 F10800
G1 X137.195 Y121.361 E7.7972 F3000
G1 X136.922 Y120.781 E7.8185
G1 X136.804 Y120.158 E7.8396
G1 X136.843 Y119.528 E7.8606
G1 X137.040 Y118.922 E7.8818
G1 X137.387 Y118.375 E7.9033
G1 X137.870 Y117.921 E7.9254
G1 X138.466 Y117.594 E7.9480
G1 X139.136 Y117.422 E7.9710
G1 X139.834 Y117.422 E7.9942
G1 X140.504 Y117.594 E8.0172
G1 X141.100 Y117.921 E8.0398
G1 X141.583 Y118.375 E8.0619
G1 X141.935 Y118.930 E8.0838
G1 X142.130 Y119.579 E8.1063
G1 X142.166 Y120.158 E8.1256
G1 X142.048 Y120.781 E8.1467
G1 X141.775 Y121.361 E8.1680
G1 X141.357 Y121.866 E8.1898
G1 X140.814 Y122.261 E8.2121
G1 X140.176 Y122.513 E8.2349
G1 X139.485 Y122.600 E8.2581
G1 X138.794 Y122.513 E8.2813
G1 X138.156 Y122.261 E8.3041
G1 X137.613 Y121.866 E8.3264
G1 X137.363 Y121.563 E8.3395
G0 X138.289 Y105.890 F10800
G1 X137.902 Y105.609 E8.3554 F3000
G1 X137.544 Y105.177 E8.3741
G1 X137.308 Y104.676 E8.3925
G1 X137.205 Y104.137 E8.4107
G1 X137.240 Y103.591 E8.4289
G1 X137.410 Y103.067 E8.4472
G1 X137.708 Y102.597 E8.4658
G1 X138.121 Y102.209 E8.4846
G1 X138.626 Y101.931 E8.5038
G1 X139.192 Y101.786 E8.5232
G1 X139.778 Y101.786 E8.5427
G1 X140.344 Y101.931 E8.5621
G1 X140.849 Y102.209 E8.5813
G1 X141.262 Y102.597 E8.6001
G1 X141.563 Y103.072 E8.6188
G1 X141.733 Y103.638 E8.6385
G1 X141.765 Y104.137 E8.6551
G1 X141.662 Y104.676 E8.6734
G1 X141.427 Y105.177 E8.6918
G1 X141.068 Y105.609 E8.7105
G1 X140.606 Y105.945 E8.7295
G1 X140.067 Y106.159 E8.7488
G1 X139.485 Y106.232 E8.7683
G1 X138.903 Y106.159 E8.7878
G1 X138.452 Y105.980 E8.8039
;segType:Perimeter
G0 X139.947 Y106.269 F10800
G1 X139.428 Y105.857 E8.8260 F2399
G1 X139.012 Y105.804 E8.8399
G1 X138.572 Y105.630 E8.8557
G1 X138.191 Y105.353 E8.8713
G1 X137.892 Y104.992 E8.8869
G1 X137.694 Y104.571 E8.9024
G1 X137.607 Y104.116 E8.9178
G1 X137.636 Y103.654 E8.9332
G1 X137.780 Y103.212 E8.9486
G1 X138.030 Y102.818 E8.9642
G1 X138.372 Y102.497 E8.9798
G1 X138.786 Y102.269 E8.9955
G1 X139.247 Y102.151 E9.0113
G1 X139.723 Y102.151 E9.0272
G1 X140.184 Y102.269 E9.0430
G1 X140.598 Y102.497 E9.0587
G1 X140.940 Y102.818 E9.0743
G1 X141.191 Y103.214 E9.0899
G1 X141.336 Y103.697 E9.1067
G1 X141.363 Y104.116 E9.1206
G1 X141.276 Y104.571 E9.1360
G1 X141.078 Y104.992 E9.1515
G1 X140.779 Y105.353 E9.1671
G1 X140.398 Y105.630 E9.1828
G1 X139.958 Y105.804 E9.1985
G1 X139.542 Y105.857 E9.2125
G1 X139.023 Y106.269
;segType:Loop
G0 X137.247 Y105.424 F10800
G1 X137.195 Y105.361 E9.2152 F3000
G1 X136.922 Y104.780 E9.2365
G1 X136.804 Y104.158 E9.2576
G1 X136.843 Y103.528 E9.2786
G1 X137.040 Y102.922 E9.2998
G1 X137.387 Y102.375 E9.3213
G1 X137.870 Y101.921 E9.3434
G1 X138.466 Y101.594 E9.3660
G1 X139.136 Y101.422 E9.3890
G1 X139.834 Y101.422 E9.4122
G1 X140.504 Y101.594 E9.4352
G1 X141.100 Y101.921 E9.4578
G1 X141.583 Y102.375 E9.4799
G1 X141.935 Y102.930 E9.5017
G1 X142.130 Y103.579 E9.5243
G1 X142.166 Y104.158 E9.5436
G1 X142.048 Y104.780 E9.5646
G1 X141.775 Y105.361 E9.5860
G1 X141.357 Y105.866 E9.6078
G1 X140.814 Y106.260 E9.6301
G1 X140.176 Y106.513 E9.6529
G1 X139.485 Y106.600 E9.6761
G1 X138.794 Y106.513 E9.6993
G1 X138.156 Y106.260 E9.7221
G1 X137.613 Y105.866 E9.7444
G1 X137.363 Y105.563 E9.7575
;segType:HShell
G0 X137.123 Y102.427 F10800
G1 X133.685 Y105.561 E9.9122 F3000
G1 X133.685 Y105.068
G1 X138.045 Y101.094 E10.1084
G1 X137.504 Y101.094
G1 X133.685 Y104.575 E10.2803
G1 X133.685 Y104.082
G1 X136.964 Y101.094 E10.4279
G1 X136.423 Y101.094
G1 X133.685 Y103.590 E10.5511
G1 X133.685 Y103.097
G1 X135.882 Y101.094 E10.6500
G1 X135.341 Y101.094
G1 X133.685 Y102.604 E10.7246
G1 X133.685 Y102.111
G1 X134.800 Y101.094 E10.7748
G1 X134.260 Y101.094
G1 X133.685 Y101.618 E10.8007
G0 X138.473 Y105.779 F10800
G0 X139.485 Y106.038
G0 X141.976 Y105.398
G1 X145.198 Y102.460 E10.9457 F3000
G1 X145.050 Y102.102
G1 X142.280 Y104.627 E11.0703
G1 X142.361 Y104.061
G1 X144.845 Y101.796 E11.1822
G1 X144.594 Y101.532
G1 X142.331 Y103.595 E11.2840
G1 X142.224 Y103.200
G1 X144.291 Y101.316 E11.3770
G1 X143.918 Y101.162
G1 X142.097 Y102.822 E11.4590
G1 X141.899 Y102.510
G1 X143.446 Y101.100 E11.5286
G1 X142.912 Y101.094
G1 X141.687 Y102.211 E11.5837
G1 X141.420 Y101.960
G1 X142.371 Y101.094 E11.6265
G1 X141.830 Y101.094
G1 X141.135 Y101.727 E11.6578
G1 X140.798 Y101.542
G1 X141.290 Y101.094 E11.6800
G1 X140.749 Y101.094
G1 X140.429 Y101.385 E11.6943
G1 X140.007 Y101.277
G1 X140.208 Y101.094 E11.7034
G1 X139.667 Y101.094
G1 X139.507 Y101.240 E11.7106
G1 X138.911 Y101.290
G1 X139.127 Y101.094 E11.7203
G1 X138.586 Y101.094
G1 X137.975 Y101.650 E11.7478
G0 X137.416 Y104.126 F10800
G0 X137.727 Y105.080
G0 X138.473 Y105.779
G0 X139.983 Y106.721
G1 X133.685 Y112.463 E12.0313 F3000
G1 X133.685 Y111.970
G1 X139.386 Y106.772 E12.2879
G1 X138.912 Y106.712
G1 X133.685 Y111.477 E12.5231
G1 X133.685 Y110.984
G1 X138.499 Y106.595 E12.7398
G1 X138.122 Y106.445
G1 X133.685 Y110.491 E12.9395
G1 X133.685 Y109.998
G1 X137.807 Y106.240 E13.1251
G1 X137.506 Y106.021
G1 X133.685 Y109.505 E13.2970
G1 X133.685 Y109.012
G1 X137.265 Y105.748 E13.4582
G1 X137.032 Y105.467
G1 X133.685 Y108.519 E13.6088
G1 X133.685 Y108.026
G1 X136.867 Y105.125 E13.7521
G1 X136.717 Y104.769
G1 X133.685 Y107.533 E13.8885
G1 X133.685 Y107.040
G1 X136.637 Y104.349 E14.0214
G1 X136.621 Y103.870
G1 X133.685 Y106.547 E14.1536
G1 X133.685 Y106.054
G1 X136.709 Y103.297 E14.2897
G0 X138.566 Y117.379 F10800
G1 X145.285 Y111.254 E14.5921 F3000
G1 X145.285 Y110.761
G1 X133.685 Y121.335 E15.1141
G1 X133.685 Y120.843
G1 X145.285 Y110.268 E15.6362
G1 X145.285 Y109.775
G1 X133.685 Y120.350 E16.1583
G1 X133.685 Y119.857
G1 X145.285 Y109.282 E16.6804
G1 X145.285 Y108.789
G1 X133.685 Y119.364 E17.2025
G1 X133.685 Y118.871
G1 X145.285 Y108.296 E17.7246
G1 X145.285 Y107.803
G1 X133.685 Y118.378 E18.2467
G1 X133.685 Y117.885
G1 X145.285 Y107.310 E18.7688
G1 X145.285 Y106.817
G1 X133.685 Y117.392 E19.2909
G1 X133.685 Y116.899
G1 X145.285 Y106.324 E19.8129
G1 X145.285 Y105.831
G1 X133.685 Y116.406 E20.3350
G1 X133.685 Y115.913
G1 X145.285 Y105.338 E20.8571
G1 X145.285 Y104.845
G1 X133.685 Y115.420 E21.3792
G1 X133.685 Y114.927
G1 X145.285 Y104.352 E21.9013
G1 X145.285 Y103.860
G1 X133.685 Y114.434 E22.4234
G1 X133.685 Y113.941
G1 X145.285 Y103.367 E22.9455
G1 X145.263 Y102.894
G1 X133.685 Y113.448 E23.4665
G1 X133.685 Y112.955
G1 X140.810 Y106.460 E23.7872
G0 X141.554 Y120.126 F10800
G0 X141.243 Y121.080
G0 X139.695 Y122.758
G1 X139.532 Y122.906 E23.7946 F3000
G1 X138.991 Y122.906
G1 X139.169 Y122.744 E23.8026
G1 X138.704 Y122.676
G1 X138.451 Y122.906 E23.8140
G1 X137.910 Y122.906
G1 X138.326 Y122.527 E23.8327
G1 X137.970 Y122.358
G1 X137.369 Y122.906 E23.8598
G1 X136.828 Y122.906
G1 X137.669 Y122.140 E23.8976
G1 X137.391 Y121.900
G1 X136.287 Y122.906 E23.9473
G1 X135.747 Y122.906
G1 X137.159 Y121.619 E24.0108
G1 X136.955 Y121.312
G1 X135.206 Y122.906 E24.0895
G1 X134.665 Y122.906
G1 X136.792 Y120.967 E24.1853
G1 X136.680 Y120.576
G1 X134.124 Y122.906 E24.3003
G1 X133.685 Y122.814
G1 X136.604 Y120.154 E24.4317
G1 X136.636 Y119.631
G1 X133.685 Y122.321 E24.5645
G1 X133.685 Y121.828
G1 X136.814 Y118.976 E24.7053
G0 X139.221 Y117.978 F10800
G0 X140.260 Y118.109
G0 X141.093 Y118.713
G0 X142.161 Y121.003
G1 X145.285 Y118.155 E24.8459 F3000
G1 X145.285 Y117.662
G1 X142.332 Y120.354 E24.9788
G1 X142.347 Y119.847
G1 X145.285 Y117.169 E25.1111
G1 X145.285 Y116.676
G1 X142.287 Y119.410 E25.2460
G1 X142.170 Y119.023
G1 X145.285 Y116.183 E25.3862
G1 X145.285 Y115.690
G1 X142.007 Y118.679 E25.5338
G1 X141.809 Y118.366
G1 X145.285 Y115.197 E25.6902
G1 X145.285 Y114.704
G1 X141.565 Y118.096 E25.8577
G1 X141.298 Y117.846
G1 X145.285 Y114.211 E26.0371
G1 X145.285 Y113.718
G1 X140.981 Y117.642 E26.2309
G1 X140.643 Y117.457
G1 X145.285 Y113.225 E26.4398
G1 X145.285 Y112.732
G1 X140.236 Y117.335 E26.6670
G1 X139.800 Y117.240
G1 X145.285 Y112.240 E26.9139
G1 X145.285 Y111.747
G1 X139.259 Y117.240 E27.1851
G0 X145.101 Y121.773 F10800
G1 X143.945 Y122.828 E27.2371 F3000
G1 X143.317 Y122.906
G1 X145.258 Y121.137 E27.3245
G1 X145.285 Y120.620
G1 X142.777 Y122.906 E27.4374
G1 X142.236 Y122.906
G1 X145.285 Y120.127 E27.5746
G1 X145.285 Y119.634
G1 X141.695 Y122.906 E27.7362
G1 X141.154 Y122.906
G1 X145.285 Y119.141 E27.9221
G1 X145.285 Y118.648
G1 X140.614 Y122.906 E28.1324
G1 X140.073 Y122.906
G1 X140.372 Y122.634 E28.1458
G0 F1500 E27.1458
G0 X125.969 Y121.548 F10800
G0 X123.569 Y121.367
G0 F1500 E28.1458
;segType:Loop
G1 X109.283 Y123.453 E28.6260 F3000
G1 X98.558 Y123.453 E28.9827
G1 X97.909 Y123.368 E29.0045
G1 X97.338 Y123.131 E29.0251
G1 X96.840 Y122.749 E29.0459
G1 X96.452 Y122.243 E29.0672
G1 X96.204 Y121.645 E29.0887
G1 X96.115 Y120.967 E29.1114
G1 X96.115 Y103.033 E29.7079
G1 X96.204 Y102.355 E29.7307
G1 X96.452 Y101.757 E29.7522
G1 X96.840 Y101.251 E29.7734
G1 X97.338 Y100.869 E29.7943
G1 X97.909 Y100.632 E29.8148
G1 X98.558 Y100.547 E29.8366
G1 X109.283 Y100.575 E30.1933
G1 X123.773 Y102.663 E30.6803
G1 X124.461 Y102.865 E30.7041
G1 X125.033 Y103.233 E30.7267
G1 X125.487 Y103.757 E30.7498
G1 X125.779 Y104.397 E30.7732
G1 X125.885 Y105.134 E30.7979
G1 X125.885 Y118.866 E31.2547
G1 X125.779 Y119.603 E31.2794
G1 X125.487 Y120.243 E31.3028
G1 X125.033 Y120.767 E31.3259
G1 X124.461 Y121.135 E31.3485
G1 X123.773 Y121.337 E31.3724
G1 X123.758 Y121.339 E31.3729
;segType:Perimeter
G0 X124.755 Y120.872 F10800
G1 X124.587 Y121.481 E31.3939 F2399
G1 X123.866 Y121.693 E31.4188
G1 X109.315 Y123.818 E31.9079
G1 X98.529 Y123.818 E32.2667
G1 X97.795 Y123.721 E32.2913
G1 X97.123 Y123.443 E32.3155
G1 X96.543 Y122.997 E32.3398
G1 X96.095 Y122.414 E32.3643
G1 X95.813 Y121.733 E32.3888
G1 X95.715 Y120.989 E32.4138
G1 X95.715 Y103.011 E33.0117
G1 X95.813 Y102.267 E33.0367
G1 X96.095 Y101.586 E33.0612
G1 X96.543 Y101.003 E33.0856
G1 X97.123 Y100.557 E33.1100
G1 X97.795 Y100.279 E33.1342
G1 X98.529 Y100.182 E33.1588
G1 X109.315 Y100.210 E33.5175
G1 X123.866 Y102.307 E34.0065
G1 X124.642 Y102.535 E34.0334
G1 X125.311 Y102.965 E34.0599
G1 X125.835 Y103.570 E34.0865
G1 X126.169 Y104.301 E34.1132
G1 X126.285 Y105.111 E34.1404
G1 X126.285 Y118.889 E34.5987
G1 X126.169 Y119.699 E34.6259
G1 X125.835 Y120.430 E34.6526
G1 X125.311 Y121.035 E34.6792
G1 X124.689 Y121.435 E34.7038
G1 X124.054 Y121.192
;segType:Loop
G0 X122.467 Y121.158 F10800
G1 X109.251 Y123.089 E35.1481 F3000
G1 X98.587 Y123.089 E35.5028
G1 X98.023 Y123.014 E35.5217
G1 X97.554 Y122.820 E35.5386
G1 X97.138 Y122.501 E35.5560
G1 X96.808 Y122.071 E35.5740
G1 X96.596 Y121.558 E35.5925
G1 X96.515 Y120.946 E35.6130
G1 X96.515 Y103.054 E36.2081
G1 X96.596 Y102.442 E36.2286
G1 X96.808 Y101.929 E36.2471
G1 X97.138 Y101.499 E36.2651
G1 X97.554 Y101.180 E36.2826
G1 X98.023 Y100.986 E36.2994
G1 X98.586 Y100.912 E36.3183
G1 X109.251 Y100.939 E36.6731
G1 X123.680 Y103.019 E37.1579
G1 X124.280 Y103.195 E37.1787
G1 X124.755 Y103.500 E37.1975
G1 X125.139 Y103.943 E37.2170
G1 X125.389 Y104.492 E37.2371
G1 X125.485 Y105.158 E37.2594
G1 X125.485 Y118.842 E37.7146
G1 X125.389 Y119.508 E37.7369
G1 X125.139 Y120.057 E37.7570
G1 X124.755 Y120.500 E37.7765
G1 X124.280 Y120.805 E37.7953
G1 X123.679 Y120.981 E37.8161
G1 X122.656 Y121.131 E37.8505
G0 X122.962 Y111.955 F10800
G0 X122.851 Y111.202
G0 X121.843 Y109.482
G1 X122.224 Y109.765 E37.8663 F3000
G1 X122.734 Y110.408 E37.8936
G1 X123.056 Y111.153 E37.9206
G1 X123.174 Y111.952 E37.9474
G1 X123.075 Y112.798 E37.9758
G1 X122.763 Y113.552 E38.0029
G1 X122.263 Y114.204 E38.0302
G1 X121.603 Y114.710 E38.0579
G1 X120.826 Y115.032 E38.0859
G1 X120.028 Y115.137 E38.1126
G1 X116.942 Y115.137 E38.2153
G1 X116.144 Y115.032 E38.2420
G1 X115.367 Y114.710 E38.2700
G1 X114.707 Y114.204 E38.2977
G1 X114.207 Y113.552 E38.3250
G1 X113.896 Y112.802 E38.3520
G1 X113.791 Y112.000 E38.3789
G1 X113.896 Y111.198 E38.4058
G1 X114.207 Y110.448 E38.4328
G1 X114.707 Y109.796 E38.4601
G1 X115.367 Y109.290 E38.4878
G1 X116.144 Y108.968 E38.5158
G1 X116.942 Y108.863 E38.5425
G1 X120.028 Y108.863 E38.6452
G1 X120.780 Y108.962 E38.6704
G1 X121.557 Y109.270 E38.6982
G1 X121.695 Y109.372 E38.7039
;segType:Perimeter
G0 X120.348 Y108.810 F10800
G1 X120.723 Y109.337 E38.7254 F2399
G1 X121.347 Y109.584 E38.7477
G1 X121.931 Y110.018 E38.7719
G1 X122.380 Y110.585 E38.7960
G1 X122.666 Y111.246 E38.8199
G1 X122.771 Y111.957 E38.8439
G1 X122.683 Y112.713 E38.8692
G1 X122.406 Y113.381 E38.8932
G1 X121.965 Y113.955 E38.9173
G1 X121.388 Y114.399 E38.9415
G1 X120.712 Y114.678 E38.9658
G1 X120.000 Y114.772 E38.9897
G1 X116.971 Y114.772 E39.0905
G1 X116.258 Y114.678 E39.1144
G1 X115.582 Y114.399 E39.1387
G1 X115.005 Y113.955 E39.1629
G1 X114.564 Y113.381 E39.1870
G1 X114.287 Y112.714 E39.2110
G1 X114.193 Y112.000 E39.2350
G1 X114.287 Y111.286 E39.2589
G1 X114.564 Y110.619 E39.2829
G1 X115.005 Y110.045 E39.3070
G1 X115.582 Y109.601 E39.3312
G1 X116.258 Y109.322 E39.3556
G1 X116.971 Y109.228 E39.3795
G1 X120.000 Y109.228 E39.4802
G1 X120.613 Y109.308 E39.5008
G1 X121.236 Y109.040
;segType:Loop
G0 X122.876 Y109.965 F10800
G1 X123.087 Y110.232 E39.5121 F3000
G1 X123.446 Y111.061 E39.5422
G1 X123.577 Y111.947 E39.5720
G1 X123.468 Y112.883 E39.6033
G1 X123.120 Y113.724 E39.6336
G1 X122.561 Y114.452 E39.6641
G1 X121.819 Y115.021 E39.6952
G1 X120.939 Y115.385 E39.7269
G1 X120.057 Y115.501 E39.7564
G1 X116.913 Y115.501 E39.8610
G1 X116.031 Y115.385 E39.8906
G1 X115.151 Y115.021 E39.9223
G1 X114.409 Y114.452 E39.9534
G1 X113.851 Y113.724 E39.9839
G1 X113.505 Y112.889 E40.0140
G1 X113.388 Y112.000 E40.0438
G1 X113.505 Y111.111 E40.0736
G1 X113.851 Y110.276 E40.1037
G1 X114.409 Y109.548 E40.1342
G1 X115.151 Y108.979 E40.1653
G1 X116.031 Y108.615 E40.1969
G1 X116.913 Y108.499 E40.2266
G1 X120.057 Y108.499 E40.3311
G1 X120.891 Y108.608 E40.3591
G1 X121.767 Y108.955 E40.3904
G1 X122.518 Y109.513 E40.4215
G1 X122.764 Y109.824 E40.4347
G0 X120.722 Y109.148 F10800
G0 X101.314 Y105.900
G1 X100.925 Y105.617 E40.4508 F3000
G1 X100.565 Y105.182 E40.4695
G1 X100.329 Y104.679 E40.4880
G1 X100.226 Y104.138 E40.5063
G1 X100.260 Y103.589 E40.5246
G1 X100.431 Y103.063 E40.5430
G1 X100.731 Y102.591 E40.5616
G1 X101.145 Y102.201 E40.5805
G1 X101.652 Y101.922 E40.5998
G1 X102.220 Y101.776 E40.6193
G1 X102.810 Y101.776 E40.6389
G1 X103.378 Y101.922 E40.6584
G1 X103.885 Y102.201 E40.6777
G1 X104.299 Y102.591 E40.6966
G1 X104.599 Y103.063 E40.7152
G1 X104.770 Y103.589 E40.7336
G1 X104.802 Y104.099 E40.7506
G1 X104.704 Y104.675 E40.7700
G1 X104.465 Y105.182 E40.7887
G1 X104.105 Y105.617 E40.8074
G1 X103.641 Y105.954 E40.8265
G1 X103.099 Y106.168 E40.8459
G1 X102.515 Y106.242 E40.8655
G1 X101.931 Y106.168 E40.8850
G1 X101.477 Y105.989 E40.9013
;segType:Perimeter
G0 X102.977 Y106.279 F10800
G1 X102.458 Y105.867 E40.9233 F2399
G1 X102.040 Y105.814 E40.9374
G1 X101.597 Y105.639 E40.9532
G1 X101.214 Y105.360 E40.9690
G1 X100.914 Y104.998 E40.9846
G1 X100.715 Y104.574 E41.0002
G1 X100.627 Y104.116 E41.0157
G1 X100.657 Y103.652 E41.0312
G1 X100.801 Y103.208 E41.0467
G1 X101.052 Y102.812 E41.0623
G1 X101.396 Y102.489 E41.0780
G1 X101.812 Y102.260 E41.0938
G1 X102.276 Y102.141 E41.1097
G1 X102.755 Y102.141 E41.1256
G1 X103.218 Y102.260 E41.1415
G1 X103.634 Y102.489 E41.1573
G1 X103.978 Y102.812 E41.1730
G1 X104.229 Y103.208 E41.1886
G1 X104.374 Y103.652 E41.2042
G1 X104.400 Y104.081 E41.2185
G1 X104.316 Y104.573 E41.2351
G1 X104.116 Y104.998 E41.2507
G1 X103.816 Y105.360 E41.2663
G1 X103.433 Y105.639 E41.2821
G1 X102.990 Y105.814 E41.2979
G1 X102.572 Y105.867 E41.3120
G1 X102.053 Y106.279
;segType:Loop
G0 X100.272 Y105.433 F10800
G1 X100.216 Y105.366 E41.3149 F3000
G1 X99.943 Y104.783 E41.3363
G1 X99.824 Y104.159 E41.3574
G1 X99.863 Y103.526 E41.3785
G1 X100.061 Y102.918 E41.3998
G1 X100.409 Y102.369 E41.4214
G1 X100.894 Y101.913 E41.4435
G1 X101.492 Y101.585 E41.4662
G1 X102.165 Y101.412 E41.4893
G1 X102.865 Y101.412 E41.5126
G1 X103.538 Y101.585 E41.5357
G1 X104.136 Y101.913 E41.5584
G1 X104.621 Y102.369 E41.5805
G1 X104.969 Y102.918 E41.6022
G1 X105.167 Y103.526 E41.6234
G1 X105.204 Y104.117 E41.6431
G1 X105.091 Y104.776 E41.6654
G1 X104.814 Y105.366 E41.6871
G1 X104.394 Y105.873 E41.7089
G1 X103.849 Y106.269 E41.7314
G1 X103.208 Y106.523 E41.7543
G1 X102.515 Y106.610 E41.7775
G1 X101.822 Y106.523 E41.8008
G1 X101.181 Y106.269 E41.8237
G1 X100.636 Y105.873 E41.8461
G1 X100.387 Y105.572 E41.8591
G0 X100.531 Y120.624 F10800
G0 X101.314 Y121.900
G1 X100.925 Y121.617 E41.8751 F3000
G1 X100.565 Y121.182 E41.8939
G1 X100.329 Y120.679 E41.9123
G1 X100.226 Y120.138 E41.9307
G1 X100.260 Y119.589 E41.9490
G1 X100.431 Y119.063 E41.9674
G1 X100.731 Y118.590 E41.9860
G1 X101.145 Y118.201 E42.0049
G1 X101.652 Y117.922 E42.0241
G1 X102.220 Y117.777 E42.0436
G1 X102.810 Y117.777 E42.0632
G1 X103.378 Y117.922 E42.0827
G1 X103.885 Y118.201 E42.1020
G1 X104.299 Y118.590 E42.1209
G1 X104.599 Y119.063 E42.1395
G1 X104.770 Y119.589 E42.1579
G1 X104.802 Y120.099 E42.1749
G1 X104.704 Y120.675 E42.1943
G1 X104.465 Y121.182 E42.2130
G1 X104.105 Y121.617 E42.2318
G1 X103.641 Y121.954 E42.2508
G1 X103.099 Y122.168 E42.2702
G1 X102.515 Y122.242 E42.2898
G1 X101.931 Y122.168 E42.3094
G1 X101.477 Y121.988 E42.3256
;segType:Perimeter
G0 X102.977 Y122.279 F10800
G1 X102.458 Y121.867 E42.3477 F2399
G1 X102.040 Y121.814 E42.3617
G1 X101.597 Y121.638 E42.3776
G1 X101.214 Y121.360 E42.3933
G1 X100.914 Y120.998 E42.4090
G1 X100.715 Y120.574 E42.4245
G1 X100.627 Y120.117 E42.4400
G1 X100.657 Y119.652 E42.4555
G1 X100.801 Y119.208 E42.4710
G1 X101.052 Y118.812 E42.4866
G1 X101.396 Y118.489 E42.5023
G1 X101.812 Y118.260 E42.5181
G1 X102.276 Y118.141 E42.5340
G1 X102.755 Y118.141 E42.5500
G1 X103.218 Y118.260 E42.5659
G1 X103.634 Y118.489 E42.5817
G1 X103.978 Y118.812 E42.5974
G1 X104.229 Y119.208 E42.6130
G1 X104.374 Y119.652 E42.6285
G1 X104.400 Y120.081 E42.6428
G1 X104.316 Y120.573 E42.6594
G1 X104.116 Y120.998 E42.6750
G1 X103.816 Y121.360 E42.6907
G1 X103.433 Y121.638 E42.7064
G1 X102.990 Y121.814 E42.7223
G1 X102.572 Y121.867 E42.7363
G1 X102.053 Y122.279
;segType:Loop
G0 X100.272 Y121.433 F10800
G1 X100.216 Y121.366 E42.7392 F3000
G1 X99.943 Y120.783 E42.7606
G1 X99.824 Y120.159 E42.7817
G1 X99.863 Y119.526 E42.8028
G1 X100.061 Y118.918 E42.8241
G1 X100.409 Y118.369 E42.8457
G1 X100.894 Y117.914 E42.8678
G1 X101.492 Y117.584 E42.8905
G1 X102.165 Y117.412 E42.9137
G1 X102.865 Y117.412 E42.9369
G1 X103.538 Y117.584 E42.9601
G1 X104.136 Y117.914 E42.9827
G1 X104.621 Y118.369 E43.0049
G1 X104.969 Y118.918 E43.0265
G1 X105.167 Y119.526 E43.0478
G1 X105.204 Y120.117 E43.0675
G1 X105.091 Y120.776 E43.0897
G1 X104.814 Y121.366 E43.1114
G1 X104.394 Y121.873 E43.1333
G1 X103.849 Y122.269 E43.1557
G1 X103.208 Y122.523 E43.1786
G1 X102.515 Y122.610 E43.2019
G1 X101.822 Y122.523 E43.2251
G1 X101.181 Y122.269 E43.2480
G1 X100.636 Y121.873 E43.2704
G1 X100.387 Y121.572 E43.2834
;segType:HShell
G0 X99.745 Y119.246 F10800
G1 X96.919 Y121.822 E43.4106 F3000
G1 X97.108 Y122.143
G1 X99.644 Y119.832 E43.5247
G1 X99.651 Y120.318
G1 X97.344 Y122.421 E43.6285
G1 X97.638 Y122.646
G1 X99.731 Y120.738 E43.7227
G1 X99.874 Y121.101
G1 X98.003 Y122.806 E43.8070
G1 X98.455 Y122.887
G1 X100.036 Y121.446 E43.8781
G1 X100.266 Y121.729
G1 X98.975 Y122.906 E43.9362
G1 X99.516 Y122.906
G1 X100.501 Y122.008 E43.9806
G1 X100.802 Y122.227
G1 X100.056 Y122.906 E44.0141
G1 X100.597 Y122.906
G1 X101.109 Y122.439 E44.0372
G1 X101.486 Y122.589
G1 X101.138 Y122.906 E44.0529
G1 X101.679 Y122.906
G1 X101.889 Y122.715 E44.0623
G1 X102.363 Y122.775
G1 X102.219 Y122.906 E44.0688
G1 X102.760 Y122.906
G1 X102.942 Y122.740 E44.0770
G1 X103.731 Y122.515
G1 X103.301 Y122.906 E44.0964
G1 X103.842 Y122.906
G1 X113.734 Y113.889 E44.5416
G1 X113.956 Y114.179
G1 X104.382 Y122.906 E44.9724
G1 X104.923 Y122.906
G1 X114.179 Y114.469 E45.3890
G1 X114.446 Y114.718
G1 X105.464 Y122.906 E45.7932
G1 X106.005 Y122.906
G1 X114.740 Y114.944 E46.1864
G1 X115.034 Y115.169
G1 X106.545 Y122.906 E46.5684
G1 X107.086 Y122.906
G1 X115.403 Y115.325 E46.9427
G1 X115.774 Y115.479
G1 X107.627 Y122.906 E47.3093
G1 X108.168 Y122.906
G1 X116.193 Y115.591 E47.6705
G1 X116.666 Y115.653
G1 X108.709 Y122.906 E48.0286
G1 X109.252 Y122.904
G1 X117.173 Y115.684 E48.3851
G1 X117.713 Y115.684
G1 X109.896 Y122.810 E48.7369
G1 X110.540 Y122.716
G1 X118.254 Y115.684 E49.0841
G1 X118.795 Y115.684
G1 X111.184 Y122.622 E49.4267
G1 X111.828 Y122.528
G1 X119.336 Y115.684 E49.7646
G1 X119.876 Y115.684
G1 X112.472 Y122.434 E50.0978
G1 X113.116 Y122.340
G1 X120.475 Y115.631 E50.4291
G1 X121.171 Y115.490
G1 X113.759 Y122.246 E50.7626
G1 X114.403 Y122.152
G1 X125.285 Y112.232 E51.2523
G1 X125.285 Y112.725
G1 X115.047 Y122.058 E51.7131
G1 X115.691 Y121.963
G1 X125.285 Y113.218 E52.1449
G1 X125.285 Y113.711
G1 X116.335 Y121.869 E52.5477
G1 X116.979 Y121.775
G1 X125.285 Y114.204 E52.9215
G1 X125.285 Y114.697
G1 X117.623 Y121.681 E53.2663
G1 X118.267 Y121.587
G1 X125.285 Y115.190 E53.5822
G1 X125.285 Y115.683
G1 X118.911 Y121.493 E53.8690
G1 X119.555 Y121.399
G1 X125.285 Y116.176 E54.1269
G1 X125.285 Y116.669
G1 X120.199 Y121.305 E54.3558
G1 X120.843 Y121.211
G1 X125.285 Y117.161 E54.5558
G1 X125.285 Y117.654
G1 X121.487 Y121.117 E54.7267
G1 X122.131 Y121.023
G1 X125.285 Y118.147 E54.8687
G1 X125.285 Y118.640
G1 X122.775 Y120.929 E54.9817
G1 X123.419 Y120.835
G1 X125.235 Y119.179 E55.0634
G1 X124.999 Y119.887
G1 X124.166 Y120.647 E55.1009
G0 X123.470 Y113.394 F10800
G1 X125.285 Y111.739 E55.1826 F3000
G1 X125.285 Y111.246
G1 X123.690 Y112.700 E55.2544
G1 X123.755 Y112.148
G1 X125.285 Y110.753 E55.3233
G1 X125.285 Y110.260
G1 X123.738 Y111.671 E55.3929
G1 X123.674 Y111.236
G1 X125.285 Y109.767 E55.4655
G1 X125.285 Y109.274
G1 X123.566 Y110.841 E55.5428
G1 X123.413 Y110.488
G1 X125.285 Y108.781 E55.6271
G1 X125.285 Y108.289
G1 X123.258 Y110.136 E55.7183
G1 X123.031 Y109.850
G1 X125.285 Y107.796 E55.8197
G1 X125.285 Y107.303
G1 X122.805 Y109.564 E55.9314
G1 X122.551 Y109.302
G1 X125.285 Y106.810 E56.0545
G1 X125.285 Y106.317
G1 X122.253 Y109.081 E56.1909
G1 X121.955 Y108.860
G1 X125.285 Y105.824 E56.3408
G1 X125.285 Y105.331
G1 X121.600 Y108.690 E56.5067
G1 X121.223 Y108.541
G1 X125.243 Y104.876 E56.6876
G1 X125.158 Y104.461
G1 X120.821 Y108.415 E56.8828
G1 X120.348 Y108.353
G1 X124.999 Y104.113 E57.0921
G1 X124.778 Y103.821
G1 X119.847 Y108.316 E57.3140
G1 X119.306 Y108.316
G1 X124.514 Y103.569 E57.5484
G1 X124.197 Y103.365
G1 X118.766 Y108.316 E57.7929
G1 X118.225 Y108.316
G1 X123.790 Y103.243 E58.0434
G1 X123.346 Y103.155
G1 X117.684 Y108.316 E58.2982
G1 X117.143 Y108.316
G1 X122.879 Y103.088 E58.5563
G1 X122.412 Y103.021
G1 X116.553 Y108.362 E58.8200
G1 X115.891 Y108.472
G1 X121.945 Y102.953 E59.0925
G1 X121.478 Y102.886
G1 X114.546 Y109.205 E59.4044
G1 X114.155 Y109.561
G1 X104.700 Y118.181 E59.8300
G1 X104.433 Y117.931
G1 X121.011 Y102.819 E60.5761
G1 X120.544 Y102.752
G1 X104.142 Y117.704 E61.3143
G1 X103.805 Y117.518
G1 X120.077 Y102.684 E62.0466
G1 X119.610 Y102.617
G1 X103.429 Y117.367 E62.7749
G1 X103.007 Y117.259
G1 X119.143 Y102.550 E63.5011
G1 X118.676 Y102.482
G1 X102.498 Y117.230 E64.2292
G1 X101.887 Y117.294
G1 X118.209 Y102.415 E64.9638
G1 X117.742 Y102.348
G1 X100.910 Y117.692 E65.7213
G0 X100.193 Y118.346 F10800
G1 X96.783 Y121.453 E65.8747 F3000
G1 X96.725 Y121.014
G1 X117.276 Y102.280 E66.7996
G1 X116.809 Y102.213
G1 X96.715 Y120.530 E67.7039
G1 X96.715 Y120.037
G1 X116.342 Y102.146 E68.5873
G1 X115.875 Y102.079
G1 X96.715 Y119.544 E69.4496
G1 X96.715 Y119.051
G1 X115.408 Y102.011 E70.2908
G1 X114.941 Y101.944
G1 X96.715 Y118.558 E71.1111
G1 X96.715 Y118.065
G1 X114.474 Y101.877 E71.9104
G1 X114.007 Y101.809
G1 X96.715 Y117.572 E72.6886
G1 X96.715 Y117.080
G1 X113.540 Y101.742 E73.4458
G1 X113.073 Y101.675
G1 X96.715 Y116.587 E74.1821
G1 X96.715 Y116.094
G1 X112.606 Y101.608 E74.8973
G1 X112.139 Y101.540
G1 X96.715 Y115.601 E75.5914
G1 X96.715 Y115.108
G1 X111.672 Y101.473 E76.2646
G1 X111.205 Y101.406
G1 X96.715 Y114.615 E76.9168
G1 X96.715 Y114.122
G1 X110.738 Y101.338 E77.5479
G1 X110.271 Y101.271
G1 X96.715 Y113.629 E78.1580
G1 X96.715 Y113.136
G1 X109.804 Y101.204 E78.7471
G1 X109.338 Y101.136
G1 X105.281 Y104.834 E78.9297
G1 X105.384 Y104.247
G1 X108.814 Y101.121 E79.0840
G1 X108.275 Y101.119
G1 X105.382 Y103.757 E79.2142
G1 X105.311 Y103.328
G1 X107.736 Y101.118 E79.3233
G1 X107.196 Y101.116
G1 X105.188 Y102.948 E79.4137
G1 X105.010 Y102.617
G1 X106.657 Y101.115 E79.4879
G1 X106.118 Y101.114
G1 X104.811 Y102.305 E79.5467
G1 X104.555 Y102.045
G1 X105.579 Y101.112 E79.5928
G1 X105.040 Y101.111
G1 X104.289 Y101.795 E79.6266
G1 X103.959 Y101.603
G1 X104.500 Y101.109 E79.6509
G1 X103.961 Y101.108
G1 X103.622 Y101.417 E79.6662
G1 X103.200 Y101.309
G1 X103.422 Y101.107 E79.6762
G1 X102.883 Y101.105
G1 X102.746 Y101.230 E79.6823
G1 X102.205 Y101.230
G1 X102.343 Y101.104 E79.6885
G1 X101.804 Y101.102
G1 X101.480 Y101.398 E79.7031
G0 X97.847 Y101.259 F10800
G1 X96.968 Y102.061 E79.7427 F3000
G0 X99.869 Y102.867 F10800
G1 X96.715 Y105.742 E79.8847 F3000
G1 X96.715 Y105.249
G1 X101.265 Y101.101 E80.0895
G1 X100.726 Y101.100
G1 X96.715 Y104.756 E80.2700
G1 X96.715 Y104.263
G1 X100.187 Y101.098 E80.4262
G1 X99.647 Y101.097
G1 X96.715 Y103.770 E80.5582
G1 X96.715 Y103.277
G1 X99.108 Y101.095 E80.6659
G1 X98.564 Y101.099
G1 X96.757 Y102.746 E80.7472
G0 X101.072 Y105.384 F10800
G0 X103.230 Y106.704
G1 X96.715 Y112.643 E81.0404 F3000
G1 X96.715 Y112.150
G1 X102.602 Y106.783 E81.3054
G1 X102.106 Y106.743
G1 X96.715 Y111.657 E81.5480
G1 X96.715 Y111.164
G1 X101.659 Y106.657 E81.7706
G1 X101.282 Y106.508
G1 X96.715 Y110.671 E81.9761
G1 X96.715 Y110.178
G1 X100.940 Y106.327 E82.1663
G1 X100.639 Y106.108
G1 X96.715 Y109.685 E82.3429
G1 X96.715 Y109.192
G1 X100.373 Y105.858 E82.5075
G1 X100.140 Y105.577
G1 X96.715 Y108.699 E82.6617
G1 X96.715 Y108.207
G1 X99.948 Y105.259 E82.8072
G1 X99.786 Y104.914
G1 X96.715 Y107.714 E82.9454
G1 X96.715 Y107.221
G1 X99.688 Y104.511 E83.0792
G1 X99.629 Y104.071
G1 X96.715 Y106.728 E83.2104
G1 X96.715 Y106.235
G1 X99.661 Y103.549 E83.3430
G0 X101.077 Y105.482 F10800
G0 X101.989 Y105.982
G0 X113.470 Y110.679
G1 X104.919 Y118.474 E83.7279 F3000
G1 X105.117 Y118.786
G1 X113.271 Y111.353 E84.0949
G1 X113.198 Y111.913
G1 X105.255 Y119.154 E84.4523
G1 X105.368 Y119.543
G1 X113.235 Y112.372 E84.8064
G1 X113.293 Y112.812
G1 X105.398 Y120.009 E85.1617
G1 X105.330 Y120.564
G1 X113.417 Y113.192 E85.5256
G1 X113.565 Y113.550
G1 X105.062 Y121.301 E85.9083
; ------------------------------------
; Layer #3
; ------------------------------------
G21 ; mm
G90 ; abs
G92 E0 ; reset extr
M106 S255
;segType:Loop
G0 F1500 E-1.0000
G0 F300 Z0.800
G0 X123.569 Y121.367 F10800
G0 F1500 E0.0000
G1 X109.283 Y123.453 E0.4802 F3000
G1 X98.558 Y123.453 E0.8369
G1 X97.909 Y123.368 E0.8587
G1 X97.338 Y123.131 E0.8792
G1 X96.840 Y122.749 E0.9001
G1 X96.452 Y122.243 E0.9213
G1 X96.204 Y121.645 E0.9428
G1 X96.115 Y120.967 E0.9656
G1 X96.115 Y103.033 E1.5621
G1 X96.204 Y102.355 E1.5848
G1 X96.452 Y101.757 E1.6063
G1 X96.840 Y101.251 E1.6276
G1 X97.338 Y100.869 E1.6485
G1 X97.909 Y100.632 E1.6690
G1 X98.558 Y100.547 E1.6908
G1 X109.283 Y100.575 E2.0475
G1 X123.773 Y102.663 E2.5344
G1 X124.461 Y102.865 E2.5583
G1 X125.033 Y103.233 E2.5809
G1 X125.487 Y103.757 E2.6039
G1 X125.779 Y104.397 E2.6273
G1 X125.885 Y105.134 E2.6521
G1 X125.885 Y118.866 E3.1088
G1 X125.779 Y119.603 E3.1336
G1 X125.487 Y120.243 E3.1570
G1 X125.033 Y120.767 E3.1800
G1 X124.461 Y121.135 E3.2027
G1 X123.773 Y121.337 E3.2265
G1 X123.758 Y121.339 E3.2270
;segType:Perimeter
