; GCode generated by CraftWare

M103 (disable RPM)
M73 P0 (enable build progress)
G21 (set units to mm)
G90 (set positioning to absolute)
M109 S65 T0 (set HBP temperature)
M104 S190 T0 (set extruder temperature) (temp updated by printOMatic)
G162 X Y F2500 (home XY axes maximum)
G161 Z F1100 (home Z axis minimum)
G92 Z-5 (set Z to -5)
G1 Z0.0 (move Z to "0")
G161 Z F100 (home Z axis minimum)
M132 X Y Z A B (Recall stored home offsets for XYZAB axis)
(**** end homing ****)
G1 X-110.5 Y-74 Z150 F3300.0 (move to waiting position)
G130 X20 Y20 Z20 A20 B20 (Lower stepper Vrefs while heating)
M6 T0 (wait for toolhead, and HBP to reach temperature)
G130 X127 Y127 Z40 A127 B127 (Set Stepper motor Vref to defaults)
M108 R3.0 T0
G0 X-110.5 Y-74 (Position Nozzle)
G0 Z0.6      (Position Height)
M108 R5.0    (Set Extruder Speed)
M101         (Start Extruder)
G4 P2000     (Create Anchor)
; ------------------------------------
; Layer #0
; ------------------------------------
G21 ; mm
G90 ; abs
G92 E0 ; reset extr
M73 S0
M106 S0
;segType:Skirt
G0 F1200 E-1.0000
G0 F300 Z0.200
G0 X90.120 Y129.240 F5400
G0 F1200 E0.0000
G1 X90.522 Y129.485 E0.0196 F3000
G1 X90.845 Y129.811 E0.0387
G1 X91.167 Y129.975 E0.0537
G1 X92.456 Y130.465 E0.1110
G1 X167.544 Y130.465 E3.2328
G1 X167.705 Y130.302 E3.2424
G1 X168.027 Y130.302 E3.2557
G1 X169.236 Y129.567 E3.3145
G1 X172.136 Y126.626 E3.4862
G1 X172.378 Y126.218 E3.5060
G1 X172.539 Y125.728 E3.5274
G1 X172.780 Y125.320 E3.5472
G1 X172.780 Y75.007 E5.6389
G1 X172.458 Y74.027 E5.6818
G1 X172.217 Y73.619 E5.7015
G1 X171.895 Y73.292 E5.7206
G1 X171.653 Y72.884 E5.7403
G1 X169.397 Y70.597 E5.8739
G1 X168.188 Y69.862 E5.9327
G1 X167.866 Y69.862 E5.9461
G1 X167.705 Y69.698 E5.9556
G1 X166.738 Y69.698 E5.9958
G1 X166.577 Y69.535 E6.0054
G1 X93.745 Y69.535 E9.0334
G1 X92.054 Y69.780 E9.1044
G1 X91.570 Y69.943 E9.1256
G1 X90.361 Y70.679 E9.1845
G1 X88.105 Y72.966 E9.3180
G1 X87.864 Y73.374 E9.3377
G1 X87.542 Y73.700 E9.3568
G1 X87.381 Y74.190 E9.3782
G1 X87.220 Y74.354 E9.3878
G1 X87.220 Y74.680 E9.4014
G1 X87.058 Y74.844 E9.4109
G1 X87.058 Y125.156 E11.5027
G1 X87.220 Y125.646 E11.5241
G1 X87.381 Y125.810 E11.5336
G1 X87.381 Y126.136 E11.5472
G1 X87.622 Y126.544 E11.5669
G1 X87.944 Y126.871 E11.5860
G1 X88.186 Y127.280 E11.6058
G1 X90.120 Y129.240 E11.7202
G1 X90.281 Y129.893 E11.7482
G1 X90.845 Y130.302 E11.7772
G1 X91.167 Y130.465 E11.7922
G1 X92.456 Y130.955 E11.8495
G1 X167.544 Y130.955 E14.9713
G1 X167.705 Y130.792 E14.9808
G1 X168.027 Y130.792 E14.9942
G1 X169.236 Y130.057 E15.0530
G1 X172.458 Y126.790 E15.2438
G1 X172.942 Y125.973 E15.2833
G1 X173.103 Y125.483 E15.3047
G1 X173.264 Y125.320 E15.3143
G1 X173.264 Y75.007 E17.4060
G1 X172.942 Y74.027 E17.4489
G1 X172.700 Y73.619 E17.4686
G1 X172.378 Y73.292 E17.4877
G1 X172.136 Y72.884 E17.5074
G1 X169.558 Y70.270 E17.6601
G1 X169.155 Y70.025 E17.6797
G1 X168.833 Y69.698 E17.6987
G1 X168.350 Y69.535 E17.7200
G1 X168.188 Y69.372 E17.7295
G1 X167.866 Y69.372 E17.7429
G1 X167.705 Y69.208 E17.7524
G1 X166.738 Y69.208 E17.7926
G1 X166.577 Y69.045 E17.8022
G1 X93.745 Y69.045 E20.8302
G1 X92.054 Y69.290 E20.9012
G1 X91.570 Y69.453 E20.9224
G1 X90.361 Y70.189 E20.9813
G1 X87.783 Y72.802 E21.1339
G1 X87.542 Y73.210 E21.1536
G1 X87.220 Y73.537 E21.1727
G1 X86.736 Y74.354 E21.2122
G1 X86.736 Y74.680 E21.2257
G1 X86.575 Y74.844 E21.2353
G1 X86.575 Y125.156 E23.3270
G1 X86.736 Y125.646 E23.3485
G1 X86.897 Y125.810 E23.3580
G1 X86.897 Y126.136 E23.3716
G1 X87.139 Y126.544 E23.3913
G1 X87.461 Y126.871 E23.4104
G1 X87.703 Y127.280 E23.4301
G1 X90.281 Y129.893 E23.5828
G0 F1200 E22.5828
G0 X129.454 Y127.623 F5400
G0 X132.719 Y127.433
G0 X139.248 Y127.055
G0 X142.512 Y126.866
G0 X168.627 Y125.352
G0 F1200 E23.5828
;segType:Loop
G1 X168.297 Y125.783 E23.6053 F3000
G1 X167.625 Y126.298 E23.6405
G1 X166.842 Y126.623 E23.6758
G1 X165.952 Y126.740 E23.7131
G1 X94.049 Y126.740 E26.7025
G1 X93.158 Y126.623 E26.7398
G1 X92.375 Y126.298 E26.7751
G1 X91.703 Y125.783 E26.8103
G1 X91.189 Y125.113 E26.8454
G1 X90.866 Y124.334 E26.8804
G1 X90.750 Y123.449 E26.9175
G1 X90.750 Y76.551 E28.8674
G1 X90.866 Y75.666 E28.9045
G1 X91.189 Y74.887 E28.9395
G1 X91.703 Y74.217 E28.9746
G1 X92.375 Y73.702 E29.0098
G1 X93.158 Y73.377 E29.0451
G1 X94.049 Y73.260 E29.0824
G1 X165.952 Y73.260 E32.0718
G1 X166.842 Y73.377 E32.1091
G1 X167.625 Y73.702 E32.1444
G1 X168.297 Y74.217 E32.1796
G1 X168.811 Y74.887 E32.2147
G1 X169.134 Y75.666 E32.2497
G1 X169.250 Y76.551 E32.2868
G1 X169.250 Y123.449 E34.2366
G1 X169.134 Y124.334 E34.2737
G1 X168.811 Y125.113 E34.3088
G1 X168.776 Y125.158 E34.3112
G0 F1200 E33.3112
G0 X169.110 Y123.801 F5400
G0 F1200 E34.3112
;segType:Perimeter
G1 X169.592 Y124.536 E34.3477 F2100
G1 X169.246 Y125.371 E34.3853
G1 X168.651 Y126.147 E34.4259
G1 X167.875 Y126.742 E34.4666
G1 X166.971 Y127.117 E34.5073
G1 X165.984 Y127.247 E34.5487
G1 X94.016 Y127.247 E37.5407
G1 X93.029 Y127.117 E37.5821
G1 X92.125 Y126.742 E37.6228
G1 X91.349 Y126.147 E37.6635
G1 X90.754 Y125.371 E37.7041
G1 X90.380 Y124.468 E37.7448
G1 X90.250 Y123.483 E37.7861
G1 X90.250 Y76.517 E39.7387
G1 X90.380 Y75.532 E39.7800
G1 X90.754 Y74.629 E39.8206
G1 X91.349 Y73.853 E39.8613
G1 X92.125 Y73.258 E39.9019
G1 X93.029 Y72.883 E39.9426
G1 X94.016 Y72.753 E39.9840
G1 X165.984 Y72.753 E42.9761
G1 X166.971 Y72.883 E43.0175
G1 X167.875 Y73.258 E43.0582
G1 X168.651 Y73.853 E43.0988
G1 X169.246 Y74.629 E43.1395
G1 X169.620 Y75.532 E43.1801
G1 X169.750 Y76.517 E43.2214
G1 X169.750 Y123.483 E45.1741
G1 X169.630 Y124.395 E45.2123
G1 X168.847 Y124.782
;segType:Loop
G0 X167.361 Y125.860 F5400
G1 X166.713 Y126.128 E45.2415 F3000
G1 X165.919 Y126.233 E45.2748
G1 X94.081 Y126.233 E48.2615
G1 X93.287 Y126.128 E48.2947
G1 X92.624 Y125.854 E48.3246
G1 X92.058 Y125.419 E48.3543
G1 X91.624 Y124.854 E48.3839
G1 X91.353 Y124.200 E48.4133
G1 X91.250 Y123.416 E48.4462
G1 X91.250 Y76.584 E50.3932
G1 X91.353 Y75.800 E50.4261
G1 X91.624 Y75.146 E50.4555
G1 X92.058 Y74.582 E50.4851
G1 X92.624 Y74.146 E50.5148
G1 X93.287 Y73.872 E50.5447
G1 X94.081 Y73.767 E50.5779
G1 X165.919 Y73.767 E53.5646
G1 X166.713 Y73.872 E53.5979
G1 X167.376 Y74.146 E53.6277
G1 X167.942 Y74.582 E53.6574
G1 X168.376 Y75.146 E53.6870
G1 X168.647 Y75.800 E53.7164
G1 X168.750 Y76.584 E53.7494
G1 X168.750 Y123.416 E55.6964
G1 X168.647 Y124.200 E55.7293
G1 X168.376 Y124.854 E55.7587
G1 X167.942 Y125.419 E55.7883
G1 X167.556 Y125.715 E55.8085
;segType:HShell
G0 X166.996 Y125.737 F5400
G1 X168.276 Y124.439 E55.8843 F3000
G1 X168.482 Y123.538
G1 X166.098 Y125.954 E56.0254
G1 X165.389 Y125.979
G1 X168.500 Y122.825 E56.2096
G1 X168.500 Y122.132
G1 X164.704 Y125.979 E56.4343
G1 X164.020 Y125.979
G1 X168.500 Y121.438 E56.6996
G1 X168.500 Y120.744
G1 X163.336 Y125.979 E57.0053
G1 X162.652 Y125.979
G1 X168.500 Y120.050 E57.3515
G1 X168.500 Y119.357
G1 X161.967 Y125.979 E57.7383
G1 X161.283 Y125.979
G1 X168.500 Y118.663 E58.1656
G1 X168.500 Y117.969
G1 X160.599 Y125.979 E58.6334
G1 X159.914 Y125.979
G1 X168.500 Y117.275 E59.1417
G1 X168.500 Y116.582
G1 X159.230 Y125.979 E59.6905
G1 X158.546 Y125.979
G1 X168.500 Y115.888 E60.2798
G1 X168.500 Y115.194
G1 X157.861 Y125.979 E60.9096
G1 X157.177 Y125.979
G1 X168.500 Y114.500 E61.5800
G1 X168.500 Y113.807
G1 X156.493 Y125.979 E62.2909
G1 X155.808 Y125.979
G1 X168.500 Y113.113 E63.0422
G1 X168.500 Y112.419
G1 X155.124 Y125.979 E63.8341
G1 X154.440 Y125.979
G1 X168.500 Y111.725 E64.6665
G1 X168.500 Y111.032
G1 X153.755 Y125.979 E65.5394
G1 X153.071 Y125.979
G1 X168.500 Y110.338 E66.4529
G1 X168.500 Y109.644
G1 X152.387 Y125.979 E67.4068
G1 X151.703 Y125.979
G1 X168.500 Y108.950 E68.4013
G1 X168.500 Y108.257
G1 X151.018 Y125.979 E69.4362
G1 X150.334 Y125.979
G1 X168.500 Y107.563 E70.5117
G1 X168.500 Y106.869
G1 X149.650 Y125.979 E71.6277
G1 X148.965 Y125.979
G1 X168.500 Y106.176 E72.7842
G1 X168.500 Y105.482
G1 X148.281 Y125.979 E73.9812
G1 X147.597 Y125.979
G1 X168.500 Y104.788 E75.2188
G1 X168.500 Y104.094
G1 X146.912 Y125.979 E76.4968
G1 X146.228 Y125.979
G1 X168.500 Y103.401 E77.8154
G1 X168.500 Y102.707
G1 X145.544 Y125.979 E79.1744
G1 X144.859 Y125.979
G1 X168.500 Y102.013 E80.5740
G1 X168.500 Y101.319
G1 X144.175 Y125.979 E82.0141
G1 X143.491 Y125.979
G1 X168.500 Y100.626 E83.4948
G1 X168.500 Y99.932
G1 X142.806 Y125.979 E85.0159
G1 X142.122 Y125.979
G1 X168.500 Y99.238 E86.5775
G1 X168.500 Y98.544
G1 X141.438 Y125.979 E88.1797
G1 X140.754 Y125.979
G1 X168.500 Y97.851 E89.8223
G1 X168.500 Y97.157
G1 X140.069 Y125.979 E91.5055
G1 X139.385 Y125.979
G1 X168.500 Y96.463 E93.2292
G1 X168.500 Y95.769
G1 X138.701 Y125.979 E94.9934
G1 X138.016 Y125.979
G1 X168.500 Y95.076 E96.7981
G1 X168.500 Y94.382
G1 X137.332 Y125.979 E98.6434
G1 X136.648 Y125.979
G1 X168.500 Y93.688 E100.5291
G1 X168.500 Y92.994
G1 X135.963 Y125.979 E102.4553
G1 X135.279 Y125.979
G1 X168.500 Y92.301 E104.4221
G1 X168.500 Y91.607
G1 X134.595 Y125.979 E106.4294
G1 X133.910 Y125.979
G1 X168.500 Y90.913 E108.4772
G1 X168.500 Y90.220
G1 X133.226 Y125.979 E110.5655
G1 X132.542 Y125.979
G1 X168.500 Y89.526 E112.6943
G1 X168.500 Y88.832
G1 X131.857 Y125.979 E114.8637
G1 X131.173 Y125.979
G1 X168.500 Y88.138 E117.0735
G1 X168.500 Y87.445
G1 X130.489 Y125.979 E119.3239
G1 X129.804 Y125.979
G1 X168.500 Y86.751 E121.6147
G1 X168.500 Y86.057
G1 X129.120 Y125.979 E123.9461
G1 X128.436 Y125.979
G1 X168.500 Y85.363 E126.3180
G1 X168.500 Y84.670
G1 X127.752 Y125.979 E128.7304
G1 X127.067 Y125.979
G1 X168.500 Y83.976 E131.1834
G1 X168.500 Y83.282
G1 X126.383 Y125.979 E133.6768
G1 X125.699 Y125.979
G1 X168.500 Y82.588 E136.2107
G1 X168.500 Y81.895
G1 X125.014 Y125.979 E138.7852
G1 X124.330 Y125.979
G1 X168.500 Y81.201 E141.4002
G1 X168.500 Y80.507
G1 X123.646 Y125.979 E144.0557
G1 X122.961 Y125.979
G1 X168.500 Y79.813 E146.7517
G1 X168.500 Y79.120
G1 X122.277 Y125.979 E149.4882
G1 X121.593 Y125.979
G1 X168.500 Y78.426 E152.2652
G1 X168.500 Y77.732
G1 X120.908 Y125.979 E155.0827
G1 X120.224 Y125.979
G1 X168.500 Y77.039 E157.9408
G1 X168.470 Y76.375
G1 X119.540 Y125.979 E160.8376
G1 X118.855 Y125.979
G1 X168.369 Y75.784 E163.7689
G1 X168.166 Y75.296
G1 X118.171 Y125.979 E166.7288
G1 X117.487 Y125.979
G1 X167.871 Y74.901 E169.7116
G1 X167.513 Y74.570
G1 X116.803 Y125.979 E172.7138
G1 X116.118 Y125.979
G1 X167.093 Y74.303 E175.7317
G1 X166.597 Y74.112
G1 X115.434 Y125.979 E178.7606
G1 X114.750 Y125.979
G1 X165.991 Y74.032 E181.7943
G1 X165.318 Y74.021
G1 X114.065 Y125.979 E184.8286
G1 X113.381 Y125.979
G1 X164.634 Y74.021 E187.8629
G1 X163.950 Y74.021
G1 X112.697 Y125.979 E190.8972
G1 X112.012 Y125.979
G1 X163.265 Y74.021 E193.9315
G1 X162.581 Y74.021
G1 X111.328 Y125.979 E196.9658
G1 X110.644 Y125.979
G1 X161.897 Y74.021 E200.0001
G1 X161.212 Y74.021
G1 X109.959 Y125.979 E203.0344
G1 X109.275 Y125.979
G1 X160.528 Y74.021 E206.0687
G1 X159.844 Y74.021
G1 X108.591 Y125.979 E209.1030
G1 X107.906 Y125.979
G1 X159.159 Y74.021 E212.1373
G1 X158.475 Y74.021
G1 X107.222 Y125.979 E215.1716
G1 X106.538 Y125.979
G1 X157.791 Y74.021 E218.2059
G1 X157.106 Y74.021
G1 X105.854 Y125.979 E221.2402
G1 X105.169 Y125.979
G1 X156.422 Y74.021 E224.2745
G1 X155.738 Y74.021
G1 X104.485 Y125.979 E227.3088
G1 X103.801 Y125.979
G1 X155.053 Y74.021 E230.3431
G1 X154.369 Y74.021
G1 X103.116 Y125.979 E233.3774
G1 X102.432 Y125.979
G1 X153.685 Y74.021 E236.4117
G1 X153.000 Y74.021
G1 X101.748 Y125.979 E239.4460
G1 X101.063 Y125.979
G1 X152.316 Y74.021 E242.4803
G1 X151.632 Y74.021
G1 X100.379 Y125.979 E245.5146
G1 X99.695 Y125.979
G1 X150.948 Y74.021 E248.5488
G1 X150.263 Y74.021
G1 X99.010 Y125.979 E251.5831
G1 X98.326 Y125.979
G1 X149.579 Y74.021 E254.6174
G1 X148.895 Y74.021
G1 X97.642 Y125.979 E257.6517
G1 X96.957 Y125.979
G1 X148.210 Y74.021 E260.6860
G1 X147.526 Y74.021
G1 X96.273 Y125.979 E263.7203
G1 X95.589 Y125.979
G1 X146.842 Y74.021 E266.7547
G1 X146.157 Y74.021
G1 X94.905 Y125.979 E269.7890
G1 X94.220 Y125.979
G1 X145.473 Y74.021 E272.8233
G1 X144.789 Y74.021
G1 X93.600 Y125.914 E275.8537
G1 X93.065 Y125.763
G1 X144.104 Y74.021 E278.8754
G1 X143.420 Y74.021
G1 X92.613 Y125.527 E281.8833
G1 X92.226 Y125.226
G1 X142.736 Y74.021 E284.8735
G1 X142.051 Y74.021
G1 X91.927 Y124.836 E287.8410
G1 X91.697 Y124.375
G1 X141.367 Y74.021 E290.7817
G1 X140.683 Y74.021
G1 X91.556 Y123.824 E293.6901
G1 X91.500 Y123.187
G1 X139.999 Y74.021 E296.5614
G1 X139.314 Y74.021
G1 X91.500 Y122.493 E299.3921
G1 X91.500 Y121.800
G1 X138.630 Y74.021 E302.1823
G1 X137.946 Y74.021
G1 X91.500 Y121.106 E304.9320
G1 X91.500 Y120.412
G1 X137.261 Y74.021 E307.6412
G1 X136.577 Y74.021
G1 X91.500 Y119.719 E310.3099
G1 X91.500 Y119.025
G1 X135.893 Y74.021 E312.9380
G1 X135.208 Y74.021
G1 X91.500 Y118.331 E315.5256
G1 X91.500 Y117.637
G1 X134.524 Y74.021 E318.0728
G1 X133.840 Y74.021
G1 X91.500 Y116.944 E320.5794
G1 X91.500 Y116.250
G1 X133.155 Y74.021 E323.0455
G1 X132.471 Y74.021
G1 X91.500 Y115.556 E325.4711
G1 X91.500 Y114.862
G1 X131.787 Y74.021 E327.8562
G1 X131.102 Y74.021
G1 X91.500 Y114.169 E330.2007
G1 X91.500 Y113.475
G1 X130.418 Y74.021 E332.5048
G1 X129.734 Y74.021
G1 X91.500 Y112.781 E334.7683
G1 X91.500 Y112.087
G1 X129.050 Y74.021 E336.9913
G1 X128.365 Y74.021
G1 X91.500 Y111.394 E339.1739
G1 X91.500 Y110.700
G1 X127.681 Y74.021 E341.3159
G1 X126.997 Y74.021
G1 X91.500 Y110.006 E343.4174
G1 X91.500 Y109.312
G1 X126.312 Y74.021 E345.4783
G1 X125.628 Y74.021
G1 X91.500 Y108.619 E347.4988
G1 X91.500 Y107.925
G1 X124.944 Y74.021 E349.4788
G1 X124.259 Y74.021
G1 X91.500 Y107.231 E351.4182
G1 X91.500 Y106.537
G1 X123.575 Y74.021 E353.3171
G1 X122.891 Y74.021
G1 X91.500 Y105.844 E355.1755
G1 X91.500 Y105.150
G1 X122.206 Y74.021 E356.9934
G1 X121.522 Y74.021
G1 X91.500 Y104.456 E358.7708
G1 X91.500 Y103.763
G1 X120.838 Y74.021 E360.5077
G1 X120.153 Y74.021
G1 X91.500 Y103.069 E362.2040
G1 X91.500 Y102.375
G1 X119.469 Y74.021 E363.8599
G1 X118.785 Y74.021
G1 X91.500 Y101.681 E365.4752
G1 X91.500 Y100.988
G1 X118.101 Y74.021 E367.0500
G1 X117.416 Y74.021
G1 X91.500 Y100.294 E368.5843
G1 X91.500 Y99.600
G1 X116.732 Y74.021 E370.0781
G1 X116.048 Y74.021
G1 X91.500 Y98.906 E371.5314
G1 X91.500 Y98.213
G1 X115.363 Y74.021 E372.9442
G1 X114.679 Y74.021
G1 X91.500 Y97.519 E374.3164
G1 X91.500 Y96.825
G1 X113.995 Y74.021 E375.6482
G1 X113.310 Y74.021
G1 X91.500 Y96.131 E376.9394
G1 X91.500 Y95.438
G1 X112.626 Y74.021 E378.1901
G1 X111.942 Y74.021
G1 X91.500 Y94.744 E379.4003
G1 X91.500 Y94.050
G1 X111.257 Y74.021 E380.5700
G1 X110.573 Y74.021
G1 X91.500 Y93.356 E381.6992
G1 X91.500 Y92.663
G1 X109.889 Y74.021 E382.7878
G1 X109.204 Y74.021
G1 X91.500 Y91.969 E383.8360
G1 X91.500 Y91.275
G1 X108.520 Y74.021 E384.8436
G1 X107.836 Y74.021
G1 X91.500 Y90.581 E385.8107
G1 X91.500 Y89.888
G1 X107.152 Y74.021 E386.7373
G1 X106.467 Y74.021
G1 X91.500 Y89.194 E387.6235
G1 X91.500 Y88.500
G1 X105.783 Y74.021 E388.4690
G1 X105.099 Y74.021
G1 X91.500 Y87.807 E389.2741
G1 X91.500 Y87.113
G1 X104.414 Y74.021 E390.0387
G1 X103.730 Y74.021
G1 X91.500 Y86.419 E390.7627
G1 X91.500 Y85.725
G1 X103.046 Y74.021 E391.4463
G1 X102.361 Y74.021
G1 X91.500 Y85.032 E392.0893
G1 X91.500 Y84.338
G1 X101.677 Y74.021 E392.6918
G1 X100.993 Y74.021
G1 X91.500 Y83.644 E393.2538
G1 X91.500 Y82.950
G1 X100.308 Y74.021 E393.7753
G1 X99.624 Y74.021
G1 X91.500 Y82.257 E394.2562
G1 X91.500 Y81.563
G1 X98.940 Y74.021 E394.6967
G1 X98.255 Y74.021
G1 X91.500 Y80.869 E395.0966
G1 X91.500 Y80.175
G1 X97.571 Y74.021 E395.4560
G1 X96.887 Y74.021
G1 X91.500 Y79.482 E395.7749
G1 X91.500 Y78.788
G1 X96.203 Y74.021 E396.0534
G1 X95.518 Y74.021
G1 X91.500 Y78.094 E396.2912
G1 X91.500 Y77.400
G1 X94.834 Y74.021 E396.4886
G1 X94.150 Y74.021
G1 X91.500 Y76.707 E396.6455
G1 X91.589 Y75.922
G1 X93.371 Y74.116 E396.7510
; ------------------------------------
; Layer #1
; ------------------------------------
G21 ; mm
G90 ; abs
G92 E0 ; reset extr
M73 S0
M106 S0
;segType:Loop
G0 F1200 E-1.0000
G0 F300 Z0.400
G0 X168.627 Y125.352 F5400
G0 F1200 E0.0000
G1 X168.297 Y125.783 E0.0221 F3000
G1 X167.625 Y126.298 E0.0566
G1 X166.842 Y126.623 E0.0912
G1 X165.952 Y126.740 E0.1278
G1 X94.049 Y126.740 E3.0573
G1 X93.158 Y126.623 E3.0939
G1 X92.375 Y126.298 E3.1285
G1 X91.703 Y125.783 E3.1630
G1 X91.189 Y125.113 E3.1974
G1 X90.866 Y124.334 E3.2317
G1 X90.750 Y123.449 E3.2681
G1 X90.750 Y76.551 E5.1789
G1 X90.866 Y75.666 E5.2153
G1 X91.189 Y74.887 E5.2496
G1 X91.703 Y74.217 E5.2840
G1 X92.375 Y73.702 E5.3185
G1 X93.158 Y73.377 E5.3531
G1 X94.049 Y73.260 E5.3896
G1 X165.952 Y73.260 E8.3192
G1 X166.842 Y73.377 E8.3558
G1 X167.625 Y73.702 E8.3904
G1 X168.297 Y74.217 E8.4249
G1 X168.811 Y74.887 E8.4593
G1 X169.134 Y75.666 E8.4936
G1 X169.250 Y76.551 E8.5300
G1 X169.250 Y123.449 E10.4408
G1 X169.134 Y124.334 E10.4772
G1 X168.811 Y125.113 E10.5115
G1 X168.776 Y125.158 E10.5138
G0 F1200 E9.5138
G0 X169.110 Y123.801 F5400
G0 F1200 E10.5138
;segType:Perimeter
G1 X169.592 Y124.536 E10.5496 F2100
G1 X169.246 Y125.371 E10.5865
G1 X168.651 Y126.147 E10.6263
G1 X167.875 Y126.742 E10.6661
G1 X166.971 Y127.117 E10.7060
G1 X165.984 Y127.247 E10.7466
G1 X94.016 Y127.247 E13.6788
G1 X93.029 Y127.117 E13.7194
G1 X92.125 Y126.742 E13.7593
G1 X91.349 Y126.147 E13.7991
G1 X90.754 Y125.371 E13.8389
G1 X90.380 Y124.468 E13.8787
G1 X90.250 Y123.483 E13.9192
G1 X90.250 Y76.517 E15.8328
G1 X90.380 Y75.532 E15.8733
G1 X90.754 Y74.629 E15.9131
G1 X91.349 Y73.853 E15.9529
G1 X92.125 Y73.258 E15.9928
G1 X93.029 Y72.883 E16.0327
G1 X94.016 Y72.753 E16.0732
G1 X165.984 Y72.753 E19.0055
G1 X166.971 Y72.883 E19.0460
G1 X167.875 Y73.258 E19.0859
G1 X168.651 Y73.853 E19.1258
G1 X169.246 Y74.629 E19.1656
G1 X169.620 Y75.532 E19.2054
G1 X169.750 Y76.517 E19.2459
G1 X169.750 Y123.483 E21.1595
G1 X169.630 Y124.395 E21.1970
G1 X168.847 Y124.782
;segType:Loop
G0 X167.361 Y125.860 F5400
G1 X166.713 Y126.128 E21.2256 F3000
G1 X165.919 Y126.233 E21.2582
G1 X94.081 Y126.233 E24.1851
G1 X93.287 Y126.128 E24.2177
G1 X92.624 Y125.854 E24.2470
G1 X92.058 Y125.419 E24.2761
G1 X91.624 Y124.854 E24.3051
G1 X91.353 Y124.200 E24.3339
G1 X91.250 Y123.416 E24.3661
G1 X91.250 Y76.584 E26.2742
G1 X91.353 Y75.800 E26.3065
G1 X91.624 Y75.146 E26.3353
G1 X92.058 Y74.582 E26.3643
G1 X92.624 Y74.146 E26.3934
G1 X93.287 Y73.872 E26.4227
G1 X94.081 Y73.767 E26.4553
G1 X165.919 Y73.767 E29.3822
G1 X166.713 Y73.872 E29.4148
G1 X167.376 Y74.146 E29.4441
G1 X167.942 Y74.582 E29.4732
G1 X168.376 Y75.146 E29.5022
G1 X168.647 Y75.800 E29.5310
G1 X168.750 Y76.584 E29.5633
G1 X168.750 Y123.416 E31.4713
G1 X168.647 Y124.200 E31.5036
G1 X168.376 Y124.854 E31.5324
G1 X167.942 Y125.419 E31.5614
G1 X167.556 Y125.715 E31.5813
;segType:HShell
G0 X168.219 Y75.422 F5400
G1 X167.130 Y74.318 E31.6444 F3000
G1 X166.189 Y74.058
G1 X168.470 Y76.370 E31.7767
G1 X168.500 Y77.094
G1 X165.468 Y74.021 E31.9526
G1 X164.784 Y74.021
G1 X168.500 Y77.788 E32.1682
G1 X168.500 Y78.482
G1 X164.099 Y74.021 E32.4236
G1 X163.415 Y74.021
G1 X168.500 Y79.176 E32.7186
G1 X168.500 Y79.869
G1 X162.731 Y74.021 E33.0533
G1 X162.046 Y74.021
G1 X168.500 Y80.563 E33.4277
G1 X168.500 Y81.257
G1 X161.362 Y74.021 E33.8419
G1 X160.678 Y74.021
G1 X168.500 Y81.951 E34.2957
G1 X168.500 Y82.644
G1 X159.993 Y74.021 E34.7892
G1 X159.309 Y74.021
G1 X168.500 Y83.338 E35.3225
G1 X168.500 Y84.032
G1 X158.625 Y74.021 E35.8954
G1 X157.941 Y74.021
G1 X168.500 Y84.726 E36.5081
G1 X168.500 Y85.419
G1 X157.256 Y74.021 E37.1604
G1 X156.572 Y74.021
G1 X168.500 Y86.113 E37.8525
G1 X168.500 Y86.807
G1 X155.888 Y74.021 E38.5842
G1 X155.203 Y74.021
G1 X168.500 Y87.501 E39.3557
G1 X168.500 Y88.194
G1 X154.519 Y74.021 E40.1668
G1 X153.835 Y74.021
G1 X168.500 Y88.888 E41.0177
G1 X168.500 Y89.582
G1 X153.150 Y74.021 E41.9083
G1 X152.466 Y74.021
G1 X168.500 Y90.275 E42.8385
G1 X168.500 Y90.969
G1 X151.782 Y74.021 E43.8085
G1 X151.097 Y74.021
G1 X168.500 Y91.663 E44.8182
G1 X168.500 Y92.357
G1 X150.413 Y74.021 E45.8675
G1 X149.729 Y74.021
G1 X168.500 Y93.050 E46.9566
G1 X168.500 Y93.744
G1 X149.044 Y74.021 E48.0854
G1 X148.360 Y74.021
G1 X168.500 Y94.438 E49.2539
G1 X168.500 Y95.132
G1 X147.676 Y74.021 E50.4621
G1 X146.992 Y74.021
G1 X168.500 Y95.825 E51.7100
G1 X168.500 Y96.519
G1 X146.307 Y74.021 E52.9976
G1 X145.623 Y74.021
G1 X168.500 Y97.213 E54.3248
G1 X168.500 Y97.907
G1 X144.939 Y74.021 E55.6918
G1 X144.254 Y74.021
G1 X168.500 Y98.600 E57.0985
G1 X168.500 Y99.294
G1 X143.570 Y74.021 E58.5449
G1 X142.886 Y74.021
G1 X168.500 Y99.988 E60.0311
G1 X168.500 Y100.682
G1 X142.201 Y74.021 E61.5569
G1 X141.517 Y74.021
G1 X168.500 Y101.375 E63.1224
G1 X168.500 Y102.069
G1 X140.833 Y74.021 E64.7276
G1 X140.148 Y74.021
G1 X168.500 Y102.763 E66.3725
G1 X168.500 Y103.457
G1 X139.464 Y74.021 E68.0571
G1 X138.780 Y74.021
G1 X168.500 Y104.150 E69.7814
G1 X168.500 Y104.844
G1 X138.095 Y74.021 E71.5455
G1 X137.411 Y74.021
G1 X168.500 Y105.538 E73.3492
G1 X168.500 Y106.231
G1 X136.727 Y74.021 E75.1926
G1 X136.043 Y74.021
G1 X168.500 Y106.925 E77.0758
G1 X168.500 Y107.619
G1 X135.358 Y74.021 E78.9986
G1 X134.674 Y74.021
G1 X168.500 Y108.313 E80.9611
G1 X168.500 Y109.006
G1 X133.990 Y74.021 E82.9634
G1 X133.305 Y74.021
G1 X168.500 Y109.700 E85.0053
G1 X168.500 Y110.394
G1 X132.621 Y74.021 E87.0870
G1 X131.937 Y74.021
G1 X168.500 Y111.088 E89.2083
G1 X168.500 Y111.781
G1 X131.252 Y74.021 E91.3694
G1 X130.568 Y74.021
G1 X168.500 Y112.475 E93.5701
G1 X168.500 Y113.169
G1 X129.884 Y74.021 E95.8106
G1 X129.199 Y74.021
G1 X168.500 Y113.863 E98.0907
G1 X168.500 Y114.556
G1 X128.515 Y74.021 E100.4106
G1 X127.831 Y74.021
G1 X168.500 Y115.250 E102.7702
G1 X168.500 Y115.944
G1 X127.146 Y74.021 E105.1694
G1 X126.462 Y74.021
G1 X168.500 Y116.638 E107.6084
G1 X168.500 Y117.331
G1 X125.778 Y74.021 E110.0871
G1 X125.094 Y74.021
G1 X168.500 Y118.025 E112.6055
G1 X168.500 Y118.719
G1 X124.409 Y74.021 E115.1636
G1 X123.725 Y74.021
G1 X168.500 Y119.412 E117.7613
G1 X168.500 Y120.106
G1 X123.041 Y74.021 E120.3988
G1 X122.356 Y74.021
G1 X168.500 Y120.800 E123.0760
G1 X168.500 Y121.494
G1 X121.672 Y74.021 E125.7929
G1 X120.988 Y74.021
G1 X168.500 Y122.187 E128.5495
G1 X168.500 Y122.881
G1 X120.303 Y74.021 E131.3458
G1 X119.619 Y74.021
G1 X168.480 Y123.554 E134.1806
G1 X168.393 Y124.160
G1 X118.935 Y74.021 E137.0501
G1 X118.250 Y74.021
G1 X168.190 Y124.648 E139.9475
G1 X167.906 Y125.054
G1 X117.566 Y74.021 E142.8681
G1 X116.882 Y74.021
G1 X167.559 Y125.395 E145.8083
G1 X167.149 Y125.674
G1 X116.197 Y74.021 E148.7644
G1 X115.513 Y74.021
G1 X166.663 Y125.875 E151.7321
G1 X166.061 Y125.959
G1 X114.829 Y74.021 E154.7045
G1 X114.145 Y74.021
G1 X165.397 Y125.979 E157.6781
G1 X164.713 Y125.979
G1 X113.460 Y74.021 E160.6517
G1 X112.776 Y74.021
G1 X164.029 Y125.979 E163.6253
G1 X163.344 Y125.979
G1 X112.092 Y74.021 E166.5989
G1 X111.407 Y74.021
G1 X162.660 Y125.979 E169.5725
G1 X161.976 Y125.979
G1 X110.723 Y74.021 E172.5461
G1 X110.039 Y74.021
G1 X161.291 Y125.979 E175.5197
G1 X160.607 Y125.979
G1 X109.354 Y74.021 E178.4933
G1 X108.670 Y74.021
G1 X159.923 Y125.979 E181.4669
G1 X159.239 Y125.979
G1 X107.986 Y74.021 E184.4405
G1 X107.301 Y74.021
G1 X158.554 Y125.979 E187.4141
G1 X157.870 Y125.979
G1 X106.617 Y74.021 E190.3877
G1 X105.933 Y74.021
G1 X157.186 Y125.979 E193.3613
G1 X156.501 Y125.979
G1 X105.248 Y74.021 E196.3349
G1 X104.564 Y74.021
G1 X155.817 Y125.979 E199.3085
G1 X155.133 Y125.979
G1 X103.880 Y74.021 E202.2821
G1 X103.196 Y74.021
G1 X154.448 Y125.979 E205.2557
G1 X153.764 Y125.979
G1 X102.511 Y74.021 E208.2293
G1 X101.827 Y74.021
G1 X153.080 Y125.979 E211.2029
G1 X152.395 Y125.979
G1 X101.143 Y74.021 E214.1765
G1 X100.458 Y74.021
G1 X151.711 Y125.979 E217.1501
G1 X151.027 Y125.979
G1 X99.774 Y74.021 E220.1237
G1 X99.090 Y74.021
G1 X150.342 Y125.979 E223.0973
G1 X149.658 Y125.979
G1 X98.405 Y74.021 E226.0710
G1 X97.721 Y74.021
G1 X148.974 Y125.979 E229.0446
G1 X148.290 Y125.979
G1 X97.037 Y74.021 E232.0182
G1 X96.352 Y74.021
G1 X147.605 Y125.979 E234.9918
G1 X146.921 Y125.979
G1 X95.668 Y74.021 E237.9654
G1 X94.984 Y74.021
G1 X146.237 Y125.979 E240.9390
G1 X145.552 Y125.979
G1 X94.299 Y74.021 E243.9126
G1 X93.670 Y74.077
G1 X144.868 Y125.979 E246.8830
G1 X144.184 Y125.979
G1 X93.122 Y74.214 E249.8455
G1 X92.658 Y74.438
G1 X143.499 Y125.979 E252.7952
G1 X142.815 Y125.979
G1 X92.269 Y74.737 E255.7278
G1 X91.962 Y75.119
G1 X142.131 Y125.979 E258.6386
G1 X141.446 Y125.979
G1 X91.720 Y75.568 E261.5236
G1 X91.565 Y76.105
G1 X140.762 Y125.979 E264.3779
G1 X140.078 Y125.979
G1 X91.500 Y76.732 E267.1963
G1 X91.500 Y77.426
G1 X139.393 Y125.979 E269.9750
G1 X138.709 Y125.979
G1 X91.500 Y78.120 E272.7141
G1 X91.500 Y78.814
G1 X138.025 Y125.979 E275.4134
G1 X137.341 Y125.979
G1 X91.500 Y79.507 E278.0730
G1 X91.500 Y80.201
G1 X136.656 Y125.979 E280.6929
G1 X135.972 Y125.979
G1 X91.500 Y80.895 E283.2731
G1 X91.500 Y81.589
G1 X135.288 Y125.979 E285.8136
G1 X134.603 Y125.979
G1 X91.500 Y82.282 E288.3144
G1 X91.500 Y82.976
G1 X133.919 Y125.979 E290.7755
G1 X133.235 Y125.979
G1 X91.500 Y83.670 E293.1969
G1 X91.500 Y84.364
G1 X132.550 Y125.979 E295.5785
G1 X131.866 Y125.979
G1 X91.500 Y85.057 E297.9205
G1 X91.500 Y85.751
G1 X131.182 Y125.979 E300.2228
G1 X130.497 Y125.979
G1 X91.500 Y86.445 E302.4854
G1 X91.500 Y87.139
G1 X129.813 Y125.979 E304.7082
G1 X129.129 Y125.979
G1 X91.500 Y87.832 E306.8914
G1 X91.500 Y88.526
G1 X128.444 Y125.979 E309.0349
G1 X127.760 Y125.979
G1 X91.500 Y89.220 E311.1386
G1 X91.500 Y89.914
G1 X127.076 Y125.979 E313.2027
G1 X126.391 Y125.979
G1 X91.500 Y90.607 E315.2270
G1 X91.500 Y91.301
G1 X125.707 Y125.979 E317.2117
G1 X125.023 Y125.979
G1 X91.500 Y91.995 E319.1566
G1 X91.500 Y92.688
G1 X124.339 Y125.979 E321.0619
G1 X123.654 Y125.979
G1 X91.500 Y93.382 E322.9274
G1 X91.500 Y94.076
G1 X122.970 Y125.979 E324.7532
G1 X122.286 Y125.979
G1 X91.500 Y94.770 E326.5394
G1 X91.500 Y95.463
G1 X121.601 Y125.979 E328.2858
G1 X120.917 Y125.979
G1 X91.500 Y96.157 E329.9925
G1 X91.500 Y96.851
G1 X120.233 Y125.979 E331.6596
G1 X119.548 Y125.979
G1 X91.500 Y97.545 E333.2869
G1 X91.500 Y98.238
G1 X118.864 Y125.979 E334.8745
G1 X118.180 Y125.979
G1 X91.500 Y98.932 E336.4224
G1 X91.500 Y99.626
G1 X117.495 Y125.979 E337.9306
G1 X116.811 Y125.979
G1 X91.500 Y100.320 E339.3991
G1 X91.500 Y101.013
G1 X116.127 Y125.979 E340.8279
G1 X115.442 Y125.979
G1 X91.500 Y101.707 E342.2170
G1 X91.500 Y102.401
G1 X114.758 Y125.979 E343.5664
G1 X114.074 Y125.979
G1 X91.500 Y103.095 E344.8761
G1 X91.500 Y103.788
G1 X113.390 Y125.979 E346.1461
G1 X112.705 Y125.979
G1 X91.500 Y104.482 E347.3764
G1 X91.500 Y105.176
G1 X112.021 Y125.979 E348.5670
G1 X111.337 Y125.979
G1 X91.500 Y105.870 E349.7178
G1 X91.500 Y106.563
G1 X110.652 Y125.979 E350.8290
G1 X109.968 Y125.979
G1 X91.500 Y107.257 E351.9005
G1 X91.500 Y107.951
G1 X109.284 Y125.979 E352.9323
G1 X108.599 Y125.979
G1 X91.500 Y108.644 E353.9244
G1 X91.500 Y109.338
G1 X107.915 Y125.979 E354.8768
G1 X107.231 Y125.979
G1 X91.500 Y110.032 E355.7894
G1 X91.500 Y110.726
G1 X106.546 Y125.979 E356.6624
G1 X105.862 Y125.979
G1 X91.500 Y111.419 E357.4957
G1 X91.500 Y112.113
G1 X105.178 Y125.979 E358.2893
G1 X104.493 Y125.979
G1 X91.500 Y112.807 E359.0432
G1 X91.500 Y113.501
G1 X103.809 Y125.979 E359.7573
G1 X103.125 Y125.979
G1 X91.500 Y114.194 E360.4318
G1 X91.500 Y114.888
G1 X102.441 Y125.979 E361.0666
G1 X101.756 Y125.979
G1 X91.500 Y115.582 E361.6616
G1 X91.500 Y116.276
G1 X101.072 Y125.979 E362.2170
G1 X100.388 Y125.979
G1 X91.500 Y116.969 E362.7326
G1 X91.500 Y117.663
G1 X99.703 Y125.979 E363.2086
G1 X99.019 Y125.979
G1 X91.500 Y118.357 E363.6448
G1 X91.500 Y119.051
G1 X98.335 Y125.979 E364.0414
G1 X97.650 Y125.979
G1 X91.500 Y119.744 E364.3982
G1 X91.500 Y120.438
G1 X96.966 Y125.979 E364.7154
G1 X96.282 Y125.979
G1 X91.500 Y121.132 E364.9928
G1 X91.500 Y121.825
G1 X95.597 Y125.979 E365.2305
G1 X94.913 Y125.979
G1 X91.500 Y122.519 E365.4286
G1 X91.500 Y123.213
G1 X94.229 Y125.979 E365.5869
G1 X93.462 Y125.896
G1 X91.577 Y123.985 E365.6963
; ------------------------------------
; Layer #2
; ------------------------------------
G21 ; mm
G90 ; abs
G92 E0 ; reset extr
M73 S1
M106 S0
;segType:Loop
G0 F1200 E-1.0000
G0 F300 Z0.600
G0 X168.627 Y125.352 F5400
G0 F1200 E0.0000
G1 X168.297 Y125.783 E0.0221 F3000
G1 X167.625 Y126.298 E0.0566
G1 X166.842 Y126.623 E0.0912
G1 X165.952 Y126.740 E0.1278
G1 X94.049 Y126.740 E3.0573
G1 X93.158 Y126.623 E3.0939
G1 X92.375 Y126.298 E3.1285
G1 X91.703 Y125.783 E3.1630
G1 X91.189 Y125.113 E3.1974
G1 X90.866 Y124.334 E3.2317
G1 X90.750 Y123.449 E3.2681
G1 X90.750 Y76.551 E5.1789
G1 X90.866 Y75.666 E5.2153
G1 X91.189 Y74.887 E5.2496
G1 X91.703 Y74.217 E5.2840
G1 X92.375 Y73.702 E5.3185
G1 X93.158 Y73.377 E5.3531
G1 X94.049 Y73.260 E5.3896
G1 X165.952 Y73.260 E8.3192
G1 X166.842 Y73.377 E8.3558
G1 X167.625 Y73.702 E8.3904
G1 X168.297 Y74.217 E8.4249
G1 X168.811 Y74.887 E8.4593
G1 X169.134 Y75.666 E8.4936
G1 X169.250 Y76.551 E8.5300
G1 X169.250 Y123.449 E10.4408
G1 X169.134 Y124.334 E10.4772
G1 X168.811 Y125.113 E10.5115
G1 X168.776 Y125.158 E10.5138
G0 F1200 E9.5138
G0 X169.110 Y123.801 F5400
G0 F1200 E10.5138
;segType:Perimeter
G1 X169.592 Y124.536 E10.5496 F2100
G1 X169.246 Y125.371 E10.5865
G1 X168.651 Y126.147 E10.6263
G1 X167.875 Y126.742 E10.6661
G1 X166.971 Y127.117 E10.7060
G1 X165.984 Y127.247 E10.7466
G1 X94.016 Y127.247 E13.6788
G1 X93.029 Y127.117 E13.7194
G1 X92.125 Y126.742 E13.7593
G1 X91.349 Y126.147 E13.7991
G1 X90.754 Y125.371 E13.8389
G1 X90.380 Y124.468 E13.8787
G1 X90.250 Y123.483 E13.9192
G1 X90.250 Y76.517 E15.8328
G1 X90.380 Y75.532 E15.8733
G1 X90.754 Y74.629 E15.9131
G1 X91.349 Y73.853 E15.9529
G1 X92.125 Y73.258 E15.9928
G1 X93.029 Y72.883 E16.0327
G1 X94.016 Y72.753 E16.0732
G1 X165.984 Y72.753 E19.0055
G1 X166.971 Y72.883 E19.0460
G1 X167.875 Y73.258 E19.0859
G1 X168.651 Y73.853 E19.1258
G1 X169.246 Y74.629 E19.1656
G1 X169.620 Y75.532 E19.2054
G1 X169.750 Y76.517 E19.2459
G1 X169.750 Y123.483 E21.1595
G1 X169.630 Y124.395 E21.1970
G1 X168.847 Y124.782
;segType:Loop
G0 X167.361 Y125.860 F5400
G1 X166.713 Y126.128 E21.2256 F3000
G1 X165.919 Y126.233 E21.2582
G1 X94.081 Y126.233 E24.1851
G1 X93.287 Y126.128 E24.2177
G1 X92.624 Y125.854 E24.2470
G1 X92.058 Y125.419 E24.2761
G1 X91.624 Y124.854 E24.3051
G1 X91.353 Y124.200 E24.3339
G1 X91.250 Y123.416 E24.3661
G1 X91.250 Y76.584 E26.2742
G1 X91.353 Y75.800 E26.3065
G1 X91.624 Y75.146 E26.3353
G1 X92.058 Y74.582 E26.3643
G1 X92.624 Y74.146 E26.3934
G1 X93.287 Y73.872 E26.4227
G1 X94.081 Y73.767 E26.4553
G1 X165.919 Y73.767 E29.3822
G1 X166.713 Y73.872 E29.4148
G1 X167.376 Y74.146 E29.4441
G1 X167.942 Y74.582 E29.4732
G1 X168.376 Y75.146 E29.5022
G1 X168.647 Y75.800 E29.5310
G1 X168.750 Y76.584 E29.5633
G1 X168.750 Y123.416 E31.4713
G1 X168.647 Y124.200 E31.5036
G1 X168.376 Y124.854 E31.5324
G1 X167.942 Y125.419 E31.5614
G1 X167.556 Y125.715 E31.5813
;segType:HShell
G0 X166.996 Y125.737 F5400
G1 X168.276 Y124.439 E31.6555 F3000
G0 X93.371 Y74.116 F5400
G1 X91.589 Y75.922 E31.7589 F3000
G1 X91.500 Y76.707
G1 X94.150 Y74.021 E31.9126
G1 X94.834 Y74.021
G1 X91.500 Y77.400 E32.1061
G1 X91.500 Y78.094
G1 X95.518 Y74.021 E32.3392
G1 X96.203 Y74.021
G1 X91.500 Y78.788 E32.6120
G1 X91.500 Y79.482
G1 X96.887 Y74.021 E32.9246
G1 X97.571 Y74.021
G1 X91.500 Y80.175 E33.2768
G1 X91.500 Y80.869
G1 X98.255 Y74.021 E33.6688
G1 X98.940 Y74.021
G1 X91.500 Y81.563 E34.1004
G1 X91.500 Y82.257
G1 X99.624 Y74.021 E34.5718
G1 X100.308 Y74.021
G1 X91.500 Y82.950 E35.0828
G1 X91.500 Y83.644
G1 X100.993 Y74.021 E35.6336
G1 X101.677 Y74.021
G1 X91.500 Y84.338 E36.2240
G1 X91.500 Y85.032
G1 X102.361 Y74.021 E36.8542
G1 X103.046 Y74.021
G1 X91.500 Y85.725 E37.5240
G1 X91.500 Y86.419
G1 X103.730 Y74.021 E38.2336
G1 X104.414 Y74.021
G1 X91.500 Y87.113 E38.9829
G1 X91.500 Y87.807
G1 X105.099 Y74.021 E39.7718
G1 X105.783 Y74.021
G1 X91.500 Y88.500 E40.6005
G1 X91.500 Y89.194
G1 X106.467 Y74.021 E41.4689
G1 X107.152 Y74.021
G1 X91.500 Y89.888 E42.3770
G1 X91.500 Y90.582
G1 X107.836 Y74.021 E43.3248
G1 X108.520 Y74.021
G1 X91.500 Y91.275 E44.3122
G1 X91.500 Y91.969
G1 X109.204 Y74.021 E45.3394
G1 X109.889 Y74.021
G1 X91.500 Y92.663 E46.4063
G1 X91.500 Y93.356
G1 X110.573 Y74.021 E47.5129
G1 X111.257 Y74.021
G1 X91.500 Y94.050 E48.6592
G1 X91.500 Y94.744
G1 X111.942 Y74.021 E49.8452
G1 X112.626 Y74.021
G1 X91.500 Y95.438 E51.0709
G1 X91.500 Y96.131
G1 X113.310 Y74.021 E52.3363
G1 X113.995 Y74.021
G1 X91.500 Y96.825 E53.6414
G1 X91.500 Y97.519
G1 X114.679 Y74.021 E54.9862
G1 X115.363 Y74.021
G1 X91.500 Y98.213 E56.3707
G1 X91.500 Y98.906
G1 X116.048 Y74.021 E57.7949
G1 X116.732 Y74.021
G1 X91.500 Y99.600 E59.2589
G1 X91.500 Y100.294
G1 X117.416 Y74.021 E60.7625
G1 X118.101 Y74.021
G1 X91.500 Y100.988 E62.3058
G1 X91.500 Y101.681
G1 X118.785 Y74.021 E63.8888
G1 X119.469 Y74.021
G1 X91.500 Y102.375 E65.5116
G1 X91.500 Y103.069
G1 X120.153 Y74.021 E67.1740
G1 X120.838 Y74.021
G1 X91.500 Y103.763 E68.8761
G1 X91.500 Y104.456
G1 X121.522 Y74.021 E70.6180
G1 X122.206 Y74.021
G1 X91.500 Y105.150 E72.3995
G1 X91.500 Y105.844
G1 X122.891 Y74.021 E74.2207
G1 X123.575 Y74.021
G1 X91.500 Y106.537 E76.0817
G1 X91.500 Y107.231
G1 X124.259 Y74.021 E77.9823
G1 X124.944 Y74.021
G1 X91.500 Y107.925 E79.9227
G1 X91.500 Y108.619
G1 X125.628 Y74.021 E81.9027
G1 X126.312 Y74.021
G1 X91.500 Y109.312 E83.9225
G1 X91.500 Y110.006
G1 X126.997 Y74.021 E85.9820
G1 X127.681 Y74.021
G1 X91.500 Y110.700 E88.0811
G1 X91.500 Y111.394
G1 X128.365 Y74.021 E90.2200
G1 X129.050 Y74.021
G1 X91.500 Y112.087 E92.3985
G1 X91.500 Y112.781
G1 X129.734 Y74.021 E94.6168
G1 X130.418 Y74.021
G1 X91.500 Y113.475 E96.8748
G1 X91.500 Y114.169
G1 X131.102 Y74.021 E99.1725
G1 X131.787 Y74.021
G1 X91.500 Y114.862 E101.5098
G1 X91.500 Y115.556
G1 X132.471 Y74.021 E103.8869
G1 X133.155 Y74.021
G1 X91.500 Y116.250 E106.3037
G1 X91.500 Y116.944
G1 X133.840 Y74.021 E108.7602
G1 X134.524 Y74.021
G1 X91.500 Y117.637 E111.2564
G1 X91.500 Y118.331
G1 X135.208 Y74.021 E113.7923
G1 X135.893 Y74.021
G1 X91.500 Y119.025 E116.3679
G1 X91.500 Y119.719
G1 X136.577 Y74.021 E118.9832
G1 X137.261 Y74.021
G1 X91.500 Y120.412 E121.6382
G1 X91.500 Y121.106
G1 X137.946 Y74.021 E124.3329
G1 X138.630 Y74.021
G1 X91.500 Y121.800 E127.0673
G1 X91.500 Y122.493
G1 X139.314 Y74.021 E129.8414
G1 X139.999 Y74.021
G1 X91.500 Y123.187 E132.6552
G1 X91.556 Y123.824
G1 X140.683 Y74.021 E135.5055
G1 X141.367 Y74.021
G1 X91.697 Y124.375 E138.3872
G1 X91.927 Y124.836
G1 X142.051 Y74.021 E141.2954
G1 X142.736 Y74.021
G1 X92.226 Y125.226 E144.2259
G1 X92.613 Y125.527
G1 X143.420 Y74.021 E147.1736
G1 X144.104 Y74.021
G1 X93.065 Y125.763 E150.1348
G1 X93.600 Y125.914
G1 X144.789 Y74.021 E153.1047
G1 X145.473 Y74.021
G1 X94.220 Y125.979 E156.0783
G1 X94.905 Y125.979
G1 X146.157 Y74.021 E159.0519
G1 X146.842 Y74.021
G1 X95.589 Y125.979 E162.0255
G1 X96.273 Y125.979
G1 X147.526 Y74.021 E164.9991
G1 X148.210 Y74.021
G1 X96.957 Y125.979 E167.9727
G1 X97.642 Y125.979
G1 X148.895 Y74.021 E170.9463
G1 X149.579 Y74.021
G1 X98.326 Y125.979 E173.9199
G1 X99.010 Y125.979
G1 X150.263 Y74.021 E176.8935
G1 X150.948 Y74.021
G1 X99.695 Y125.979 E179.8671
G1 X100.379 Y125.979
G1 X151.632 Y74.021 E182.8407
G1 X152.316 Y74.021
G1 X101.063 Y125.979 E185.8143
G1 X101.748 Y125.979
G1 X153.000 Y74.021 E188.7879
G1 X153.685 Y74.021
G1 X102.432 Y125.979 E191.7615
G1 X103.116 Y125.979
G1 X154.369 Y74.021 E194.7351
G1 X155.053 Y74.021
G1 X103.801 Y125.979 E197.7087
G1 X104.485 Y125.979
G1 X155.738 Y74.021 E200.6823
G1 X156.422 Y74.021
G1 X105.169 Y125.979 E203.6559
G1 X105.854 Y125.979
G1 X157.106 Y74.021 E206.6295
G1 X157.791 Y74.021
G1 X106.538 Y125.979 E209.6031
G1 X107.222 Y125.979
G1 X158.475 Y74.021 E212.5767
G1 X159.159 Y74.021
G1 X107.906 Y125.979 E215.5504
G1 X108.591 Y125.979
G1 X159.844 Y74.021 E218.5240
G1 X160.528 Y74.021
G1 X109.275 Y125.979 E221.4976
G1 X109.959 Y125.979
G1 X161.212 Y74.021 E224.4712
G1 X161.897 Y74.021
G1 X110.644 Y125.979 E227.4448
G1 X111.328 Y125.979
G1 X162.581 Y74.021 E230.4184
G1 X163.265 Y74.021
G1 X112.012 Y125.979 E233.3920
G1 X112.697 Y125.979
G1 X163.950 Y74.021 E236.3656
G1 X164.634 Y74.021
G1 X113.381 Y125.979 E239.3392
G1 X114.065 Y125.979
G1 X165.318 Y74.021 E242.3128
G1 X165.991 Y74.032
G1 X114.750 Y125.979 E245.2857
G1 X115.434 Y125.979
G1 X166.597 Y74.112 E248.2541
G1 X167.093 Y74.303
G1 X116.118 Y125.979 E251.2116
G1 X116.803 Y125.979
G1 X167.513 Y74.570 E254.1537
G1 X167.871 Y74.901
G1 X117.487 Y125.979 E257.0769
G1 X118.171 Y125.979
G1 X168.166 Y75.296 E259.9776
G1 X168.369 Y75.784
G1 X118.855 Y125.979 E262.8503
G1 X119.540 Y125.979
G1 X168.470 Y76.375 E265.6892
G1 X168.500 Y77.039
G1 X120.224 Y125.979 E268.4901
G1 X120.908 Y125.979
G1 X168.500 Y77.732 E271.2513
G1 X168.500 Y78.426
G1 X121.593 Y125.979 E273.9728
G1 X122.277 Y125.979
G1 X168.500 Y79.120 E276.6546
G1 X168.500 Y79.813
G1 X122.961 Y125.979 E279.2966
G1 X123.646 Y125.979
G1 X168.500 Y80.507 E281.8990
G1 X168.500 Y81.201
G1 X124.330 Y125.979 E284.4617
G1 X125.014 Y125.979
G1 X168.500 Y81.895 E286.9847
G1 X168.500 Y82.588
G1 X125.699 Y125.979 E289.4680
G1 X126.383 Y125.979
G1 X168.500 Y83.282 E291.9115
G1 X168.500 Y83.976
G1 X127.067 Y125.979 E294.3154
G1 X127.752 Y125.979
G1 X168.500 Y84.670 E296.6796
G1 X168.500 Y85.363
G1 X128.436 Y125.979 E299.0040
G1 X129.120 Y125.979
G1 X168.500 Y86.057 E301.2888
G1 X168.500 Y86.751
G1 X129.804 Y125.979 E303.5339
G1 X130.489 Y125.979
G1 X168.500 Y87.445 E305.7392
G1 X168.500 Y88.138
G1 X131.173 Y125.979 E307.9049
G1 X131.857 Y125.979
G1 X168.500 Y88.832 E310.0308
G1 X168.500 Y89.526
G1 X132.542 Y125.979 E312.1170
G1 X133.226 Y125.979
G1 X168.500 Y90.220 E314.1636
G1 X168.500 Y90.913
G1 X133.910 Y125.979 E316.1704
G1 X134.595 Y125.979
G1 X168.500 Y91.607 E318.1376
G1 X168.500 Y92.301
G1 X135.279 Y125.979 E320.0650
G1 X135.963 Y125.979
G1 X168.500 Y92.995 E321.9527
G1 X168.500 Y93.688
G1 X136.648 Y125.979 E323.8007
G1 X137.332 Y125.979
G1 X168.500 Y94.382 E325.6091
G1 X168.500 Y95.076
G1 X138.016 Y125.979 E327.3777
G1 X138.701 Y125.979
G1 X168.500 Y95.769 E329.1066
G1 X168.500 Y96.463
G1 X139.385 Y125.979 E330.7958
G1 X140.069 Y125.979
G1 X168.500 Y97.157 E332.4453
G1 X168.500 Y97.851
G1 X140.754 Y125.979 E334.0551
G1 X141.438 Y125.979
G1 X168.500 Y98.544 E335.6252
G1 X168.500 Y99.238
G1 X142.122 Y125.979 E337.1556
G1 X142.806 Y125.979
G1 X168.500 Y99.932 E338.6463
G1 X168.500 Y100.626
G1 X143.491 Y125.979 E340.0973
G1 X144.175 Y125.979
G1 X168.500 Y101.319 E341.5086
G1 X168.500 Y102.013
G1 X144.859 Y125.979 E342.8801
G1 X145.544 Y125.979
G1 X168.500 Y102.707 E344.2120
G1 X168.500 Y103.401
G1 X146.228 Y125.979 E345.5042
G1 X146.912 Y125.979
G1 X168.500 Y104.094 E346.7567
G1 X168.500 Y104.788
G1 X147.597 Y125.979 E347.9694
G1 X148.281 Y125.979
G1 X168.500 Y105.482 E349.1425
G1 X168.500 Y106.176
G1 X148.965 Y125.979 E350.2759
G1 X149.650 Y125.979
G1 X168.500 Y106.869 E351.3696
G1 X168.500 Y107.563
G1 X150.334 Y125.979 E352.4236
G1 X151.018 Y125.979
G1 X168.500 Y108.257 E353.4378
G1 X168.500 Y108.950
G1 X151.703 Y125.979 E354.4124
G1 X152.387 Y125.979
G1 X168.500 Y109.644 E355.3473
G1 X168.500 Y110.338
G1 X153.071 Y125.979 E356.2425
G1 X153.755 Y125.979
G1 X168.500 Y111.032 E357.0979
G1 X168.500 Y111.725
G1 X154.440 Y125.979 E357.9137
G1 X155.124 Y125.979
G1 X168.500 Y112.419 E358.6898
G1 X168.500 Y113.113
G1 X155.808 Y125.979 E359.4261
G1 X156.493 Y125.979
G1 X168.500 Y113.807 E360.1228
G1 X168.500 Y114.500
G1 X157.177 Y125.979 E360.7797
G1 X157.861 Y125.979
G1 X168.500 Y115.194 E361.3970
G1 X168.500 Y115.888
G1 X158.546 Y125.979 E361.9745
G1 X159.230 Y125.979
G1 X168.500 Y116.582 E362.5124
G1 X168.500 Y117.275
G1 X159.914 Y125.979 E363.0105
G1 X160.599 Y125.979
G1 X168.500 Y117.969 E363.4689
G1 X168.500 Y118.663
G1 X161.283 Y125.979 E363.8877
G1 X161.967 Y125.979
G1 X168.500 Y119.357 E364.2667
G1 X168.500 Y120.050
G1 X162.652 Y125.979 E364.6060
G1 X163.336 Y125.979
G1 X168.500 Y120.744 E364.9057
G1 X168.500 Y121.438
G1 X164.020 Y125.979 E365.1656
G1 X164.704 Y125.979
G1 X168.500 Y122.132 E365.3858
G1 X168.500 Y122.825
G1 X165.389 Y125.979 E365.5663
G1 X166.098 Y125.954
G1 X168.482 Y123.538 E365.7046
; ------------------------------------
; Layer #3
; ------------------------------------
G21 ; mm
G90 ; abs
G92 E0 ; reset extr
M73 S2
M106 S255
;segType:Loop
G0 F1200 E-1.0000
G0 F300 Z0.800
G0 X168.627 Y125.352 F5400
G0 F1200 E0.0000
G1 X168.297 Y125.783 E0.0221 F3000
G1 X167.625 Y126.298 E0.0566
G1 X166.842 Y126.623 E0.0912
G1 X165.952 Y126.740 E0.1278
G1 X94.049 Y126.740 E3.0573
G1 X93.158 Y126.623 E3.0939
G1 X92.375 Y126.298 E3.1285
G1 X91.703 Y125.783 E3.1630
G1 X91.189 Y125.113 E3.1974
G1 X90.866 Y124.334 E3.2317
G1 X90.750 Y123.449 E3.2681
G1 X90.750 Y76.551 E5.1789
G1 X90.866 Y75.666 E5.2153
G1 X91.189 Y74.887 E5.2496
G1 X91.703 Y74.217 E5.2840
G1 X92.375 Y73.702 E5.3185
G1 X93.158 Y73.377 E5.3531
G1 X94.049 Y73.260 E5.3896
G1 X165.952 Y73.260 E8.3192
G1 X166.842 Y73.377 E8.3558
G1 X167.625 Y73.702 E8.3904
G1 X168.297 Y74.217 E8.4249
G1 X168.811 Y74.887 E8.4593
G1 X169.134 Y75.666 E8.4936
G1 X169.250 Y76.551 E8.5300
G1 X169.250 Y123.449 E10.4408
G1 X169.134 Y124.334 E10.4772
G1 X168.811 Y125.113 E10.5115
G1 X168.776 Y125.158 E10.5138
G0 F1200 E9.5138
G0 X169.110 Y123.801 F5400
G0 F1200 E10.5138
;segType:Perimeter
G1 X169.592 Y124.536 E10.5496 F2100
G1 X169.246 Y125.371 E10.5865
G1 X168.651 Y126.147 E10.6263
G1 X167.875 Y126.742 E10.6661
G1 X166.971 Y127.117 E10.7060
G1 X165.984 Y127.247 E10.7466
G1 X94.016 Y127.247 E13.6788
G1 X93.029 Y127.117 E13.7194
G1 X92.125 Y126.742 E13.7593
G1 X91.349 Y126.147 E13.7991
G1 X90.754 Y125.371 E13.8389
G1 X90.380 Y124.468 E13.8787
G1 X90.250 Y123.483 E13.9192
G1 X90.250 Y76.517 E15.8328
G1 X90.380 Y75.532 E15.8733
G1 X90.754 Y74.629 E15.9131
G1 X91.349 Y73.853 E15.9529
G1 X92.125 Y73.258 E15.9928
G1 X93.029 Y72.883 E16.0327
G1 X94.016 Y72.753 E16.0732
G1 X165.984 Y72.753 E19.0055
G1 X166.971 Y72.883 E19.0460
G1 X167.875 Y73.258 E19.0859
G1 X168.651 Y73.853 E19.1258
G1 X169.246 Y74.629 E19.1656
G1 X169.620 Y75.532 E19.2054
G1 X169.750 Y76.517 E19.2459
G1 X169.750 Y123.483 E21.1595
G1 X169.630 Y124.395 E21.1970
G1 X168.847 Y124.782
;segType:Loop
G0 X167.361 Y125.860 F5400
G1 X166.713 Y126.128 E21.2256 F3000
G1 X165.919 Y126.233 E21.2582
G1 X94.081 Y126.233 E24.1851
G1 X93.287 Y126.128 E24.2177
G1 X92.624 Y125.854 E24.2470
G1 X92.058 Y125.419 E24.2761
G1 X91.624 Y124.854 E24.3051
G1 X91.353 Y124.200 E24.3339
G1 X91.250 Y123.416 E24.3661
G1 X91.250 Y76.584 E26.2742
G1 X91.353 Y75.800 E26.3065
G1 X91.624 Y75.146 E26.3353
G1 X92.058 Y74.582 E26.3643
G1 X92.624 Y74.146 E26.3934
G1 X93.287 Y73.872 E26.4227
G1 X94.081 Y73.767 E26.4553
G1 X165.919 Y73.767 E29.3822
G1 X166.713 Y73.872 E29.4148
G1 X167.376 Y74.146 E29.4441
G1 X167.942 Y74.582 E29.4732
G1 X168.376 Y75.146 E29.5022
G1 X168.647 Y75.800 E29.5310
G1 X168.750 Y76.584 E29.5633
G1 X168.750 Y123.416 E31.4713
G1 X168.647 Y124.200 E31.5036
G1 X168.376 Y124.854 E31.5324
G1 X167.942 Y125.419 E31.5614
G1 X167.556 Y125.715 E31.5813
;segType:Infill
G0 X167.172 Y125.664 F5400
G1 X137.760 Y74.021 E34.0027 F3750
G1 X138.319 Y74.021 E34.0255
G1 X167.572 Y125.385 E36.4339
G0 X168.500 Y121.655 F5400
G1 X166.048 Y125.960 E36.6358 F3750
G1 X166.653 Y125.880 E36.6606
G1 X168.500 Y122.636 E36.8127
G0 X168.500 Y106.938 F5400
G1 X157.656 Y125.979 E37.7055 F3750
G0 X154.500 Y125.979 F5400
G1 X124.909 Y74.021 E40.1417 F3750
G1 X124.351 Y74.021 E40.1645
G1 X153.941 Y125.979 E42.6007
G0 X152.627 Y125.979 F5400
G1 X168.500 Y98.108 E43.9076 F3750
G0 X145.002 Y125.979 F5400
G1 X115.411 Y74.021 E46.3438 F3750
G1 X115.970 Y74.021 E46.3665
G1 X145.560 Y125.979 E48.8028
G0 X161.567 Y125.979 F5400
G1 X168.500 Y113.806 E49.3736 F3750
G0 X158.411 Y125.979 F5400
G1 X128.821 Y74.021 E51.8098 F3750
G1 X129.379 Y74.021 E51.8326
G1 X158.970 Y125.979 E54.2688
G0 X168.500 Y91.241 F5400
G1 X148.716 Y125.979 E55.8976 F3750
G1 X148.157 Y125.979 E55.9204
G1 X168.500 Y90.260 E57.5952
G0 X168.500 Y87.772 F5400
G1 X160.669 Y74.021 E58.2400 F3750
G1 X160.110 Y74.021 E58.2627
G1 X168.500 Y88.753 E58.9535
G0 X168.500 Y95.621 F5400
G1 X156.199 Y74.021 E59.9663 F3750
G1 X155.640 Y74.021 E59.9890
G1 X168.500 Y96.602 E61.0478
G0 X168.500 Y83.392 F5400
G1 X144.246 Y125.979 E63.0446 F3750
G0 X141.090 Y125.979 F5400
G1 X111.500 Y74.021 E65.4809 F3750
G1 X110.941 Y74.021 E65.5036
G1 X140.532 Y125.979 E67.9399
G1 X139.776 Y125.979 E67.9707
G1 X168.366 Y75.778 E70.3245
G1 X168.121 Y75.227 E70.3490
G1 X139.218 Y125.979 E72.7287
G0 X136.621 Y125.979 F5400
G1 X107.030 Y74.021 E75.1649 F3750
G1 X106.471 Y74.021 E75.1877
G1 X136.062 Y125.979 E77.6239
G0 X131.592 Y125.979 F5400
G1 X102.001 Y74.021 E80.0602 F3750
G1 X102.560 Y74.021 E80.0829
G1 X132.151 Y125.979 E82.5192
G0 X134.748 Y125.979 F5400
G1 X164.338 Y74.021 E84.9554 F3750
G1 X164.897 Y74.021 E84.9782
G1 X135.306 Y125.979 E87.4144
G0 X130.836 Y125.979 F5400
G1 X160.427 Y74.021 E89.8506 F3750
G1 X159.869 Y74.021 E89.8734
G1 X130.278 Y125.979 E92.3096
G0 X127.681 Y125.979 F5400
G1 X98.090 Y74.021 E94.7459 F3750
G1 X97.531 Y74.021 E94.7686
G1 X127.122 Y125.979 E97.2049
G1 X126.367 Y125.979 E97.2356
G1 X155.957 Y74.021 E99.6719
G1 X155.399 Y74.021 E99.6946
G1 X125.808 Y125.979 E102.1309
G0 X122.652 Y125.979 F5400
G1 X93.162 Y74.197 E104.5588 F3750
G1 X93.653 Y74.079 E104.5794
G1 X123.211 Y125.979 E107.0129
G0 X121.897 Y125.979 F5400
G1 X151.487 Y74.021 E109.4491 F3750
G1 X150.929 Y74.021 E109.4719
G1 X121.338 Y125.979 E111.9081
G0 X118.741 Y125.979 F5400
G1 X91.500 Y78.147 E114.1509 F3750
G0 X91.500 Y89.261 F5400
G1 X168.500 Y89.261 E117.2882 F3750
G1 X168.500 Y89.751 E117.3082
G1 X91.500 Y89.751 E120.4454
G0 X91.500 Y92.036 F5400
G1 X101.760 Y74.021 E121.2901 F3750
G1 X102.318 Y74.021 E121.3129
G1 X91.500 Y93.017 E122.2036
G1 X91.500 Y93.185 E122.2104
G1 X168.500 Y93.185 E125.3477
G1 X168.500 Y93.676 E125.3677
G1 X91.500 Y93.676 E128.5050
G1 X91.500 Y93.844 E128.5118
G1 X109.801 Y125.979 E130.0186
G0 X91.623 Y124.196 F5400
G1 X120.198 Y74.021 E132.3712 F3750
G1 X119.639 Y74.021 E132.3940
G1 X91.503 Y123.425 E134.7104
G0 X91.500 Y113.298 F5400
G1 X168.500 Y113.298 E137.8477 F3750
G1 X168.500 Y112.807 E137.8677
G1 X91.500 Y112.807 E141.0050
G0 X91.500 Y117.391 F5400
G1 X96.391 Y125.979 E141.4077 F3750
G1 X95.833 Y125.979 E141.4304
G1 X91.500 Y118.372 E141.7871
G0 X95.077 Y125.979 F5400
G1 X124.668 Y74.021 E144.2234 F3750
G1 X124.109 Y74.021 E144.2461
G1 X94.518 Y125.979 E146.6824
G0 X104.772 Y125.979 F5400
G1 X91.500 Y102.674 E147.7751 F3750
G0 X91.500 Y99.885 F5400
G1 X106.230 Y74.021 E148.9878 F3750
G1 X106.788 Y74.021 E149.0106
G1 X91.500 Y100.866 E150.2692
G1 X91.500 Y101.034 E150.2761
G1 X168.500 Y101.034 E153.4134
G1 X168.500 Y101.525 E153.4334
G1 X91.500 Y101.525 E156.5706
G0 X103.458 Y125.979 F5400
G1 X133.049 Y74.021 E159.0069 F3750
G1 X133.608 Y74.021 E159.0296
G1 X104.017 Y125.979 E161.4659
G0 X100.303 Y125.979 F5400
G1 X91.500 Y110.523 E162.1906 F3750
G0 X91.500 Y107.733 F5400
G1 X110.700 Y74.021 E163.7713 F3750
G1 X111.258 Y74.021 E163.7941
G1 X91.500 Y108.714 E165.4208
G0 X105.331 Y125.979 F5400
G1 X91.500 Y101.693 E166.5595 F3750
G0 X91.500 Y109.542 F5400
G1 X100.861 Y125.979 E167.3302 F3750
G0 X91.500 Y120.656 F5400
G1 X168.500 Y120.656 E170.4675 F3750
G1 X168.500 Y121.147 E170.4875
G1 X91.500 Y121.147 E173.6247
G0 X91.500 Y115.582 F5400
G1 X115.169 Y74.021 E175.5735 F3750
G1 X115.728 Y74.021 E175.5962
G1 X91.500 Y116.563 E177.5909
G0 X92.108 Y125.071 F5400
G1 X167.892 Y125.071 E180.6787 F3750
G1 X168.218 Y124.580 E180.7027
G1 X91.782 Y124.580 E183.8170
G0 X91.500 Y116.732 F5400
G1 X168.500 Y116.732 E186.9542 F3750
G1 X168.500 Y117.222 E186.9742
G1 X91.500 Y117.222 E190.1115
G0 X98.988 Y125.979 F5400
G1 X128.579 Y74.021 E192.5477 F3750
G1 X129.138 Y74.021 E192.5705
G1 X99.547 Y125.979 E195.0067
G0 X91.500 Y109.373 F5400
G1 X168.500 Y109.373 E198.1440 F3750
G1 X168.500 Y108.883 E198.1640
G1 X91.500 Y108.883 E201.3012
G0 X91.500 Y105.449 F5400
G1 X168.500 Y105.449 E204.4385 F3750
G1 X168.500 Y104.958 E204.4585
G1 X91.500 Y104.958 E207.5958
G0 X91.500 Y97.110 F5400
G1 X168.500 Y97.110 E210.7330 F3750
G1 X168.500 Y97.600 E210.7530
G1 X91.500 Y97.600 E213.8903
G0 X91.500 Y94.825 F5400
G1 X109.242 Y125.979 E215.3510 F3750
G1 X108.487 Y125.979 E215.3818
G1 X138.078 Y74.021 E217.8181
G1 X137.519 Y74.021 E217.8408
G1 X107.928 Y125.979 E220.2771
G0 X112.398 Y125.979 F5400
G1 X141.989 Y74.021 E222.7133 F3750
G1 X142.548 Y74.021 E222.7361
G1 X112.957 Y125.979 E225.1723
G1 X113.712 Y125.979 E225.2031
G1 X91.500 Y86.977 E227.0318
G1 X91.500 Y85.996 E227.0718
G1 X114.271 Y125.979 E228.9465
G0 X117.427 Y125.979 F5400
G1 X147.018 Y74.021 E231.3828 F3750
G1 X146.459 Y74.021 E231.4055
G1 X116.868 Y125.979 E233.8418
G0 X118.182 Y125.979 F5400
G1 X91.500 Y79.128 E236.0385 F3750
G0 X91.500 Y77.488 F5400
G1 X168.500 Y77.488 E239.1758 F3750
G1 X168.500 Y77.978 E239.1958
G1 X91.500 Y77.978 E242.3331
G0 X91.500 Y84.187 F5400
G1 X97.290 Y74.021 E242.8098 F3750
G1 X97.848 Y74.021 E242.8325
G1 X91.500 Y85.168 E243.3552
G1 X91.500 Y85.827 E243.3820
G1 X168.500 Y85.827 E246.5193
G1 X168.500 Y85.337 E246.5393
G1 X91.500 Y85.337 E249.6766
G0 X91.500 Y81.903 F5400
G1 X168.500 Y81.903 E252.8138 F3750
G1 X168.500 Y81.412 E252.8338
G1 X91.500 Y81.412 E255.9711
G0 X92.523 Y74.542 F5400
G1 X91.545 Y76.259 E256.0516 F3750
G1 X91.500 Y77.319 E256.0949
G1 X93.314 Y74.134 E256.2442
G1 X93.843 Y74.054 E256.2660
G1 X166.157 Y74.054 E259.2124
G0 X168.500 Y79.923 F5400
G1 X165.139 Y74.021 E259.4891 F3750
G1 X164.580 Y74.021 E259.5119
G1 X168.500 Y80.904 E259.8346
G0 X168.500 Y82.411 F5400
G1 X143.687 Y125.979 E261.8775 F3750
G0 X153.186 Y125.979 F5400
G1 X168.500 Y99.089 E263.1383 F3750
G0 X168.500 Y104.450 F5400
G1 X151.170 Y74.021 E264.5651 F3750
G1 X151.729 Y74.021 E264.5878
G1 X168.500 Y103.469 E265.9686
G0 X157.097 Y125.979 F5400
G1 X168.500 Y105.957 E266.9074 F3750
G0 X168.500 Y120.148 F5400
G1 X142.230 Y74.021 E269.0702 F3750
G1 X142.789 Y74.021 E269.0930
G1 X168.500 Y119.167 E271.2098
G0 X168.500 Y111.318 F5400
G1 X147.259 Y74.021 E272.9586 F3750
G1 X146.700 Y74.021 E272.9813
G1 X168.500 Y112.299 E274.7761
G0 X168.500 Y114.787 F5400
G1 X162.126 Y125.979 E275.3009 F3750
G0 X150.030 Y125.979 F5400
G1 X120.439 Y74.021 E277.7371 F3750
G1 X119.881 Y74.021 E277.7599
G1 X149.472 Y125.979 E280.1961
G0 X163.440 Y125.979 F5400
G1 X133.849 Y74.021 E282.6323 F3750
G1 X133.290 Y74.021 E282.6551
G1 X162.881 Y125.979 E285.0913
; ------------------------------------
; Layer #4
; ------------------------------------
G21 ; mm
G90 ; abs
G92 E0 ; reset extr
M73 S2
M106 S255
;segType:Loop
G0 F1200 E-1.0000
G0 F300 Z1.000
G0 X168.627 Y125.352 F5400
G0 F1200 E0.0000
G1 X168.297 Y125.783 E0.0221 F3000
G1 X167.625 Y126.298 E0.0566
G1 X166.842 Y126.623 E0.0912
G1 X165.952 Y126.740 E0.1278
G1 X94.049 Y126.740 E3.0573
G1 X93.158 Y126.623 E3.0939
G1 X92.375 Y126.298 E3.1285
G1 X91.703 Y125.783 E3.1630
G1 X91.189 Y125.113 E3.1974
G1 X90.866 Y124.334 E3.2317
G1 X90.750 Y123.449 E3.2681
G1 X90.750 Y76.551 E5.1789
G1 X90.866 Y75.666 E5.2153
G1 X91.189 Y74.887 E5.2496
G1 X91.703 Y74.217 E5.2840
G1 X92.375 Y73.702 E5.3185
G1 X93.158 Y73.377 E5.3531
G1 X94.049 Y73.260 E5.3896
G1 X165.952 Y73.260 E8.3192
G1 X166.842 Y73.377 E8.3558
G1 X167.625 Y73.702 E8.3904
G1 X168.297 Y74.217 E8.4249
G1 X168.811 Y74.887 E8.4593
G1 X169.134 Y75.666 E8.4936
G1 X169.250 Y76.551 E8.5300
G1 X169.250 Y123.449 E10.4408
G1 X169.134 Y124.334 E10.4772
G1 X168.811 Y125.113 E10.5115
G1 X168.776 Y125.158 E10.5138
G0 F1200 E9.5138
G0 X169.110 Y123.801 F5400
G0 F1200 E10.5138
;segType:Perimeter
G1 X169.592 Y124.536 E10.5496 F2100
G1 X169.246 Y125.371 E10.5865
G1 X168.651 Y126.147 E10.6263
G1 X167.875 Y126.742 E10.6661
G1 X166.971 Y127.117 E10.7060
G1 X165.984 Y127.247 E10.7466
G1 X94.016 Y127.247 E13.6788
G1 X93.029 Y127.117 E13.7194
G1 X92.125 Y126.742 E13.7593
G1 X91.349 Y126.147 E13.7991
G1 X90.754 Y125.371 E13.8389
G1 X90.380 Y124.468 E13.8787
G1 X90.250 Y123.483 E13.9192
G1 X90.250 Y76.517 E15.8328
G1 X90.380 Y75.532 E15.8733
G1 X90.754 Y74.629 E15.9131
G1 X91.349 Y73.853 E15.9529
G1 X92.125 Y73.258 E15.9928
G1 X93.029 Y72.883 E16.0327
G1 X94.016 Y72.753 E16.0732
G1 X165.984 Y72.753 E19.0055
G1 X166.971 Y72.883 E19.0460
G1 X167.875 Y73.258 E19.0859
G1 X168.651 Y73.853 E19.1258
G1 X169.246 Y74.629 E19.1656
G1 X169.620 Y75.532 E19.2054
G1 X169.750 Y76.517 E19.2459
G1 X169.750 Y123.483 E21.1595
G1 X169.630 Y124.395 E21.1970
G1 X168.847 Y124.782
;segType:Loop
G0 X167.361 Y125.860 F5400
G1 X166.713 Y126.128 E21.2256 F3000
G1 X165.919 Y126.233 E21.2582
G1 X94.081 Y126.233 E24.1851
G1 X93.287 Y126.128 E24.2177
G1 X92.624 Y125.854 E24.2470
G1 X92.058 Y125.419 E24.2761
G1 X91.624 Y124.854 E24.3051
G1 X91.353 Y124.200 E24.3339
G1 X91.250 Y123.416 E24.3661
G1 X91.250 Y76.584 E26.2742
G1 X91.353 Y75.800 E26.3065
G1 X91.624 Y75.146 E26.3353
G1 X92.058 Y74.582 E26.3643
G1 X92.624 Y74.146 E26.3934
G1 X93.287 Y73.872 E26.4227
G1 X94.081 Y73.767 E26.4553
G1 X165.919 Y73.767 E29.3822
G1 X166.713 Y73.872 E29.4148
G1 X167.376 Y74.146 E29.4441
G1 X167.942 Y74.582 E29.4732
G1 X168.376 Y75.146 E29.5022
G1 X168.647 Y75.800 E29.5310
G1 X168.750 Y76.584 E29.5633
G1 X168.750 Y123.416 E31.4713
G1 X168.647 Y124.200 E31.5036
G1 X168.376 Y124.854 E31.5324
G1 X167.942 Y125.419 E31.5614
G1 X167.556 Y125.715 E31.5813
;segType:Infill
G0 X167.172 Y125.664 F5400
G1 X137.760 Y74.021 E34.0027 F3750
G1 X138.319 Y74.021 E34.0255
G1 X167.572 Y125.385 E36.4339
G0 X168.500 Y121.655 F5400
G1 X166.048 Y125.960 E36.6358 F3750
G1 X166.653 Y125.880 E36.6606
G1 X168.500 Y122.636 E36.8127
G0 X168.500 Y106.938 F5400
G1 X157.656 Y125.979 E37.7055 F3750
G0 X154.500 Y125.979 F5400
G1 X124.909 Y74.021 E40.1417 F3750
G1 X124.351 Y74.021 E40.1645
G1 X153.941 Y125.979 E42.6007
G0 X152.627 Y125.979 F5400
G1 X168.500 Y98.108 E43.9076 F3750
G0 X145.002 Y125.979 F5400
G1 X115.411 Y74.021 E46.3438 F3750
G1 X115.970 Y74.021 E46.3665
G1 X145.560 Y125.979 E48.8028
G0 X161.567 Y125.979 F5400
G1 X168.500 Y113.806 E49.3736 F3750
G0 X158.411 Y125.979 F5400
G1 X128.821 Y74.021 E51.8098 F3750
G1 X129.379 Y74.021 E51.8326
G1 X158.970 Y125.979 E54.2688
G0 X168.500 Y91.241 F5400
G1 X148.716 Y125.979 E55.8976 F3750
G1 X148.157 Y125.979 E55.9204
G1 X168.500 Y90.260 E57.5952
G0 X168.500 Y87.772 F5400
G1 X160.669 Y74.021 E58.2400 F3750
G1 X160.110 Y74.021 E58.2627
G1 X168.500 Y88.753 E58.9535
G0 X168.500 Y95.621 F5400
G1 X156.199 Y74.021 E59.9663 F3750
G1 X155.640 Y74.021 E59.9890
G1 X168.500 Y96.602 E61.0478
G0 X168.500 Y83.392 F5400
G1 X144.246 Y125.979 E63.0446 F3750
G0 X141.090 Y125.979 F5400
G1 X111.500 Y74.021 E65.4809 F3750
G1 X110.941 Y74.021 E65.5036
G1 X140.532 Y125.979 E67.9399
G1 X139.776 Y125.979 E67.9707
G1 X168.366 Y75.778 E70.3245
G1 X168.121 Y75.227 E70.3490
G1 X139.218 Y125.979 E72.7287
G0 X136.621 Y125.979 F5400
G1 X107.030 Y74.021 E75.1649 F3750
G1 X106.471 Y74.021 E75.1877
G1 X136.062 Y125.979 E77.6239
G0 X131.592 Y125.979 F5400
G1 X102.001 Y74.021 E80.0602 F3750
G1 X102.560 Y74.021 E80.0829
G1 X132.151 Y125.979 E82.5192
G0 X134.748 Y125.979 F5400
G1 X164.338 Y74.021 E84.9554 F3750
G1 X164.897 Y74.021 E84.9782
G1 X135.306 Y125.979 E87.4144
G0 X130.836 Y125.979 F5400
G1 X160.427 Y74.021 E89.8506 F3750
G1 X159.869 Y74.021 E89.8734
G1 X130.278 Y125.979 E92.3096
G0 X127.681 Y125.979 F5400
G1 X98.090 Y74.021 E94.7459 F3750
G1 X97.531 Y74.021 E94.7686
G1 X127.122 Y125.979 E97.2049
G1 X126.367 Y125.979 E97.2356
G1 X155.957 Y74.021 E99.6719
G1 X155.399 Y74.021 E99.6946
G1 X125.808 Y125.979 E102.1309
G0 X122.652 Y125.979 F5400
G1 X93.162 Y74.197 E104.5588 F3750
G1 X93.653 Y74.079 E104.5794
G1 X123.211 Y125.979 E107.0129
G0 X121.897 Y125.979 F5400
G1 X151.487 Y74.021 E109.4491 F3750
G1 X150.929 Y74.021 E109.4719
G1 X121.338 Y125.979 E111.9081
G0 X118.741 Y125.979 F5400
G1 X91.500 Y78.147 E114.1509 F3750
G0 X91.500 Y89.261 F5400
G1 X168.500 Y89.261 E117.2882 F3750
G1 X168.500 Y89.751 E117.3082
G1 X91.500 Y89.751 E120.4454
G0 X91.500 Y92.036 F5400
G1 X101.760 Y74.021 E121.2901 F3750
G1 X102.318 Y74.021 E121.3129
G1 X91.500 Y93.017 E122.2036
G1 X91.500 Y93.185 E122.2104
G1 X168.500 Y93.185 E125.3477
G1 X168.500 Y93.676 E125.3677
G1 X91.500 Y93.676 E128.5050
G1 X91.500 Y93.844 E128.5118
G1 X109.801 Y125.979 E130.0186
G0 X91.623 Y124.196 F5400
G1 X120.198 Y74.021 E132.3712 F3750
G1 X119.639 Y74.021 E132.3940
G1 X91.503 Y123.425 E134.7104
G0 X91.500 Y113.298 F5400
G1 X168.500 Y113.298 E137.8477 F3750
G1 X168.500 Y112.807 E137.8677
G1 X91.500 Y112.807 E141.0050
G0 X91.500 Y117.391 F5400
G1 X96.391 Y125.979 E141.4077 F3750
G1 X95.833 Y125.979 E141.4304
G1 X91.500 Y118.372 E141.7871
G0 X95.077 Y125.979 F5400
G1 X124.668 Y74.021 E144.2234 F3750
G1 X124.109 Y74.021 E144.2461
G1 X94.518 Y125.979 E146.6824
G0 X104.772 Y125.979 F5400
G1 X91.500 Y102.674 E147.7751 F3750
G0 X91.500 Y99.885 F5400
G1 X106.230 Y74.021 E148.9878 F3750
G1 X106.788 Y74.021 E149.0106
G1 X91.500 Y100.866 E150.2692
G1 X91.500 Y101.034 E150.2761
G1 X168.500 Y101.034 E153.4134
G1 X168.500 Y101.525 E153.4334
G1 X91.500 Y101.525 E156.5706
G0 X103.458 Y125.979 F5400
G1 X133.049 Y74.021 E159.0069 F3750
G1 X133.608 Y74.021 E159.0296
G1 X104.017 Y125.979 E161.4659
G0 X100.303 Y125.979 F5400
G1 X91.500 Y110.523 E162.1906 F3750
G0 X91.500 Y107.733 F5400
G1 X110.700 Y74.021 E163.7713 F3750
G1 X111.258 Y74.021 E163.7941
G1 X91.500 Y108.714 E165.4208
G0 X105.331 Y125.979 F5400
G1 X91.500 Y101.693 E166.5595 F3750
G0 X91.500 Y109.542 F5400
G1 X100.861 Y125.979 E167.3302 F3750
G0 X91.500 Y120.656 F5400
G1 X168.500 Y120.656 E170.4675 F3750
G1 X168.500 Y121.147 E170.4875
G1 X91.500 Y121.147 E173.6247
G0 X91.500 Y115.582 F5400
G1 X115.169 Y74.021 E175.5735 F3750
G1 X115.728 Y74.021 E175.5962
G1 X91.500 Y116.563 E177.5909
G0 X92.108 Y125.071 F5400
G1 X167.892 Y125.071 E180.6787 F3750
G1 X168.218 Y124.580 E180.7027
G1 X91.782 Y124.580 E183.8170
G0 X91.500 Y116.732 F5400
G1 X168.500 Y116.732 E186.9542 F3750
G1 X168.500 Y117.222 E186.9742
G1 X91.500 Y117.222 E190.1115
G0 X98.988 Y125.979 F5400
G1 X128.579 Y74.021 E192.5477 F3750
G1 X129.138 Y74.021 E192.5705
G1 X99.547 Y125.979 E195.0067
G0 X91.500 Y109.373 F5400
G1 X168.500 Y109.373 E198.1440 F3750
G1 X168.500 Y108.883 E198.1640
G1 X91.500 Y108.883 E201.3012
G0 X91.500 Y105.449 F5400
G1 X168.500 Y105.449 E204.4385 F3750
G1 X168.500 Y104.958 E204.4585
G1 X91.500 Y104.958 E207.5958
G0 X91.500 Y97.110 F5400
G1 X168.500 Y97.110 E210.7330 F3750
G1 X168.500 Y97.600 E210.7530
G1 X91.500 Y97.600 E213.8903
G0 X91.500 Y94.825 F5400
G1 X109.242 Y125.979 E215.3510 F3750
G1 X108.487 Y125.979 E215.3818
G1 X138.078 Y74.021 E217.8181
G1 X137.519 Y74.021 E217.8408
G1 X107.928 Y125.979 E220.2771
G0 X112.398 Y125.979 F5400
G1 X141.989 Y74.021 E222.7133 F3750
G1 X142.548 Y74.021 E222.7361
G1 X112.957 Y125.979 E225.1723
G1 X113.712 Y125.979 E225.2031
G1 X91.500 Y86.977 E227.0318
G1 X91.500 Y85.996 E227.0718
G1 X114.271 Y125.979 E228.9465
G0 X117.427 Y125.979 F5400
G1 X147.018 Y74.021 E231.3828 F3750
G1 X146.459 Y74.021 E231.4055
G1 X116.868 Y125.979 E233.8418
G0 X118.182 Y125.979 F5400
G1 X91.500 Y79.128 E236.0385 F3750
G0 X91.500 Y77.488 F5400
G1 X168.500 Y77.488 E239.1758 F3750
G1 X168.500 Y77.978 E239.1958
G1 X91.500 Y77.978 E242.3331
G0 X91.500 Y84.187 F5400
G1 X97.290 Y74.021 E242.8098 F3750
G1 X97.848 Y74.021 E242.8325
G1 X91.500 Y85.168 E243.3552
G1 X91.500 Y85.827 E243.3820
G1 X168.500 Y85.827 E246.5193
G1 X168.500 Y85.337 E246.5393
G1 X91.500 Y85.337 E249.6766
G0 X91.500 Y81.903 F5400
G1 X168.500 Y81.903 E252.8138 F3750
G1 X168.500 Y81.412 E252.8338
G1 X91.500 Y81.412 E255.9711
G0 X92.523 Y74.542 F5400
G1 X91.545 Y76.259 E256.0516 F3750
G1 X91.500 Y77.319 E256.0949
G1 X93.314 Y74.134 E256.2442
G1 X93.843 Y74.054 E256.2660
G1 X166.157 Y74.054 E259.2124
G0 X168.500 Y79.923 F5400
G1 X165.139 Y74.021 E259.4891 F3750
G1 X164.580 Y74.021 E259.5119
G1 X168.500 Y80.904 E259.8346
G0 X168.500 Y82.411 F5400
G1 X143.687 Y125.979 E261.8775 F3750
G0 X153.186 Y125.979 F5400
G1 X168.500 Y99.089 E263.1383 F3750
G0 X168.500 Y104.450 F5400
G1 X151.170 Y74.021 E264.5651 F3750
G1 X151.729 Y74.021 E264.5878
G1 X168.500 Y103.469 E265.9686
G0 X157.097 Y125.979 F5400
G1 X168.500 Y105.957 E266.9074 F3750
G0 X168.500 Y120.148 F5400
G1 X142.230 Y74.021 E269.0702 F3750
G1 X142.789 Y74.021 E269.0930
G1 X168.500 Y119.167 E271.2098
G0 X168.500 Y111.318 F5400
G1 X147.259 Y74.021 E272.9586 F3750
G1 X146.700 Y74.021 E272.9813
G1 X168.500 Y112.299 E274.7761
G0 X168.500 Y114.787 F5400
G1 X162.126 Y125.979 E275.3009 F3750
G0 X150.030 Y125.979 F5400
G1 X120.439 Y74.021 E277.7371 F3750
G1 X119.881 Y74.021 E277.7599
G1 X149.472 Y125.979 E280.1961
G0 X163.440 Y125.979 F5400
G1 X133.849 Y74.021 E282.6323 F3750
G1 X133.290 Y74.021 E282.6551
G1 X162.881 Y125.979 E285.0913
; ------------------------------------
; Layer #5
; ------------------------------------
G21 ; mm
G90 ; abs
G92 E0 ; reset extr
M73 S3
M106 S255
;segType:Loop
G0 F1200 E-1.0000
G0 F300 Z1.200
G0 X168.627 Y125.352 F5400
G0 F1200 E0.0000
G1 X168.297 Y125.783 E0.0221 F3000
G1 X167.625 Y126.298 E0.0566
G1 X166.842 Y126.623 E0.0912
G1 X165.952 Y126.740 E0.1278
G1 X94.049 Y126.740 E3.0573
G1 X93.158 Y126.623 E3.0939
G1 X92.375 Y126.298 E3.1285
G1 X91.703 Y125.783 E3.1630
G1 X91.189 Y125.113 E3.1974
G1 X90.866 Y124.334 E3.2317
G1 X90.750 Y123.449 E3.2681
G1 X90.750 Y76.551 E5.1789
G1 X90.866 Y75.666 E5.2153
G1 X91.189 Y74.887 E5.2496
G1 X91.703 Y74.217 E5.2840
G1 X92.375 Y73.702 E5.3185
G1 X93.158 Y73.377 E5.3531
G1 X94.049 Y73.260 E5.3896
G1 X165.952 Y73.260 E8.3192
G1 X166.842 Y73.377 E8.3558
G1 X167.625 Y73.702 E8.3904
G1 X168.297 Y74.217 E8.4249
G1 X168.811 Y74.887 E8.4593
G1 X169.134 Y75.666 E8.4936
G1 X169.250 Y76.551 E8.5300
G1 X169.250 Y123.449 E10.4408
G1 X169.134 Y124.334 E10.4772
G1 X168.811 Y125.113 E10.5115
G1 X168.776 Y125.158 E10.5138
G0 F1200 E9.5138
G0 X169.110 Y123.801 F5400
G0 F1200 E10.5138
;segType:Perimeter
G1 X169.592 Y124.536 E10.5496 F2100
G1 X169.246 Y125.371 E10.5865
G1 X168.651 Y126.147 E10.6263
G1 X167.875 Y126.742 E10.6661
G1 X166.971 Y127.117 E10.7060
G1 X165.984 Y127.247 E10.7466
G1 X94.016 Y127.247 E13.6788
G1 X93.029 Y127.117 E13.7194
G1 X92.125 Y126.742 E13.7593
G1 X91.349 Y126.147 E13.7991
G1 X90.754 Y125.371 E13.8389
G1 X90.380 Y124.468 E13.8787
G1 X90.250 Y123.483 E13.9192
G1 X90.250 Y76.517 E15.8328
G1 X90.380 Y75.532 E15.8733
G1 X90.754 Y74.629 E15.9131
G1 X91.349 Y73.853 E15.9529
G1 X92.125 Y73.258 E15.9928
G1 X93.029 Y72.883 E16.0327
G1 X94.016 Y72.753 E16.0732
G1 X165.984 Y72.753 E19.0055
G1 X166.971 Y72.883 E19.0460
G1 X167.875 Y73.258 E19.0859
G1 X168.651 Y73.853 E19.1258
G1 X169.246 Y74.629 E19.1656
G1 X169.620 Y75.532 E19.2054
G1 X169.750 Y76.517 E19.2459
G1 X169.750 Y123.483 E21.1595
G1 X169.630 Y124.395 E21.1970
G1 X168.847 Y124.782
;segType:Loop
G0 X167.361 Y125.860 F5400
G1 X166.713 Y126.128 E21.2256 F3000
G1 X165.919 Y126.233 E21.2582
G1 X94.081 Y126.233 E24.1851
G1 X93.287 Y126.128 E24.2177
G1 X92.624 Y125.854 E24.2470
G1 X92.058 Y125.419 E24.2761
G1 X91.624 Y124.854 E24.3051
G1 X91.353 Y124.200 E24.3339
G1 X91.250 Y123.416 E24.3661
G1 X91.250 Y76.584 E26.2742
G1 X91.353 Y75.800 E26.3065
G1 X91.624 Y75.146 E26.3353
G1 X92.058 Y74.582 E26.3643
G1 X92.624 Y74.146 E26.3934
G1 X93.287 Y73.872 E26.4227
G1 X94.081 Y73.767 E26.4553
G1 X165.919 Y73.767 E29.3822
G1 X166.713 Y73.872 E29.4148
G1 X167.376 Y74.146 E29.4441
G1 X167.942 Y74.582 E29.4732
G1 X168.376 Y75.146 E29.5022
G1 X168.647 Y75.800 E29.5310
G1 X168.750 Y76.584 E29.5633
G1 X168.750 Y123.416 E31.4713
G1 X168.647 Y124.200 E31.5036
G1 X168.376 Y124.854 E31.5324
G1 X167.942 Y125.419 E31.5614
G1 X167.556 Y125.715 E31.5813
;segType:Infill
G0 X167.172 Y125.664 F5400
G1 X137.760 Y74.021 E34.0027 F3750
G1 X138.319 Y74.021 E34.0255
G1 X167.572 Y125.385 E36.4339
G0 X168.500 Y121.655 F5400
G1 X166.048 Y125.960 E36.6358 F3750
G1 X166.653 Y125.880 E36.6606
G1 X168.500 Y122.636 E36.8127
G0 X168.500 Y106.938 F5400
G1 X157.656 Y125.979 E37.7055 F3750
G0 X154.500 Y125.979 F5400
G1 X124.909 Y74.021 E40.1417 F3750
G1 X124.351 Y74.021 E40.1645
G1 X153.941 Y125.979 E42.6007
G0 X152.627 Y125.979 F5400
G1 X168.500 Y98.108 E43.9076 F3750
G0 X145.002 Y125.979 F5400
G1 X115.411 Y74.021 E46.3438 F3750
G1 X115.970 Y74.021 E46.3665
G1 X145.560 Y125.979 E48.8028
G0 X161.567 Y125.979 F5400
G1 X168.500 Y113.806 E49.3736 F3750
G0 X158.411 Y125.979 F5400
G1 X128.821 Y74.021 E51.8098 F3750
G1 X129.379 Y74.021 E51.8326
G1 X158.970 Y125.979 E54.2688
G0 X168.500 Y91.241 F5400
G1 X148.716 Y125.979 E55.8976 F3750
G1 X148.157 Y125.979 E55.9204
G1 X168.500 Y90.260 E57.5952
G0 X168.500 Y87.772 F5400
G1 X160.669 Y74.021 E58.2400 F3750
G1 X160.110 Y74.021 E58.2627
G1 X168.500 Y88.753 E58.9535
G0 X168.500 Y95.621 F5400
G1 X156.199 Y74.021 E59.9663 F3750
G1 X155.640 Y74.021 E59.9890
G1 X168.500 Y96.602 E61.0478
G0 X168.500 Y83.392 F5400
G1 X144.246 Y125.979 E63.0446 F3750
G0 X141.090 Y125.979 F5400
G1 X111.500 Y74.021 E65.4809 F3750
G1 X110.941 Y74.021 E65.5036
G1 X140.532 Y125.979 E67.9399
G1 X139.776 Y125.979 E67.9707
G1 X168.366 Y75.778 E70.3245
G1 X168.121 Y75.227 E70.3490
G1 X139.218 Y125.979 E72.7287
G0 X136.621 Y125.979 F5400
G1 X107.030 Y74.021 E75.1649 F3750
G1 X106.471 Y74.021 E75.1877
G1 X136.062 Y125.979 E77.6239
G0 X131.592 Y125.979 F5400
G1 X102.001 Y74.021 E80.0602 F3750
G1 X102.560 Y74.021 E80.0829
G1 X132.151 Y125.979 E82.5192
G0 X134.748 Y125.979 F5400
G1 X164.338 Y74.021 E84.9554 F3750
G1 X164.897 Y74.021 E84.9782
G1 X135.306 Y125.979 E87.4144
G0 X130.836 Y125.979 F5400
G1 X160.427 Y74.021 E89.8506 F3750
G1 X159.869 Y74.021 E89.8734
G1 X130.278 Y125.979 E92.3096
G0 X127.681 Y125.979 F5400
G1 X98.090 Y74.021 E94.7459 F3750
G1 X97.531 Y74.021 E94.7686
G1 X127.122 Y125.979 E97.2049
G1 X126.367 Y125.979 E97.2356
G1 X155.957 Y74.021 E99.6719
G1 X155.399 Y74.021 E99.6946
G1 X125.808 Y125.979 E102.1309
G0 X122.652 Y125.979 F5400
G1 X93.162 Y74.197 E104.5588 F3750
G1 X93.653 Y74.079 E104.5794
G1 X123.211 Y125.979 E107.0129
G0 X121.897 Y125.979 F5400
G1 X151.487 Y74.021 E109.4491 F3750
G1 X150.929 Y74.021 E109.4719
G1 X121.338 Y125.979 E111.9081
G0 X118.741 Y125.979 F5400
G1 X91.500 Y78.147 E114.1509 F3750
G0 X91.500 Y89.261 F5400
G1 X168.500 Y89.261 E117.2882 F3750
G1 X168.500 Y89.751 E117.3082
G1 X91.500 Y89.751 E120.4454
G0 X91.500 Y92.036 F5400
G1 X101.760 Y74.021 E121.2901 F3750
G1 X102.318 Y74.021 E121.3129
G1 X91.500 Y93.017 E122.2036
G1 X91.500 Y93.185 E122.2104
G1 X168.500 Y93.185 E125.3477
G1 X168.500 Y93.676 E125.3677
G1 X91.500 Y93.676 E128.5050
G1 X91.500 Y93.844 E128.5118
G1 X109.801 Y125.979 E130.0186
G0 X91.623 Y124.196 F5400
G1 X120.198 Y74.021 E132.3712 F3750
G1 X119.639 Y74.021 E132.3940
G1 X91.503 Y123.425 E134.7104
G0 X91.500 Y113.298 F5400
G1 X168.500 Y113.298 E137.8477 F3750
G1 X168.500 Y112.807 E137.8677
G1 X91.500 Y112.807 E141.0050
G0 X91.500 Y117.391 F5400
G1 X96.391 Y125.979 E141.4077 F3750
G1 X95.833 Y125.979 E141.4304
G1 X91.500 Y118.372 E141.7871
G0 X95.077 Y125.979 F5400
G1 X124.668 Y74.021 E144.2234 F3750
G1 X124.109 Y74.021 E144.2461
G1 X94.518 Y125.979 E146.6824
G0 X104.772 Y125.979 F5400
G1 X91.500 Y102.674 E147.7751 F3750
G0 X91.500 Y99.885 F5400
G1 X106.230 Y74.021 E148.9878 F3750
G1 X106.788 Y74.021 E149.0106
G1 X91.500 Y100.866 E150.2692
G1 X91.500 Y101.034 E150.2761
G1 X168.500 Y101.034 E153.4134
G1 X168.500 Y101.525 E153.4334
G1 X91.500 Y101.525 E156.5706
G0 X103.458 Y125.979 F5400
G1 X133.049 Y74.021 E159.0069 F3750
G1 X133.608 Y74.021 E159.0296
G1 X104.017 Y125.979 E161.4659
G0 X100.303 Y125.979 F5400
G1 X91.500 Y110.523 E162.1906 F3750
G0 X91.500 Y107.733 F5400
G1 X110.700 Y74.021 E163.7713 F3750
G1 X111.258 Y74.021 E163.7941
G1 X91.500 Y108.714 E165.4208
G0 X105.331 Y125.979 F5400
G1 X91.500 Y101.693 E166.5595 F3750
G0 X91.500 Y109.542 F5400
G1 X100.861 Y125.979 E167.3302 F3750
G0 X91.500 Y120.656 F5400
G1 X168.500 Y120.656 E170.4675 F3750
G1 X168.500 Y121.147 E170.4875
G1 X91.500 Y121.147 E173.6247
G0 X91.500 Y115.582 F5400
G1 X115.169 Y74.021 E175.5735 F3750
G1 X115.728 Y74.021 E175.5962
G1 X91.500 Y116.563 E177.5909
G0 X92.108 Y125.071 F5400
G1 X167.892 Y125.071 E180.6787 F3750
G1 X168.218 Y124.580 E180.7027
G1 X91.782 Y124.580 E183.8170
G0 X91.500 Y116.732 F5400
G1 X168.500 Y116.732 E186.9542 F3750
G1 X168.500 Y117.222 E186.9742
G1 X91.500 Y117.222 E190.1115
G0 X98.988 Y125.979 F5400
G1 X128.579 Y74.021 E192.5477 F3750
G1 X129.138 Y74.021 E192.5705
G1 X99.547 Y125.979 E195.0067
G0 X91.500 Y109.373 F5400
G1 X168.500 Y109.373 E198.1440 F3750
G1 X168.500 Y108.883 E198.1640
G1 X91.500 Y108.883 E201.3012
G0 X91.500 Y105.449 F5400
G1 X168.500 Y105.449 E204.4385 F3750
G1 X168.500 Y104.958 E204.4585
G1 X91.500 Y104.958 E207.5958
G0 X91.500 Y97.110 F5400
G1 X168.500 Y97.110 E210.7330 F3750
G1 X168.500 Y97.600 E210.7530
G1 X91.500 Y97.600 E213.8903
G0 X91.500 Y94.825 F5400
G1 X109.242 Y125.979 E215.3510 F3750
G1 X108.487 Y125.979 E215.3818
G1 X138.078 Y74.021 E217.8181
G1 X137.519 Y74.021 E217.8408
G1 X107.928 Y125.979 E220.2771
G0 X112.398 Y125.979 F5400
G1 X141.989 Y74.021 E222.7133 F3750
G1 X142.548 Y74.021 E222.7361
G1 X112.957 Y125.979 E225.1723
G1 X113.712 Y125.979 E225.2031
G1 X91.500 Y86.977 E227.0318
G1 X91.500 Y85.996 E227.0718
G1 X114.271 Y125.979 E228.9465
G0 X117.427 Y125.979 F5400
G1 X147.018 Y74.021 E231.3828 F3750
G1 X146.459 Y74.021 E231.4055
G1 X116.868 Y125.979 E233.8418
G0 X118.182 Y125.979 F5400
G1 X91.500 Y79.128 E236.0385 F3750
G0 X91.500 Y77.488 F5400
G1 X168.500 Y77.488 E239.1758 F3750
G1 X168.500 Y77.978 E239.1958
G1 X91.500 Y77.978 E242.3331
G0 X91.500 Y84.187 F5400
G1 X97.290 Y74.021 E242.8098 F3750
G1 X97.848 Y74.021 E242.8325
G1 X91.500 Y85.168 E243.3552
G1 X91.500 Y85.827 E243.3820
G1 X168.500 Y85.827 E246.5193
G1 X168.500 Y85.337 E246.5393
G1 X91.500 Y85.337 E249.6766
G0 X91.500 Y81.903 F5400
G1 X168.500 Y81.903 E252.8138 F3750
G1 X168.500 Y81.412 E252.8338
G1 X91.500 Y81.412 E255.9711
G0 X92.523 Y74.542 F5400
G1 X91.545 Y76.259 E256.0516 F3750
G1 X91.500 Y77.319 E256.0949
G1 X93.314 Y74.134 E256.2442
G1 X93.843 Y74.054 E256.2660
G1 X166.157 Y74.054 E259.2124
G0 X168.500 Y79.923 F5400
G1 X165.139 Y74.021 E259.4891 F3750
G1 X164.580 Y74.021 E259.5119
G1 X168.500 Y80.904 E259.8346
G0 X168.500 Y82.411 F5400
G1 X143.687 Y125.979 E261.8775 F3750
G0 X153.186 Y125.979 F5400
G1 X168.500 Y99.089 E263.1383 F3750
G0 X168.500 Y104.450 F5400
G1 X151.170 Y74.021 E264.5651 F3750
G1 X151.729 Y74.021 E264.5878
G1 X168.500 Y103.469 E265.9686
G0 X157.097 Y125.979 F5400
G1 X168.500 Y105.957 E266.9074 F3750
G0 X168.500 Y120.148 F5400
G1 X142.230 Y74.021 E269.0702 F3750
G1 X142.789 Y74.021 E269.0930
G1 X168.500 Y119.167 E271.2098
G0 X168.500 Y111.318 F5400
G1 X147.259 Y74.021 E272.9586 F3750
G1 X146.700 Y74.021 E272.9813
G1 X168.500 Y112.299 E274.7761
G0 X168.500 Y114.787 F5400
G1 X162.126 Y125.979 E275.3009 F3750
G0 X150.030 Y125.979 F5400
G1 X120.439 Y74.021 E277.7371 F3750
G1 X119.881 Y74.021 E277.7599
G1 X149.472 Y125.979 E280.1961
G0 X163.440 Y125.979 F5400
G1 X133.849 Y74.021 E282.6323 F3750
G1 X133.290 Y74.021 E282.6551
G1 X162.881 Y125.979 E285.0913
; ------------------------------------
; Layer #6
; ------------------------------------
G21 ; mm
G90 ; abs
G92 E0 ; reset extr
M73 S4
M106 S255
;segType:Loop
G0 F1200 E-1.0000
G0 F300 Z1.400
G0 X168.627 Y125.352 F5400
G0 F1200 E0.0000
G1 X168.297 Y125.783 E0.0221 F3000
G1 X167.625 Y126.298 E0.0566
G1 X166.842 Y126.623 E0.0912
G1 X165.952 Y126.740 E0.1278
G1 X94.049 Y126.740 E3.0573
G1 X93.158 Y126.623 E3.0939
G1 X92.375 Y126.298 E3.1285
G1 X91.703 Y125.783 E3.1630
G1 X91.189 Y125.113 E3.1974
G1 X90.866 Y124.334 E3.2317
G1 X90.750 Y123.449 E3.2681
G1 X90.750 Y76.551 E5.1789
G1 X90.866 Y75.666 E5.2153
G1 X91.189 Y74.887 E5.2496
G1 X91.703 Y74.217 E5.2840
G1 X92.375 Y73.702 E5.3185
G1 X93.158 Y73.377 E5.3531
G1 X94.049 Y73.260 E5.3896
G1 X165.952 Y73.260 E8.3192
G1 X166.842 Y73.377 E8.3558
G1 X167.625 Y73.702 E8.3904
G1 X168.297 Y74.217 E8.4249
G1 X168.811 Y74.887 E8.4593
G1 X169.134 Y75.666 E8.4936
G1 X169.250 Y76.551 E8.5300
G1 X169.250 Y123.449 E10.4408
G1 X169.134 Y124.334 E10.4772
G1 X168.811 Y125.113 E10.5115
G1 X168.776 Y125.158 E10.5138
G0 F1200 E9.5138
G0 X169.110 Y123.801 F5400
G0 F1200 E10.5138
;segType:Perimeter
G1 X169.592 Y124.536 E10.5496 F2100
G1 X169.246 Y125.371 E10.5865
G1 X168.651 Y126.147 E10.6263
G1 X167.875 Y126.742 E10.6661
G1 X166.971 Y127.117 E10.7060
G1 X165.984 Y127.247 E10.7466
G1 X94.016 Y127.247 E13.6788
G1 X93.029 Y127.117 E13.7194
G1 X92.125 Y126.742 E13.7593
G1 X91.349 Y126.147 E13.7991
G1 X90.754 Y125.371 E13.8389
G1 X90.380 Y124.468 E13.8787
G1 X90.250 Y123.483 E13.9192
G1 X90.250 Y76.517 E15.8328
G1 X90.380 Y75.532 E15.8733
G1 X90.754 Y74.629 E15.9131
G1 X91.349 Y73.853 E15.9529
G1 X92.125 Y73.258 E15.9928
G1 X93.029 Y72.883 E16.0327
G1 X94.016 Y72.753 E16.0732
G1 X165.984 Y72.753 E19.0055
G1 X166.971 Y72.883 E19.0460
G1 X167.875 Y73.258 E19.0859
G1 X168.651 Y73.853 E19.1258
G1 X169.246 Y74.629 E19.1656
G1 X169.620 Y75.532 E19.2054
G1 X169.750 Y76.517 E19.2459
G1 X169.750 Y123.483 E21.1595
G1 X169.630 Y124.395 E21.1970
G1 X168.847 Y124.782
;segType:Loop
G0 X167.361 Y125.860 F5400
G1 X166.713 Y126.128 E21.2256 F3000
G1 X165.919 Y126.233 E21.2582
G1 X94.081 Y126.233 E24.1851
G1 X93.287 Y126.128 E24.2177
G1 X92.624 Y125.854 E24.2470
G1 X92.058 Y125.419 E24.2761
G1 X91.624 Y124.854 E24.3051
G1 X91.353 Y124.200 E24.3339
G1 X91.250 Y123.416 E24.3661
G1 X91.250 Y76.584 E26.2742
G1 X91.353 Y75.800 E26.3065
G1 X91.624 Y75.146 E26.3353
G1 X92.058 Y74.582 E26.3643
G1 X92.624 Y74.146 E26.3934
G1 X93.287 Y73.872 E26.4227
G1 X94.081 Y73.767 E26.4553
G1 X165.919 Y73.767 E29.3822
G1 X166.713 Y73.872 E29.4148
G1 X167.376 Y74.146 E29.4441
G1 X167.942 Y74.582 E29.4732
G1 X168.376 Y75.146 E29.5022
G1 X168.647 Y75.800 E29.5310
G1 X168.750 Y76.584 E29.5633
G1 X168.750 Y123.416 E31.4713
G1 X168.647 Y124.200 E31.5036
G1 X168.376 Y124.854 E31.5324
G1 X167.942 Y125.419 E31.5614
G1 X167.556 Y125.715 E31.5813
;segType:HShell
G0 X166.996 Y125.737 F5400
G1 X168.276 Y124.439 E31.6555 F3000
G0 X93.371 Y74.116 F5400
G1 X91.589 Y75.922 E31.7589 F3000
G1 X91.500 Y76.707
G1 X94.150 Y74.021 E31.9126
G1 X94.834 Y74.021
G1 X91.500 Y77.400 E32.1061
G1 X91.500 Y78.094
G1 X95.518 Y74.021 E32.3392
G1 X96.202 Y74.021
G1 X91.500 Y78.788 E32.6120
G1 X91.500 Y79.482
G1 X96.887 Y74.021 E32.9246
G1 X97.571 Y74.021
G1 X91.500 Y80.175 E33.2768
G1 X91.500 Y80.869
G1 X98.255 Y74.021 E33.6688
G1 X98.940 Y74.021
G1 X91.500 Y81.563 E34.1004
G1 X91.500 Y82.257
G1 X99.624 Y74.021 E34.5717
G1 X100.308 Y74.021
G1 X91.500 Y82.950 E35.0828
G1 X91.500 Y83.644
G1 X100.993 Y74.021 E35.6335
G1 X101.677 Y74.021
G1 X91.500 Y84.338 E36.2240
G1 X91.500 Y85.032
G1 X102.361 Y74.021 E36.8542
G1 X103.046 Y74.021
G1 X91.500 Y85.725 E37.5240
G1 X91.500 Y86.419
G1 X103.730 Y74.021 E38.2336
G1 X104.414 Y74.021
G1 X91.500 Y87.113 E38.9829
G1 X91.500 Y87.807
G1 X105.099 Y74.021 E39.7718
G1 X105.783 Y74.021
G1 X91.500 Y88.500 E40.6005
G1 X91.500 Y89.194
G1 X106.467 Y74.021 E41.4689
G1 X107.151 Y74.021
G1 X91.500 Y89.888 E42.3769
G1 X91.500 Y90.581
G1 X107.836 Y74.021 E43.3247
G1 X108.520 Y74.021
G1 X91.500 Y91.275 E44.3122
G1 X91.500 Y91.969
G1 X109.204 Y74.021 E45.3394
G1 X109.889 Y74.021
G1 X91.500 Y92.663 E46.4063
G1 X91.500 Y93.356
G1 X110.573 Y74.021 E47.5129
G1 X111.257 Y74.021
G1 X91.500 Y94.050 E48.6592
G1 X91.500 Y94.744
G1 X111.942 Y74.021 E49.8452
G1 X112.626 Y74.021
G1 X91.500 Y95.438 E51.0709
G1 X91.500 Y96.131
G1 X113.310 Y74.021 E52.3363
G1 X113.995 Y74.021
G1 X91.500 Y96.825 E53.6414
G1 X91.500 Y97.519
G1 X114.679 Y74.021 E54.9862
G1 X115.363 Y74.021
G1 X91.500 Y98.213 E56.3707
G1 X91.500 Y98.906
G1 X116.048 Y74.021 E57.7949
G1 X116.732 Y74.021
G1 X91.500 Y99.600 E59.2588
G1 X91.500 Y100.294
G1 X117.416 Y74.021 E60.7624
G1 X118.100 Y74.021
G1 X91.500 Y100.988 E62.3058
G1 X91.500 Y101.681
G1 X118.785 Y74.021 E63.8888
G1 X119.469 Y74.021
G1 X91.500 Y102.375 E65.5115
G1 X91.500 Y103.069
G1 X120.153 Y74.021 E67.1739
G1 X120.838 Y74.021
G1 X91.500 Y103.763 E68.8761
G1 X91.500 Y104.456
G1 X121.522 Y74.021 E70.6179
G1 X122.206 Y74.021
G1 X91.500 Y105.150 E72.3994
G1 X91.500 Y105.844
G1 X122.891 Y74.021 E74.2207
G1 X123.575 Y74.021
G1 X91.500 Y106.537 E76.0816
G1 X91.500 Y107.231
G1 X124.259 Y74.021 E77.9823
G1 X124.944 Y74.021
G1 X91.500 Y107.925 E79.9226
G1 X91.500 Y108.619
G1 X125.628 Y74.021 E81.9027
G1 X126.312 Y74.021
G1 X91.500 Y109.312 E83.9224
G1 X91.500 Y110.006
G1 X126.997 Y74.021 E85.9819
G1 X127.681 Y74.021
G1 X91.500 Y110.700 E88.0810
G1 X91.500 Y111.394
G1 X128.365 Y74.021 E90.2199
G1 X129.050 Y74.021
G1 X91.500 Y112.087 E92.3985
G1 X91.500 Y112.781
G1 X129.734 Y74.021 E94.6167
G1 X130.418 Y74.021
G1 X91.500 Y113.475 E96.8747
G1 X91.500 Y114.169
G1 X131.102 Y74.021 E99.1724
G1 X131.787 Y74.021
G1 X91.500 Y114.862 E101.5098
G1 X91.500 Y115.556
G1 X132.471 Y74.021 E103.8869
G1 X133.155 Y74.021
G1 X91.500 Y116.250 E106.3036
G1 X91.500 Y116.944
G1 X133.840 Y74.021 E108.7601
G1 X134.524 Y74.021
G1 X91.500 Y117.637 E111.2563
G1 X91.500 Y118.331
G1 X135.208 Y74.021 E113.7922
G1 X135.893 Y74.021
G1 X91.500 Y119.025 E116.3678
G1 X91.500 Y119.719
G1 X136.577 Y74.021 E118.9831
G1 X137.261 Y74.021
G1 X91.500 Y120.412 E121.6381
G1 X91.500 Y121.106
G1 X137.946 Y74.021 E124.3328
G1 X138.630 Y74.021
G1 X91.500 Y121.800 E127.0672
G1 X91.500 Y122.493
G1 X139.314 Y74.021 E129.8413
G1 X139.999 Y74.021
G1 X91.500 Y123.187 E132.6551
G1 X91.556 Y123.824
G1 X140.683 Y74.021 E135.5054
G1 X141.367 Y74.021
G1 X91.697 Y124.375 E138.3872
G1 X91.927 Y124.836
G1 X142.051 Y74.021 E141.2953
G1 X142.736 Y74.021
G1 X92.226 Y125.226 E144.2258
G1 X92.613 Y125.527
G1 X143.420 Y74.021 E147.1735
G1 X144.104 Y74.021
G1 X93.065 Y125.763 E150.1347
G1 X93.600 Y125.914
G1 X144.789 Y74.021 E153.1046
G1 X145.473 Y74.021
G1 X94.220 Y125.979 E156.0782
G1 X94.905 Y125.979
G1 X146.157 Y74.021 E159.0518
G1 X146.842 Y74.021
G1 X95.589 Y125.979 E162.0254
G1 X96.273 Y125.979
G1 X147.526 Y74.021 E164.9990
G1 X148.210 Y74.021
G1 X96.957 Y125.979 E167.9726
G1 X97.642 Y125.979
G1 X148.895 Y74.021 E170.9462
G1 X149.579 Y74.021
G1 X98.326 Y125.979 E173.9198
G1 X99.010 Y125.979
G1 X150.263 Y74.021 E176.8934
G1 X150.948 Y74.021
G1 X99.695 Y125.979 E179.8670
G1 X100.379 Y125.979
G1 X151.632 Y74.021 E182.8406
G1 X152.316 Y74.021
G1 X101.063 Y125.979 E185.8142
G1 X101.748 Y125.979
G1 X153.000 Y74.021 E188.7878
G1 X153.685 Y74.021
G1 X102.432 Y125.979 E191.7615
G1 X103.116 Y125.979
G1 X154.369 Y74.021 E194.7351
G1 X155.053 Y74.021
G1 X103.801 Y125.979 E197.7087
G1 X104.485 Y125.979
G1 X155.738 Y74.021 E200.6823
G1 X156.422 Y74.021
G1 X105.169 Y125.979 E203.6559
G1 X105.854 Y125.979
G1 X157.106 Y74.021 E206.6295
G1 X157.791 Y74.021
G1 X106.538 Y125.979 E209.6031
G1 X107.222 Y125.979
G1 X158.475 Y74.021 E212.5767
G1 X159.159 Y74.021
G1 X107.906 Y125.979 E215.5503
G1 X108.591 Y125.979
G1 X159.844 Y74.021 E218.5239
G1 X160.528 Y74.021
G1 X109.275 Y125.979 E221.4975
G1 X109.959 Y125.979
G1 X161.212 Y74.021 E224.4711
G1 X161.897 Y74.021
G1 X110.644 Y125.979 E227.4447
G1 X111.328 Y125.979
G1 X162.581 Y74.021 E230.4183
G1 X163.265 Y74.021
G1 X112.012 Y125.979 E233.3919
G1 X112.697 Y125.979
G1 X163.949 Y74.021 E236.3655
G1 X164.634 Y74.021
G1 X113.381 Y125.979 E239.3391
G1 X114.065 Y125.979
G1 X165.318 Y74.021 E242.3127
G1 X165.991 Y74.032
G1 X114.750 Y125.979 E245.2856
G1 X115.434 Y125.979
G1 X166.597 Y74.112 E248.2540
G1 X167.093 Y74.303
G1 X116.118 Y125.979 E251.2115
G1 X116.803 Y125.979
G1 X167.513 Y74.570 E254.1537
G1 X167.871 Y74.901
G1 X117.487 Y125.979 E257.0769
G1 X118.171 Y125.979
G1 X168.166 Y75.295 E259.9775
G1 X168.369 Y75.784
G1 X118.855 Y125.979 E262.8502
G1 X119.540 Y125.979
G1 X168.470 Y76.375 E265.6891
G1 X168.500 Y77.038
G1 X120.224 Y125.979 E268.4900
G1 X120.908 Y125.979
G1 X168.500 Y77.732 E271.2512
G1 X168.500 Y78.426
G1 X121.593 Y125.979 E273.9727
G1 X122.277 Y125.979
G1 X168.500 Y79.120 E276.6545
G1 X168.500 Y79.813
G1 X122.961 Y125.979 E279.2966
G1 X123.646 Y125.979
G1 X168.500 Y80.507 E281.8989
G1 X168.500 Y81.201
G1 X124.330 Y125.979 E284.4616
G1 X125.014 Y125.979
G1 X168.500 Y81.895 E286.9846
G1 X168.500 Y82.588
G1 X125.699 Y125.979 E289.4679
G1 X126.383 Y125.979
G1 X168.500 Y83.282 E291.9115
G1 X168.500 Y83.976
G1 X127.067 Y125.979 E294.3153
G1 X127.752 Y125.979
G1 X168.500 Y84.670 E296.6795
G1 X168.500 Y85.363
G1 X128.436 Y125.979 E299.0039
G1 X129.120 Y125.979
G1 X168.500 Y86.057 E301.2887
G1 X168.500 Y86.751
G1 X129.804 Y125.979 E303.5338
G1 X130.489 Y125.979
G1 X168.500 Y87.445 E305.7391
G1 X168.500 Y88.138
G1 X131.173 Y125.979 E307.9048
G1 X131.857 Y125.979
G1 X168.500 Y88.832 E310.0307
G1 X168.500 Y89.526
G1 X132.542 Y125.979 E312.1170
G1 X133.226 Y125.979
G1 X168.500 Y90.220 E314.1635
G1 X168.500 Y90.913
G1 X133.910 Y125.979 E316.1703
G1 X134.595 Y125.979
G1 X168.500 Y91.607 E318.1375
G1 X168.500 Y92.301
G1 X135.279 Y125.979 E320.0649
G1 X135.963 Y125.979
G1 X168.500 Y92.994 E321.9526
G1 X168.500 Y93.688
G1 X136.648 Y125.979 E323.8006
G1 X137.332 Y125.979
G1 X168.500 Y94.382 E325.6090
G1 X168.500 Y95.076
G1 X138.016 Y125.979 E327.3776
G1 X138.701 Y125.979
G1 X168.500 Y95.769 E329.1065
G1 X168.500 Y96.463
G1 X139.385 Y125.979 E330.7957
G1 X140.069 Y125.979
G1 X168.500 Y97.157 E332.4452
G1 X168.500 Y97.851
G1 X140.753 Y125.979 E334.0550
G1 X141.438 Y125.979
G1 X168.500 Y98.544 E335.6251
G1 X168.500 Y99.238
G1 X142.122 Y125.979 E337.1555
G1 X142.806 Y125.979
G1 X168.500 Y99.932 E338.6462
G1 X168.500 Y100.626
G1 X143.491 Y125.979 E340.0972
G1 X144.175 Y125.979
G1 X168.500 Y101.319 E341.5085
G1 X168.500 Y102.013
G1 X144.859 Y125.979 E342.8800
G1 X145.544 Y125.979
G1 X168.500 Y102.707 E344.2119
G1 X168.500 Y103.401
G1 X146.228 Y125.979 E345.5041
G1 X146.912 Y125.979
G1 X168.500 Y104.094 E346.7566
G1 X168.500 Y104.788
G1 X147.597 Y125.979 E347.9694
G1 X148.281 Y125.979
G1 X168.500 Y105.482 E349.1425
G1 X168.500 Y106.175
G1 X148.965 Y125.979 E350.2759
G1 X149.650 Y125.979
G1 X168.500 Y106.869 E351.3696
G1 X168.500 Y107.563
G1 X150.334 Y125.979 E352.4236
G1 X151.018 Y125.979
G1 X168.500 Y108.257 E353.4378
G1 X168.500 Y108.950
G1 X151.702 Y125.979 E354.4124
G1 X152.387 Y125.979
G1 X168.500 Y109.644 E355.3473
G1 X168.500 Y110.338
G1 X153.071 Y125.979 E356.2425
G1 X153.755 Y125.979
G1 X168.500 Y111.032 E357.0979
G1 X168.500 Y111.725
G1 X154.440 Y125.979 E357.9137
G1 X155.124 Y125.979
G1 X168.500 Y112.419 E358.6898
G1 X168.500 Y113.113
G1 X155.808 Y125.979 E359.4261
G1 X156.493 Y125.979
G1 X168.500 Y113.807 E360.1228
G1 X168.500 Y114.500
G1 X157.177 Y125.979 E360.7797
G1 X157.861 Y125.979
G1 X168.500 Y115.194 E361.3970
G1 X168.500 Y115.888
G1 X158.546 Y125.979 E361.9745
G1 X159.230 Y125.979
G1 X168.500 Y116.582 E362.5124
G1 X168.500 Y117.275
G1 X159.914 Y125.979 E363.0105
G1 X160.599 Y125.979
G1 X168.500 Y117.969 E363.4689
G1 X168.500 Y118.663
G1 X161.283 Y125.979 E363.8877
G1 X161.967 Y125.979
G1 X168.500 Y119.357 E364.2667
G1 X168.500 Y120.050
G1 X162.651 Y125.979 E364.6060
G1 X163.336 Y125.979
G1 X168.500 Y120.744 E364.9057
G1 X168.500 Y121.438
G1 X164.020 Y125.979 E365.1656
G1 X164.704 Y125.979
G1 X168.500 Y122.131 E365.3858
G1 X168.500 Y122.825
G1 X165.389 Y125.979 E365.5663
G1 X166.098 Y125.954
G1 X168.482 Y123.537 E365.7046
; ------------------------------------
; Layer #7
; ------------------------------------
G21 ; mm
G90 ; abs
G92 E0 ; reset extr
M73 S5
M106 S255
;segType:Loop
G0 F1200 E-1.0000
G0 F300 Z1.600
G0 X168.627 Y125.352 F5400
G0 F1200 E0.0000
G1 X168.297 Y125.783 E0.0221 F3000
G1 X167.625 Y126.298 E0.0566
G1 X166.842 Y126.623 E0.0912
G1 X165.952 Y126.740 E0.1278
G1 X94.049 Y126.740 E3.0573
G1 X93.158 Y126.623 E3.0939
G1 X92.375 Y126.298 E3.1285
G1 X91.703 Y125.783 E3.1630
G1 X91.189 Y125.113 E3.1974
G1 X90.866 Y124.334 E3.2317
G1 X90.750 Y123.449 E3.2681
G1 X90.750 Y76.551 E5.1789
G1 X90.866 Y75.666 E5.2153
G1 X91.189 Y74.887 E5.2496
G1 X91.703 Y74.217 E5.2840
G1 X92.375 Y73.702 E5.3185
G1 X93.158 Y73.377 E5.3531
G1 X94.049 Y73.260 E5.3896
G1 X165.952 Y73.260 E8.3192
G1 X166.842 Y73.377 E8.3558
G1 X167.625 Y73.702 E8.3904
G1 X168.297 Y74.217 E8.4249
G1 X168.811 Y74.887 E8.4593
G1 X169.134 Y75.666 E8.4936
G1 X169.250 Y76.551 E8.5300
G1 X169.250 Y123.449 E10.4408
G1 X169.134 Y124.334 E10.4772
G1 X168.811 Y125.113 E10.5115
G1 X168.776 Y125.158 E10.5138
G0 F1200 E9.5138
G0 X169.110 Y123.801 F5400
G0 F1200 E10.5138
;segType:Perimeter
G1 X169.592 Y124.536 E10.5496 F2100
G1 X169.246 Y125.371 E10.5865
G1 X168.651 Y126.147 E10.6263
G1 X167.875 Y126.742 E10.6661
G1 X166.971 Y127.117 E10.7060
G1 X165.984 Y127.247 E10.7466
G1 X94.016 Y127.247 E13.6788
G1 X93.029 Y127.117 E13.7194
G1 X92.125 Y126.742 E13.7593
G1 X91.349 Y126.147 E13.7991
G1 X90.754 Y125.371 E13.8389
G1 X90.380 Y124.468 E13.8787
G1 X90.250 Y123.483 E13.9192
G1 X90.250 Y76.517 E15.8328
G1 X90.380 Y75.532 E15.8733
G1 X90.754 Y74.629 E15.9131
G1 X91.349 Y73.853 E15.9529
G1 X92.125 Y73.258 E15.9928
G1 X93.029 Y72.883 E16.0327
G1 X94.016 Y72.753 E16.0732
G1 X165.984 Y72.753 E19.0055
G1 X166.971 Y72.883 E19.0460
G1 X167.875 Y73.258 E19.0859
G1 X168.651 Y73.853 E19.1258
G1 X169.246 Y74.629 E19.1656
G1 X169.620 Y75.532 E19.2054
G1 X169.750 Y76.517 E19.2459
G1 X169.750 Y123.483 E21.1595
G1 X169.630 Y124.395 E21.1970
G1 X168.847 Y124.782
;segType:Loop
G0 X167.361 Y125.860 F5400
G1 X166.713 Y126.128 E21.2256 F3000
G1 X165.919 Y126.233 E21.2582
G1 X94.081 Y126.233 E24.1851
G1 X93.287 Y126.128 E24.2177
G1 X92.624 Y125.854 E24.2470
G1 X92.058 Y125.419 E24.2761
G1 X91.624 Y124.854 E24.3051
G1 X91.353 Y124.200 E24.3339
G1 X91.250 Y123.416 E24.3661
G1 X91.250 Y76.584 E26.2742
G1 X91.353 Y75.800 E26.3065
G1 X91.624 Y75.146 E26.3353
G1 X92.058 Y74.582 E26.3643
G1 X92.624 Y74.146 E26.3934
G1 X93.287 Y73.872 E26.4227
G1 X94.081 Y73.767 E26.4553
G1 X165.919 Y73.767 E29.3822
G1 X166.713 Y73.872 E29.4148
G1 X167.376 Y74.146 E29.4441
G1 X167.942 Y74.582 E29.4732
G1 X168.376 Y75.146 E29.5022
G1 X168.647 Y75.800 E29.5310
G1 X168.750 Y76.584 E29.5633
G1 X168.750 Y123.416 E31.4713
G1 X168.647 Y124.200 E31.5036
G1 X168.376 Y124.854 E31.5324
G1 X167.942 Y125.419 E31.5614
G1 X167.556 Y125.715 E31.5813
;segType:HShell
G0 X168.219 Y75.422 F5400
G1 X167.130 Y74.318 E31.6444 F3000
G1 X166.189 Y74.058
G1 X168.470 Y76.370 E31.7767
G1 X168.500 Y77.094
G1 X165.468 Y74.021 E31.9526
G1 X164.784 Y74.021
G1 X168.500 Y77.788 E32.1682
G1 X168.500 Y78.482
G1 X164.099 Y74.021 E32.4236
G1 X163.415 Y74.021
G1 X168.500 Y79.176 E32.7186
G1 X168.500 Y79.869
G1 X162.731 Y74.021 E33.0533
G1 X162.046 Y74.021
G1 X168.500 Y80.563 E33.4277
G1 X168.500 Y81.257
G1 X161.362 Y74.021 E33.8419
G1 X160.678 Y74.021
G1 X168.500 Y81.951 E34.2957
G1 X168.500 Y82.644
G1 X159.993 Y74.021 E34.7892
G1 X159.309 Y74.021
G1 X168.500 Y83.338 E35.3225
G1 X168.500 Y84.032
G1 X158.625 Y74.021 E35.8954
G1 X157.941 Y74.021
G1 X168.500 Y84.726 E36.5081
G1 X168.500 Y85.419
G1 X157.256 Y74.021 E37.1604
G1 X156.572 Y74.021
G1 X168.500 Y86.113 E37.8525
G1 X168.500 Y86.807
G1 X155.888 Y74.021 E38.5842
G1 X155.203 Y74.021
G1 X168.500 Y87.501 E39.3557
G1 X168.500 Y88.194
G1 X154.519 Y74.021 E40.1668
G1 X153.835 Y74.021
G1 X168.500 Y88.888 E41.0177
G1 X168.500 Y89.582
G1 X153.150 Y74.021 E41.9083
G1 X152.466 Y74.021
G1 X168.500 Y90.275 E42.8385
G1 X168.500 Y90.969
G1 X151.782 Y74.021 E43.8085
G1 X151.097 Y74.021
G1 X168.500 Y91.663 E44.8182
G1 X168.500 Y92.357
G1 X150.413 Y74.021 E45.8676
G1 X149.729 Y74.021
G1 X168.500 Y93.050 E46.9566
G1 X168.500 Y93.744
G1 X149.044 Y74.021 E48.0854
G1 X148.360 Y74.021
G1 X168.500 Y94.438 E49.2539
G1 X168.500 Y95.132
G1 X147.676 Y74.021 E50.4621
G1 X146.992 Y74.021
G1 X168.500 Y95.825 E51.7100
G1 X168.500 Y96.519
G1 X146.307 Y74.021 E52.9976
G1 X145.623 Y74.021
G1 X168.500 Y97.213 E54.3249
G1 X168.500 Y97.907
G1 X144.939 Y74.021 E55.6919
G1 X144.254 Y74.021
G1 X168.500 Y98.600 E57.0986
G1 X168.500 Y99.294
G1 X143.570 Y74.021 E58.5450
G1 X142.886 Y74.021
G1 X168.500 Y99.988 E60.0311
G1 X168.500 Y100.682
G1 X142.201 Y74.021 E61.5569
G1 X141.517 Y74.021
G1 X168.500 Y101.375 E63.1224
G1 X168.500 Y102.069
G1 X140.833 Y74.021 E64.7276
G1 X140.148 Y74.021
G1 X168.500 Y102.763 E66.3725
G1 X168.500 Y103.457
G1 X139.464 Y74.021 E68.0571
G1 X138.780 Y74.021
G1 X168.500 Y104.150 E69.7815
G1 X168.500 Y104.844
G1 X138.095 Y74.021 E71.5455
G1 X137.411 Y74.021
G1 X168.500 Y105.538 E73.3492
G1 X168.500 Y106.231
G1 X136.727 Y74.021 E75.1926
G1 X136.043 Y74.021
G1 X168.500 Y106.925 E77.0758
G1 X168.500 Y107.619
G1 X135.358 Y74.021 E78.9986
G1 X134.674 Y74.021
G1 X168.500 Y108.313 E80.9612
G1 X168.500 Y109.006
G1 X133.990 Y74.021 E82.9634
G1 X133.305 Y74.021
G1 X168.500 Y109.700 E85.0053
G1 X168.500 Y110.394
G1 X132.621 Y74.021 E87.0870
G1 X131.937 Y74.021
G1 X168.500 Y111.088 E89.2083
G1 X168.500 Y111.781
G1 X131.252 Y74.021 E91.3694
G1 X130.568 Y74.021
G1 X168.500 Y112.475 E93.5702
G1 X168.500 Y113.169
G1 X129.884 Y74.021 E95.8106
G1 X129.199 Y74.021
G1 X168.500 Y113.863 E98.0908
G1 X168.500 Y114.556
G1 X128.515 Y74.021 E100.4106
G1 X127.831 Y74.021
G1 X168.500 Y115.250 E102.7702
G1 X168.500 Y115.944
G1 X127.146 Y74.021 E105.1695
G1 X126.462 Y74.021
G1 X168.500 Y116.638 E107.6084
G1 X168.500 Y117.331
G1 X125.778 Y74.021 E110.0871
G1 X125.094 Y74.021
G1 X168.500 Y118.025 E112.6055
G1 X168.500 Y118.719
G1 X124.409 Y74.021 E115.1636
G1 X123.725 Y74.021
G1 X168.500 Y119.412 E117.7614
G1 X168.500 Y120.106
G1 X123.041 Y74.021 E120.3989
G1 X122.356 Y74.021
G1 X168.500 Y120.800 E123.0760
G1 X168.500 Y121.494
G1 X121.672 Y74.021 E125.7929
G1 X120.988 Y74.021
G1 X168.500 Y122.187 E128.5495
G1 X168.500 Y122.881
G1 X120.303 Y74.021 E131.3458
G1 X119.619 Y74.021
G1 X168.480 Y123.554 E134.1806
G1 X168.393 Y124.160
G1 X118.935 Y74.021 E137.0501
G1 X118.250 Y74.021
G1 X168.190 Y124.648 E139.9475
G1 X167.906 Y125.054
G1 X117.566 Y74.021 E142.8681
G1 X116.882 Y74.021
G1 X167.559 Y125.395 E145.8083
G1 X167.149 Y125.674
G1 X116.197 Y74.021 E148.7645
G1 X115.513 Y74.021
G1 X166.663 Y125.875 E151.7321
G1 X166.061 Y125.959
G1 X114.829 Y74.021 E154.7045
G1 X114.145 Y74.021
G1 X165.397 Y125.979 E157.6781
G1 X164.713 Y125.979
G1 X113.460 Y74.021 E160.6517
G1 X112.776 Y74.021
G1 X164.029 Y125.979 E163.6253
G1 X163.344 Y125.979
G1 X112.092 Y74.021 E166.5989
G1 X111.407 Y74.021
G1 X162.660 Y125.979 E169.5725
G1 X161.976 Y125.979
G1 X110.723 Y74.021 E172.5461
G1 X110.039 Y74.021
G1 X161.291 Y125.979 E175.5197
G1 X160.607 Y125.979
G1 X109.354 Y74.021 E178.4933
G1 X108.670 Y74.021
G1 X159.923 Y125.979 E181.4669
G1 X159.239 Y125.979
G1 X107.986 Y74.021 E184.4405
G1 X107.301 Y74.021
G1 X158.554 Y125.979 E187.4141
G1 X157.870 Y125.979
G1 X106.617 Y74.021 E190.3877
G1 X105.933 Y74.021
G1 X157.186 Y125.979 E193.3613
G1 X156.501 Y125.979
G1 X105.248 Y74.021 E196.3350
G1 X104.564 Y74.021
G1 X155.817 Y125.979 E199.3086
G1 X155.133 Y125.979
G1 X103.880 Y74.021 E202.2822
G1 X103.196 Y74.021
G1 X154.448 Y125.979 E205.2558
G1 X153.764 Y125.979
G1 X102.511 Y74.021 E208.2294
G1 X101.827 Y74.021
G1 X153.080 Y125.979 E211.2030
G1 X152.395 Y125.979
G1 X101.143 Y74.021 E214.1766
G1 X100.458 Y74.021
G1 X151.711 Y125.979 E217.1502
G1 X151.027 Y125.979
G1 X99.774 Y74.021 E220.1238
G1 X99.090 Y74.021
G1 X150.342 Y125.979 E223.0974
G1 X149.658 Y125.979
G1 X98.405 Y74.021 E226.0710
G1 X97.721 Y74.021
G1 X148.974 Y125.979 E229.0446
G1 X148.290 Y125.979
G1 X97.037 Y74.021 E232.0182
G1 X96.352 Y74.021
G1 X147.605 Y125.979 E234.9918
G1 X146.921 Y125.979
G1 X95.668 Y74.021 E237.9654
G1 X94.984 Y74.021
G1 X146.237 Y125.979 E240.9390
G1 X145.552 Y125.979
G1 X94.299 Y74.021 E243.9126
G1 X93.670 Y74.077
G1 X144.868 Y125.979 E246.8830
G1 X144.184 Y125.979
G1 X93.122 Y74.214 E249.8455
G1 X92.658 Y74.438
G1 X143.499 Y125.979 E252.7953
G1 X142.815 Y125.979
G1 X92.269 Y74.737 E255.7279
G1 X91.962 Y75.119
G1 X142.131 Y125.979 E258.6386
G1 X141.446 Y125.979
G1 X91.720 Y75.568 E261.5236
G1 X91.565 Y76.105
G1 X140.762 Y125.979 E264.3779
G1 X140.078 Y125.979
G1 X91.500 Y76.732 E267.1964
G1 X91.500 Y77.426
G1 X139.393 Y125.979 E269.9751
G1 X138.709 Y125.979
G1 X91.500 Y78.120 E272.7141
G1 X91.500 Y78.814
G1 X138.025 Y125.979 E275.4134
G1 X137.341 Y125.979
G1 X91.500 Y79.507 E278.0730
G1 X91.500 Y80.201
G1 X136.656 Y125.979 E280.6929
G1 X135.972 Y125.979
G1 X91.500 Y80.895 E283.2731
G1 X91.500 Y81.589
G1 X135.288 Y125.979 E285.8136
G1 X134.603 Y125.979
G1 X91.500 Y82.282 E288.3144
G1 X91.500 Y82.976
G1 X133.919 Y125.979 E290.7755
G1 X133.235 Y125.979
G1 X91.500 Y83.670 E293.1969
G1 X91.500 Y84.364
G1 X132.550 Y125.979 E295.5786
G1 X131.866 Y125.979
G1 X91.500 Y85.057 E297.9205
G1 X91.500 Y85.751
G1 X131.182 Y125.979 E300.2228
G1 X130.497 Y125.979
G1 X91.500 Y86.445 E302.4854
G1 X91.500 Y87.139
G1 X129.813 Y125.979 E304.7083
G1 X129.129 Y125.979
G1 X91.500 Y87.832 E306.8914
G1 X91.500 Y88.526
G1 X128.444 Y125.979 E309.0349
G1 X127.760 Y125.979
G1 X91.500 Y89.220 E311.1387
G1 X91.500 Y89.914
G1 X127.076 Y125.979 E313.2027
G1 X126.391 Y125.979
G1 X91.500 Y90.607 E315.2271
G1 X91.500 Y91.301
G1 X125.707 Y125.979 E317.2117
G1 X125.023 Y125.979
G1 X91.500 Y91.995 E319.1567
G1 X91.500 Y92.688
G1 X124.339 Y125.979 E321.0619
G1 X123.654 Y125.979
G1 X91.500 Y93.382 E322.9274
G1 X91.500 Y94.076
G1 X122.970 Y125.979 E324.7533
G1 X122.286 Y125.979
G1 X91.500 Y94.770 E326.5394
G1 X91.500 Y95.463
G1 X121.601 Y125.979 E328.2858
G1 X120.917 Y125.979
G1 X91.500 Y96.157 E329.9926
G1 X91.500 Y96.851
G1 X120.233 Y125.979 E331.6596
G1 X119.548 Y125.979
G1 X91.500 Y97.545 E333.2869
G1 X91.500 Y98.238
G1 X118.864 Y125.979 E334.8745
G1 X118.180 Y125.979
G1 X91.500 Y98.932 E336.4224
G1 X91.500 Y99.626
G1 X117.495 Y125.979 E337.9306
G1 X116.811 Y125.979
G1 X91.500 Y100.320 E339.3992
G1 X91.500 Y101.013
G1 X116.127 Y125.979 E340.8280
G1 X115.442 Y125.979
G1 X91.500 Y101.707 E342.2171
G1 X91.500 Y102.401
G1 X114.758 Y125.979 E343.5664
G1 X114.074 Y125.979
G1 X91.500 Y103.095 E344.8761
G1 X91.500 Y103.788
G1 X113.390 Y125.979 E346.1461
G1 X112.705 Y125.979
G1 X91.500 Y104.482 E347.3764
G1 X91.500 Y105.176
G1 X112.021 Y125.979 E348.5670
G1 X111.337 Y125.979
G1 X91.500 Y105.870 E349.7179
G1 X91.500 Y106.563
G1 X110.652 Y125.979 E350.8291
G1 X109.968 Y125.979
G1 X91.500 Y107.257 E351.9005
G1 X91.500 Y107.951
G1 X109.284 Y125.979 E352.9323
G1 X108.599 Y125.979
G1 X91.500 Y108.644 E353.9244
G1 X91.500 Y109.338
G1 X107.915 Y125.979 E354.8768
G1 X107.231 Y125.979
G1 X91.500 Y110.032 E355.7895
G1 X91.500 Y110.726
G1 X106.546 Y125.979 E356.6625
G1 X105.862 Y125.979
G1 X91.500 Y111.419 E357.4957
G1 X91.500 Y112.113
G1 X105.178 Y125.979 E358.2893
G1 X104.493 Y125.979
G1 X91.500 Y112.807 E359.0432
G1 X91.500 Y113.501
G1 X103.809 Y125.979 E359.7574
G1 X103.125 Y125.979
G1 X91.500 Y114.194 E360.4318
G1 X91.500 Y114.888
G1 X102.441 Y125.979 E361.0666
G1 X101.756 Y125.979
G1 X91.500 Y115.582 E361.6617
G1 X91.500 Y116.276
G1 X101.072 Y125.979 E362.2170
G1 X100.388 Y125.979
G1 X91.500 Y116.969 E362.7327
G1 X91.500 Y117.663
G1 X99.703 Y125.979 E363.2086
G1 X99.019 Y125.979
G1 X91.500 Y118.357 E363.6449
G1 X91.500 Y119.051
G1 X98.335 Y125.979 E364.0414
G1 X97.650 Y125.979
G1 X91.500 Y119.744 E364.3983
G1 X91.500 Y120.438
G1 X96.966 Y125.979 E364.7154
G1 X96.282 Y125.979
G1 X91.500 Y121.132 E364.9928
G1 X91.500 Y121.825
G1 X95.597 Y125.979 E365.2306
G1 X94.913 Y125.979
G1 X91.500 Y122.519 E365.4286
G1 X91.500 Y123.213
G1 X94.229 Y125.979 E365.5869
G1 X93.462 Y125.896
G1 X91.577 Y123.985 E365.6963
; ------------------------------------
; Layer #8
; ------------------------------------
G21 ; mm
G90 ; abs
G92 E0 ; reset extr
M73 S5
M106 S255
;segType:Loop
G0 F1200 E-1.0000
G0 F300 Z1.800
G0 X168.627 Y125.352 F5400
G0 F1200 E0.0000
G1 X168.297 Y125.783 E0.0221 F3000
G1 X167.625 Y126.298 E0.0566
G1 X166.842 Y126.623 E0.0912
G1 X165.952 Y126.740 E0.1278
G1 X94.049 Y126.740 E3.0573
G1 X93.158 Y126.623 E3.0939
G1 X92.375 Y126.298 E3.1285
G1 X91.703 Y125.783 E3.1630
G1 X91.189 Y125.113 E3.1974
G1 X90.866 Y124.334 E3.2317
G1 X90.750 Y123.449 E3.2681
G1 X90.750 Y76.551 E5.1789
G1 X90.866 Y75.666 E5.2153
G1 X91.189 Y74.887 E5.2496
G1 X91.703 Y74.217 E5.2840
G1 X92.375 Y73.702 E5.3185
G1 X93.158 Y73.377 E5.3531
G1 X94.049 Y73.260 E5.3896
G1 X165.952 Y73.260 E8.3192
G1 X166.842 Y73.377 E8.3558
G1 X167.625 Y73.702 E8.3904
G1 X168.297 Y74.217 E8.4249
G1 X168.811 Y74.887 E8.4593
G1 X169.134 Y75.666 E8.4936
G1 X169.250 Y76.551 E8.5300
G1 X169.250 Y123.449 E10.4408
G1 X169.134 Y124.334 E10.4772
G1 X168.811 Y125.113 E10.5115
G1 X168.776 Y125.158 E10.5138
G0 F1200 E9.5138
G0 X169.110 Y123.801 F5400
G0 F1200 E10.5138
;segType:Perimeter
G1 X169.592 Y124.536 E10.5496 F2100
G1 X169.246 Y125.371 E10.5865
G1 X168.651 Y126.147 E10.6263
G1 X167.875 Y126.742 E10.6661
G1 X166.971 Y127.117 E10.7060
G1 X165.984 Y127.247 E10.7466
G1 X94.016 Y127.247 E13.6788
G1 X93.029 Y127.117 E13.7194
G1 X92.125 Y126.742 E13.7593
G1 X91.349 Y126.147 E13.7991
G1 X90.754 Y125.371 E13.8389
G1 X90.380 Y124.468 E13.8787
G1 X90.250 Y123.483 E13.9192
G1 X90.250 Y76.517 E15.8328
G1 X90.380 Y75.532 E15.8733
G1 X90.754 Y74.629 E15.9131
G1 X91.349 Y73.853 E15.9529
