; GCode generated by CraftWare

M103 (disable RPM)
M73 P0 (enable build progress)
G21 (set units to mm)
G90 (set positioning to absolute)
M109 S65 T0 (set HBP temperature)
M104 S190 T0 (set extruder temperature) (temp updated by printOMatic)
G162 X Y F2500 (home XY axes maximum)
G161 Z F1100 (home Z axis minimum)
G92 Z-5 (set Z to -5)
G1 Z0.0 (move Z to "0")
G161 Z F100 (home Z axis minimum)
M132 X Y Z A B (Recall stored home offsets for XYZAB axis)
(**** end homing ****)
G1 X-110.5 Y-74 Z150 F3300.0 (move to waiting position)
G130 X20 Y20 Z20 A20 B20 (Lower stepper Vrefs while heating)
M6 T0 (wait for toolhead, and HBP to reach temperature)
G130 X127 Y127 Z40 A127 B127 (Set Stepper motor Vref to defaults)
M108 R3.0 T0
G0 X-110.5 Y-74 (Position Nozzle)
G0 Z0.6      (Position Height)
M108 R5.0    (Set Extruder Speed)
M101         (Start Extruder)
G4 P2000     (Create Anchor)
; ------------------------------------
; Layer #0
; ------------------------------------
G21 ; mm
G90 ; abs
G92 E0 ; reset extr
M73 S0
M106 S0
;segType:Skirt
G0 F1200 E-1.0000
G0 F300 Z0.200
G0 X90.730 Y128.882 F5400
G0 F1200 E0.0000
G1 X90.922 Y129.072 E0.0090 F3000
G1 X91.819 Y129.581 E0.0433
G1 X92.075 Y129.581 E0.0518
G1 X92.203 Y129.708 E0.0578
G1 X92.716 Y129.708 E0.0749
G1 X92.844 Y129.836 E0.0809
G1 X167.156 Y129.836 E2.5525
G1 X167.284 Y129.708 E2.5585
G1 X167.733 Y129.645 E2.5736
G1 X168.053 Y129.454 E2.5860
G1 X168.309 Y129.454 E2.5945
G1 X168.950 Y129.072 E2.6193
G1 X171.256 Y126.782 E2.7274
G1 X171.448 Y126.464 E2.7398
G1 X171.704 Y126.210 E2.7518
G1 X171.833 Y125.828 E2.7652
G1 X171.961 Y125.701 E2.7712
G1 X171.961 Y125.446 E2.7796
G1 X172.089 Y125.319 E2.7856
G1 X172.089 Y125.065 E2.7941
G1 X172.217 Y124.938 E2.8001
G1 X172.217 Y75.571 E4.4420
G1 X172.153 Y75.126 E4.4570
G1 X171.897 Y74.363 E4.4838
G1 X171.704 Y74.045 E4.4961
G1 X171.576 Y73.663 E4.5095
G1 X171.064 Y73.154 E4.5336
G1 X170.872 Y72.836 E4.5459
G1 X169.334 Y71.309 E4.6180
G1 X168.694 Y70.928 E4.6428
G1 X168.438 Y70.673 E4.6548
G1 X168.181 Y70.673 E4.6633
G1 X167.861 Y70.482 E4.6757
G1 X167.476 Y70.355 E4.6892
G1 X166.131 Y70.164 E4.7344
G1 X93.356 Y70.164 E7.1549
G1 X93.228 Y70.292 E7.1609
G1 X92.459 Y70.292 E7.1865
G1 X92.331 Y70.419 E7.1925
G1 X92.075 Y70.419 E7.2010
G1 X91.755 Y70.609 E7.2134
G1 X91.371 Y70.737 E7.2268
G1 X91.050 Y70.928 E7.2393
G1 X90.794 Y71.182 E7.2513
G1 X90.474 Y71.373 E7.2637
G1 X88.936 Y72.900 E7.3357
G1 X88.744 Y73.218 E7.3481
G1 X88.488 Y73.472 E7.3601
G1 X87.911 Y74.426 E7.3972
G1 X87.911 Y74.681 E7.4056
G1 X87.783 Y74.808 E7.4116
G1 X87.783 Y75.063 E7.4201
G1 X87.655 Y75.190 E7.4261
G1 X87.655 Y124.556 E9.0680
G1 X87.719 Y125.001 E9.0830
G1 X87.975 Y125.764 E9.1098
G1 X88.552 Y126.719 E9.1469
G1 X90.730 Y128.882 E9.2490
G1 X90.730 Y129.263 E9.2617
G1 X90.922 Y129.454 E9.2707
G1 X91.819 Y129.963 E9.3050
G1 X92.075 Y129.963 E9.3135
G1 X92.203 Y130.090 E9.3195
G1 X92.716 Y130.090 E9.3365
G1 X92.844 Y130.217 E9.3425
G1 X167.156 Y130.217 E11.8142
G1 X167.284 Y130.090 E11.8202
G1 X167.733 Y130.027 E11.8352
G1 X168.053 Y129.836 E11.8477
G1 X168.309 Y129.836 E11.8562
G1 X168.950 Y129.454 E11.8810
G1 X171.769 Y126.655 E12.0131
G1 X172.345 Y125.701 E12.0502
G1 X172.345 Y125.446 E12.0586
G1 X172.473 Y125.319 E12.0646
G1 X172.473 Y125.065 E12.0731
G1 X172.601 Y124.938 E12.0791
G1 X172.601 Y75.571 E13.7210
G1 X172.538 Y75.126 E13.7360
G1 X172.281 Y74.363 E13.7628
G1 X172.089 Y74.045 E13.7751
G1 X171.961 Y73.663 E13.7885
G1 X171.448 Y73.154 E13.8126
G1 X171.256 Y72.836 E13.8249
G1 X169.463 Y71.055 E13.9090
G1 X169.142 Y70.864 E13.9214
G1 X168.886 Y70.609 E13.9334
G1 X168.438 Y70.292 E13.9517
G1 X168.181 Y70.292 E13.9602
G1 X167.861 Y70.100 E13.9726
G1 X167.476 Y69.973 E13.9861
G1 X166.131 Y69.783 E14.0313
G1 X93.356 Y69.783 E16.4518
G1 X93.228 Y69.910 E16.4578
G1 X92.459 Y69.910 E16.4834
G1 X92.331 Y70.037 E16.4894
G1 X92.075 Y70.037 E16.4979
G1 X91.755 Y70.228 E16.5103
G1 X91.371 Y70.355 E16.5237
G1 X91.050 Y70.546 E16.5362
G1 X90.794 Y70.800 E16.5482
G1 X90.474 Y70.991 E16.5606
G1 X88.424 Y73.027 E16.6566
G1 X88.231 Y73.345 E16.6690
G1 X87.975 Y73.600 E16.6810
G1 X87.783 Y73.917 E16.6934
G1 X87.655 Y74.299 E16.7068
G1 X87.527 Y74.426 E16.7128
G1 X87.527 Y74.681 E16.7212
G1 X87.399 Y74.808 E16.7272
G1 X87.399 Y75.063 E16.7357
G1 X87.271 Y75.190 E16.7417
G1 X87.271 Y124.556 E18.3836
G1 X87.334 Y125.001 E18.3986
G1 X87.591 Y125.764 E18.4254
G1 X88.167 Y126.719 E18.4625
G1 X90.730 Y129.263 E18.5826
G0 F1200 E17.5826
G0 X92.812 Y127.759 F5400
G0 X94.894 Y126.255
G0 X167.772 Y73.614
G0 F1200 E18.5826
;segType:Loop
G1 X168.399 Y74.095 E18.6089 F3000
G1 X168.939 Y74.799 E18.6384
G1 X169.279 Y75.619 E18.6679
G1 X169.400 Y76.539 E18.6987
G1 X169.400 Y123.461 E20.2594
G1 X169.279 Y124.381 E20.2902
G1 X168.939 Y125.201 E20.3198
G1 X168.399 Y125.905 E20.3493
G1 X167.696 Y126.444 E20.3788
G1 X166.878 Y126.783 E20.4082
G1 X165.960 Y126.904 E20.4390
G1 X94.040 Y126.904 E22.8311
G1 X93.122 Y126.783 E22.8619
G1 X92.304 Y126.444 E22.8913
G1 X91.601 Y125.905 E22.9208
G1 X91.061 Y125.201 E22.9503
G1 X90.721 Y124.381 E22.9798
G1 X90.600 Y123.461 E23.0107
G1 X90.600 Y76.539 E24.5713
G1 X90.721 Y75.619 E24.6022
G1 X91.061 Y74.799 E24.6317
G1 X91.601 Y74.095 E24.6612
G1 X92.304 Y73.556 E24.6907
G1 X93.122 Y73.217 E24.7201
G1 X94.040 Y73.096 E24.7509
G1 X165.960 Y73.096 E27.1430
G1 X166.878 Y73.217 E27.1738
G1 X167.607 Y73.519 E27.2001
G0 F1200 E26.2001
G0 X166.460 Y73.233 F5400
G0 F1200 E27.2001
;segType:Perimeter
G1 X167.036 Y72.852 E27.2230 F2100
G1 X167.899 Y73.209 E27.2541
G1 X168.685 Y73.813 E27.2871
G1 X169.289 Y74.600 E27.3201
G1 X169.669 Y75.516 E27.3531
G1 X169.800 Y76.513 E27.3865
G1 X169.800 Y123.487 E28.9489
G1 X169.669 Y124.484 E28.9823
G1 X169.289 Y125.400 E29.0153
G1 X168.685 Y126.187 E29.0483
G1 X167.899 Y126.791 E29.0813
G1 X166.983 Y127.170 E29.1142
G1 X165.987 Y127.301 E29.1476
G1 X94.013 Y127.301 E31.5415
G1 X93.017 Y127.170 E31.5749
G1 X92.101 Y126.791 E31.6079
G1 X91.315 Y126.187 E31.6409
G1 X90.711 Y125.400 E31.6738
G1 X90.331 Y124.484 E31.7068
G1 X90.200 Y123.487 E31.7403
G1 X90.200 Y76.513 E33.3026
G1 X90.331 Y75.516 E33.3361
G1 X90.711 Y74.600 E33.3691
G1 X91.315 Y73.813 E33.4021
G1 X92.101 Y73.209 E33.4350
G1 X93.017 Y72.830 E33.4680
G1 X94.013 Y72.699 E33.5014
G1 X165.987 Y72.699 E35.8953
G1 X166.926 Y72.822 E35.9268
G1 X167.231 Y73.440
;segType:Loop
G0 X168.242 Y74.546 F5400
G1 X168.589 Y74.998 E35.9457 F3000
G1 X168.889 Y75.723 E35.9718
G1 X169.000 Y76.565 E36.0001
G1 X169.000 Y123.435 E37.5590
G1 X168.889 Y124.277 E37.5873
G1 X168.589 Y125.002 E37.6133
G1 X168.113 Y125.623 E37.6394
G1 X167.493 Y126.098 E37.6653
G1 X166.773 Y126.396 E37.6913
G1 X165.934 Y126.507 E37.7194
G1 X94.066 Y126.507 E40.1097
G1 X93.227 Y126.396 E40.1379
G1 X92.507 Y126.098 E40.1638
G1 X91.887 Y125.623 E40.1898
G1 X91.411 Y125.002 E40.2158
G1 X91.111 Y124.277 E40.2419
G1 X91.000 Y123.435 E40.2701
G1 X91.000 Y76.565 E41.8291
G1 X91.111 Y75.723 E41.8573
G1 X91.411 Y74.998 E41.8834
G1 X91.887 Y74.377 E41.9094
G1 X92.507 Y73.902 E41.9354
G1 X93.227 Y73.604 E41.9613
G1 X94.066 Y73.493 E41.9895
G1 X165.934 Y73.493 E44.3798
G1 X166.773 Y73.604 E44.4079
G1 X167.493 Y73.902 E44.4339
G1 X168.113 Y74.377 E44.4599
G1 X168.125 Y74.394 E44.4605
;segType:HShell
G0 X168.524 Y124.638 F5400
G1 X167.110 Y126.042 E44.5268 F3000
G0 X91.556 Y75.169 F5400
G1 X92.694 Y74.039 E44.5801 F3000
G0 X168.739 Y123.883 F5400
G1 X166.355 Y126.251 E44.6919 F3000
G1 X165.753 Y126.309
G1 X168.800 Y123.282 E44.8348
G1 X168.800 Y122.742
G1 X165.209 Y126.309 E45.0031
G1 X164.665 Y126.309
G1 X168.800 Y122.202 E45.1970
G1 X168.800 Y121.661
G1 X164.120 Y126.309 E45.4163
G1 X163.576 Y126.309
G1 X168.800 Y121.121 E45.6612
G1 X168.800 Y120.581
G1 X163.032 Y126.309 E45.9316
G1 X162.488 Y126.309
G1 X168.800 Y120.040 E46.2275
G1 X168.800 Y119.500
G1 X161.944 Y126.309 E46.5488
G1 X161.400 Y126.309
G1 X168.800 Y118.960 E46.8957
G1 X168.800 Y118.419
G1 X160.856 Y126.309 E47.2681
G1 X160.311 Y126.309
G1 X168.800 Y117.879 E47.6660
G1 X168.800 Y117.339
G1 X159.767 Y126.309 E48.0894
G1 X159.223 Y126.309
G1 X168.800 Y116.798 E48.5384
G1 X168.800 Y116.258
G1 X158.679 Y126.309 E49.0128
G1 X158.135 Y126.309
G1 X168.800 Y115.718 E49.5127
G1 X168.800 Y115.177
G1 X157.591 Y126.309 E50.0381
G1 X157.047 Y126.309
G1 X168.800 Y114.637 E50.5891
G1 X168.800 Y114.097
G1 X156.503 Y126.309 E51.1655
G1 X155.958 Y126.309
G1 X168.800 Y113.556 E51.7674
G1 X168.800 Y113.016
G1 X155.414 Y126.309 E52.3949
G1 X154.870 Y126.309
G1 X168.800 Y112.476 E53.0479
G1 X168.800 Y111.935
G1 X154.326 Y126.309 E53.7263
G1 X153.782 Y126.309
G1 X168.800 Y111.395 E54.4303
G1 X168.800 Y110.855
G1 X153.238 Y126.309 E55.1597
G1 X152.694 Y126.309
G1 X168.800 Y110.314 E55.9147
G1 X168.800 Y109.774
G1 X152.149 Y126.309 E56.6952
G1 X151.605 Y126.309
G1 X168.800 Y109.234 E57.5012
G1 X168.800 Y108.693
G1 X151.061 Y126.309 E58.3327
G1 X150.517 Y126.309
G1 X168.800 Y108.153 E59.1897
G1 X168.800 Y107.613
G1 X149.973 Y126.309 E60.0722
G1 X149.429 Y126.309
G1 X168.800 Y107.072 E60.9802
G1 X168.800 Y106.532
G1 X148.885 Y126.309 E61.9137
G1 X148.341 Y126.309
G1 X168.800 Y105.992 E62.8727
G1 X168.800 Y105.451
G1 X147.796 Y126.309 E63.8573
G1 X147.252 Y126.309
G1 X168.800 Y104.911 E64.8673
G1 X168.800 Y104.370
G1 X146.708 Y126.309 E65.9028
G1 X146.164 Y126.309
G1 X168.800 Y103.830 E66.9639
G1 X168.800 Y103.290
G1 X145.620 Y126.309 E68.0504
G1 X145.076 Y126.309
G1 X168.800 Y102.749 E69.1625
G1 X168.800 Y102.209
G1 X144.532 Y126.309 E70.3000
G1 X143.988 Y126.309
G1 X168.800 Y101.669 E71.4631
G1 X168.800 Y101.128
G1 X143.443 Y126.309 E72.6517
G1 X142.899 Y126.309
G1 X168.800 Y100.588 E73.8657
G1 X168.800 Y100.048
G1 X142.355 Y126.309 E75.1053
G1 X141.811 Y126.309
G1 X168.800 Y99.507 E76.3704
G1 X168.800 Y98.967
G1 X141.267 Y126.309 E77.6610
G1 X140.723 Y126.309
G1 X168.800 Y98.427 E78.9771
G1 X168.800 Y97.886
G1 X140.179 Y126.309 E80.3187
G1 X139.634 Y126.309
G1 X168.800 Y97.346 E81.6858
G1 X168.800 Y96.806
G1 X139.090 Y126.309 E83.0784
G1 X138.546 Y126.309
G1 X168.800 Y96.265 E84.4965
G1 X168.800 Y95.725
G1 X138.002 Y126.309 E85.9401
G1 X137.458 Y126.309
G1 X168.800 Y95.185 E87.4092
G1 X168.800 Y94.644
G1 X136.914 Y126.309 E88.9039
G1 X136.370 Y126.309
G1 X168.800 Y94.104 E90.4240
G1 X168.800 Y93.564
G1 X135.826 Y126.309 E91.9696
G1 X135.281 Y126.309
G1 X168.800 Y93.023 E93.5408
G1 X168.800 Y92.483
G1 X134.737 Y126.309 E95.1374
G1 X134.193 Y126.309
G1 X168.800 Y91.943 E96.7596
G1 X168.800 Y91.402
G1 X133.649 Y126.309 E98.4072
G1 X133.105 Y126.309
G1 X168.800 Y90.862 E100.0804
G1 X168.800 Y90.322
G1 X132.561 Y126.309 E101.7791
G1 X132.017 Y126.309
G1 X168.800 Y89.781 E103.5033
G1 X168.800 Y89.241
G1 X131.472 Y126.309 E105.2529
G1 X130.928 Y126.309
G1 X168.800 Y88.701 E107.0281
G1 X168.800 Y88.160
G1 X130.384 Y126.309 E108.8288
G1 X129.840 Y126.309
G1 X168.800 Y87.620 E110.6550
G1 X168.800 Y87.080
G1 X129.296 Y126.309 E112.5067
G1 X128.752 Y126.309
G1 X168.800 Y86.539 E114.3839
G1 X168.800 Y85.999
G1 X128.208 Y126.309 E116.2867
G1 X127.664 Y126.309
G1 X168.800 Y85.459 E118.2149
G1 X168.800 Y84.918
G1 X127.119 Y126.309 E120.1686
G1 X126.575 Y126.309
G1 X168.800 Y84.378 E122.1478
G1 X168.800 Y83.838
G1 X126.031 Y126.309 E124.1526
G1 X125.487 Y126.309
G1 X168.800 Y83.297 E126.1828
G1 X168.800 Y82.757
G1 X124.943 Y126.309 E128.2386
G1 X124.399 Y126.309
G1 X168.800 Y82.217 E130.3198
G1 X168.800 Y81.676
G1 X123.855 Y126.309 E132.4266
G1 X123.310 Y126.309
G1 X168.800 Y81.136 E134.5588
G1 X168.800 Y80.596
G1 X122.766 Y126.309 E136.7166
G1 X122.222 Y126.309
G1 X168.800 Y80.055 E138.8999
G1 X168.800 Y79.515
G1 X121.678 Y126.309 E141.1086
G1 X121.134 Y126.309
G1 X168.800 Y78.974 E143.3429
G1 X168.800 Y78.434
G1 X120.590 Y126.309 E145.6027
G1 X120.046 Y126.309
G1 X168.800 Y77.894 E147.8880
G1 X168.800 Y77.353
G1 X119.502 Y126.309 E150.1988
G1 X118.957 Y126.309
G1 X168.800 Y76.813 E152.5351
G1 X168.765 Y76.308
G1 X118.413 Y126.309 E154.8953
G1 X117.869 Y126.309
G1 X168.702 Y75.831 E157.2779
G1 X168.554 Y75.436
G1 X117.325 Y126.309 E159.6792
G1 X116.781 Y126.309
G1 X168.387 Y75.062 E162.0982
G1 X168.152 Y74.756
G1 X116.237 Y126.309 E164.5316
G1 X115.693 Y126.309
G1 X167.900 Y74.465 E166.9787
G1 X167.593 Y74.230
G1 X115.148 Y126.309 E169.4370
G1 X114.604 Y126.309
G1 X167.260 Y74.020 E171.9051
G1 X166.876 Y73.861
G1 X114.060 Y126.309 E174.3807
G1 X113.516 Y126.309
G1 X166.434 Y73.759 E176.8612
G1 X165.954 Y73.696
G1 X112.972 Y126.309 E179.3447
G1 X112.428 Y126.309
G1 X165.415 Y73.691 E181.8283
G1 X164.870 Y73.691
G1 X111.884 Y126.309 E184.3120
G1 X111.340 Y126.309
G1 X164.326 Y73.691 E186.7956
G1 X163.782 Y73.691
G1 X110.795 Y126.309 E189.2793
G1 X110.251 Y126.309
G1 X163.238 Y73.691 E191.7629
G1 X162.694 Y73.691
G1 X109.707 Y126.309 E194.2466
G1 X109.163 Y126.309
G1 X162.150 Y73.691 E196.7303
G1 X161.606 Y73.691
G1 X108.619 Y126.309 E199.2139
G1 X108.075 Y126.309
G1 X161.061 Y73.691 E201.6976
G1 X160.517 Y73.691
G1 X107.531 Y126.309 E204.1812
G1 X106.986 Y126.309
G1 X159.973 Y73.691 E206.6649
G1 X159.429 Y73.691
G1 X106.442 Y126.309 E209.1486
G1 X105.898 Y126.309
G1 X158.885 Y73.691 E211.6322
G1 X158.341 Y73.691
G1 X105.354 Y126.309 E214.1159
G1 X104.810 Y126.309
G1 X157.797 Y73.691 E216.5995
G1 X157.253 Y73.691
G1 X104.266 Y126.309 E219.0832
G1 X103.722 Y126.309
G1 X156.708 Y73.691 E221.5668
G1 X156.164 Y73.691
G1 X103.178 Y126.309 E224.0505
G1 X102.633 Y126.309
G1 X155.620 Y73.691 E226.5342
G1 X155.076 Y73.691
G1 X102.089 Y126.309 E229.0178
G1 X101.545 Y126.309
G1 X154.532 Y73.691 E231.5015
G1 X153.988 Y73.691
G1 X101.001 Y126.309 E233.9851
G1 X100.457 Y126.309
G1 X153.444 Y73.691 E236.4688
G1 X152.899 Y73.691
G1 X99.913 Y126.309 E238.9525
G1 X99.369 Y126.309
G1 X152.355 Y73.691 E241.4361
G1 X151.811 Y73.691
G1 X98.825 Y126.309 E243.9198
G1 X98.280 Y126.309
G1 X151.267 Y73.691 E246.4034
G1 X150.723 Y73.691
G1 X97.736 Y126.309 E248.8871
G1 X97.192 Y126.309
G1 X150.179 Y73.691 E251.3707
G1 X149.635 Y73.691
G1 X96.648 Y126.309 E253.8544
G1 X96.104 Y126.309
G1 X149.091 Y73.691 E256.3381
G1 X148.546 Y73.691
G1 X95.560 Y126.309 E258.8217
G1 X95.016 Y126.309
G1 X148.002 Y73.691 E261.3054
G1 X147.458 Y73.691
G1 X94.471 Y126.309 E263.7891
G1 X93.945 Y126.291
G1 X146.914 Y73.691 E266.2719
G1 X146.370 Y73.691
G1 X93.465 Y126.228 E268.7517
G1 X93.044 Y126.105
G1 X145.826 Y73.691 E271.2258
G1 X145.282 Y73.691
G1 X92.660 Y125.946 E273.6923
G1 X92.343 Y125.721
G1 X144.737 Y73.691 E276.1483
G1 X144.193 Y73.691
G1 X92.036 Y125.485 E278.5931
G1 X91.799 Y125.180
G1 X143.649 Y73.691 E281.0235
G1 X143.105 Y73.691
G1 X91.571 Y124.866 E283.4390
G1 X91.413 Y124.483
G1 X142.561 Y73.691 E285.8365
G1 X142.017 Y73.691
G1 X91.285 Y124.069 E288.2145
G1 X91.222 Y123.592
G1 X141.473 Y73.691 E290.5699
G1 X140.929 Y73.691
G1 X91.200 Y123.074 E292.9008
G1 X91.200 Y122.533
G1 X140.384 Y73.691 E295.2063
G1 X139.840 Y73.691
G1 X91.200 Y121.993 E297.4862
G1 X91.200 Y121.453
G1 X139.296 Y73.691 E299.7407
G1 X138.752 Y73.691
G1 X91.200 Y120.912 E301.9696
G1 X91.200 Y120.372
G1 X138.208 Y73.691 E304.1730
G1 X137.664 Y73.691
G1 X91.200 Y119.832 E306.3510
G1 X91.200 Y119.291
G1 X137.120 Y73.691 E308.5034
G1 X136.576 Y73.691
G1 X91.200 Y118.751 E310.6303
G1 X91.200 Y118.211
G1 X136.031 Y73.691 E312.7317
G1 X135.487 Y73.691
G1 X91.200 Y117.670 E314.8076
G1 X91.200 Y117.130
G1 X134.943 Y73.691 E316.8580
G1 X134.399 Y73.691
G1 X91.200 Y116.590 E318.8829
G1 X91.200 Y116.049
G1 X133.855 Y73.691 E320.8823
G1 X133.311 Y73.691
G1 X91.200 Y115.509 E322.8562
G1 X91.200 Y114.969
G1 X132.767 Y73.691 E324.8046
G1 X132.222 Y73.691
G1 X91.200 Y114.428 E326.7275
G1 X91.200 Y113.888
G1 X131.678 Y73.691 E328.6249
G1 X131.134 Y73.691
G1 X91.200 Y113.348 E330.4967
G1 X91.200 Y112.807
G1 X130.590 Y73.691 E332.3431
G1 X130.046 Y73.691
G1 X91.200 Y112.267 E334.1639
G1 X91.200 Y111.726
G1 X129.502 Y73.691 E335.9593
G1 X128.958 Y73.691
G1 X91.200 Y111.186 E337.7291
G1 X91.200 Y110.646
G1 X128.414 Y73.691 E339.4734
G1 X127.869 Y73.691
G1 X91.200 Y110.105 E341.1923
G1 X91.200 Y109.565
G1 X127.325 Y73.691 E342.8856
G1 X126.781 Y73.691
G1 X91.200 Y109.025 E344.5534
G1 X91.200 Y108.484
G1 X126.237 Y73.691 E346.1957
G1 X125.693 Y73.691
G1 X91.200 Y107.944 E347.8125
G1 X91.200 Y107.404
G1 X125.149 Y73.691 E349.4039
G1 X124.605 Y73.691
G1 X91.200 Y106.863 E350.9696
G1 X91.200 Y106.323
G1 X124.060 Y73.691 E352.5099
G1 X123.516 Y73.691
G1 X91.200 Y105.783 E354.0247
G1 X91.200 Y105.242
G1 X122.972 Y73.691 E355.5140
G1 X122.428 Y73.691
G1 X91.200 Y104.702 E356.9778
G1 X91.200 Y104.162
G1 X121.884 Y73.691 E358.4161
G1 X121.340 Y73.691
G1 X91.200 Y103.621 E359.8288
G1 X91.200 Y103.081
G1 X120.796 Y73.691 E361.2161
G1 X120.252 Y73.691
G1 X91.200 Y102.541 E362.5779
G1 X91.200 Y102.000
G1 X119.707 Y73.691 E363.9141
G1 X119.163 Y73.691
G1 X91.200 Y101.460 E365.2249
G1 X91.200 Y100.920
G1 X118.619 Y73.691 E366.5101
G1 X118.075 Y73.691
G1 X91.200 Y100.379 E367.7698
G1 X91.200 Y99.839
G1 X117.531 Y73.691 E369.0041
G1 X116.987 Y73.691
G1 X91.200 Y99.299 E370.2128
G1 X91.200 Y98.758
G1 X116.443 Y73.691 E371.3960
G1 X115.898 Y73.691
G1 X91.200 Y98.218 E372.5538
G1 X91.200 Y97.678
G1 X115.354 Y73.691 E373.6860
G1 X114.810 Y73.691
G1 X91.200 Y97.137 E374.7927
G1 X91.200 Y96.597
G1 X114.266 Y73.691 E375.8739
G1 X113.722 Y73.691
G1 X91.200 Y96.057 E376.9296
G1 X91.200 Y95.516
G1 X113.178 Y73.691 E377.9598
G1 X112.634 Y73.691
G1 X91.200 Y94.976 E378.9644
G1 X91.200 Y94.436
G1 X112.090 Y73.691 E379.9436
G1 X111.545 Y73.691
G1 X91.200 Y93.895 E380.8973
G1 X91.200 Y93.355
G1 X111.001 Y73.691 E381.8255
G1 X110.457 Y73.691
G1 X91.200 Y92.815 E382.7281
G1 X91.200 Y92.274
G1 X109.913 Y73.691 E383.6053
G1 X109.369 Y73.691
G1 X91.200 Y91.734 E384.4569
G1 X91.200 Y91.194
G1 X108.825 Y73.691 E385.2831
G1 X108.281 Y73.691
G1 X91.200 Y90.653 E386.0837
G1 X91.200 Y90.113
G1 X107.736 Y73.691 E386.8588
G1 X107.192 Y73.691
G1 X91.200 Y89.573 E387.6085
G1 X91.200 Y89.032
G1 X106.648 Y73.691 E388.3326
G1 X106.104 Y73.691
G1 X91.200 Y88.492 E389.0312
G1 X91.200 Y87.951
G1 X105.560 Y73.691 E389.7043
G1 X105.016 Y73.691
G1 X91.200 Y87.411 E390.3519
G1 X91.200 Y86.871
G1 X104.472 Y73.691 E390.9740
G1 X103.928 Y73.691
G1 X91.200 Y86.330 E391.5706
G1 X91.200 Y85.790
G1 X103.383 Y73.691 E392.1417
G1 X102.839 Y73.691
G1 X91.200 Y85.250 E392.6873
G1 X91.200 Y84.709
G1 X102.295 Y73.691 E393.2074
G1 X101.751 Y73.691
G1 X91.200 Y84.169 E393.7020
G1 X91.200 Y83.629
G1 X101.207 Y73.691 E394.1711
G1 X100.663 Y73.691
G1 X91.200 Y83.088 E394.6146
G1 X91.200 Y82.548
G1 X100.119 Y73.691 E395.0327
G1 X99.574 Y73.691
G1 X91.200 Y82.008 E395.4252
G1 X91.200 Y81.467
G1 X99.030 Y73.691 E395.7923
G1 X98.486 Y73.691
G1 X91.200 Y80.927 E396.1339
G1 X91.200 Y80.387
G1 X97.942 Y73.691 E396.4499
G1 X97.398 Y73.691
G1 X91.200 Y79.846 E396.7404
G1 X91.200 Y79.306
G1 X96.854 Y73.691 E397.0055
G1 X96.310 Y73.691
G1 X91.200 Y78.766 E397.2450
G1 X91.200 Y78.225
G1 X95.766 Y73.691 E397.4590
G1 X95.221 Y73.691
G1 X91.200 Y77.685 E397.6475
G1 X91.200 Y77.145
G1 X94.677 Y73.691 E397.8105
G1 X94.133 Y73.691
G1 X91.200 Y76.604 E397.9480
G1 X91.278 Y75.986
G1 X93.514 Y73.766 E398.0528
; ------------------------------------
; Layer #1
; ------------------------------------
G21 ; mm
G90 ; abs
G92 E0 ; reset extr
M73 S0
M106 S0
;segType:Loop
G0 F1200 E-1.0000
G0 F300 Z0.400
G0 X167.772 Y73.614 F5400
G0 F1200 E0.0000
G1 X168.399 Y74.095 E0.0258 F2700
G1 X168.939 Y74.799 E0.0547
G1 X169.279 Y75.619 E0.0836
G1 X169.400 Y76.539 E0.1138
G1 X169.400 Y123.461 E1.6433
G1 X169.279 Y124.381 E1.6735
G1 X168.939 Y125.201 E1.7025
G1 X168.399 Y125.905 E1.7314
G1 X167.696 Y126.444 E1.7603
G1 X166.878 Y126.783 E1.7891
G1 X165.960 Y126.904 E1.8193
G1 X94.040 Y126.904 E4.1635
G1 X93.122 Y126.783 E4.1937
G1 X92.304 Y126.444 E4.2226
G1 X91.601 Y125.905 E4.2515
G1 X91.061 Y125.201 E4.2804
G1 X90.721 Y124.381 E4.3093
G1 X90.600 Y123.461 E4.3395
G1 X90.600 Y76.539 E5.8690
G1 X90.721 Y75.619 E5.8992
G1 X91.061 Y74.799 E5.9282
G1 X91.601 Y74.095 E5.9571
G1 X92.304 Y73.556 E5.9859
G1 X93.122 Y73.217 E6.0148
G1 X94.040 Y73.096 E6.0450
G1 X165.960 Y73.096 E8.3892
G1 X166.878 Y73.217 E8.4194
G1 X167.607 Y73.519 E8.4451
G0 F1200 E7.4451
G0 X166.460 Y73.233 F5400
G0 F1200 E8.4451
;segType:Perimeter
G1 X167.036 Y72.852 E8.4677 F1890
G1 X167.899 Y73.209 E8.4981
G1 X168.685 Y73.813 E8.5304
G1 X169.289 Y74.600 E8.5627
G1 X169.669 Y75.516 E8.5951
G1 X169.800 Y76.513 E8.6278
G1 X169.800 Y123.487 E10.1590
G1 X169.669 Y124.484 E10.1917
G1 X169.289 Y125.400 E10.2241
G1 X168.685 Y126.187 E10.2564
G1 X167.899 Y126.791 E10.2887
G1 X166.983 Y127.170 E10.3210
G1 X165.987 Y127.301 E10.3538
G1 X94.013 Y127.301 E12.6997
G1 X93.017 Y127.170 E12.7325
G1 X92.101 Y126.791 E12.7648
G1 X91.315 Y126.187 E12.7971
G1 X90.711 Y125.400 E12.8294
G1 X90.331 Y124.484 E12.8618
G1 X90.200 Y123.487 E12.8946
G1 X90.200 Y76.513 E14.4257
G1 X90.331 Y75.516 E14.4584
G1 X90.711 Y74.600 E14.4908
G1 X91.315 Y73.813 E14.5231
G1 X92.101 Y73.209 E14.5554
G1 X93.017 Y72.830 E14.5877
G1 X94.013 Y72.699 E14.6205
G1 X165.987 Y72.699 E16.9665
G1 X166.926 Y72.822 E16.9973
G1 X167.231 Y73.440
;segType:Loop
G0 X168.242 Y74.546 F5400
G1 X168.589 Y74.998 E17.0159 F2700
G1 X168.889 Y75.723 E17.0415
G1 X169.000 Y76.565 E17.0692
G1 X169.000 Y123.435 E18.5969
G1 X168.889 Y124.277 E18.6246
G1 X168.589 Y125.002 E18.6501
G1 X168.113 Y125.623 E18.6756
G1 X167.493 Y126.098 E18.7011
G1 X166.773 Y126.396 E18.7265
G1 X165.934 Y126.507 E18.7541
G1 X94.066 Y126.507 E21.0966
G1 X93.227 Y126.396 E21.1242
G1 X92.507 Y126.098 E21.1496
G1 X91.887 Y125.623 E21.1751
G1 X91.411 Y125.002 E21.2006
G1 X91.111 Y124.277 E21.2261
G1 X91.000 Y123.435 E21.2538
G1 X91.000 Y76.565 E22.7816
G1 X91.111 Y75.723 E22.8093
G1 X91.411 Y74.998 E22.8348
G1 X91.887 Y74.377 E22.8603
G1 X92.507 Y73.902 E22.8858
G1 X93.227 Y73.604 E22.9112
G1 X94.066 Y73.493 E22.9388
G1 X165.934 Y73.493 E25.2813
G1 X166.773 Y73.604 E25.3089
G1 X167.493 Y73.902 E25.3343
G1 X168.113 Y74.377 E25.3597
G1 X168.125 Y74.394 E25.3604
;segType:HShell
G0 X168.025 Y74.591 F5400
G1 X167.893 Y74.460 E25.3665 F2700
G0 X166.675 Y73.791 F5400
G1 X168.697 Y75.799 E25.4594 F2700
G1 X168.780 Y76.421
G1 X166.048 Y73.708 E25.5849
G1 X165.487 Y73.691
G1 X168.800 Y76.982 E25.7371
G1 X168.800 Y77.522
G1 X164.943 Y73.691 E25.9143
G1 X164.398 Y73.691
G1 X168.800 Y78.063 E26.1165
G1 X168.800 Y78.603
G1 X163.854 Y73.691 E26.3437
G1 X163.310 Y73.691
G1 X168.800 Y79.143 E26.5959
G1 X168.800 Y79.684
G1 X162.766 Y73.691 E26.8731
G1 X162.222 Y73.691
G1 X168.800 Y80.224 E27.1753
G1 X168.800 Y80.764
G1 X161.678 Y73.691 E27.5024
G1 X161.134 Y73.691
G1 X168.800 Y81.305 E27.8546
G1 X168.800 Y81.845
G1 X160.590 Y73.691 E28.2318
G1 X160.045 Y73.691
G1 X168.800 Y82.385 E28.6340
G1 X168.800 Y82.926
G1 X159.501 Y73.691 E29.0611
G1 X158.957 Y73.691
G1 X168.800 Y83.466 E29.5133
G1 X168.800 Y84.006
G1 X158.413 Y73.691 E29.9904
G1 X157.869 Y73.691
G1 X168.800 Y84.547 E30.4926
G1 X168.800 Y85.087
G1 X157.325 Y73.691 E31.0197
G1 X156.781 Y73.691
G1 X168.800 Y85.627 E31.5719
G1 X168.800 Y86.168
G1 X156.236 Y73.691 E32.1490
G1 X155.692 Y73.691
G1 X168.800 Y86.708 E32.7511
G1 X168.800 Y87.248
G1 X155.148 Y73.691 E33.3782
G1 X154.604 Y73.691
G1 X168.800 Y87.789 E34.0304
G1 X168.800 Y88.329
G1 X154.060 Y73.691 E34.7075
G1 X153.516 Y73.691
G1 X168.800 Y88.869 E35.4096
G1 X168.800 Y89.410
G1 X152.972 Y73.691 E36.1367
G1 X152.428 Y73.691
G1 X168.800 Y89.950 E36.8888
G1 X168.800 Y90.490
G1 X151.883 Y73.691 E37.6659
G1 X151.339 Y73.691
G1 X168.800 Y91.031 E38.4680
G1 X168.800 Y91.571
G1 X150.795 Y73.691 E39.2951
G1 X150.251 Y73.691
G1 X168.800 Y92.111 E40.1471
G1 X168.800 Y92.652
G1 X149.707 Y73.691 E41.0242
G1 X149.163 Y73.691
G1 X168.800 Y93.192 E41.9263
G1 X168.800 Y93.732
G1 X148.619 Y73.691 E42.8534
G1 X148.074 Y73.691
G1 X168.800 Y94.273 E43.8054
G1 X168.800 Y94.813
G1 X147.530 Y73.691 E44.7825
G1 X146.986 Y73.691
G1 X168.800 Y95.353 E45.7845
G1 X168.800 Y95.894
G1 X146.442 Y73.691 E46.8116
G1 X145.898 Y73.691
G1 X168.800 Y96.434 E47.8636
G1 X168.800 Y96.974
G1 X145.354 Y73.691 E48.9406
G1 X144.810 Y73.691
G1 X168.800 Y97.515 E50.0427
G1 X168.800 Y98.055
G1 X144.266 Y73.691 E51.1697
G1 X143.721 Y73.691
G1 X168.800 Y98.595 E52.3217
G1 X168.800 Y99.136
G1 X143.177 Y73.691 E53.4988
G1 X142.633 Y73.691
G1 X168.800 Y99.676 E54.7008
G1 X168.800 Y100.216
G1 X142.089 Y73.691 E55.9278
G1 X141.545 Y73.691
G1 X168.800 Y100.757 E57.1798
G1 X168.800 Y101.297
G1 X141.001 Y73.691 E58.4568
G1 X140.457 Y73.691
G1 X168.800 Y101.837 E59.7588
G1 X168.800 Y102.378
G1 X139.912 Y73.691 E61.0858
G1 X139.368 Y73.691
G1 X168.800 Y102.918 E62.4377
G1 X168.800 Y103.459
G1 X138.824 Y73.691 E63.8147
G1 X138.280 Y73.691
G1 X168.800 Y103.999 E65.2167
G1 X168.800 Y104.539
G1 X137.736 Y73.691 E66.6437
G1 X137.192 Y73.691
G1 X168.800 Y105.080 E68.0956
G1 X168.800 Y105.620
G1 X136.648 Y73.691 E69.5726
G1 X136.104 Y73.691
G1 X168.800 Y106.160 E71.0745
G1 X168.800 Y106.701
G1 X135.559 Y73.691 E72.6015
G1 X135.015 Y73.691
G1 X168.800 Y107.241 E74.1535
G1 X168.800 Y107.781
G1 X134.471 Y73.691 E75.7304
G1 X133.927 Y73.691
G1 X168.800 Y108.322 E77.3323
G1 X168.800 Y108.862
G1 X133.383 Y73.691 E78.9593
G1 X132.839 Y73.691
G1 X168.800 Y109.402 E80.6112
G1 X168.800 Y109.943
G1 X132.295 Y73.691 E82.2881
G1 X131.750 Y73.691
G1 X168.800 Y110.483 E83.9900
G1 X168.800 Y111.023
G1 X131.206 Y73.691 E85.7169
G1 X130.662 Y73.691
G1 X168.800 Y111.564 E87.4689
G1 X168.800 Y112.104
G1 X130.118 Y73.691 E89.2458
G1 X129.574 Y73.691
G1 X168.800 Y112.644 E91.0476
G1 X168.800 Y113.185
G1 X129.030 Y73.691 E92.8745
G1 X128.486 Y73.691
G1 X168.800 Y113.725 E94.7264
G1 X168.800 Y114.265
G1 X127.942 Y73.691 E96.6033
G1 X127.397 Y73.691
G1 X168.800 Y114.806 E98.5052
G1 X168.800 Y115.346
G1 X126.853 Y73.691 E100.4321
G1 X126.309 Y73.691
G1 X168.800 Y115.886 E102.3839
G1 X168.800 Y116.427
G1 X125.765 Y73.691 E104.3608
G1 X125.221 Y73.691
G1 X168.800 Y116.967 E106.3627
G1 X168.800 Y117.507
G1 X124.677 Y73.691 E108.3895
G1 X124.133 Y73.691
G1 X168.800 Y118.048 E110.4414
G1 X168.800 Y118.588
G1 X123.589 Y73.691 E112.5182
G1 X123.044 Y73.691
G1 X168.800 Y119.128 E114.6201
G1 X168.800 Y119.669
G1 X122.500 Y73.691 E116.7469
G1 X121.956 Y73.691
G1 X168.800 Y120.209 E118.8987
G1 X168.800 Y120.749
G1 X121.412 Y73.691 E121.0756
G1 X120.868 Y73.691
G1 X168.800 Y121.290 E123.2774
G1 X168.800 Y121.830
G1 X120.324 Y73.691 E125.5042
G1 X119.780 Y73.691
G1 X168.800 Y122.370 E127.7560
G1 X168.800 Y122.911
G1 X119.235 Y73.691 E130.0328
G1 X118.691 Y73.691
G1 X168.797 Y123.448 E132.3344
G1 X168.734 Y123.925
G1 X118.147 Y73.691 E134.6582
G1 X117.603 Y73.691
G1 X168.635 Y124.368 E137.0024
G1 X168.477 Y124.751
G1 X117.059 Y73.691 E139.3643
G1 X116.515 Y73.691
G1 X168.272 Y125.088 E141.7418
G1 X168.036 Y125.394
G1 X115.971 Y73.691 E144.1335
G1 X115.427 Y73.691
G1 X167.750 Y125.650 E146.5370
G1 X167.443 Y125.886
G1 X114.882 Y73.691 E148.9515
G1 X114.338 Y73.691
G1 X167.072 Y126.057 E151.3738
G1 X166.680 Y126.208
G1 X113.794 Y73.691 E153.8032
G1 X113.250 Y73.691
G1 X166.200 Y126.272 E156.2354
G1 X165.693 Y126.309
G1 X112.706 Y73.691 E158.6694
G1 X112.162 Y73.691
G1 X165.148 Y126.309 E161.1034
G1 X164.604 Y126.309
G1 X111.618 Y73.691 E163.5374
G1 X111.073 Y73.691
G1 X164.060 Y126.309 E165.9714
G1 X163.516 Y126.309
G1 X110.529 Y73.691 E168.4054
G1 X109.985 Y73.691
G1 X162.972 Y126.309 E170.8394
G1 X162.428 Y126.309
G1 X109.441 Y73.691 E173.2734
G1 X108.897 Y73.691
G1 X161.884 Y126.309 E175.7074
G1 X161.340 Y126.309
G1 X108.353 Y73.691 E178.1414
G1 X107.809 Y73.691
G1 X160.795 Y126.309 E180.5754
G1 X160.251 Y126.309
G1 X107.265 Y73.691 E183.0093
G1 X106.720 Y73.691
G1 X159.707 Y126.309 E185.4433
G1 X159.163 Y126.309
G1 X106.176 Y73.691 E187.8773
G1 X105.632 Y73.691
G1 X158.619 Y126.309 E190.3113
G1 X158.075 Y126.309
G1 X105.088 Y73.691 E192.7453
G1 X104.544 Y73.691
G1 X157.531 Y126.309 E195.1793
G1 X156.986 Y126.309
G1 X104.000 Y73.691 E197.6133
G1 X103.456 Y73.691
G1 X156.442 Y126.309 E200.0473
G1 X155.898 Y126.309
G1 X102.911 Y73.691 E202.4813
G1 X102.367 Y73.691
G1 X155.354 Y126.309 E204.9153
G1 X154.810 Y126.309
G1 X101.823 Y73.691 E207.3492
G1 X101.279 Y73.691
G1 X154.266 Y126.309 E209.7832
G1 X153.722 Y126.309
G1 X100.735 Y73.691 E212.2172
G1 X100.191 Y73.691
G1 X153.178 Y126.309 E214.6512
G1 X152.633 Y126.309
G1 X99.647 Y73.691 E217.0852
G1 X99.103 Y73.691
G1 X152.089 Y126.309 E219.5192
G1 X151.545 Y126.309
G1 X98.558 Y73.691 E221.9532
G1 X98.014 Y73.691
G1 X151.001 Y126.309 E224.3872
G1 X150.457 Y126.309
G1 X97.470 Y73.691 E226.8212
G1 X96.926 Y73.691
G1 X149.913 Y126.309 E229.2552
G1 X149.369 Y126.309
G1 X96.382 Y73.691 E231.6892
G1 X95.838 Y73.691
G1 X148.824 Y126.309 E234.1232
G1 X148.280 Y126.309
G1 X95.294 Y73.691 E236.5571
G1 X94.749 Y73.691
G1 X147.736 Y126.309 E238.9911
G1 X147.192 Y126.309
G1 X94.205 Y73.691 E241.4251
G1 X93.710 Y73.740
G1 X146.648 Y126.309 E243.8569
G1 X146.104 Y126.309
G1 X93.240 Y73.813 E246.2852
G1 X92.856 Y73.972
G1 X145.560 Y126.309 E248.7062
G1 X145.016 Y126.309
G1 X92.499 Y74.159 E251.1186
G1 X92.193 Y74.394
G1 X144.471 Y126.309 E253.5200
G1 X143.927 Y126.309
G1 X91.919 Y74.663 E255.9091
G1 X91.684 Y74.970
G1 X143.383 Y126.309 E258.2839
G1 X142.839 Y126.309
G1 X91.494 Y75.321 E260.6425
G1 X91.335 Y75.704
G1 X142.295 Y126.309 E262.9834
G1 X141.751 Y126.309
G1 X91.254 Y76.164 E265.3030
G1 X91.200 Y76.650
G1 X141.207 Y126.309 E267.6001
G1 X140.662 Y126.309
G1 X91.200 Y77.191 E269.8722
G1 X91.200 Y77.731
G1 X140.118 Y126.309 E272.1193
G1 X139.574 Y126.309
G1 X91.200 Y78.271 E274.3415
G1 X91.200 Y78.812
G1 X139.030 Y126.309 E276.5386
G1 X138.486 Y126.309
G1 X91.200 Y79.352 E278.7108
G1 X91.200 Y79.892
G1 X137.942 Y126.309 E280.8579
G1 X137.398 Y126.309
G1 X91.200 Y80.433 E282.9801
G1 X91.200 Y80.973
G1 X136.854 Y126.309 E285.0772
G1 X136.309 Y126.309
G1 X91.200 Y81.513 E287.1493
G1 X91.200 Y82.054
G1 X135.765 Y126.309 E289.1965
G1 X135.221 Y126.309
G1 X91.200 Y82.594 E291.2186
G1 X91.200 Y83.134
G1 X134.677 Y126.309 E293.2158
G1 X134.133 Y126.309
G1 X91.200 Y83.675 E295.1880
G1 X91.200 Y84.215
G1 X133.589 Y126.309 E297.1351
G1 X133.045 Y126.309
G1 X91.200 Y84.755 E299.0573
G1 X91.200 Y85.296
G1 X132.500 Y126.309 E300.9545
G1 X131.956 Y126.309
G1 X91.200 Y85.836 E302.8267
G1 X91.200 Y86.376
G1 X131.412 Y126.309 E304.6739
G1 X130.868 Y126.309
G1 X91.200 Y86.917 E306.4961
G1 X91.200 Y87.457
G1 X130.324 Y126.309 E308.2933
G1 X129.780 Y126.309
G1 X91.200 Y87.997 E310.0655
G1 X91.200 Y88.538
G1 X129.236 Y126.309 E311.8128
G1 X128.692 Y126.309
G1 X91.200 Y89.078 E313.5350
G1 X91.200 Y89.618
G1 X128.147 Y126.309 E315.2322
G1 X127.603 Y126.309
G1 X91.200 Y90.159 E316.9045
G1 X91.200 Y90.699
G1 X127.059 Y126.309 E318.5517
G1 X126.515 Y126.309
G1 X91.200 Y91.239 E320.1740
G1 X91.200 Y91.780
G1 X125.971 Y126.309 E321.7712
G1 X125.427 Y126.309
G1 X91.200 Y92.320 E323.3435
G1 X91.200 Y92.860
G1 X124.883 Y126.309 E324.8908
G1 X124.338 Y126.309
G1 X91.200 Y93.401 E326.4130
G1 X91.200 Y93.941
G1 X123.794 Y126.309 E327.9103
G1 X123.250 Y126.309
G1 X91.200 Y94.481 E329.3825
G1 X91.200 Y95.022
G1 X122.706 Y126.309 E330.8298
G1 X122.162 Y126.309
G1 X91.200 Y95.562 E332.2521
G1 X91.200 Y96.103
G1 X121.618 Y126.309 E333.6493
G1 X121.074 Y126.309
G1 X91.200 Y96.643 E335.0216
G1 X91.200 Y97.183
G1 X120.530 Y126.309 E336.3689
G1 X119.985 Y126.309
G1 X91.200 Y97.724 E337.6912
G1 X91.200 Y98.264
G1 X119.441 Y126.309 E338.9885
G1 X118.897 Y126.309
G1 X91.200 Y98.804 E340.2608
G1 X91.200 Y99.345
G1 X118.353 Y126.309 E341.5081
G1 X117.809 Y126.309
G1 X91.200 Y99.885 E342.7305
G1 X91.200 Y100.425
G1 X117.265 Y126.309 E343.9278
G1 X116.721 Y126.309
G1 X91.200 Y100.966 E345.1001
G1 X91.200 Y101.506
G1 X116.177 Y126.309 E346.2474
G1 X115.632 Y126.309
G1 X91.200 Y102.046 E347.3698
G1 X91.200 Y102.587
G1 X115.088 Y126.309 E348.4671
G1 X114.544 Y126.309
G1 X91.200 Y103.127 E349.5395
G1 X91.200 Y103.667
G1 X114.000 Y126.309 E350.5869
G1 X113.456 Y126.309
G1 X91.200 Y104.208 E351.6092
G1 X91.200 Y104.748
G1 X112.912 Y126.309 E352.6066
G1 X112.368 Y126.309
G1 X91.200 Y105.288 E353.5790
G1 X91.200 Y105.829
G1 X111.823 Y126.309 E354.5263
G1 X111.279 Y126.309
G1 X91.200 Y106.369 E355.4487
G1 X91.200 Y106.909
G1 X110.735 Y126.309 E356.3461
G1 X110.191 Y126.309
G1 X91.200 Y107.450 E357.2185
G1 X91.200 Y107.990
G1 X109.647 Y126.309 E358.0658
G1 X109.103 Y126.309
G1 X91.200 Y108.530 E358.8882
G1 X91.200 Y109.071
G1 X108.559 Y126.309 E359.6856
G1 X108.015 Y126.309
G1 X91.200 Y109.611 E360.4580
G1 X91.200 Y110.151
G1 X107.470 Y126.309 E361.2054
G1 X106.926 Y126.309
G1 X91.200 Y110.692 E361.9278
G1 X91.200 Y111.232
G1 X106.382 Y126.309 E362.6253
G1 X105.838 Y126.309
G1 X91.200 Y111.772 E363.2977
G1 X91.200 Y112.313
G1 X105.294 Y126.309 E363.9451
G1 X104.750 Y126.309
G1 X91.200 Y112.853 E364.5675
G1 X91.200 Y113.393
G1 X104.206 Y126.309 E365.1650
G1 X103.661 Y126.309
G1 X91.200 Y113.934 E365.7374
G1 X91.200 Y114.474
G1 X103.117 Y126.309 E366.2849
G1 X102.573 Y126.309
G1 X91.200 Y115.014 E366.8074
G1 X91.200 Y115.555
G1 X102.029 Y126.309 E367.3048
G1 X101.485 Y126.309
G1 X91.200 Y116.095 E367.7773
G1 X91.200 Y116.635
G1 X100.941 Y126.309 E368.2248
G1 X100.397 Y126.309
G1 X91.200 Y117.176 E368.6473
G1 X91.200 Y117.716
G1 X99.853 Y126.309 E369.0448
G1 X99.308 Y126.309
G1 X91.200 Y118.256 E369.4172
G1 X91.200 Y118.797
G1 X98.764 Y126.309 E369.7647
G1 X98.220 Y126.309
G1 X91.200 Y119.337 E370.0872
G1 X91.200 Y119.878
G1 X97.676 Y126.309 E370.3847
G1 X97.132 Y126.309
G1 X91.200 Y120.418 E370.6572
G1 X91.200 Y120.958
G1 X96.588 Y126.309 E370.9047
G1 X96.044 Y126.309
G1 X91.200 Y121.499 E371.1272
G1 X91.200 Y122.039
G1 X95.499 Y126.309 E371.3247
G1 X94.955 Y126.309
G1 X91.200 Y122.579 E371.4972
G1 X91.200 Y123.120
G1 X94.411 Y126.309 E371.6447
G1 X93.834 Y126.276
G1 X91.236 Y123.696 E371.7641
G1 X91.362 Y124.362
G1 X93.171 Y126.158 E371.8472
; ------------------------------------
; Layer #2
; ------------------------------------
G21 ; mm
G90 ; abs
G92 E0 ; reset extr
M73 S1
M106 S0
;segType:Loop
G0 F1200 E-1.0000
G0 F300 Z0.600
G0 X167.772 Y73.614 F5400
G0 F1200 E0.0000
G1 X168.399 Y74.095 E0.0258 F2700
G1 X168.939 Y74.799 E0.0547
G1 X169.279 Y75.619 E0.0836
G1 X169.400 Y76.539 E0.1138
G1 X169.400 Y123.461 E1.6433
G1 X169.279 Y124.381 E1.6735
G1 X168.939 Y125.201 E1.7025
G1 X168.399 Y125.905 E1.7314
G1 X167.696 Y126.444 E1.7603
G1 X166.878 Y126.783 E1.7891
G1 X165.960 Y126.904 E1.8193
G1 X94.040 Y126.904 E4.1635
G1 X93.122 Y126.783 E4.1937
G1 X92.304 Y126.444 E4.2226
G1 X91.601 Y125.905 E4.2515
G1 X91.061 Y125.201 E4.2804
G1 X90.721 Y124.381 E4.3093
G1 X90.600 Y123.461 E4.3395
G1 X90.600 Y76.539 E5.8690
G1 X90.721 Y75.619 E5.8992
G1 X91.061 Y74.799 E5.9282
G1 X91.601 Y74.095 E5.9571
G1 X92.304 Y73.556 E5.9859
G1 X93.122 Y73.217 E6.0148
G1 X94.040 Y73.096 E6.0450
G1 X165.960 Y73.096 E8.3892
G1 X166.878 Y73.217 E8.4194
G1 X167.607 Y73.519 E8.4451
G0 F1200 E7.4451
G0 X166.460 Y73.233 F5400
G0 F1200 E8.4451
;segType:Perimeter
G1 X167.036 Y72.852 E8.4677 F1890
G1 X167.899 Y73.209 E8.4981
G1 X168.685 Y73.813 E8.5304
G1 X169.289 Y74.600 E8.5627
G1 X169.669 Y75.516 E8.5951
G1 X169.800 Y76.513 E8.6278
G1 X169.800 Y123.487 E10.1590
G1 X169.669 Y124.484 E10.1917
G1 X169.289 Y125.400 E10.2241
G1 X168.685 Y126.187 E10.2564
G1 X167.899 Y126.791 E10.2887
G1 X166.983 Y127.170 E10.3210
G1 X165.987 Y127.301 E10.3538
G1 X94.013 Y127.301 E12.6997
G1 X93.017 Y127.170 E12.7325
G1 X92.101 Y126.791 E12.7648
G1 X91.315 Y126.187 E12.7971
G1 X90.711 Y125.400 E12.8294
G1 X90.331 Y124.484 E12.8618
G1 X90.200 Y123.487 E12.8946
G1 X90.200 Y76.513 E14.4257
G1 X90.331 Y75.516 E14.4584
G1 X90.711 Y74.600 E14.4908
G1 X91.315 Y73.813 E14.5231
G1 X92.101 Y73.209 E14.5554
G1 X93.017 Y72.830 E14.5877
G1 X94.013 Y72.699 E14.6205
G1 X165.987 Y72.699 E16.9665
G1 X166.926 Y72.822 E16.9973
G1 X167.231 Y73.440
;segType:Loop
G0 X168.242 Y74.546 F5400
G1 X168.589 Y74.998 E17.0159 F2700
G1 X168.889 Y75.723 E17.0415
G1 X169.000 Y76.565 E17.0692
G1 X169.000 Y123.435 E18.5969
G1 X168.889 Y124.277 E18.6246
G1 X168.589 Y125.002 E18.6501
G1 X168.113 Y125.623 E18.6756
G1 X167.493 Y126.098 E18.7011
G1 X166.773 Y126.396 E18.7265
G1 X165.934 Y126.507 E18.7541
G1 X94.066 Y126.507 E21.0966
G1 X93.227 Y126.396 E21.1242
G1 X92.507 Y126.098 E21.1496
G1 X91.887 Y125.623 E21.1751
G1 X91.411 Y125.002 E21.2006
G1 X91.111 Y124.277 E21.2261
G1 X91.000 Y123.435 E21.2538
G1 X91.000 Y76.565 E22.7816
G1 X91.111 Y75.723 E22.8093
G1 X91.411 Y74.998 E22.8348
G1 X91.887 Y74.377 E22.8603
G1 X92.507 Y73.902 E22.8858
G1 X93.227 Y73.604 E22.9112
G1 X94.066 Y73.493 E22.9388
G1 X165.934 Y73.493 E25.2813
G1 X166.773 Y73.604 E25.3089
G1 X167.493 Y73.902 E25.3343
G1 X168.113 Y74.377 E25.3597
G1 X168.125 Y74.394 E25.3604
;segType:HShell
G0 X168.524 Y124.638 F5400
G1 X167.110 Y126.042 E25.4253 F2700
G1 X166.355 Y126.251
G1 X168.739 Y123.883 E25.5349
G1 X168.800 Y123.282
G1 X165.753 Y126.309 E25.6749
G1 X165.209 Y126.309
G1 X168.800 Y122.742 E25.8399
G1 X168.800 Y122.202
G1 X164.665 Y126.309 E26.0298
G1 X164.120 Y126.309
G1 X168.800 Y121.661 E26.2448
G1 X168.800 Y121.121
G1 X163.576 Y126.309 E26.4848
G1 X163.032 Y126.309
G1 X168.800 Y120.581 E26.7498
G1 X168.800 Y120.040
G1 X162.488 Y126.309 E27.0397
G1 X161.944 Y126.309
G1 X168.800 Y119.500 E27.3547
G1 X168.800 Y118.960
G1 X161.400 Y126.309 E27.6946
G1 X160.856 Y126.309
G1 X168.800 Y118.419 E28.0596
G1 X168.800 Y117.879
G1 X160.311 Y126.309 E28.4495
G1 X159.767 Y126.309
G1 X168.800 Y117.339 E28.8645
G1 X168.800 Y116.798
G1 X159.223 Y126.309 E29.3044
G1 X158.679 Y126.309
G1 X168.800 Y116.258 E29.7693
G1 X168.800 Y115.718
G1 X158.135 Y126.309 E30.2593
G1 X157.591 Y126.309
G1 X168.800 Y115.177 E30.7742
G1 X168.800 Y114.637
G1 X157.047 Y126.309 E31.3141
G1 X156.503 Y126.309
G1 X168.800 Y114.097 E31.8790
G1 X168.800 Y113.556
G1 X155.958 Y126.309 E32.4689
G1 X155.414 Y126.309
G1 X168.800 Y113.016 E33.0838
G1 X168.800 Y112.476
G1 X154.870 Y126.309 E33.7237
G1 X154.326 Y126.309
G1 X168.800 Y111.935 E34.3886
G1 X168.800 Y111.395
G1 X153.782 Y126.309 E35.0785
G1 X153.238 Y126.309
G1 X168.800 Y110.855 E35.7934
G1 X168.800 Y110.314
G1 X152.694 Y126.309 E36.5332
G1 X152.149 Y126.309
G1 X168.800 Y109.774 E37.2981
G1 X168.800 Y109.234
G1 X151.605 Y126.309 E38.0880
G1 X151.061 Y126.309
G1 X168.800 Y108.693 E38.9028
G1 X168.800 Y108.153
G1 X150.517 Y126.309 E39.7427
G1 X149.973 Y126.309
G1 X168.800 Y107.613 E40.6076
G1 X168.800 Y107.072
G1 X149.429 Y126.309 E41.4974
G1 X148.885 Y126.309
G1 X168.800 Y106.532 E42.4122
G1 X168.800 Y105.992
G1 X148.341 Y126.309 E43.3521
G1 X147.796 Y126.309
G1 X168.800 Y105.451 E44.3169
G1 X168.800 Y104.911
G1 X147.252 Y126.309 E45.3067
G1 X146.708 Y126.309
G1 X168.800 Y104.370 E46.3216
G1 X168.800 Y103.830
G1 X146.164 Y126.309 E47.3614
G1 X145.620 Y126.309
G1 X168.800 Y103.290 E48.4262
G1 X168.800 Y102.749
G1 X145.076 Y126.309 E49.5160
G1 X144.532 Y126.309
G1 X168.800 Y102.209 E50.6308
G1 X168.800 Y101.669
G1 X143.988 Y126.309 E51.7706
G1 X143.443 Y126.309
G1 X168.800 Y101.128 E52.9354
G1 X168.800 Y100.588
G1 X142.899 Y126.309 E54.1252
G1 X142.355 Y126.309
G1 X168.800 Y100.048 E55.3400
G1 X168.800 Y99.507
G1 X141.811 Y126.309 E56.5798
G1 X141.267 Y126.309
G1 X168.800 Y98.967 E57.8445
G1 X168.800 Y98.427
G1 X140.723 Y126.309 E59.1343
G1 X140.179 Y126.309
G1 X168.800 Y97.886 E60.4491
G1 X168.800 Y97.346
G1 X139.634 Y126.309 E61.7888
G1 X139.090 Y126.309
G1 X168.800 Y96.806 E63.1536
G1 X168.800 Y96.265
G1 X138.546 Y126.309 E64.5434
G1 X138.002 Y126.309
G1 X168.800 Y95.725 E65.9581
G1 X168.800 Y95.185
G1 X137.458 Y126.309 E67.3978
G1 X136.914 Y126.309
G1 X168.800 Y94.644 E68.8626
G1 X168.800 Y94.104
G1 X136.370 Y126.309 E70.3523
G1 X135.826 Y126.309
G1 X168.800 Y93.564 E71.8670
G1 X168.800 Y93.023
G1 X135.281 Y126.309 E73.4068
G1 X134.737 Y126.309
G1 X168.800 Y92.483 E74.9715
G1 X168.800 Y91.943
G1 X134.193 Y126.309 E76.5612
G1 X133.649 Y126.309
G1 X168.800 Y91.402 E78.1759
G1 X168.800 Y90.862
G1 X133.105 Y126.309 E79.8156
G1 X132.561 Y126.309
G1 X168.800 Y90.322 E81.4803
G1 X168.800 Y89.781
G1 X132.017 Y126.309 E83.1700
G1 X131.472 Y126.309
G1 X168.800 Y89.241 E84.8847
G1 X168.800 Y88.701
G1 X130.928 Y126.309 E86.6244
G1 X130.384 Y126.309
G1 X168.800 Y88.160 E88.3891
G1 X168.800 Y87.620
G1 X129.840 Y126.309 E90.1787
G1 X129.296 Y126.309
G1 X168.800 Y87.080 E91.9934
G1 X168.800 Y86.539
G1 X128.752 Y126.309 E93.8331
G1 X128.208 Y126.309
G1 X168.800 Y85.999 E95.6977
G1 X168.800 Y85.459
G1 X127.664 Y126.309 E97.5874
G1 X127.119 Y126.309
G1 X168.800 Y84.918 E99.5020
G1 X168.800 Y84.378
G1 X126.575 Y126.309 E101.4417
G1 X126.031 Y126.309
G1 X168.800 Y83.838 E103.4063
G1 X168.800 Y83.297
G1 X125.487 Y126.309 E105.3960
G1 X124.943 Y126.309
G1 X168.800 Y82.757 E107.4106
G1 X168.800 Y82.217
G1 X124.399 Y126.309 E109.4502
G1 X123.855 Y126.309
G1 X168.800 Y81.676 E111.5148
G1 X168.800 Y81.136
G1 X123.310 Y126.309 E113.6045
G1 X122.766 Y126.309
G1 X168.800 Y80.596 E115.7191
G1 X168.800 Y80.055
G1 X122.222 Y126.309 E117.8587
G1 X121.678 Y126.309
G1 X168.800 Y79.515 E120.0233
G1 X168.800 Y78.974
G1 X121.134 Y126.309 E122.2129
G1 X120.590 Y126.309
G1 X168.800 Y78.434 E124.4275
G1 X168.800 Y77.894
G1 X120.046 Y126.309 E126.6671
G1 X119.502 Y126.309
G1 X168.800 Y77.353 E128.9316
G1 X168.800 Y76.813
G1 X118.957 Y126.309 E131.2212
G1 X118.413 Y126.309
G1 X168.765 Y76.308 E133.5342
G1 X168.702 Y75.831
G1 X117.869 Y126.309 E135.8692
G1 X117.325 Y126.309
G1 X168.554 Y75.436 E138.2224
G1 X168.387 Y75.062
G1 X116.781 Y126.309 E140.5930
G1 X116.237 Y126.309
G1 X168.152 Y74.756 E142.9778
G1 X167.900 Y74.465
G1 X115.693 Y126.309 E145.3760
G1 X115.148 Y126.309
G1 X167.593 Y74.230 E147.7850
G1 X167.260 Y74.020
G1 X114.604 Y126.309 E150.2038
G1 X114.060 Y126.309
G1 X166.876 Y73.861 E152.6299
G1 X166.434 Y73.759
G1 X113.516 Y126.309 E155.0608
G1 X112.972 Y126.309
G1 X165.954 Y73.696 E157.4945
G1 X165.415 Y73.691
G1 X112.428 Y126.309 E159.9285
G1 X111.884 Y126.309
G1 X164.870 Y73.691 E162.3625
G1 X164.326 Y73.691
G1 X111.340 Y126.309 E164.7965
G1 X110.795 Y126.309
G1 X163.782 Y73.691 E167.2305
G1 X163.238 Y73.691
G1 X110.251 Y126.309 E169.6645
G1 X109.707 Y126.309
G1 X162.694 Y73.691 E172.0985
G1 X162.150 Y73.691
G1 X109.163 Y126.309 E174.5325
G1 X108.619 Y126.309
G1 X161.606 Y73.691 E176.9665
G1 X161.061 Y73.691
G1 X108.075 Y126.309 E179.4005
G1 X107.531 Y126.309
G1 X160.517 Y73.691 E181.8344
G1 X159.973 Y73.691
G1 X106.986 Y126.309 E184.2684
G1 X106.442 Y126.309
G1 X159.429 Y73.691 E186.7024
G1 X158.885 Y73.691
G1 X105.898 Y126.309 E189.1364
G1 X105.354 Y126.309
G1 X158.341 Y73.691 E191.5704
G1 X157.797 Y73.691
G1 X104.810 Y126.309 E194.0044
G1 X104.266 Y126.309
G1 X157.253 Y73.691 E196.4384
G1 X156.708 Y73.691
G1 X103.722 Y126.309 E198.8724
G1 X103.178 Y126.309
G1 X156.164 Y73.691 E201.3064
G1 X155.620 Y73.691
G1 X102.633 Y126.309 E203.7404
G1 X102.089 Y126.309
G1 X155.076 Y73.691 E206.1744
G1 X154.532 Y73.691
G1 X101.545 Y126.309 E208.6083
G1 X101.001 Y126.309
G1 X153.988 Y73.691 E211.0423
G1 X153.444 Y73.691
G1 X100.457 Y126.309 E213.4763
G1 X99.913 Y126.309
G1 X152.899 Y73.691 E215.9103
G1 X152.355 Y73.691
G1 X99.369 Y126.309 E218.3443
G1 X98.825 Y126.309
G1 X151.811 Y73.691 E220.7783
G1 X151.267 Y73.691
G1 X98.280 Y126.309 E223.2123
G1 X97.736 Y126.309
G1 X150.723 Y73.691 E225.6463
G1 X150.179 Y73.691
G1 X97.192 Y126.309 E228.0803
G1 X96.648 Y126.309
G1 X149.635 Y73.691 E230.5143
G1 X149.091 Y73.691
G1 X96.104 Y126.309 E232.9483
G1 X95.560 Y126.309
G1 X148.546 Y73.691 E235.3822
G1 X148.002 Y73.691
G1 X95.016 Y126.309 E237.8162
G1 X94.471 Y126.309
G1 X147.458 Y73.691 E240.2502
G1 X146.914 Y73.691
G1 X93.945 Y126.291 E242.6834
G1 X93.465 Y126.228
G1 X146.370 Y73.691 E245.1136
G1 X145.826 Y73.691
G1 X93.044 Y126.105 E247.5382
G1 X92.660 Y125.946
G1 X145.282 Y73.691 E249.9554
G1 X144.737 Y73.691
G1 X92.343 Y125.721 E252.3622
G1 X92.036 Y125.485
G1 X144.193 Y73.691 E254.7581
G1 X143.649 Y73.691
G1 X91.799 Y125.180 E257.1399
G1 X91.571 Y124.866
G1 X143.105 Y73.691 E259.5072
G1 X142.561 Y73.691
G1 X91.413 Y124.483 E261.8567
G1 X91.285 Y124.069
G1 X142.017 Y73.691 E264.1871
G1 X141.473 Y73.691
G1 X91.222 Y123.592 E266.4954
G1 X91.200 Y123.074
G1 X140.929 Y73.691 E268.7797
G1 X140.384 Y73.691
G1 X91.200 Y122.533 E271.0391
G1 X91.200 Y121.993
G1 X139.840 Y73.691 E273.2734
G1 X139.296 Y73.691
G1 X91.200 Y121.453 E275.4828
G1 X91.200 Y120.912
G1 X138.752 Y73.691 E277.6671
G1 X138.208 Y73.691
G1 X91.200 Y120.372 E279.8265
G1 X91.200 Y119.832
G1 X137.664 Y73.691 E281.9609
G1 X137.120 Y73.691
G1 X91.200 Y119.291 E284.0702
G1 X91.200 Y118.751
G1 X136.576 Y73.691 E286.1546
G1 X136.031 Y73.691
G1 X91.200 Y118.211 E288.2140
G1 X91.200 Y117.670
G1 X135.487 Y73.691 E290.2484
G1 X134.943 Y73.691
G1 X91.200 Y117.130 E292.2578
G1 X91.200 Y116.590
G1 X134.399 Y73.691 E294.2422
G1 X133.855 Y73.691
G1 X91.200 Y116.049 E296.2016
G1 X91.200 Y115.509
G1 X133.311 Y73.691 E298.1360
G1 X132.767 Y73.691
G1 X91.200 Y114.969 E300.0455
G1 X91.200 Y114.428
G1 X132.222 Y73.691 E301.9299
G1 X131.678 Y73.691
G1 X91.200 Y113.888 E303.7893
G1 X91.200 Y113.348
G1 X131.134 Y73.691 E305.6237
G1 X130.590 Y73.691
G1 X91.200 Y112.807 E307.4331
G1 X91.200 Y112.267
G1 X130.046 Y73.691 E309.2176
G1 X129.502 Y73.691
G1 X91.200 Y111.726 E310.9770
G1 X91.200 Y111.186
G1 X128.958 Y73.691 E312.7114
G1 X128.414 Y73.691
G1 X91.200 Y110.646 E314.4209
G1 X91.200 Y110.105
G1 X127.869 Y73.691 E316.1053
G1 X127.325 Y73.691
G1 X91.200 Y109.565 E317.7648
G1 X91.200 Y109.025
G1 X126.781 Y73.691 E319.3992
G1 X126.237 Y73.691
G1 X91.200 Y108.484 E321.0087
G1 X91.200 Y107.944
G1 X125.693 Y73.691 E322.5932
G1 X125.149 Y73.691
G1 X91.200 Y107.404 E324.1527
G1 X91.200 Y106.863
G1 X124.605 Y73.691 E325.6871
G1 X124.060 Y73.691
G1 X91.200 Y106.323 E327.1966
G1 X91.200 Y105.783
G1 X123.516 Y73.691 E328.6811
G1 X122.972 Y73.691
G1 X91.200 Y105.242 E330.1406
G1 X91.200 Y104.702
G1 X122.428 Y73.691 E331.5751
G1 X121.884 Y73.691
G1 X91.200 Y104.162 E332.9847
G1 X91.200 Y103.621
G1 X121.340 Y73.691 E334.3692
G1 X120.796 Y73.691
G1 X91.200 Y103.081 E335.7287
G1 X91.200 Y102.541
G1 X120.252 Y73.691 E337.0632
G1 X119.707 Y73.691
G1 X91.200 Y102.000 E338.3728
G1 X91.200 Y101.460
G1 X119.163 Y73.691 E339.6573
G1 X118.619 Y73.691
G1 X91.200 Y100.920 E340.9169
G1 X91.200 Y100.379
G1 X118.075 Y73.691 E342.1514
G1 X117.531 Y73.691
G1 X91.200 Y99.839 E343.3609
G1 X91.200 Y99.299
G1 X116.987 Y73.691 E344.5455
G1 X116.443 Y73.691
G1 X91.200 Y98.758 E345.7050
G1 X91.200 Y98.218
G1 X115.898 Y73.691 E346.8396
G1 X115.354 Y73.691
G1 X91.200 Y97.678 E347.9491
G1 X91.200 Y97.137
G1 X114.810 Y73.691 E349.0337
G1 X114.266 Y73.691
G1 X91.200 Y96.597 E350.0933
G1 X91.200 Y96.057
G1 X113.722 Y73.691 E351.1279
G1 X113.178 Y73.691
G1 X91.200 Y95.516 E352.1374
G1 X91.200 Y94.976
G1 X112.634 Y73.691 E353.1220
G1 X112.090 Y73.691
G1 X91.200 Y94.436 E354.0816
G1 X91.200 Y93.895
G1 X111.545 Y73.691 E355.0162
G1 X111.001 Y73.691
G1 X91.200 Y93.355 E355.9258
G1 X91.200 Y92.815
G1 X110.457 Y73.691 E356.8104
G1 X109.913 Y73.691
G1 X91.200 Y92.274 E357.6701
G1 X91.200 Y91.734
G1 X109.369 Y73.691 E358.5047
G1 X108.825 Y73.691
G1 X91.200 Y91.194 E359.3143
G1 X91.200 Y90.653
G1 X108.281 Y73.691 E360.0990
G1 X107.736 Y73.691
G1 X91.200 Y90.113 E360.8586
G1 X91.200 Y89.573
G1 X107.192 Y73.691 E361.5932
G1 X106.648 Y73.691
G1 X91.200 Y89.032 E362.3029
G1 X91.200 Y88.492
G1 X106.104 Y73.691 E362.9876
G1 X105.560 Y73.691
G1 X91.200 Y87.952 E363.6472
G1 X91.200 Y87.411
G1 X105.016 Y73.691 E364.2818
G1 X104.472 Y73.691
G1 X91.200 Y86.871 E364.8915
G1 X91.200 Y86.330
G1 X103.928 Y73.691 E365.4761
G1 X103.383 Y73.691
G1 X91.200 Y85.790 E366.0358
G1 X91.200 Y85.250
G1 X102.839 Y73.691 E366.5705
G1 X102.295 Y73.691
G1 X91.200 Y84.709 E367.0802
G1 X91.200 Y84.169
G1 X101.751 Y73.691 E367.5648
G1 X101.207 Y73.691
G1 X91.200 Y83.629 E368.0245
G1 X91.200 Y83.088
G1 X100.663 Y73.691 E368.4592
G1 X100.119 Y73.691
G1 X91.200 Y82.548 E368.8689
G1 X91.200 Y82.008
G1 X99.574 Y73.691 E369.2536
G1 X99.030 Y73.691
G1 X91.200 Y81.467 E369.6133
G1 X91.200 Y80.927
G1 X98.486 Y73.691 E369.9480
G1 X97.942 Y73.691
G1 X91.200 Y80.387 E370.2578
G1 X91.200 Y79.846
G1 X97.398 Y73.691 E370.5425
G1 X96.854 Y73.691
G1 X91.200 Y79.306 E370.8022
G1 X91.200 Y78.766
G1 X96.310 Y73.691 E371.0370
G1 X95.766 Y73.691
G1 X91.200 Y78.225 E371.2467
G1 X91.200 Y77.685
G1 X95.221 Y73.691 E371.4315
G1 X94.677 Y73.691
G1 X91.200 Y77.145 E371.5912
G1 X91.200 Y76.604
G1 X94.133 Y73.691 E371.7260
G1 X93.514 Y73.766
G1 X91.278 Y75.986 E371.8287
G1 X91.556 Y75.169
G1 X92.694 Y74.040 E371.8810
; ------------------------------------
; Layer #3
; ------------------------------------
G21 ; mm
G90 ; abs
G92 E0 ; reset extr
M73 S2
M106 S255
;segType:Loop
G0 F1200 E-1.0000
G0 F300 Z0.800
G0 X167.772 Y73.614 F5400
G0 F1200 E0.0000
G1 X168.399 Y74.095 E0.0258 F2700
G1 X168.939 Y74.799 E0.0547
G1 X169.279 Y75.619 E0.0836
G1 X169.400 Y76.539 E0.1138
G1 X169.400 Y123.461 E1.6433
G1 X169.279 Y124.381 E1.6735
G1 X168.939 Y125.201 E1.7025
G1 X168.399 Y125.905 E1.7314
G1 X167.696 Y126.444 E1.7603
G1 X166.878 Y126.783 E1.7891
G1 X165.960 Y126.904 E1.8193
G1 X94.040 Y126.904 E4.1635
G1 X93.122 Y126.783 E4.1937
G1 X92.304 Y126.444 E4.2226
G1 X91.601 Y125.905 E4.2515
G1 X91.061 Y125.201 E4.2804
G1 X90.721 Y124.381 E4.3093
G1 X90.600 Y123.461 E4.3395
G1 X90.600 Y76.539 E5.8690
G1 X90.721 Y75.619 E5.8992
G1 X91.061 Y74.799 E5.9282
G1 X91.601 Y74.095 E5.9571
G1 X92.304 Y73.556 E5.9859
G1 X93.122 Y73.217 E6.0148
G1 X94.040 Y73.096 E6.0450
G1 X165.960 Y73.096 E8.3892
G1 X166.878 Y73.217 E8.4194
G1 X167.607 Y73.519 E8.4451
G0 F1200 E7.4451
G0 X166.460 Y73.233 F5400
G0 F1200 E8.4451
;segType:Perimeter
G1 X167.036 Y72.852 E8.4677 F1890
G1 X167.899 Y73.209 E8.4981
G1 X168.685 Y73.813 E8.5304
G1 X169.289 Y74.600 E8.5627
G1 X169.669 Y75.516 E8.5951
G1 X169.800 Y76.513 E8.6278
G1 X169.800 Y123.487 E10.1590
G1 X169.669 Y124.484 E10.1917
G1 X169.289 Y125.400 E10.2241
G1 X168.685 Y126.187 E10.2564
G1 X167.899 Y126.791 E10.2887
G1 X166.983 Y127.170 E10.3210
G1 X165.987 Y127.301 E10.3538
G1 X94.013 Y127.301 E12.6997
G1 X93.017 Y127.170 E12.7325
G1 X92.101 Y126.791 E12.7648
G1 X91.315 Y126.187 E12.7971
G1 X90.711 Y125.400 E12.8294
G1 X90.331 Y124.484 E12.8618
G1 X90.200 Y123.487 E12.8946
G1 X90.200 Y76.513 E14.4257
G1 X90.331 Y75.516 E14.4584
G1 X90.711 Y74.600 E14.4908
G1 X91.315 Y73.813 E14.5231
G1 X92.101 Y73.209 E14.5554
G1 X93.017 Y72.830 E14.5877
G1 X94.013 Y72.699 E14.6205
G1 X165.987 Y72.699 E16.9665
G1 X166.926 Y72.822 E16.9973
G1 X167.231 Y73.440
;segType:Loop
G0 X168.242 Y74.546 F5400
G1 X168.589 Y74.998 E17.0159 F2700
G1 X168.889 Y75.723 E17.0415
G1 X169.000 Y76.565 E17.0692
G1 X169.000 Y123.435 E18.5969
G1 X168.889 Y124.277 E18.6246
G1 X168.589 Y125.002 E18.6501
G1 X168.113 Y125.623 E18.6756
G1 X167.493 Y126.098 E18.7011
G1 X166.773 Y126.396 E18.7265
G1 X165.934 Y126.507 E18.7541
G1 X94.066 Y126.507 E21.0966
G1 X93.227 Y126.396 E21.1242
G1 X92.507 Y126.098 E21.1496
G1 X91.887 Y125.623 E21.1751
G1 X91.411 Y125.002 E21.2006
G1 X91.111 Y124.277 E21.2261
G1 X91.000 Y123.435 E21.2538
G1 X91.000 Y76.565 E22.7816
G1 X91.111 Y75.723 E22.8093
G1 X91.411 Y74.998 E22.8348
G1 X91.887 Y74.377 E22.8603
G1 X92.507 Y73.902 E22.8858
G1 X93.227 Y73.604 E22.9112
G1 X94.066 Y73.493 E22.9388
G1 X165.934 Y73.493 E25.2813
G1 X166.773 Y73.604 E25.3089
G1 X167.493 Y73.902 E25.3343
G1 X168.113 Y74.377 E25.3597
G1 X168.125 Y74.394 E25.3604
;segType:Infill
G0 X91.200 Y120.439 F5400
G1 X94.612 Y126.309 E25.5817 F3375
G1 X95.057 Y126.309 E25.5962
G1 X91.200 Y119.675 E25.8463
G0 X91.200 Y114.326 F5400
G1 X98.167 Y126.309 E26.2981 F3375
G1 X98.611 Y126.309 E26.3126
G1 X91.200 Y113.562 E26.7932
G0 X91.200 Y108.212 F5400
G1 X101.721 Y126.309 E27.4755 F3375
G1 X102.165 Y126.309 E27.4900
G1 X91.200 Y107.448 E28.2011
G0 X91.200 Y102.099 F5400
G1 X105.275 Y126.309 E29.1139 F3375
G1 X105.719 Y126.309 E29.1284
G1 X91.200 Y101.335 E30.0700
G0 X91.200 Y95.986 F5400
G1 X108.829 Y126.309 E31.2133 F3375
G1 X109.274 Y126.309 E31.2278
G1 X91.200 Y95.222 E32.3998
G0 X91.200 Y89.873 F5400
G1 X112.384 Y126.309 E33.7736 F3375
G1 X112.828 Y126.309 E33.7881
G1 X91.200 Y89.108 E35.1907
G0 X116.382 Y126.309 F5400
G1 X91.200 Y82.995 E36.8238 F3375
G1 X91.200 Y83.759 E36.8487
G1 X115.938 Y126.309 E38.4529
G0 X91.200 Y77.646 F5400
G1 X119.492 Y126.309 E40.2877 F3375
G1 X119.936 Y126.309 E40.3022
G1 X91.200 Y76.882 E42.1657
G0 X123.491 Y126.309 F5400
G1 X93.022 Y73.904 E44.1416 F3375
G1 X92.664 Y74.052 E44.1542
G1 X123.046 Y126.309 E46.1245
G0 X127.045 Y126.309 F5400
G1 X96.453 Y73.691 E48.1084 F3375
G1 X96.009 Y73.691 E48.1228
G1 X126.601 Y126.309 E50.1067
G0 X130.599 Y126.309 F5400
G1 X100.007 Y73.691 E52.0906 F3375
G1 X99.563 Y73.691 E52.1051
G1 X130.155 Y126.309 E54.0889
G0 X134.153 Y126.309 F5400
G1 X103.562 Y73.691 E56.0728 F3375
G1 X103.117 Y73.691 E56.0873
G1 X133.709 Y126.309 E58.0711
G0 X137.708 Y126.309 F5400
G1 X107.116 Y73.691 E60.0550 F3375
G1 X106.672 Y73.691 E60.0695
G1 X137.263 Y126.309 E62.0534
G0 X141.262 Y126.309 F5400
G1 X110.670 Y73.691 E64.0372 F3375
G1 X110.226 Y73.691 E64.0517
G1 X140.818 Y126.309 E66.0356
G0 X144.816 Y126.309 F5400
G1 X114.224 Y73.691 E68.0194 F3375
G1 X113.780 Y73.691 E68.0339
G1 X144.372 Y126.309 E70.0178
G0 X148.371 Y126.309 F5400
G1 X117.779 Y73.691 E72.0016 F3375
G1 X117.334 Y73.691 E72.0161
G1 X147.926 Y126.309 E74.0000
G0 X151.925 Y126.309 F5400
G1 X121.333 Y73.691 E75.9838 F3375
G1 X120.889 Y73.691 E75.9983
G1 X151.481 Y126.309 E77.9822
G0 X155.479 Y126.309 F5400
G1 X124.887 Y73.691 E79.9661 F3375
G1 X124.443 Y73.691 E79.9805
G1 X155.035 Y126.309 E81.9644
G0 X159.033 Y126.309 F5400
G1 X128.441 Y73.691 E83.9483 F3375
G1 X127.997 Y73.691 E83.9627
G1 X158.589 Y126.309 E85.9466
G0 X162.588 Y126.309 F5400
G1 X131.996 Y73.691 E87.9305 F3375
G1 X131.551 Y73.691 E87.9449
G1 X162.143 Y126.309 E89.9288
G0 X166.126 Y126.282 F5400
G1 X135.550 Y73.691 E91.9117 F3375
G1 X135.106 Y73.691 E91.9261
G1 X165.698 Y126.309 E93.9100
G0 X168.607 Y124.436 F5400
G1 X139.104 Y73.691 E95.8233 F3375
G1 X138.660 Y73.691 E95.8377
G1 X168.422 Y124.882 E97.7678
G0 X168.800 Y118.655 F5400
G1 X142.658 Y73.691 E99.4631 F3375
G1 X142.214 Y73.691 E99.4776
G1 X168.800 Y119.419 E101.2017
G0 X168.800 Y112.542 F5400
G1 X146.213 Y73.691 E102.6665 F3375
G1 X145.768 Y73.691 E102.6810
G1 X168.800 Y113.306 E104.1746
G0 X168.800 Y106.428 F5400
G1 X149.767 Y73.691 E105.4089 F3375
G1 X149.323 Y73.691 E105.4234
G1 X168.800 Y107.193 E106.6865
G0 X168.800 Y100.315 F5400
G1 X153.321 Y73.691 E107.6903 F3375
G1 X152.877 Y73.691 E107.7048
G1 X168.800 Y101.079 E108.7374
G0 X168.800 Y94.202 F5400
G1 X156.875 Y73.691 E109.5107 F3375
G1 X156.431 Y73.691 E109.5252
G1 X168.800 Y94.966 E110.3273
G0 X168.800 Y88.089 F5400
G1 X160.430 Y73.691 E110.8702 F3375
G1 X159.985 Y73.691 E110.8846
G1 X168.800 Y88.853 E111.4563
G0 X168.800 Y81.975 F5400
G1 X163.984 Y73.691 E111.7686 F3375
G1 X163.540 Y73.691 E111.7831
G1 X168.800 Y82.739 E112.1243
G0 X167.293 Y74.034 F5400
G1 X168.800 Y76.626 E112.2220 F3375
G0 X168.558 Y75.445 F5400
G1 X168.174 Y74.785 E112.2469 F3375
G0 X91.266 Y76.079 F5400
G1 X92.288 Y74.321 E112.3131 F3375
G0 X91.200 Y82.306 F5400
G1 X96.208 Y73.691 E112.6380 F3375
G1 X95.764 Y73.691 E112.6524
G1 X91.200 Y81.542 E112.9484
G0 X91.200 Y88.419 F5400
G1 X99.762 Y73.691 E113.5037 F3375
G1 X99.318 Y73.691 E113.5182
G1 X91.200 Y87.655 E114.0447
G0 X91.200 Y94.532 F5400
G1 X103.317 Y73.691 E114.8305 F3375
G1 X102.872 Y73.691 E114.8450
G1 X91.200 Y93.768 E115.6019
G0 X91.200 Y100.646 F5400
G1 X106.871 Y73.691 E116.6182 F3375
G1 X106.427 Y73.691 E116.6327
G1 X91.200 Y99.882 E117.6202
G0 X91.200 Y106.759 F5400
G1 X110.425 Y73.691 E118.8669 F3375
G1 X109.981 Y73.691 E118.8814
G1 X91.200 Y105.995 E120.0994
G0 X91.200 Y112.872 F5400
G1 X113.980 Y73.691 E121.5766 F3375
G1 X113.535 Y73.691 E121.5911
G1 X91.200 Y112.108 E123.0396
G0 X91.200 Y118.985 F5400
G1 X117.534 Y73.691 E124.7473 F3375
G1 X117.089 Y73.691 E124.7618
G1 X91.200 Y118.221 E126.4407
G0 X91.473 Y124.629 F5400
G1 X121.088 Y73.691 E128.3613 F3375
G1 X120.644 Y73.691 E128.3757
G1 X91.298 Y124.165 E130.2788
G0 X94.052 Y126.305 F5400
G1 X124.642 Y73.691 E132.2625 F3375
G1 X124.198 Y73.691 E132.2770
G1 X93.640 Y126.251 E134.2587
G0 X97.605 Y126.309 F5400
G1 X128.197 Y73.691 E136.2426 F3375
G1 X127.752 Y73.691 E136.2570
G1 X97.160 Y126.309 E138.2409
G0 X101.159 Y126.309 F5400
G1 X131.751 Y73.691 E140.2248 F3375
G1 X131.307 Y73.691 E140.2393
G1 X100.715 Y126.309 E142.2231
G0 X104.713 Y126.309 F5400
G1 X135.305 Y73.691 E144.2070 F3375
G1 X134.861 Y73.691 E144.2215
G1 X104.269 Y126.309 E146.2054
G0 X108.267 Y126.309 F5400
G1 X138.859 Y73.691 E148.1892 F3375
G1 X138.415 Y73.691 E148.2037
G1 X107.823 Y126.309 E150.1876
G0 X111.822 Y126.309 F5400
G1 X142.414 Y73.691 E152.1715 F3375
G1 X141.969 Y73.691 E152.1859
G1 X111.377 Y126.309 E154.1698
G0 X115.376 Y126.309 F5400
G1 X145.968 Y73.691 E156.1537 F3375
G1 X145.524 Y73.691 E156.1682
G1 X114.932 Y126.309 E158.1520
G0 X118.930 Y126.309 F5400
G1 X149.522 Y73.691 E160.1359 F3375
G1 X149.078 Y73.691 E160.1504
G1 X118.486 Y126.309 E162.1343
G0 X122.484 Y126.309 F5400
G1 X153.076 Y73.691 E164.1181 F3375
G1 X152.632 Y73.691 E164.1326
G1 X122.040 Y126.309 E166.1165
G0 X126.039 Y126.309 F5400
G1 X156.631 Y73.691 E168.1003 F3375
G1 X156.186 Y73.691 E168.1148
G1 X125.594 Y126.309 E170.0987
G0 X129.593 Y126.309 F5400
G1 X160.185 Y73.691 E172.0826 F3375
G1 X159.741 Y73.691 E172.0971
G1 X129.149 Y126.309 E174.0809
G0 X133.147 Y126.309 F5400
G1 X163.739 Y73.691 E176.0648 F3375
G1 X163.295 Y73.691 E176.0793
G1 X132.703 Y126.309 E178.0631
G0 X136.702 Y126.309 F5400
G1 X167.133 Y73.968 E180.0366 F3375
G1 X166.775 Y73.819 E180.0492
G1 X136.257 Y126.309 E182.0283
G0 X140.256 Y126.309 F5400
G1 X168.800 Y77.213 E183.8794 F3375
G1 X168.786 Y76.472 E183.9035
G1 X139.811 Y126.309 E185.7825
G0 X168.800 Y82.562 F5400
G1 X143.366 Y126.309 E187.4319 F3375
G1 X143.810 Y126.309 E187.4464
G1 X168.800 Y83.326 E189.0670
G0 X147.364 Y126.309 F5400
G1 X168.800 Y89.439 E190.4571 F3375
G1 X168.800 Y88.675 E190.4820
G1 X146.920 Y126.309 E191.9009
G0 X168.800 Y94.788 F5400
G1 X150.474 Y126.309 E193.0894 F3375
G1 X150.919 Y126.309 E193.1039
G1 X168.800 Y95.552 E194.2635
G0 X168.800 Y100.901 F5400
G1 X154.029 Y126.309 E195.2214 F3375
G1 X154.473 Y126.309 E195.2359
G1 X168.800 Y101.666 E196.1650
G0 X168.800 Y107.015 F5400
G1 X157.583 Y126.309 E196.8925 F3375
G1 X158.027 Y126.309 E196.9070
G1 X168.800 Y107.779 E197.6056
G0 X168.800 Y113.128 F5400
G1 X161.137 Y126.309 E198.1026 F3375
G1 X161.581 Y126.309 E198.1171
G1 X168.800 Y113.892 E198.5852
G0 X165.136 Y126.309 F5400
G1 X168.800 Y120.005 E198.8229 F3375
G1 X168.800 Y119.241 E198.8478
G1 X164.691 Y126.309 E199.1142
G0 X91.200 Y76.728 F5400
G1 X168.800 Y76.728 E201.6436 F3375
G1 X168.770 Y76.346 E201.6561
G1 X91.230 Y76.346 E204.1835
G0 X91.200 Y79.785 F5400
G1 X168.800 Y79.785 E206.7129 F3375
G1 X168.800 Y79.403 E206.7253
G1 X91.200 Y79.403 E209.2547
G0 X91.200 Y82.842 F5400
G1 X168.800 Y82.842 E211.7841 F3375
G1 X168.800 Y82.460 E211.7966
G1 X91.200 Y82.460 E214.3260
G0 X91.200 Y85.898 F5400
G1 X168.800 Y85.898 E216.8554 F3375
G1 X168.800 Y85.516 E216.8678
G1 X91.200 Y85.516 E219.3972
G0 X91.200 Y88.955 F5400
G1 X168.800 Y88.955 E221.9266 F3375
G1 X168.800 Y88.573 E221.9390
G1 X91.200 Y88.573 E224.4684
G0 X91.200 Y92.012 F5400
G1 X168.800 Y92.012 E226.9978 F3375
G1 X168.800 Y91.629 E227.0103
G1 X91.200 Y91.629 E229.5397
G0 X91.200 Y95.068 F5400
G1 X168.800 Y95.068 E232.0690 F3375
G1 X168.800 Y94.686 E232.0815
G1 X91.200 Y94.686 E234.6109
G0 X91.200 Y98.125 F5400
G1 X168.800 Y98.125 E237.1403 F3375
G1 X168.800 Y97.743 E237.1527
G1 X91.200 Y97.743 E239.6821
G0 X91.200 Y101.181 F5400
G1 X168.800 Y101.181 E242.2115 F3375
G1 X168.800 Y100.799 E242.2240
G1 X91.200 Y100.799 E244.7533
G0 X91.200 Y104.238 F5400
G1 X168.800 Y104.238 E247.2827 F3375
G1 X168.800 Y103.856 E247.2952
G1 X91.200 Y103.856 E249.8246
G0 X91.200 Y107.295 F5400
G1 X168.800 Y107.295 E252.3540 F3375
G1 X168.800 Y106.913 E252.3664
G1 X91.200 Y106.913 E254.8958
G0 X91.200 Y110.351 F5400
G1 X168.800 Y110.351 E257.4252 F3375
G1 X168.800 Y109.969 E257.4376
G1 X91.200 Y109.969 E259.9670
G0 X91.200 Y113.408 F5400
G1 X168.800 Y113.408 E262.4964 F3375
G1 X168.800 Y113.026 E262.5089
G1 X91.200 Y113.026 E265.0383
G0 X91.200 Y116.465 F5400
G1 X168.800 Y116.465 E267.5676 F3375
G1 X168.800 Y116.082 E267.5801
G1 X91.200 Y116.082 E270.1095
G0 X91.200 Y119.521 F5400
G1 X168.800 Y119.521 E272.6389 F3375
G1 X168.800 Y119.139 E272.6513
G1 X91.200 Y119.139 E275.1807
G0 X91.200 Y122.578 F5400
G1 X168.800 Y122.578 E277.7101 F3375
G1 X168.800 Y122.196 E277.7225
G1 X91.200 Y122.196 E280.2519
G0 X92.230 Y125.634 F5400
G1 X167.770 Y125.634 E282.7142 F3375
G1 X168.145 Y125.252 E282.7316
G1 X91.855 Y125.252 E285.2183
; ------------------------------------
; Layer #4
; ------------------------------------
G21 ; mm
G90 ; abs
G92 E0 ; reset extr
M73 S2
M106 S255
;segType:Loop
G0 F1200 E-1.0000
G0 F300 Z1.000
G0 X167.772 Y73.614 F5400
G0 F1200 E0.0000
G1 X168.399 Y74.095 E0.0258 F2700
G1 X168.939 Y74.799 E0.0547
G1 X169.279 Y75.619 E0.0836
G1 X169.400 Y76.539 E0.1138
G1 X169.400 Y123.461 E1.6433
G1 X169.279 Y124.381 E1.6735
G1 X168.939 Y125.201 E1.7025
G1 X168.399 Y125.905 E1.7314
G1 X167.696 Y126.444 E1.7603
G1 X166.878 Y126.783 E1.7891
G1 X165.960 Y126.904 E1.8193
G1 X94.040 Y126.904 E4.1635
G1 X93.122 Y126.783 E4.1937
G1 X92.304 Y126.444 E4.2226
G1 X91.601 Y125.905 E4.2515
G1 X91.061 Y125.201 E4.2804
G1 X90.721 Y124.381 E4.3093
G1 X90.600 Y123.461 E4.3395
G1 X90.600 Y76.539 E5.8690
G1 X90.721 Y75.619 E5.8992
G1 X91.061 Y74.799 E5.9282
G1 X91.601 Y74.095 E5.9571
G1 X92.304 Y73.556 E5.9859
G1 X93.122 Y73.217 E6.0148
G1 X94.040 Y73.096 E6.0450
G1 X165.960 Y73.096 E8.3892
G1 X166.878 Y73.217 E8.4194
G1 X167.607 Y73.519 E8.4451
G0 F1200 E7.4451
G0 X166.460 Y73.233 F5400
G0 F1200 E8.4451
;segType:Perimeter
G1 X167.036 Y72.852 E8.4677 F1890
G1 X167.899 Y73.209 E8.4981
G1 X168.685 Y73.813 E8.5304
G1 X169.289 Y74.600 E8.5627
G1 X169.669 Y75.516 E8.5951
G1 X169.800 Y76.513 E8.6278
G1 X169.800 Y123.487 E10.1590
G1 X169.669 Y124.484 E10.1917
G1 X169.289 Y125.400 E10.2241
G1 X168.685 Y126.187 E10.2564
G1 X167.899 Y126.791 E10.2887
G1 X166.983 Y127.170 E10.3210
G1 X165.987 Y127.301 E10.3538
G1 X94.013 Y127.301 E12.6997
G1 X93.017 Y127.170 E12.7325
G1 X92.101 Y126.791 E12.7648
G1 X91.315 Y126.187 E12.7971
G1 X90.711 Y125.400 E12.8294
G1 X90.331 Y124.484 E12.8618
G1 X90.200 Y123.487 E12.8946
G1 X90.200 Y76.513 E14.4257
G1 X90.331 Y75.516 E14.4584
G1 X90.711 Y74.600 E14.4908
G1 X91.315 Y73.813 E14.5231
G1 X92.101 Y73.209 E14.5554
G1 X93.017 Y72.830 E14.5877
G1 X94.013 Y72.699 E14.6205
G1 X165.987 Y72.699 E16.9665
G1 X166.926 Y72.822 E16.9973
G1 X167.231 Y73.440
;segType:Loop
G0 X168.242 Y74.546 F5400
G1 X168.589 Y74.998 E17.0159 F2700
G1 X168.889 Y75.723 E17.0415
G1 X169.000 Y76.565 E17.0692
G1 X169.000 Y123.435 E18.5969
G1 X168.889 Y124.277 E18.6246
G1 X168.589 Y125.002 E18.6501
G1 X168.113 Y125.623 E18.6756
G1 X167.493 Y126.098 E18.7011
G1 X166.773 Y126.396 E18.7265
G1 X165.934 Y126.507 E18.7541
G1 X94.066 Y126.507 E21.0966
G1 X93.227 Y126.396 E21.1242
G1 X92.507 Y126.098 E21.1496
G1 X91.887 Y125.623 E21.1751
G1 X91.411 Y125.002 E21.2006
G1 X91.111 Y124.277 E21.2261
G1 X91.000 Y123.435 E21.2538
G1 X91.000 Y76.565 E22.7816
G1 X91.111 Y75.723 E22.8093
G1 X91.411 Y74.998 E22.8348
G1 X91.887 Y74.377 E22.8603
G1 X92.507 Y73.902 E22.8858
G1 X93.227 Y73.604 E22.9112
G1 X94.066 Y73.493 E22.9388
G1 X165.934 Y73.493 E25.2813
G1 X166.773 Y73.604 E25.3089
G1 X167.493 Y73.902 E25.3343
G1 X168.113 Y74.377 E25.3597
G1 X168.125 Y74.394 E25.3604
;segType:Infill
G0 X91.200 Y120.439 F5400
G1 X94.612 Y126.309 E25.5817 F3375
G1 X95.057 Y126.309 E25.5962
G1 X91.200 Y119.675 E25.8463
G0 X91.200 Y114.326 F5400
G1 X98.167 Y126.309 E26.2981 F3375
G1 X98.611 Y126.309 E26.3126
G1 X91.200 Y113.562 E26.7932
G0 X91.200 Y108.212 F5400
G1 X101.721 Y126.309 E27.4755 F3375
G1 X102.165 Y126.309 E27.4900
G1 X91.200 Y107.448 E28.2011
G0 X91.200 Y102.099 F5400
G1 X105.275 Y126.309 E29.1139 F3375
G1 X105.719 Y126.309 E29.1284
G1 X91.200 Y101.335 E30.0700
G0 X91.200 Y95.986 F5400
G1 X108.829 Y126.309 E31.2133 F3375
G1 X109.274 Y126.309 E31.2278
G1 X91.200 Y95.222 E32.3998
G0 X91.200 Y89.873 F5400
G1 X112.384 Y126.309 E33.7736 F3375
G1 X112.828 Y126.309 E33.7881
G1 X91.200 Y89.108 E35.1907
G0 X116.382 Y126.309 F5400
G1 X91.200 Y82.995 E36.8238 F3375
G1 X91.200 Y83.759 E36.8487
G1 X115.938 Y126.309 E38.4529
G0 X91.200 Y77.646 F5400
G1 X119.492 Y126.309 E40.2877 F3375
G1 X119.936 Y126.309 E40.3022
G1 X91.200 Y76.882 E42.1657
G0 X123.491 Y126.309 F5400
G1 X93.022 Y73.904 E44.1416 F3375
G1 X92.664 Y74.052 E44.1542
G1 X123.046 Y126.309 E46.1245
G0 X127.045 Y126.309 F5400
G1 X96.453 Y73.691 E48.1084 F3375
G1 X96.009 Y73.691 E48.1228
G1 X126.601 Y126.309 E50.1067
G0 X130.599 Y126.309 F5400
G1 X100.007 Y73.691 E52.0906 F3375
G1 X99.563 Y73.691 E52.1051
G1 X130.155 Y126.309 E54.0889
G0 X134.153 Y126.309 F5400
G1 X103.562 Y73.691 E56.0728 F3375
G1 X103.117 Y73.691 E56.0873
G1 X133.709 Y126.309 E58.0711
G0 X137.708 Y126.309 F5400
G1 X107.116 Y73.691 E60.0550 F3375
G1 X106.672 Y73.691 E60.0695
G1 X137.263 Y126.309 E62.0534
G0 X141.262 Y126.309 F5400
G1 X110.670 Y73.691 E64.0372 F3375
G1 X110.226 Y73.691 E64.0517
G1 X140.818 Y126.309 E66.0356
G0 X144.816 Y126.309 F5400
G1 X114.224 Y73.691 E68.0194 F3375
G1 X113.780 Y73.691 E68.0339
G1 X144.372 Y126.309 E70.0178
G0 X148.371 Y126.309 F5400
G1 X117.779 Y73.691 E72.0016 F3375
G1 X117.334 Y73.691 E72.0161
G1 X147.926 Y126.309 E74.0000
G0 X151.925 Y126.309 F5400
G1 X121.333 Y73.691 E75.9838 F3375
G1 X120.889 Y73.691 E75.9983
G1 X151.481 Y126.309 E77.9822
G0 X155.479 Y126.309 F5400
G1 X124.887 Y73.691 E79.9661 F3375
G1 X124.443 Y73.691 E79.9805
G1 X155.035 Y126.309 E81.9644
G0 X159.033 Y126.309 F5400
G1 X128.441 Y73.691 E83.9483 F3375
G1 X127.997 Y73.691 E83.9627
G1 X158.589 Y126.309 E85.9466
G0 X162.588 Y126.309 F5400
G1 X131.996 Y73.691 E87.9305 F3375
G1 X131.551 Y73.691 E87.9449
G1 X162.143 Y126.309 E89.9288
G0 X166.126 Y126.282 F5400
G1 X135.550 Y73.691 E91.9117 F3375
G1 X135.106 Y73.691 E91.9261
G1 X165.698 Y126.309 E93.9100
G0 X168.607 Y124.436 F5400
G1 X139.104 Y73.691 E95.8233 F3375
G1 X138.660 Y73.691 E95.8377
G1 X168.422 Y124.882 E97.7678
G0 X168.800 Y118.655 F5400
G1 X142.658 Y73.691 E99.4631 F3375
G1 X142.214 Y73.691 E99.4776
G1 X168.800 Y119.419 E101.2017
G0 X168.800 Y112.542 F5400
G1 X146.213 Y73.691 E102.6665 F3375
G1 X145.768 Y73.691 E102.6810
G1 X168.800 Y113.306 E104.1746
G0 X168.800 Y106.428 F5400
G1 X149.767 Y73.691 E105.4089 F3375
G1 X149.323 Y73.691 E105.4234
G1 X168.800 Y107.193 E106.6865
G0 X168.800 Y100.315 F5400
G1 X153.321 Y73.691 E107.6903 F3375
G1 X152.877 Y73.691 E107.7048
G1 X168.800 Y101.079 E108.7374
G0 X168.800 Y94.202 F5400
G1 X156.875 Y73.691 E109.5107 F3375
G1 X156.431 Y73.691 E109.5252
G1 X168.800 Y94.966 E110.3273
G0 X168.800 Y88.089 F5400
G1 X160.430 Y73.691 E110.8702 F3375
G1 X159.985 Y73.691 E110.8846
G1 X168.800 Y88.853 E111.4563
G0 X168.800 Y81.975 F5400
G1 X163.984 Y73.691 E111.7686 F3375
G1 X163.540 Y73.691 E111.7831
G1 X168.800 Y82.739 E112.1243
G0 X167.293 Y74.034 F5400
G1 X168.800 Y76.626 E112.2220 F3375
G0 X168.558 Y75.445 F5400
G1 X168.174 Y74.785 E112.2469 F3375
G0 X91.266 Y76.079 F5400
G1 X92.288 Y74.321 E112.3131 F3375
G0 X91.200 Y82.306 F5400
G1 X96.208 Y73.691 E112.6380 F3375
G1 X95.764 Y73.691 E112.6524
G1 X91.200 Y81.542 E112.9484
G0 X91.200 Y88.419 F5400
G1 X99.762 Y73.691 E113.5037 F3375
G1 X99.318 Y73.691 E113.5182
G1 X91.200 Y87.655 E114.0447
G0 X91.200 Y94.532 F5400
G1 X103.317 Y73.691 E114.8305 F3375
G1 X102.872 Y73.691 E114.8450
G1 X91.200 Y93.768 E115.6019
G0 X91.200 Y100.646 F5400
G1 X106.871 Y73.691 E116.6182 F3375
G1 X106.427 Y73.691 E116.6327
G1 X91.200 Y99.882 E117.6202
G0 X91.200 Y106.759 F5400
G1 X110.425 Y73.691 E118.8669 F3375
G1 X109.981 Y73.691 E118.8814
G1 X91.200 Y105.995 E120.0994
G0 X91.200 Y112.872 F5400
G1 X113.980 Y73.691 E121.5766 F3375
G1 X113.535 Y73.691 E121.5911
G1 X91.200 Y112.108 E123.0396
G0 X91.200 Y118.985 F5400
G1 X117.534 Y73.691 E124.7473 F3375
G1 X117.089 Y73.691 E124.7618
G1 X91.200 Y118.221 E126.4407
G0 X91.473 Y124.629 F5400
G1 X121.088 Y73.691 E128.3613 F3375
G1 X120.644 Y73.691 E128.3757
G1 X91.298 Y124.165 E130.2788
G0 X94.052 Y126.305 F5400
G1 X124.642 Y73.691 E132.2625 F3375
G1 X124.198 Y73.691 E132.2770
G1 X93.640 Y126.251 E134.2587
G0 X97.605 Y126.309 F5400
G1 X128.197 Y73.691 E136.2426 F3375
G1 X127.752 Y73.691 E136.2570
G1 X97.160 Y126.309 E138.2409
G0 X101.159 Y126.309 F5400
G1 X131.751 Y73.691 E140.2248 F3375
G1 X131.307 Y73.691 E140.2393
G1 X100.715 Y126.309 E142.2231
G0 X104.713 Y126.309 F5400
G1 X135.305 Y73.691 E144.2070 F3375
G1 X134.861 Y73.691 E144.2215
G1 X104.269 Y126.309 E146.2054
G0 X108.267 Y126.309 F5400
G1 X138.859 Y73.691 E148.1892 F3375
G1 X138.415 Y73.691 E148.2037
G1 X107.823 Y126.309 E150.1876
G0 X111.822 Y126.309 F5400
G1 X142.414 Y73.691 E152.1715 F3375
G1 X141.969 Y73.691 E152.1859
G1 X111.377 Y126.309 E154.1698
G0 X115.376 Y126.309 F5400
G1 X145.968 Y73.691 E156.1537 F3375
G1 X145.524 Y73.691 E156.1682
G1 X114.932 Y126.309 E158.1520
G0 X118.930 Y126.309 F5400
G1 X149.522 Y73.691 E160.1359 F3375
G1 X149.078 Y73.691 E160.1504
G1 X118.486 Y126.309 E162.1343
G0 X122.484 Y126.309 F5400
G1 X153.076 Y73.691 E164.1181 F3375
G1 X152.632 Y73.691 E164.1326
G1 X122.040 Y126.309 E166.1165
G0 X126.039 Y126.309 F5400
G1 X156.631 Y73.691 E168.1003 F3375
G1 X156.186 Y73.691 E168.1148
G1 X125.594 Y126.309 E170.0987
G0 X129.593 Y126.309 F5400
G1 X160.185 Y73.691 E172.0826 F3375
G1 X159.741 Y73.691 E172.0971
G1 X129.149 Y126.309 E174.0809
G0 X133.147 Y126.309 F5400
G1 X163.739 Y73.691 E176.0648 F3375
G1 X163.295 Y73.691 E176.0793
G1 X132.703 Y126.309 E178.0631
G0 X136.702 Y126.309 F5400
G1 X167.133 Y73.968 E180.0366 F3375
G1 X166.775 Y73.819 E180.0492
G1 X136.257 Y126.309 E182.0283
G0 X140.256 Y126.309 F5400
G1 X168.800 Y77.213 E183.8794 F3375
G1 X168.786 Y76.472 E183.9035
G1 X139.811 Y126.309 E185.7825
G0 X168.800 Y82.562 F5400
G1 X143.366 Y126.309 E187.4319 F3375
G1 X143.810 Y126.309 E187.4464
G1 X168.800 Y83.326 E189.0670
G0 X147.364 Y126.309 F5400
G1 X168.800 Y89.439 E190.4571 F3375
G1 X168.800 Y88.675 E190.4820
G1 X146.920 Y126.309 E191.9009
G0 X168.800 Y94.788 F5400
G1 X150.474 Y126.309 E193.0894 F3375
G1 X150.919 Y126.309 E193.1039
G1 X168.800 Y95.552 E194.2635
G0 X168.800 Y100.901 F5400
G1 X154.029 Y126.309 E195.2214 F3375
G1 X154.473 Y126.309 E195.2359
G1 X168.800 Y101.666 E196.1650
G0 X168.800 Y107.015 F5400
G1 X157.583 Y126.309 E196.8925 F3375
G1 X158.027 Y126.309 E196.9070
G1 X168.800 Y107.779 E197.6056
G0 X168.800 Y113.128 F5400
G1 X161.137 Y126.309 E198.1026 F3375
G1 X161.581 Y126.309 E198.1171
G1 X168.800 Y113.892 E198.5852
G0 X165.136 Y126.309 F5400
G1 X168.800 Y120.005 E198.8229 F3375
G1 X168.800 Y119.241 E198.8478
G1 X164.691 Y126.309 E199.1142
G0 X91.200 Y76.728 F5400
G1 X168.800 Y76.728 E201.6436 F3375
G1 X168.770 Y76.346 E201.6561
G1 X91.230 Y76.346 E204.1835
G0 X91.200 Y79.785 F5400
G1 X168.800 Y79.785 E206.7129 F3375
G1 X168.800 Y79.403 E206.7253
G1 X91.200 Y79.403 E209.2547
G0 X91.200 Y82.842 F5400
G1 X168.800 Y82.842 E211.7841 F3375
G1 X168.800 Y82.460 E211.7966
G1 X91.200 Y82.460 E214.3260
G0 X91.200 Y85.898 F5400
G1 X168.800 Y85.898 E216.8554 F3375
G1 X168.800 Y85.516 E216.8678
G1 X91.200 Y85.516 E219.3972
G0 X91.200 Y88.955 F5400
G1 X168.800 Y88.955 E221.9266 F3375
G1 X168.800 Y88.573 E221.9390
G1 X91.200 Y88.573 E224.4684
G0 X91.200 Y92.012 F5400
G1 X168.800 Y92.012 E226.9978 F3375
G1 X168.800 Y91.629 E227.0103
G1 X91.200 Y91.629 E229.5397
G0 X91.200 Y95.068 F5400
G1 X168.800 Y95.068 E232.0690 F3375
G1 X168.800 Y94.686 E232.0815
G1 X91.200 Y94.686 E234.6109
G0 X91.200 Y98.125 F5400
G1 X168.800 Y98.125 E237.1403 F3375
G1 X168.800 Y97.743 E237.1527
G1 X91.200 Y97.743 E239.6821
G0 X91.200 Y101.181 F5400
G1 X168.800 Y101.181 E242.2115 F3375
G1 X168.800 Y100.799 E242.2240
G1 X91.200 Y100.799 E244.7533
G0 X91.200 Y104.238 F5400
G1 X168.800 Y104.238 E247.2827 F3375
G1 X168.800 Y103.856 E247.2952
G1 X91.200 Y103.856 E249.8246
G0 X91.200 Y107.295 F5400
G1 X168.800 Y107.295 E252.3540 F3375
G1 X168.800 Y106.913 E252.3664
G1 X91.200 Y106.913 E254.8958
G0 X91.200 Y110.351 F5400
G1 X168.800 Y110.351 E257.4252 F3375
G1 X168.800 Y109.969 E257.4376
G1 X91.200 Y109.969 E259.9670
G0 X91.200 Y113.408 F5400
G1 X168.800 Y113.408 E262.4964 F3375
G1 X168.800 Y113.026 E262.5089
G1 X91.200 Y113.026 E265.0383
G0 X91.200 Y116.465 F5400
G1 X168.800 Y116.465 E267.5676 F3375
G1 X168.800 Y116.082 E267.5801
G1 X91.200 Y116.082 E270.1095
G0 X91.200 Y119.521 F5400
G1 X168.800 Y119.521 E272.6389 F3375
G1 X168.800 Y119.139 E272.6513
G1 X91.200 Y119.139 E275.1807
G0 X91.200 Y122.578 F5400
G1 X168.800 Y122.578 E277.7101 F3375
G1 X168.800 Y122.196 E277.7225
G1 X91.200 Y122.196 E280.2519
G0 X92.230 Y125.634 F5400
G1 X167.770 Y125.634 E282.7142 F3375
G1 X168.145 Y125.252 E282.7316
G1 X91.855 Y125.252 E285.2183
; ------------------------------------
; Layer #5
; ------------------------------------
G21 ; mm
G90 ; abs
G92 E0 ; reset extr
M73 S3
M106 S255
;segType:Loop
G0 F1200 E-1.0000
G0 F300 Z1.200
G0 X167.772 Y73.614 F5400
G0 F1200 E0.0000
G1 X168.399 Y74.095 E0.0258 F2700
G1 X168.939 Y74.799 E0.0547
G1 X169.279 Y75.619 E0.0836
G1 X169.400 Y76.539 E0.1138
G1 X169.400 Y123.461 E1.6433
G1 X169.279 Y124.381 E1.6735
G1 X168.939 Y125.201 E1.7025
G1 X168.399 Y125.905 E1.7314
G1 X167.696 Y126.444 E1.7603
G1 X166.878 Y126.783 E1.7891
G1 X165.960 Y126.904 E1.8193
G1 X94.040 Y126.904 E4.1635
G1 X93.122 Y126.783 E4.1937
G1 X92.304 Y126.444 E4.2226
G1 X91.601 Y125.905 E4.2515
G1 X91.061 Y125.201 E4.2804
G1 X90.721 Y124.381 E4.3093
G1 X90.600 Y123.461 E4.3395
G1 X90.600 Y76.539 E5.8690
G1 X90.721 Y75.619 E5.8992
G1 X91.061 Y74.799 E5.9282
G1 X91.601 Y74.095 E5.9571
G1 X92.304 Y73.556 E5.9859
G1 X93.122 Y73.217 E6.0148
G1 X94.040 Y73.096 E6.0450
G1 X165.960 Y73.096 E8.3892
G1 X166.878 Y73.217 E8.4194
G1 X167.607 Y73.519 E8.4451
G0 F1200 E7.4451
G0 X166.460 Y73.233 F5400
G0 F1200 E8.4451
;segType:Perimeter
G1 X167.036 Y72.852 E8.4677 F1890
G1 X167.899 Y73.209 E8.4981
G1 X168.685 Y73.813 E8.5304
G1 X169.289 Y74.600 E8.5627
G1 X169.669 Y75.516 E8.5951
G1 X169.800 Y76.513 E8.6278
G1 X169.800 Y123.487 E10.1590
G1 X169.669 Y124.484 E10.1917
G1 X169.289 Y125.400 E10.2241
G1 X168.685 Y126.187 E10.2564
G1 X167.899 Y126.791 E10.2887
G1 X166.983 Y127.170 E10.3210
G1 X165.987 Y127.301 E10.3538
G1 X94.013 Y127.301 E12.6997
G1 X93.017 Y127.170 E12.7325
G1 X92.101 Y126.791 E12.7648
G1 X91.315 Y126.187 E12.7971
G1 X90.711 Y125.400 E12.8294
G1 X90.331 Y124.484 E12.8618
G1 X90.200 Y123.487 E12.8946
G1 X90.200 Y76.513 E14.4257
G1 X90.331 Y75.516 E14.4584
G1 X90.711 Y74.600 E14.4908
G1 X91.315 Y73.813 E14.5231
G1 X92.101 Y73.209 E14.5554
G1 X93.017 Y72.830 E14.5877
G1 X94.013 Y72.699 E14.6205
G1 X165.987 Y72.699 E16.9665
G1 X166.926 Y72.822 E16.9973
G1 X167.231 Y73.440
;segType:Loop
G0 X168.242 Y74.546 F5400
G1 X168.589 Y74.998 E17.0159 F2700
G1 X168.889 Y75.723 E17.0415
G1 X169.000 Y76.565 E17.0692
G1 X169.000 Y123.435 E18.5969
G1 X168.889 Y124.277 E18.6246
G1 X168.589 Y125.002 E18.6501
G1 X168.113 Y125.623 E18.6756
G1 X167.493 Y126.098 E18.7011
G1 X166.773 Y126.396 E18.7265
G1 X165.934 Y126.507 E18.7541
G1 X94.066 Y126.507 E21.0966
G1 X93.227 Y126.396 E21.1242
G1 X92.507 Y126.098 E21.1496
G1 X91.887 Y125.623 E21.1751
G1 X91.411 Y125.002 E21.2006
G1 X91.111 Y124.277 E21.2261
G1 X91.000 Y123.435 E21.2538
G1 X91.000 Y76.565 E22.7816
G1 X91.111 Y75.723 E22.8093
G1 X91.411 Y74.998 E22.8348
G1 X91.887 Y74.377 E22.8603
G1 X92.507 Y73.902 E22.8858
G1 X93.227 Y73.604 E22.9112
G1 X94.066 Y73.493 E22.9388
G1 X165.934 Y73.493 E25.2813
G1 X166.773 Y73.604 E25.3089
G1 X167.493 Y73.902 E25.3343
G1 X168.113 Y74.377 E25.3597
G1 X168.125 Y74.394 E25.3604
;segType:Infill
G0 X91.200 Y120.439 F5400
G1 X94.612 Y126.309 E25.5817 F3375
G1 X95.057 Y126.309 E25.5962
G1 X91.200 Y119.675 E25.8463
G0 X91.200 Y114.326 F5400
G1 X98.167 Y126.309 E26.2981 F3375
G1 X98.611 Y126.309 E26.3126
G1 X91.200 Y113.562 E26.7932
G0 X91.200 Y108.212 F5400
G1 X101.721 Y126.309 E27.4755 F3375
G1 X102.165 Y126.309 E27.4900
G1 X91.200 Y107.448 E28.2011
G0 X91.200 Y102.099 F5400
G1 X105.275 Y126.309 E29.1139 F3375
G1 X105.719 Y126.309 E29.1284
G1 X91.200 Y101.335 E30.0700
G0 X91.200 Y95.986 F5400
G1 X108.829 Y126.309 E31.2133 F3375
G1 X109.274 Y126.309 E31.2278
G1 X91.200 Y95.222 E32.3998
G0 X91.200 Y89.873 F5400
G1 X112.384 Y126.309 E33.7736 F3375
G1 X112.828 Y126.309 E33.7881
G1 X91.200 Y89.108 E35.1907
G0 X116.382 Y126.309 F5400
G1 X91.200 Y82.995 E36.8238 F3375
G1 X91.200 Y83.759 E36.8487
G1 X115.938 Y126.309 E38.4529
G0 X91.200 Y77.646 F5400
G1 X119.492 Y126.309 E40.2877 F3375
G1 X119.936 Y126.309 E40.3022
G1 X91.200 Y76.882 E42.1657
G0 X123.491 Y126.309 F5400
G1 X93.022 Y73.904 E44.1416 F3375
G1 X92.664 Y74.052 E44.1542
G1 X123.046 Y126.309 E46.1245
G0 X127.045 Y126.309 F5400
G1 X96.453 Y73.691 E48.1084 F3375
G1 X96.009 Y73.691 E48.1228
G1 X126.601 Y126.309 E50.1067
G0 X130.599 Y126.309 F5400
G1 X100.007 Y73.691 E52.0906 F3375
G1 X99.563 Y73.691 E52.1051
G1 X130.155 Y126.309 E54.0889
G0 X134.153 Y126.309 F5400
G1 X103.562 Y73.691 E56.0728 F3375
G1 X103.117 Y73.691 E56.0873
G1 X133.709 Y126.309 E58.0711
G0 X137.708 Y126.309 F5400
G1 X107.116 Y73.691 E60.0550 F3375
G1 X106.672 Y73.691 E60.0695
G1 X137.263 Y126.309 E62.0534
G0 X141.262 Y126.309 F5400
G1 X110.670 Y73.691 E64.0372 F3375
G1 X110.226 Y73.691 E64.0517
G1 X140.818 Y126.309 E66.0356
G0 X144.816 Y126.309 F5400
G1 X114.224 Y73.691 E68.0194 F3375
G1 X113.780 Y73.691 E68.0339
G1 X144.372 Y126.309 E70.0178
G0 X148.371 Y126.309 F5400
G1 X117.779 Y73.691 E72.0016 F3375
G1 X117.334 Y73.691 E72.0161
G1 X147.926 Y126.309 E74.0000
G0 X151.925 Y126.309 F5400
G1 X121.333 Y73.691 E75.9838 F3375
G1 X120.889 Y73.691 E75.9983
G1 X151.481 Y126.309 E77.9822
G0 X155.479 Y126.309 F5400
G1 X124.887 Y73.691 E79.9661 F3375
G1 X124.443 Y73.691 E79.9805
G1 X155.035 Y126.309 E81.9644
G0 X159.033 Y126.309 F5400
G1 X128.441 Y73.691 E83.9483 F3375
G1 X127.997 Y73.691 E83.9627
G1 X158.589 Y126.309 E85.9466
G0 X162.588 Y126.309 F5400
G1 X131.996 Y73.691 E87.9305 F3375
G1 X131.551 Y73.691 E87.9449
G1 X162.143 Y126.309 E89.9288
G0 X166.126 Y126.282 F5400
G1 X135.550 Y73.691 E91.9117 F3375
G1 X135.106 Y73.691 E91.9261
G1 X165.698 Y126.309 E93.9100
G0 X168.607 Y124.436 F5400
G1 X139.104 Y73.691 E95.8233 F3375
G1 X138.660 Y73.691 E95.8377
G1 X168.422 Y124.882 E97.7678
G0 X168.800 Y118.655 F5400
G1 X142.658 Y73.691 E99.4631 F3375
G1 X142.214 Y73.691 E99.4776
G1 X168.800 Y119.419 E101.2017
G0 X168.800 Y112.542 F5400
G1 X146.213 Y73.691 E102.6665 F3375
G1 X145.768 Y73.691 E102.6810
G1 X168.800 Y113.306 E104.1746
G0 X168.800 Y106.428 F5400
G1 X149.767 Y73.691 E105.4089 F3375
G1 X149.323 Y73.691 E105.4234
G1 X168.800 Y107.193 E106.6865
G0 X168.800 Y100.315 F5400
G1 X153.321 Y73.691 E107.6903 F3375
G1 X152.877 Y73.691 E107.7048
G1 X168.800 Y101.079 E108.7374
G0 X168.800 Y94.202 F5400
G1 X156.875 Y73.691 E109.5107 F3375
G1 X156.431 Y73.691 E109.5252
G1 X168.800 Y94.966 E110.3273
G0 X168.800 Y88.089 F5400
G1 X160.430 Y73.691 E110.8702 F3375
G1 X159.985 Y73.691 E110.8846
G1 X168.800 Y88.853 E111.4563
G0 X168.800 Y81.975 F5400
G1 X163.984 Y73.691 E111.7686 F3375
G1 X163.540 Y73.691 E111.7831
G1 X168.800 Y82.739 E112.1243
G0 X167.293 Y74.034 F5400
G1 X168.800 Y76.626 E112.2220 F3375
G0 X168.558 Y75.445 F5400
G1 X168.174 Y74.785 E112.2469 F3375
G0 X91.266 Y76.079 F5400
G1 X92.288 Y74.321 E112.3131 F3375
G0 X91.200 Y82.306 F5400
G1 X96.208 Y73.691 E112.6380 F3375
G1 X95.764 Y73.691 E112.6524
G1 X91.200 Y81.542 E112.9484
G0 X91.200 Y88.419 F5400
G1 X99.762 Y73.691 E113.5037 F3375
G1 X99.318 Y73.691 E113.5182
G1 X91.200 Y87.655 E114.0447
G0 X91.200 Y94.532 F5400
G1 X103.317 Y73.691 E114.8305 F3375
G1 X102.872 Y73.691 E114.8450
G1 X91.200 Y93.768 E115.6019
G0 X91.200 Y100.646 F5400
G1 X106.871 Y73.691 E116.6182 F3375
G1 X106.427 Y73.691 E116.6327
G1 X91.200 Y99.882 E117.6202
G0 X91.200 Y106.759 F5400
G1 X110.425 Y73.691 E118.8669 F3375
G1 X109.981 Y73.691 E118.8814
G1 X91.200 Y105.995 E120.0994
G0 X91.200 Y112.872 F5400
G1 X113.980 Y73.691 E121.5766 F3375
G1 X113.535 Y73.691 E121.5911
G1 X91.200 Y112.108 E123.0396
G0 X91.200 Y118.985 F5400
G1 X117.534 Y73.691 E124.7473 F3375
G1 X117.089 Y73.691 E124.7618
G1 X91.200 Y118.221 E126.4407
G0 X91.473 Y124.629 F5400
G1 X121.088 Y73.691 E128.3613 F3375
G1 X120.644 Y73.691 E128.3757
G1 X91.298 Y124.165 E130.2788
G0 X94.052 Y126.305 F5400
G1 X124.642 Y73.691 E132.2625 F3375
G1 X124.198 Y73.691 E132.2770
G1 X93.640 Y126.251 E134.2587
G0 X97.605 Y126.309 F5400
G1 X128.197 Y73.691 E136.2426 F3375
G1 X127.752 Y73.691 E136.2570
G1 X97.160 Y126.309 E138.2409
G0 X101.159 Y126.309 F5400
G1 X131.751 Y73.691 E140.2248 F3375
G1 X131.307 Y73.691 E140.2393
G1 X100.715 Y126.309 E142.2231
G0 X104.713 Y126.309 F5400
G1 X135.305 Y73.691 E144.2070 F3375
G1 X134.861 Y73.691 E144.2215
G1 X104.269 Y126.309 E146.2054
G0 X108.267 Y126.309 F5400
G1 X138.859 Y73.691 E148.1892 F3375
G1 X138.415 Y73.691 E148.2037
G1 X107.823 Y126.309 E150.1876
G0 X111.822 Y126.309 F5400
G1 X142.414 Y73.691 E152.1715 F3375
G1 X141.969 Y73.691 E152.1859
G1 X111.377 Y126.309 E154.1698
G0 X115.376 Y126.309 F5400
G1 X145.968 Y73.691 E156.1537 F3375
G1 X145.524 Y73.691 E156.1682
G1 X114.932 Y126.309 E158.1520
G0 X118.930 Y126.309 F5400
G1 X149.522 Y73.691 E160.1359 F3375
G1 X149.078 Y73.691 E160.1504
G1 X118.486 Y126.309 E162.1343
G0 X122.484 Y126.309 F5400
G1 X153.076 Y73.691 E164.1181 F3375
G1 X152.632 Y73.691 E164.1326
G1 X122.040 Y126.309 E166.1165
G0 X126.039 Y126.309 F5400
G1 X156.631 Y73.691 E168.1003 F3375
G1 X156.186 Y73.691 E168.1148
G1 X125.594 Y126.309 E170.0987
G0 X129.593 Y126.309 F5400
G1 X160.185 Y73.691 E172.0826 F3375
G1 X159.741 Y73.691 E172.0971
G1 X129.149 Y126.309 E174.0809
G0 X133.147 Y126.309 F5400
G1 X163.739 Y73.691 E176.0648 F3375
G1 X163.295 Y73.691 E176.0793
G1 X132.703 Y126.309 E178.0631
G0 X136.702 Y126.309 F5400
G1 X167.133 Y73.968 E180.0366 F3375
G1 X166.775 Y73.819 E180.0492
G1 X136.257 Y126.309 E182.0283
G0 X140.256 Y126.309 F5400
G1 X168.800 Y77.213 E183.8794 F3375
G1 X168.786 Y76.472 E183.9035
G1 X139.811 Y126.309 E185.7825
G0 X168.800 Y82.562 F5400
G1 X143.366 Y126.309 E187.4319 F3375
G1 X143.810 Y126.309 E187.4464
G1 X168.800 Y83.326 E189.0670
G0 X147.364 Y126.309 F5400
G1 X168.800 Y89.439 E190.4571 F3375
G1 X168.800 Y88.675 E190.4820
G1 X146.920 Y126.309 E191.9009
G0 X168.800 Y94.788 F5400
G1 X150.474 Y126.309 E193.0894 F3375
G1 X150.919 Y126.309 E193.1039
G1 X168.800 Y95.552 E194.2635
G0 X168.800 Y100.901 F5400
G1 X154.029 Y126.309 E195.2214 F3375
G1 X154.473 Y126.309 E195.2359
G1 X168.800 Y101.666 E196.1650
G0 X168.800 Y107.015 F5400
G1 X157.583 Y126.309 E196.8925 F3375
G1 X158.027 Y126.309 E196.9070
G1 X168.800 Y107.779 E197.6056
G0 X168.800 Y113.128 F5400
G1 X161.137 Y126.309 E198.1026 F3375
G1 X161.581 Y126.309 E198.1171
G1 X168.800 Y113.892 E198.5852
G0 X165.136 Y126.309 F5400
G1 X168.800 Y120.005 E198.8229 F3375
G1 X168.800 Y119.241 E198.8478
G1 X164.691 Y126.309 E199.1142
G0 X91.200 Y76.728 F5400
G1 X168.800 Y76.728 E201.6436 F3375
G1 X168.770 Y76.346 E201.6561
G1 X91.230 Y76.346 E204.1835
G0 X91.200 Y79.785 F5400
G1 X168.800 Y79.785 E206.7129 F3375
G1 X168.800 Y79.403 E206.7253
G1 X91.200 Y79.403 E209.2547
G0 X91.200 Y82.842 F5400
G1 X168.800 Y82.842 E211.7841 F3375
G1 X168.800 Y82.460 E211.7966
G1 X91.200 Y82.460 E214.3260
G0 X91.200 Y85.898 F5400
G1 X168.800 Y85.898 E216.8554 F3375
G1 X168.800 Y85.516 E216.8678
G1 X91.200 Y85.516 E219.3972
G0 X91.200 Y88.955 F5400
G1 X168.800 Y88.955 E221.9266 F3375
G1 X168.800 Y88.573 E221.9390
G1 X91.200 Y88.573 E224.4684
G0 X91.200 Y92.012 F5400
G1 X168.800 Y92.012 E226.9978 F3375
G1 X168.800 Y91.629 E227.0103
G1 X91.200 Y91.629 E229.5397
G0 X91.200 Y95.068 F5400
G1 X168.800 Y95.068 E232.0690 F3375
G1 X168.800 Y94.686 E232.0815
G1 X91.200 Y94.686 E234.6109
G0 X91.200 Y98.125 F5400
G1 X168.800 Y98.125 E237.1403 F3375
G1 X168.800 Y97.743 E237.1527
G1 X91.200 Y97.743 E239.6821
G0 X91.200 Y101.181 F5400
G1 X168.800 Y101.181 E242.2115 F3375
G1 X168.800 Y100.799 E242.2240
G1 X91.200 Y100.799 E244.7533
G0 X91.200 Y104.238 F5400
G1 X168.800 Y104.238 E247.2827 F3375
G1 X168.800 Y103.856 E247.2952
G1 X91.200 Y103.856 E249.8246
G0 X91.200 Y107.295 F5400
G1 X168.800 Y107.295 E252.3540 F3375
G1 X168.800 Y106.913 E252.3664
G1 X91.200 Y106.913 E254.8958
G0 X91.200 Y110.351 F5400
G1 X168.800 Y110.351 E257.4252 F3375
G1 X168.800 Y109.969 E257.4376
G1 X91.200 Y109.969 E259.9670
G0 X91.200 Y113.408 F5400
G1 X168.800 Y113.408 E262.4964 F3375
G1 X168.800 Y113.026 E262.5089
G1 X91.200 Y113.026 E265.0383
G0 X91.200 Y116.465 F5400
G1 X168.800 Y116.465 E267.5676 F3375
G1 X168.800 Y116.082 E267.5801
G1 X91.200 Y116.082 E270.1095
G0 X91.200 Y119.521 F5400
G1 X168.800 Y119.521 E272.6389 F3375
G1 X168.800 Y119.139 E272.6513
G1 X91.200 Y119.139 E275.1807
G0 X91.200 Y122.578 F5400
G1 X168.800 Y122.578 E277.7101 F3375
G1 X168.800 Y122.196 E277.7225
G1 X91.200 Y122.196 E280.2519
G0 X92.230 Y125.634 F5400
G1 X167.770 Y125.634 E282.7142 F3375
G1 X168.145 Y125.252 E282.7316
G1 X91.855 Y125.252 E285.2183
; ------------------------------------
; Layer #6
; ------------------------------------
G21 ; mm
G90 ; abs
G92 E0 ; reset extr
M73 S4
M106 S255
;segType:Loop
G0 F1200 E-1.0000
G0 F300 Z1.400
G0 X167.772 Y73.614 F5400
G0 F1200 E0.0000
G1 X168.399 Y74.095 E0.0258 F2700
G1 X168.939 Y74.799 E0.0547
G1 X169.279 Y75.619 E0.0836
G1 X169.400 Y76.539 E0.1138
G1 X169.400 Y123.461 E1.6433
G1 X169.279 Y124.381 E1.6735
G1 X168.939 Y125.201 E1.7025
G1 X168.399 Y125.905 E1.7314
G1 X167.696 Y126.444 E1.7603
G1 X166.878 Y126.783 E1.7891
G1 X165.960 Y126.904 E1.8193
G1 X94.040 Y126.904 E4.1635
G1 X93.122 Y126.783 E4.1937
G1 X92.304 Y126.444 E4.2226
G1 X91.601 Y125.905 E4.2515
G1 X91.061 Y125.201 E4.2804
G1 X90.721 Y124.381 E4.3093
G1 X90.600 Y123.461 E4.3395
G1 X90.600 Y76.539 E5.8690
G1 X90.721 Y75.619 E5.8992
G1 X91.061 Y74.799 E5.9282
G1 X91.601 Y74.095 E5.9571
G1 X92.304 Y73.556 E5.9859
G1 X93.122 Y73.217 E6.0148
G1 X94.040 Y73.096 E6.0450
G1 X165.960 Y73.096 E8.3892
G1 X166.878 Y73.217 E8.4194
G1 X167.607 Y73.519 E8.4451
G0 F1200 E7.4451
G0 X166.460 Y73.233 F5400
G0 F1200 E8.4451
;segType:Perimeter
G1 X167.036 Y72.852 E8.4677 F1890
G1 X167.899 Y73.209 E8.4981
G1 X168.685 Y73.813 E8.5304
G1 X169.289 Y74.600 E8.5627
G1 X169.669 Y75.516 E8.5951
G1 X169.800 Y76.513 E8.6278
G1 X169.800 Y123.487 E10.1590
G1 X169.669 Y124.484 E10.1917
G1 X169.289 Y125.400 E10.2241
G1 X168.685 Y126.187 E10.2564
G1 X167.899 Y126.791 E10.2887
G1 X166.983 Y127.170 E10.3210
G1 X165.987 Y127.301 E10.3538
G1 X94.013 Y127.301 E12.6997
G1 X93.017 Y127.170 E12.7325
G1 X92.101 Y126.791 E12.7648
G1 X91.315 Y126.187 E12.7971
G1 X90.711 Y125.400 E12.8294
G1 X90.331 Y124.484 E12.8618
G1 X90.200 Y123.487 E12.8946
G1 X90.200 Y76.513 E14.4257
G1 X90.331 Y75.516 E14.4584
G1 X90.711 Y74.600 E14.4908
G1 X91.315 Y73.813 E14.5231
G1 X92.101 Y73.209 E14.5554
G1 X93.017 Y72.830 E14.5877
G1 X94.013 Y72.699 E14.6205
G1 X165.987 Y72.699 E16.9665
G1 X166.926 Y72.822 E16.9973
G1 X167.231 Y73.440
;segType:Loop
G0 X168.242 Y74.546 F5400
G1 X168.589 Y74.998 E17.0159 F2700
G1 X168.889 Y75.723 E17.0415
G1 X169.000 Y76.565 E17.0692
G1 X169.000 Y123.435 E18.5969
G1 X168.889 Y124.277 E18.6246
G1 X168.589 Y125.002 E18.6501
G1 X168.113 Y125.623 E18.6756
G1 X167.493 Y126.098 E18.7011
G1 X166.773 Y126.396 E18.7265
G1 X165.934 Y126.507 E18.7541
G1 X94.066 Y126.507 E21.0966
G1 X93.227 Y126.396 E21.1242
G1 X92.507 Y126.098 E21.1496
G1 X91.887 Y125.623 E21.1751
G1 X91.411 Y125.002 E21.2006
G1 X91.111 Y124.277 E21.2261
G1 X91.000 Y123.435 E21.2538
G1 X91.000 Y76.565 E22.7816
G1 X91.111 Y75.723 E22.8093
G1 X91.411 Y74.998 E22.8348
G1 X91.887 Y74.377 E22.8603
G1 X92.507 Y73.902 E22.8858
G1 X93.227 Y73.604 E22.9112
G1 X94.066 Y73.493 E22.9388
G1 X165.934 Y73.493 E25.2813
G1 X166.773 Y73.604 E25.3089
G1 X167.493 Y73.902 E25.3343
G1 X168.113 Y74.377 E25.3597
G1 X168.125 Y74.394 E25.3604
;segType:HShell
G0 X168.524 Y124.638 F5400
G1 X167.110 Y126.042 E25.4253 F2700
G1 X166.355 Y126.251
G1 X168.739 Y123.883 E25.5349
G1 X168.800 Y123.282
G1 X165.753 Y126.309 E25.6749
G1 X165.209 Y126.309
G1 X168.800 Y122.742 E25.8399
G1 X168.800 Y122.202
G1 X164.665 Y126.309 E26.0299
G1 X164.120 Y126.309
G1 X168.800 Y121.661 E26.2448
G1 X168.800 Y121.121
G1 X163.576 Y126.309 E26.4848
G1 X163.032 Y126.309
G1 X168.800 Y120.581 E26.7498
G1 X168.800 Y120.040
G1 X162.488 Y126.309 E27.0397
G1 X161.944 Y126.309
G1 X168.800 Y119.500 E27.3547
G1 X168.800 Y118.960
G1 X161.400 Y126.309 E27.6947
G1 X160.856 Y126.309
G1 X168.800 Y118.419 E28.0596
G1 X168.800 Y117.879
G1 X160.311 Y126.309 E28.4495
G1 X159.767 Y126.309
G1 X168.800 Y117.339 E28.8645
G1 X168.800 Y116.798
G1 X159.223 Y126.309 E29.3044
G1 X158.679 Y126.309
G1 X168.800 Y116.258 E29.7694
G1 X168.800 Y115.718
G1 X158.135 Y126.309 E30.2593
G1 X157.591 Y126.309
G1 X168.800 Y115.177 E30.7742
G1 X168.800 Y114.637
G1 X157.047 Y126.309 E31.3141
G1 X156.503 Y126.309
G1 X168.800 Y114.097 E31.8790
G1 X168.800 Y113.556
G1 X155.958 Y126.309 E32.4689
G1 X155.414 Y126.309
G1 X168.800 Y113.016 E33.0838
G1 X168.800 Y112.476
G1 X154.870 Y126.309 E33.7237
G1 X154.326 Y126.309
G1 X168.800 Y111.935 E34.3886
G1 X168.800 Y111.395
G1 X153.782 Y126.309 E35.0785
G1 X153.238 Y126.309
G1 X168.800 Y110.855 E35.7934
G1 X168.800 Y110.314
G1 X152.694 Y126.309 E36.5333
G1 X152.149 Y126.309
G1 X168.800 Y109.774 E37.2981
G1 X168.800 Y109.234
G1 X151.605 Y126.309 E38.0880
G1 X151.061 Y126.309
G1 X168.800 Y108.693 E38.9029
G1 X168.800 Y108.153
G1 X150.517 Y126.309 E39.7427
G1 X149.973 Y126.309
G1 X168.800 Y107.612 E40.6076
G1 X168.800 Y107.072
G1 X149.429 Y126.309 E41.4974
G1 X148.885 Y126.309
G1 X168.800 Y106.532 E42.4123
G1 X168.800 Y105.991
G1 X148.341 Y126.309 E43.3521
G1 X147.796 Y126.309
G1 X168.800 Y105.451 E44.3169
G1 X168.800 Y104.911
G1 X147.252 Y126.309 E45.3068
G1 X146.708 Y126.309
G1 X168.800 Y104.370 E46.3216
G1 X168.800 Y103.830
G1 X146.164 Y126.309 E47.3614
G1 X145.620 Y126.309
G1 X168.800 Y103.290 E48.4262
G1 X168.800 Y102.749
G1 X145.076 Y126.309 E49.5160
G1 X144.532 Y126.309
G1 X168.800 Y102.209 E50.6309
G1 X168.800 Y101.669
G1 X143.987 Y126.309 E51.7707
G1 X143.443 Y126.309
G1 X168.800 Y101.128 E52.9355
G1 X168.800 Y100.588
G1 X142.899 Y126.309 E54.1252
G1 X142.355 Y126.309
G1 X168.800 Y100.048 E55.3400
G1 X168.800 Y99.507
G1 X141.811 Y126.309 E56.5798
G1 X141.267 Y126.309
G1 X168.800 Y98.967 E57.8446
G1 X168.800 Y98.427
G1 X140.723 Y126.309 E59.1344
G1 X140.179 Y126.309
G1 X168.800 Y97.886 E60.4491
G1 X168.800 Y97.346
G1 X139.634 Y126.309 E61.7889
G1 X139.090 Y126.309
G1 X168.800 Y96.806 E63.1536
G1 X168.800 Y96.265
G1 X138.546 Y126.309 E64.5434
G1 X138.002 Y126.309
G1 X168.800 Y95.725 E65.9581
G1 X168.800 Y95.185
G1 X137.458 Y126.309 E67.3979
G1 X136.914 Y126.309
G1 X168.800 Y94.644 E68.8626
G1 X168.800 Y94.104
G1 X136.370 Y126.309 E70.3524
G1 X135.826 Y126.309
G1 X168.800 Y93.564 E71.8671
G1 X168.800 Y93.023
G1 X135.281 Y126.309 E73.4068
G1 X134.737 Y126.309
G1 X168.800 Y92.483 E74.9715
G1 X168.800 Y91.943
G1 X134.193 Y126.309 E76.5612
G1 X133.649 Y126.309
G1 X168.800 Y91.402 E78.1760
G1 X168.800 Y90.862
G1 X133.105 Y126.309 E79.8157
G1 X132.561 Y126.309
G1 X168.800 Y90.322 E81.4803
G1 X168.800 Y89.781
G1 X132.017 Y126.309 E83.1700
G1 X131.472 Y126.309
G1 X168.800 Y89.241 E84.8847
G1 X168.800 Y88.701
G1 X130.928 Y126.309 E86.6244
G1 X130.384 Y126.309
G1 X168.800 Y88.160 E88.3891
G1 X168.800 Y87.620
G1 X129.840 Y126.309 E90.1788
G1 X129.296 Y126.309
G1 X168.800 Y87.080 E91.9934
G1 X168.800 Y86.539
G1 X128.752 Y126.309 E93.8331
G1 X128.208 Y126.309
G1 X168.800 Y85.999 E95.6978
G1 X168.800 Y85.459
G1 X127.664 Y126.309 E97.5874
G1 X127.119 Y126.309
G1 X168.800 Y84.918 E99.5021
G1 X168.800 Y84.378
G1 X126.575 Y126.309 E101.4417
G1 X126.031 Y126.309
G1 X168.800 Y83.838 E103.4064
G1 X168.800 Y83.297
G1 X125.487 Y126.309 E105.3960
G1 X124.943 Y126.309
G1 X168.800 Y82.757 E107.4107
G1 X168.800 Y82.216
G1 X124.399 Y126.309 E109.4503
G1 X123.855 Y126.309
G1 X168.800 Y81.676 E111.5149
G1 X168.800 Y81.136
G1 X123.310 Y126.309 E113.6045
G1 X122.766 Y126.309
G1 X168.800 Y80.595 E115.7191
G1 X168.800 Y80.055
G1 X122.222 Y126.309 E117.8587
G1 X121.678 Y126.309
G1 X168.800 Y79.515 E120.0233
G1 X168.800 Y78.974
G1 X121.134 Y126.309 E122.2129
G1 X120.590 Y126.309
G1 X168.800 Y78.434 E124.4275
G1 X168.800 Y77.894
G1 X120.046 Y126.309 E126.6671
G1 X119.502 Y126.309
G1 X168.800 Y77.353 E128.9317
G1 X168.800 Y76.813
G1 X118.957 Y126.309 E131.2213
G1 X118.413 Y126.309
G1 X168.765 Y76.308 E133.5342
G1 X168.701 Y75.831
G1 X117.869 Y126.309 E135.8693
G1 X117.325 Y126.309
G1 X168.554 Y75.436 E138.2225
G1 X168.387 Y75.062
G1 X116.781 Y126.309 E140.5931
G1 X116.237 Y126.309
G1 X168.152 Y74.756 E142.9778
G1 X167.900 Y74.465
G1 X115.693 Y126.309 E145.3760
G1 X115.148 Y126.309
G1 X167.593 Y74.230 E147.7851
G1 X167.260 Y74.020
G1 X114.604 Y126.309 E150.2039
G1 X114.060 Y126.309
G1 X166.876 Y73.861 E152.6300
G1 X166.434 Y73.759
G1 X113.516 Y126.309 E155.0608
G1 X112.972 Y126.309
G1 X165.954 Y73.696 E157.4946
G1 X165.414 Y73.691
G1 X112.428 Y126.309 E159.9286
G1 X111.884 Y126.309
G1 X164.870 Y73.691 E162.3626
G1 X164.326 Y73.691
G1 X111.340 Y126.309 E164.7966
G1 X110.795 Y126.309
G1 X163.782 Y73.691 E167.2306
G1 X163.238 Y73.691
G1 X110.251 Y126.309 E169.6646
G1 X109.707 Y126.309
G1 X162.694 Y73.691 E172.0986
G1 X162.150 Y73.691
G1 X109.163 Y126.309 E174.5326
G1 X108.619 Y126.309
G1 X161.606 Y73.691 E176.9665
G1 X161.061 Y73.691
G1 X108.075 Y126.309 E179.4005
G1 X107.531 Y126.309
G1 X160.517 Y73.691 E181.8345
G1 X159.973 Y73.691
G1 X106.986 Y126.309 E184.2685
G1 X106.442 Y126.309
G1 X159.429 Y73.691 E186.7025
G1 X158.885 Y73.691
G1 X105.898 Y126.309 E189.1365
G1 X105.354 Y126.309
G1 X158.341 Y73.691 E191.5705
G1 X157.797 Y73.691
G1 X104.810 Y126.309 E194.0045
G1 X104.266 Y126.309
G1 X157.253 Y73.691 E196.4385
G1 X156.708 Y73.691
G1 X103.722 Y126.309 E198.8725
G1 X103.178 Y126.309
G1 X156.164 Y73.691 E201.3064
G1 X155.620 Y73.691
G1 X102.633 Y126.309 E203.7404
G1 X102.089 Y126.309
G1 X155.076 Y73.691 E206.1744
G1 X154.532 Y73.691
G1 X101.545 Y126.309 E208.6084
G1 X101.001 Y126.309
G1 X153.988 Y73.691 E211.0424
G1 X153.444 Y73.691
G1 X100.457 Y126.309 E213.4764
G1 X99.913 Y126.309
G1 X152.899 Y73.691 E215.9104
G1 X152.355 Y73.691
G1 X99.369 Y126.309 E218.3444
G1 X98.825 Y126.309
G1 X151.811 Y73.691 E220.7784
G1 X151.267 Y73.691
G1 X98.280 Y126.309 E223.2124
G1 X97.736 Y126.309
G1 X150.723 Y73.691 E225.6464
G1 X150.179 Y73.691
G1 X97.192 Y126.309 E228.0804
G1 X96.648 Y126.309
G1 X149.635 Y73.691 E230.5143
G1 X149.091 Y73.691
G1 X96.104 Y126.309 E232.9483
G1 X95.560 Y126.309
G1 X148.546 Y73.691 E235.3823
G1 X148.002 Y73.691
G1 X95.016 Y126.309 E237.8163
G1 X94.471 Y126.309
G1 X147.458 Y73.691 E240.2503
G1 X146.914 Y73.691
G1 X93.945 Y126.291 E242.6835
G1 X93.465 Y126.228
G1 X146.370 Y73.691 E245.1137
G1 X145.826 Y73.691
G1 X93.044 Y126.105 E247.5383
G1 X92.660 Y125.946
G1 X145.282 Y73.691 E249.9555
G1 X144.737 Y73.691
G1 X92.343 Y125.721 E252.3623
G1 X92.036 Y125.485
G1 X144.193 Y73.691 E254.7582
G1 X143.649 Y73.691
G1 X91.799 Y125.180 E257.1400
G1 X91.571 Y124.866
G1 X143.105 Y73.691 E259.5072
G1 X142.561 Y73.691
G1 X91.413 Y124.483 E261.8568
G1 X91.285 Y124.069
G1 X142.017 Y73.691 E264.1872
G1 X141.473 Y73.691
G1 X91.222 Y123.592 E266.4955
G1 X91.200 Y123.074
G1 X140.929 Y73.691 E268.7798
G1 X140.384 Y73.691
G1 X91.200 Y122.533 E271.0392
G1 X91.200 Y121.993
G1 X139.840 Y73.691 E273.2735
G1 X139.296 Y73.691
G1 X91.200 Y121.453 E275.4829
G1 X91.200 Y120.912
G1 X138.752 Y73.691 E277.6672
G1 X138.208 Y73.691
G1 X91.200 Y120.372 E279.8266
G1 X91.200 Y119.832
G1 X137.664 Y73.691 E281.9610
G1 X137.120 Y73.691
G1 X91.200 Y119.291 E284.0703
G1 X91.200 Y118.751
G1 X136.575 Y73.691 E286.1547
G1 X136.031 Y73.691
G1 X91.200 Y118.211 E288.2141
G1 X91.200 Y117.670
G1 X135.487 Y73.691 E290.2485
G1 X134.943 Y73.691
G1 X91.200 Y117.130 E292.2579
G1 X91.200 Y116.590
G1 X134.399 Y73.691 E294.2423
G1 X133.855 Y73.691
G1 X91.200 Y116.049 E296.2017
G1 X91.200 Y115.509
G1 X133.311 Y73.691 E298.1361
G1 X132.767 Y73.691
G1 X91.200 Y114.969 E300.0455
G1 X91.200 Y114.428
G1 X132.222 Y73.691 E301.9300
G1 X131.678 Y73.691
G1 X91.200 Y113.888 E303.7894
G1 X91.200 Y113.347
G1 X131.134 Y73.691 E305.6238
G1 X130.590 Y73.691
G1 X91.200 Y112.807 E307.4332
G1 X91.200 Y112.267
G1 X130.046 Y73.691 E309.2177
G1 X129.502 Y73.691
G1 X91.200 Y111.726 E310.9771
G1 X91.200 Y111.186
G1 X128.958 Y73.691 E312.7115
G1 X128.413 Y73.691
G1 X91.200 Y110.646 E314.4210
G1 X91.200 Y110.105
G1 X127.869 Y73.691 E316.1054
G1 X127.325 Y73.691
G1 X91.200 Y109.565 E317.7649
G1 X91.200 Y109.025
