; GCode generated by CraftWare

M103 (disable RPM)
M73 P0 (enable build progress)
G21 (set units to mm)
G90 (set positioning to absolute)
M109 S65 T0 (set HBP temperature)
M104 S190 T0 (set extruder temperature) (temp updated by printOMatic)
G162 X Y F2500 (home XY axes maximum)
G161 Z F1100 (home Z axis minimum)
G92 Z-5 (set Z to -5)
G1 Z0.0 (move Z to "0")
G161 Z F100 (home Z axis minimum)
M132 X Y Z A B (Recall stored home offsets for XYZAB axis)
(**** end homing ****)
G1 X-110.5 Y-74 Z150 F3300.0 (move to waiting position)
G130 X20 Y20 Z20 A20 B20 (Lower stepper Vrefs while heating)
M6 T0 (wait for toolhead, and HBP to reach temperature)
G130 X127 Y127 Z40 A127 B127 (Set Stepper motor Vref to defaults)
M108 R3.0 T0
G0 X-110.5 Y-74 (Position Nozzle)
G0 Z0.6      (Position Height)
M108 R5.0    (Set Extruder Speed)
M101         (Start Extruder)
G4 P2000     (Create Anchor)
; ------------------------------------
; Layer #0
; ------------------------------------
G21 ; mm
G90 ; abs
G92 E0 ; reset extr
M73 S0
M106 S0
;segType:Skirt
G0 F1200 E-1.0000
G0 F300 Z0.200
G0 X90.730 Y128.882 F5400
G0 F1200 E0.0000
G1 X90.922 Y129.072 E0.0090 F3000
G1 X91.819 Y129.581 E0.0433
G1 X92.075 Y129.581 E0.0518
G1 X92.203 Y129.708 E0.0578
G1 X92.716 Y129.708 E0.0749
G1 X92.844 Y129.836 E0.0809
G1 X166.644 Y129.836 E2.5355
G1 X167.541 Y129.708 E2.5656
G1 X167.925 Y129.581 E2.5791
G1 X168.053 Y129.454 E2.5851
G1 X168.309 Y129.454 E2.5936
G1 X168.950 Y129.072 E2.6184
G1 X171.256 Y126.782 E2.7265
G1 X171.448 Y126.464 E2.7389
G1 X171.704 Y126.210 E2.7509
G1 X171.833 Y125.828 E2.7643
G1 X172.025 Y125.510 E2.7766
G1 X172.089 Y125.065 E2.7916
G1 X172.217 Y124.938 E2.7976
G1 X172.217 Y75.063 E4.4564
G1 X172.089 Y74.935 E4.4624
G1 X172.089 Y74.681 E4.4709
G1 X171.704 Y74.045 E4.4956
G1 X171.576 Y73.663 E4.5090
G1 X171.064 Y73.154 E4.5330
G1 X170.872 Y72.836 E4.5454
G1 X169.334 Y71.309 E4.6175
G1 X169.014 Y71.118 E4.6299
G1 X168.758 Y70.864 E4.6419
G1 X168.373 Y70.737 E4.6553
G1 X168.053 Y70.546 E4.6677
G1 X167.669 Y70.419 E4.6812
G1 X167.413 Y70.419 E4.6897
G1 X167.284 Y70.292 E4.6957
G1 X166.772 Y70.292 E4.7128
G1 X166.388 Y70.164 E4.7262
G1 X93.356 Y70.164 E7.1553
G1 X93.228 Y70.292 E7.1613
G1 X92.716 Y70.292 E7.1783
G1 X92.331 Y70.419 E7.1918
G1 X92.075 Y70.419 E7.2003
G1 X91.755 Y70.609 E7.2127
G1 X91.371 Y70.737 E7.2262
G1 X91.050 Y70.928 E7.2386
G1 X90.794 Y71.182 E7.2506
G1 X90.474 Y71.373 E7.2630
G1 X88.936 Y72.900 E7.3351
G1 X88.744 Y73.218 E7.3474
G1 X88.488 Y73.472 E7.3594
G1 X88.296 Y73.790 E7.3718
G1 X88.039 Y74.045 E7.3838
G1 X88.039 Y74.299 E7.3923
G1 X87.847 Y74.617 E7.4046
G1 X87.719 Y74.999 E7.4180
G1 X87.655 Y75.444 E7.4330
G1 X87.655 Y124.810 E9.0749
G1 X87.783 Y125.192 E9.0883
G1 X87.783 Y125.446 E9.0968
G1 X88.552 Y126.719 E9.1462
G1 X90.730 Y128.882 E9.2483
G1 X90.730 Y129.263 E9.2610
G1 X90.922 Y129.454 E9.2700
G1 X91.819 Y129.963 E9.3043
G1 X92.075 Y129.963 E9.3128
G1 X92.203 Y130.090 E9.3188
G1 X92.716 Y130.090 E9.3359
G1 X92.844 Y130.217 E9.3419
G1 X166.644 Y130.217 E11.7965
G1 X167.541 Y130.090 E11.8266
G1 X167.925 Y129.963 E11.8401
G1 X168.053 Y129.836 E11.8461
G1 X168.309 Y129.836 E11.8546
G1 X168.950 Y129.454 E11.8794
G1 X171.769 Y126.655 E12.0115
G1 X172.345 Y125.701 E12.0486
G1 X172.473 Y125.319 E12.0620
G1 X172.473 Y125.065 E12.0704
G1 X172.601 Y124.938 E12.0764
G1 X172.601 Y75.063 E13.7353
G1 X172.473 Y74.935 E13.7413
G1 X172.473 Y74.681 E13.7498
G1 X172.089 Y74.045 E13.7745
G1 X171.961 Y73.663 E13.7879
G1 X171.448 Y73.154 E13.8119
G1 X171.256 Y72.836 E13.8242
G1 X169.463 Y71.055 E13.9083
G1 X169.142 Y70.864 E13.9207
G1 X168.886 Y70.609 E13.9328
G1 X168.566 Y70.419 E13.9451
G1 X168.181 Y70.292 E13.9586
G1 X167.861 Y70.100 E13.9710
G1 X167.413 Y70.037 E13.9861
G1 X167.284 Y69.910 E13.9921
G1 X166.772 Y69.910 E14.0091
G1 X166.388 Y69.783 E14.0226
G1 X93.356 Y69.783 E16.4516
G1 X93.228 Y69.910 E16.4576
G1 X92.716 Y69.910 E16.4747
G1 X92.331 Y70.037 E16.4881
G1 X92.075 Y70.037 E16.4967
G1 X91.755 Y70.228 E16.5091
G1 X91.371 Y70.355 E16.5225
G1 X91.050 Y70.546 E16.5349
G1 X90.794 Y70.800 E16.5469
G1 X90.474 Y70.991 E16.5593
G1 X88.424 Y73.027 E16.6554
G1 X88.231 Y73.345 E16.6678
G1 X87.975 Y73.600 E16.6798
G1 X87.655 Y74.045 E16.6980
G1 X87.655 Y74.299 E16.7065
G1 X87.463 Y74.617 E16.7189
G1 X87.334 Y74.999 E16.7323
G1 X87.271 Y75.444 E16.7472
G1 X87.271 Y124.810 E18.3891
G1 X87.399 Y125.192 E18.4025
G1 X87.399 Y125.446 E18.4110
G1 X88.167 Y126.719 E18.4604
G1 X90.730 Y129.263 E18.5806
G0 F1200 E17.5806
G0 X92.851 Y127.685 F5400
G0 X94.973 Y126.106
G0 X130.808 Y124.104
G0 X131.592 Y76.896
G0 X167.772 Y73.614
G0 F1200 E18.5806
;segType:Loop
G1 X168.399 Y74.095 E18.6068 F3000
G1 X168.939 Y74.799 E18.6363
G1 X169.279 Y75.619 E18.6659
G1 X169.400 Y76.539 E18.6967
G1 X169.400 Y123.461 E20.2574
G1 X169.279 Y124.381 E20.2882
G1 X168.939 Y125.201 E20.3177
G1 X168.399 Y125.905 E20.3473
G1 X167.696 Y126.444 E20.3767
G1 X166.878 Y126.783 E20.4062
G1 X165.960 Y126.904 E20.4370
G1 X94.040 Y126.904 E22.8291
G1 X93.122 Y126.783 E22.8598
G1 X92.304 Y126.444 E22.8893
G1 X91.601 Y125.905 E22.9188
G1 X91.061 Y125.201 E22.9483
G1 X90.721 Y124.381 E22.9778
G1 X90.600 Y123.461 E23.0087
G1 X90.600 Y76.539 E24.5693
G1 X90.721 Y75.619 E24.6001
G1 X91.061 Y74.799 E24.6297
G1 X91.601 Y74.095 E24.6592
G1 X92.304 Y73.556 E24.6887
G1 X93.122 Y73.217 E24.7181
G1 X94.040 Y73.096 E24.7489
G1 X165.960 Y73.096 E27.1410
G1 X166.878 Y73.217 E27.1718
G1 X167.607 Y73.519 E27.1980
G0 F1200 E26.1980
G0 X166.460 Y73.233 F5400
G0 F1200 E27.1980
;segType:Perimeter
G1 X167.036 Y72.852 E27.2210 F2100
G1 X167.899 Y73.209 E27.2521
G1 X168.685 Y73.813 E27.2850
G1 X169.289 Y74.600 E27.3180
G1 X169.669 Y75.516 E27.3510
G1 X169.800 Y76.513 E27.3845
G1 X169.800 Y123.487 E28.9468
G1 X169.669 Y124.484 E28.9803
G1 X169.289 Y125.400 E29.0133
G1 X168.685 Y126.187 E29.0463
G1 X167.899 Y126.791 E29.0792
G1 X166.983 Y127.170 E29.1122
G1 X165.987 Y127.301 E29.1456
G1 X94.013 Y127.301 E31.5395
G1 X93.017 Y127.170 E31.5729
G1 X92.101 Y126.791 E31.6059
G1 X91.315 Y126.187 E31.6388
G1 X90.711 Y125.400 E31.6718
G1 X90.331 Y124.484 E31.7048
G1 X90.200 Y123.487 E31.7383
G1 X90.200 Y76.513 E33.3006
G1 X90.331 Y75.516 E33.3341
G1 X90.711 Y74.600 E33.3671
G1 X91.315 Y73.813 E33.4000
G1 X92.101 Y73.209 E33.4330
G1 X93.017 Y72.830 E33.4660
G1 X94.013 Y72.699 E33.4994
G1 X165.987 Y72.699 E35.8933
G1 X166.926 Y72.822 E35.9248
G1 X167.231 Y73.440
;segType:Loop
G0 X168.242 Y74.546 F5400
G1 X168.589 Y74.998 E35.9437 F3000
G1 X168.889 Y75.723 E35.9698
G1 X169.000 Y76.565 E35.9981
G1 X169.000 Y123.435 E37.5570
G1 X168.889 Y124.277 E37.5852
G1 X168.589 Y125.002 E37.6113
G1 X168.113 Y125.623 E37.6373
G1 X167.493 Y126.098 E37.6633
G1 X166.773 Y126.396 E37.6892
G1 X165.934 Y126.507 E37.7174
G1 X94.066 Y126.507 E40.1077
G1 X93.227 Y126.396 E40.1359
G1 X92.507 Y126.098 E40.1618
G1 X91.887 Y125.623 E40.1878
G1 X91.411 Y125.002 E40.2138
G1 X91.111 Y124.277 E40.2399
G1 X91.000 Y123.435 E40.2681
G1 X91.000 Y76.565 E41.8270
G1 X91.111 Y75.723 E41.8553
G1 X91.411 Y74.998 E41.8814
G1 X91.887 Y74.377 E41.9074
G1 X92.507 Y73.902 E41.9334
G1 X93.227 Y73.604 E41.9593
G1 X94.066 Y73.493 E41.9875
G1 X165.934 Y73.493 E44.3778
G1 X166.773 Y73.604 E44.4059
G1 X167.493 Y73.902 E44.4319
G1 X168.113 Y74.377 E44.4578
G1 X168.125 Y74.394 E44.4585
G0 X148.664 Y77.166 F5400
G0 X147.600 Y78.352
G1 X147.600 Y124.096 E45.9800 F3000
G1 X146.000 Y124.096 E46.0332
G1 X146.000 Y79.800 E47.5064
G1 X146.025 Y76.904 E47.6028
G1 X147.600 Y76.904 E47.6551
G1 X147.600 Y78.161 E47.6969
;segType:Perimeter
G0 X148.218 Y77.565 F5400
G1 X148.858 Y77.301 E47.7199 F2100
G1 X149.600 Y77.301 E47.7446
G1 X149.600 Y123.698 E49.2878
G1 X148.800 Y123.698 E49.3144
G1 X148.800 Y77.359 E50.8557
G1 X149.065 Y76.723
;segType:Loop
G0 X148.000 Y79.212 F5400
G1 X148.000 Y76.507 E50.9456 F3000
G1 X150.400 Y76.507 E51.0254
G1 X150.400 Y124.493 E52.6214
G1 X148.000 Y124.493 E52.7012
G1 X148.000 Y79.403 E54.2009
;segType:HShell
G0 X150.723 Y73.691 F5400
G1 X148.087 Y76.309 E54.3245 F3000
G1 X147.543 Y76.309
G1 X150.179 Y73.691 E54.4480
G1 X149.635 Y73.691
G1 X146.999 Y76.309 E54.5716
;segType:Perimeter
G0 X146.935 Y76.723 F5400
G1 X147.200 Y77.359 E54.5945 F2100
G1 X147.200 Y123.698 E56.1357
G1 X146.400 Y123.698 E56.1623
G1 X146.400 Y79.802 E57.6224
G1 X146.422 Y77.301 E57.7055
G1 X147.142 Y77.301 E57.7295
G1 X147.782 Y77.565
G0 F1200 E56.7295
G0 X150.000 Y77.558 F5400
G0 F1200 E57.7295
;segType:Loop
G1 X150.000 Y124.096 E59.2773 F3000
G1 X148.400 Y124.096 E59.3305
G1 X148.400 Y76.904 E60.9001
G1 X150.000 Y76.904 E60.9533
G1 X150.000 Y77.367 E60.9687
G0 X149.736 Y77.166 F5400
G0 X146.286 Y77.166
G0 X145.600 Y78.609
G1 X145.600 Y124.493 E62.4948 F3000
G1 X143.200 Y124.493 E62.5746
G1 X143.200 Y79.798 E64.0612
G1 X143.229 Y76.507 E64.1706
G1 X145.600 Y76.507 E64.2495
G1 X145.600 Y78.418 E64.3130
;segType:HShell
G0 X145.826 Y73.691 F5400
G1 X143.190 Y76.309 E64.4366 F3000
G1 X143.734 Y76.309
G1 X146.370 Y73.691 E64.5601
G1 X146.914 Y73.691
G1 X144.278 Y76.309 E64.6837
;segType:Perimeter
G0 X144.535 Y76.723 F5400
G1 X144.800 Y77.359 E64.7066 F2100
G1 X144.800 Y123.698 E66.2478
G1 X144.000 Y123.698 E66.2744
G1 X144.000 Y79.802 E67.7344
G1 X144.022 Y77.301 E67.8176
G1 X144.742 Y77.301 E67.8416
G1 X145.382 Y77.565
;segType:Loop
G0 X145.200 Y78.352 F5400
G1 X145.200 Y124.096 E69.3630 F3000
G1 X143.600 Y124.096 E69.4162
G1 X143.600 Y79.800 E70.8895
G1 X143.625 Y76.904 E70.9858
G1 X145.200 Y76.904 E71.0382
G1 X145.200 Y78.161 E71.0800
G0 X145.605 Y79.215 F5400
G1 X145.629 Y76.507 E71.1700 F3000
G1 X148.000 Y76.507 E71.2489
G1 X148.000 Y124.493 E72.8449
G1 X145.600 Y124.493 E72.9247
G1 X145.600 Y79.798 E74.4113
G1 X145.604 Y79.406 E74.4243
G0 X144.936 Y77.166 F5400
G0 X141.473 Y73.691
;segType:HShell
G1 X138.837 Y76.309 E74.5478 F3000
G1 X139.381 Y76.309
G1 X142.017 Y73.691 E74.6714
G1 X142.561 Y73.691
G1 X139.925 Y76.309 E74.7949
;segType:Perimeter
G0 X139.735 Y76.723 F5400
G1 X140.000 Y77.359 E74.8178 F2100
G1 X140.000 Y123.698 E76.3591
G1 X139.200 Y123.698 E76.3857
G1 X139.200 Y79.802 E77.8457
G1 X139.222 Y77.301 E77.9289
G1 X139.942 Y77.301 E77.9529
G1 X140.582 Y77.565
G0 F1200 E76.9529
G0 X140.400 Y78.352 F5400
G0 F1200 E77.9529
;segType:Loop
G1 X140.400 Y124.096 E79.4743 F3000
G1 X138.800 Y124.096 E79.5275
G1 X138.800 Y79.800 E81.0008
G1 X138.825 Y76.904 E81.0971
G1 X140.400 Y76.904 E81.1495
G1 X140.400 Y78.161 E81.1913
G0 X140.800 Y79.212 F5400
G1 X140.800 Y76.507 E81.2812 F3000
G1 X143.180 Y76.507 E81.3604
G1 X143.200 Y121.198 E82.8468
G1 X143.200 Y124.493 E82.9564
G1 X140.800 Y124.493 E83.0362
G1 X140.800 Y79.403 E84.5359
;segType:HShell
G0 X140.929 Y73.691 F5400
G1 X138.293 Y76.309 E84.6594 F3000
G1 X137.749 Y76.309
G1 X140.384 Y73.691 E84.7830
G1 X139.840 Y73.691
G1 X137.204 Y76.309 E84.9065
;segType:Perimeter
G0 X137.335 Y76.723 F5400
G1 X137.600 Y77.359 E84.9294 F2100
G1 X137.600 Y123.698 E86.4707
G1 X136.800 Y123.698 E86.4973
G1 X136.800 Y77.301 E88.0404
G1 X137.542 Y77.301 E88.0651
G1 X138.182 Y77.565
;segType:Loop
G0 X138.000 Y78.352 F5400
G1 X138.000 Y124.096 E89.5866 F3000
G1 X136.400 Y124.096 E89.6398
G1 X136.400 Y76.904 E91.2093
G1 X138.000 Y76.904 E91.2625
G1 X138.000 Y78.161 E91.3043
G0 X138.405 Y79.195 F5400
G1 X138.428 Y76.507 E91.3937 F3000
G1 X140.800 Y76.507 E91.4726
G1 X140.800 Y124.493 E93.0686
G1 X138.400 Y124.493 E93.1484
G1 X138.400 Y79.798 E94.6350
G1 X138.404 Y79.386 E94.6487
G0 X137.736 Y77.166 F5400
G0 X134.264 Y77.166
G0 X133.200 Y78.352
G1 X133.200 Y124.096 E96.1701 F3000
G1 X131.600 Y124.096 E96.2233
G1 X131.600 Y76.904 E97.7929
G1 X133.200 Y76.904 E97.8461
G1 X133.200 Y78.161 E97.8879
;segType:Perimeter
G0 X133.818 Y77.565 F5400
G1 X134.458 Y77.301 E97.9109 F2100
G1 X135.200 Y77.301 E97.9356
G1 X135.200 Y123.698 E99.4788
G1 X134.400 Y123.698 E99.5054
G1 X134.400 Y77.359 E101.0467
G1 X134.665 Y76.723
;segType:Loop
G0 X136.000 Y78.608 F5400
G1 X136.000 Y124.493 E102.5728 F3000
G1 X133.600 Y124.493 E102.6526
G1 X133.600 Y76.507 E104.2486
G1 X136.000 Y76.507 E104.3284
G1 X136.000 Y78.417 E104.3919
;segType:HShell
G0 X133.855 Y73.691 F5400
G1 X131.219 Y76.309 E104.5155 F3000
G1 X131.763 Y76.309
G1 X134.399 Y73.691 E104.6390
G1 X134.943 Y73.691
G1 X132.307 Y76.309 E104.7626
;segType:Perimeter
G0 X132.535 Y76.723 F5400
G1 X132.800 Y77.359 E104.7855 F2100
G1 X132.800 Y123.698 E106.3267
G1 X132.000 Y123.698 E106.3534
G1 X132.000 Y77.301 E107.8965
G1 X132.742 Y77.301 E107.9212
G1 X133.382 Y77.565
G0 F1200 E106.9212
G0 X135.600 Y77.558 F5400
G0 F1200 E107.9212
;segType:Loop
G1 X135.600 Y124.096 E109.4691 F3000
G1 X134.000 Y124.096 E109.5223
G1 X134.000 Y76.904 E111.0919
G1 X135.600 Y76.904 E111.1451
G1 X135.600 Y77.367 E111.1604
G0 X136.000 Y79.212 F5400
G1 X136.000 Y76.507 E111.2504 F3000
G1 X138.400 Y76.507 E111.3302
G1 X138.400 Y124.493 E112.9262
G1 X136.000 Y124.493 E113.0060
G1 X136.000 Y79.403 E114.5057
G0 X135.336 Y77.166 F5400
G0 X129.464 Y77.166
G0 X128.400 Y78.352
G1 X128.400 Y124.096 E116.0271 F3000
G1 X126.800 Y124.096 E116.0803
G1 X126.800 Y79.800 E117.5536
G1 X126.825 Y76.904 E117.6499
G1 X128.400 Y76.904 E117.7023
G1 X128.400 Y78.161 E117.7441
;segType:Perimeter
G0 X129.018 Y77.565 F5400
G1 X129.658 Y77.301 E117.7671 F2100
G1 X130.400 Y77.301 E117.7918
G1 X130.400 Y123.698 E119.3350
G1 X129.600 Y123.698 E119.3616
G1 X129.600 Y77.359 E120.9028
G1 X129.865 Y76.723
;segType:Loop
G0 X131.200 Y78.418 F5400
G1 X131.200 Y76.507 E120.9664 F3000
G1 X133.600 Y76.507 E121.0462
G1 X133.600 Y124.493 E122.6422
G1 X131.200 Y124.493 E122.7220
G1 X131.200 Y78.609 E124.2481
;segType:HShell
G0 X129.502 Y73.691 F5400
G1 X126.866 Y76.309 E124.3716 F3000
G1 X127.410 Y76.309
G1 X130.046 Y73.691 E124.4952
G1 X130.590 Y73.691
G1 X127.954 Y76.309 E124.6188
;segType:Perimeter
G0 X127.735 Y76.723 F5400
G1 X128.000 Y77.359 E124.6416 F2100
G1 X128.000 Y123.698 E126.1829
G1 X127.200 Y123.698 E126.2095
G1 X127.200 Y79.802 E127.6695
G1 X127.222 Y77.301 E127.7527
G1 X127.942 Y77.301 E127.7767
G1 X128.582 Y77.565
G0 F1200 E126.7767
G0 X130.800 Y77.558 F5400
G0 F1200 E127.7767
;segType:Loop
G1 X130.800 Y124.096 E129.3245 F3000
G1 X129.200 Y124.096 E129.3777
G1 X129.200 Y76.904 E130.9473
G1 X130.800 Y76.904 E131.0005
G1 X130.800 Y77.367 E131.0159
G0 X130.536 Y77.166 F5400
G0 X129.464 Y77.166
G0 X128.800 Y79.212
G1 X128.800 Y76.507 E131.1058 F3000
G1 X131.200 Y76.507 E131.1856
G1 X131.200 Y124.493 E132.7817
G1 X128.800 Y124.493 E132.8615
G1 X128.800 Y79.403 E134.3612
;segType:HShell
G0 X128.958 Y73.691 F5400
G1 X126.322 Y76.309 E134.4847 F3000
G1 X125.778 Y76.309
G1 X128.414 Y73.691 E134.6083
G1 X127.869 Y73.691
G1 X125.234 Y76.309 E134.7318
;segType:Perimeter
G0 X125.335 Y76.723 F5400
G1 X125.600 Y77.359 E134.7547 F2100
G1 X125.600 Y123.698 E136.2960
G1 X124.800 Y123.698 E136.3226
G1 X124.800 Y79.802 E137.7826
G1 X124.822 Y77.301 E137.8657
G1 X125.542 Y77.301 E137.8897
G1 X126.182 Y77.565
;segType:Loop
G0 X126.000 Y78.352 F5400
G1 X126.000 Y124.096 E139.4111 F3000
G1 X124.400 Y124.096 E139.4643
G1 X124.400 Y79.800 E140.9376
G1 X124.425 Y76.904 E141.0339
G1 X126.000 Y76.904 E141.0863
G1 X126.000 Y78.161 E141.1281
G0 X126.405 Y79.215 F5400
G1 X126.429 Y76.507 E141.2182 F3000
G1 X128.800 Y76.507 E141.2970
G1 X128.800 Y124.493 E142.8931
G1 X126.400 Y124.493 E142.9729
G1 X126.400 Y79.798 E144.4594
G1 X126.404 Y79.406 E144.4724
;segType:HShell
G0 X126.781 Y73.691 F5400
G1 X124.145 Y76.309 E144.5960 F3000
G1 X123.601 Y76.309
G1 X126.237 Y73.691 E144.7195
G1 X125.693 Y73.691
G1 X123.057 Y76.309 E144.8431
;segType:Perimeter
G0 X122.935 Y76.723 F5400
G1 X123.200 Y77.359 E144.8660 F2100
G1 X123.200 Y123.698 E146.4072
G1 X122.400 Y123.698 E146.4338
G1 X122.400 Y79.802 E147.8939
G1 X122.422 Y77.301 E147.9770
G1 X123.142 Y77.301 E148.0010
G1 X123.782 Y77.565
;segType:Loop
G0 X123.600 Y78.352 F5400
G1 X123.600 Y124.096 E149.5224 F3000
G1 X122.000 Y124.096 E149.5756
G1 X122.000 Y79.800 E151.0489
G1 X122.025 Y76.904 E151.1452
G1 X123.600 Y76.904 E151.1976
G1 X123.600 Y78.161 E151.2394
G0 X124.005 Y79.215 F5400
G1 X124.029 Y76.507 E151.3294 F3000
G1 X126.400 Y76.507 E151.4083
G1 X126.400 Y124.493 E153.0043
G1 X124.000 Y124.493 E153.0841
G1 X124.000 Y79.798 E154.5707
G1 X124.004 Y79.406 E154.5837
G0 X122.756 Y76.070 F5400
G0 X121.884 Y73.691
;segType:HShell
G1 X119.248 Y76.309 E154.7072 F3000
G1 X119.792 Y76.309
G1 X122.428 Y73.691 E154.8308
G1 X122.972 Y73.691
G1 X120.336 Y76.309 E154.9543
;segType:Perimeter
G0 X120.535 Y76.723 F5400
G1 X120.800 Y77.359 E154.9772 F2100
G1 X120.800 Y123.698 E156.5185
G1 X120.000 Y123.698 E156.5451
G1 X120.000 Y77.301 E158.0883
G1 X120.742 Y77.301 E158.1130
G1 X121.382 Y77.565
;segType:Loop
G0 X121.200 Y78.352 F5400
G1 X121.200 Y124.096 E159.6344 F3000
G1 X119.600 Y124.096 E159.6876
G1 X119.600 Y76.904 E161.2572
G1 X121.200 Y76.904 E161.3104
G1 X121.200 Y78.161 E161.3522
G0 X121.600 Y79.403 F5400
G1 X121.600 Y124.493 E162.8519 F3000
G1 X119.200 Y124.493 E162.9317
G1 X119.200 Y76.507 E164.5277
G1 X121.600 Y76.507 E164.6075
G1 X121.600 Y79.212 E164.6975
;segType:HShell
G0 X119.707 Y73.691 F5400
G1 X117.072 Y76.309 E164.8210 F3000
G1 X117.616 Y76.309
G1 X120.252 Y73.691 E164.9446
G1 X120.796 Y73.691
G1 X118.160 Y76.309 E165.0681
;segType:Perimeter
G0 X118.135 Y76.723 F5400
G1 X118.400 Y77.359 E165.0910 F2100
G1 X118.400 Y123.698 E166.6323
G1 X117.600 Y123.698 E166.6589
G1 X117.600 Y77.301 E168.2020
G1 X118.342 Y77.301 E168.2267
G1 X118.982 Y77.565
G0 F1200 E167.2267
G0 X118.800 Y78.352 F5400
G0 F1200 E168.2267
;segType:Loop
G1 X118.800 Y124.096 E169.7481 F3000
G1 X117.200 Y124.096 E169.8014
G1 X117.200 Y76.904 E171.3709
G1 X118.800 Y76.904 E171.4241
G1 X118.800 Y78.161 E171.4659
G0 X118.536 Y77.166 F5400
G0 X117.464 Y77.166
G0 X116.800 Y79.403
G1 X116.800 Y124.493 E172.9656 F3000
G1 X114.400 Y124.493 E173.0454
G1 X114.400 Y76.507 E174.6414
G1 X116.800 Y76.507 E174.7212
G1 X116.800 Y79.212 E174.8112
;segType:HShell
G0 X117.531 Y73.691 F5400
G1 X114.895 Y76.309 E174.9347 F3000
G1 X115.439 Y76.309
G1 X118.075 Y73.691 E175.0583
G1 X118.619 Y73.691
G1 X115.983 Y76.309 E175.1818
;segType:Perimeter
G0 X115.735 Y76.723 F5400
G1 X116.000 Y77.359 E175.2047 F2100
G1 X116.000 Y123.698 E176.7460
G1 X115.200 Y123.698 E176.7726
G1 X115.200 Y77.301 E178.3158
G1 X115.942 Y77.301 E178.3405
G1 X116.582 Y77.565
G0 F1200 E177.3405
G0 X116.400 Y78.352 F5400
G0 F1200 E178.3405
;segType:Loop
G1 X116.400 Y124.096 E179.8619 F3000
G1 X114.800 Y124.096 E179.9151
G1 X114.800 Y76.904 E181.4847
G1 X116.400 Y76.904 E181.5379
G1 X116.400 Y78.161 E181.5797
G0 X116.136 Y77.166 F5400
G0 X115.064 Y77.166
G0 X114.400 Y79.403
G1 X114.400 Y124.493 E183.0794 F3000
G1 X112.000 Y124.493 E183.1592
G1 X112.000 Y76.507 E184.7552
G1 X114.400 Y76.507 E184.8350
G1 X114.400 Y79.212 E184.9249
G0 X115.064 Y77.166 F5400
G0 X116.987 Y73.691
;segType:HShell
G1 X114.351 Y76.309 E185.0485 F3000
G1 X113.807 Y76.309
G1 X116.443 Y73.691 E185.1720
G1 X115.898 Y73.691
G1 X113.263 Y76.309 E185.2956
;segType:Perimeter
G0 X113.335 Y76.723 F5400
G1 X113.600 Y77.359 E185.3185 F2100
G1 X113.600 Y123.698 E186.8597
G1 X112.800 Y123.698 E186.8864
G1 X112.800 Y77.301 E188.4295
G1 X113.542 Y77.301 E188.4542
G1 X114.182 Y77.565
G0 F1200 E187.4542
G0 X114.000 Y78.352 F5400
G0 F1200 E188.4542
;segType:Loop
G1 X114.000 Y124.096 E189.9757 F3000
G1 X112.400 Y124.096 E190.0289
G1 X112.400 Y76.904 E191.5984
G1 X114.000 Y76.904 E191.6516
G1 X114.000 Y78.161 E191.6934
G0 X113.736 Y77.166 F5400
G0 X112.664 Y77.166
G0 X112.000 Y79.403
G1 X112.000 Y124.493 E193.1931 F3000
G1 X109.600 Y124.493 E193.2729
G1 X109.600 Y76.507 E194.8689
G1 X112.000 Y76.507 E194.9488
G1 X112.000 Y79.212 E195.0387
G0 X112.664 Y77.166 F5400
G0 X114.810 Y73.691
;segType:HShell
G1 X112.174 Y76.309 E195.1623 F3000
G1 X111.630 Y76.309
G1 X114.266 Y73.691 E195.2858
G1 X113.722 Y73.691
G1 X111.086 Y76.309 E195.4094
;segType:Perimeter
G0 X110.935 Y76.723 F5400
G1 X111.200 Y77.359 E195.4323 F2100
G1 X111.200 Y123.698 E196.9735
G1 X110.400 Y123.698 E197.0001
G1 X110.400 Y77.301 E198.5433
G1 X111.142 Y77.301 E198.5680
G1 X111.782 Y77.565
G0 F1200 E197.5680
G0 X111.600 Y78.352 F5400
G0 F1200 E198.5680
;segType:Loop
G1 X111.600 Y124.096 E200.0894 F3000
G1 X110.000 Y124.096 E200.1426
G1 X110.000 Y76.904 E201.7122
G1 X111.600 Y76.904 E201.7654
G1 X111.600 Y78.161 E201.8072
G0 X112.664 Y77.166 F5400
G0 X120.936 Y77.166
G0 X121.605 Y79.236
G1 X121.629 Y76.507 E201.8979 F3000
G1 X124.000 Y76.507 E201.9768
G1 X124.000 Y124.493 E203.5728
G1 X121.600 Y124.493 E203.6526
G1 X121.600 Y79.798 E205.1391
G1 X121.604 Y79.427 E205.1515
G0 X120.936 Y77.166 F5400
G0 X110.264 Y77.166
G0 X95.993 Y101.621
G1 X95.626 Y101.925 E205.1673 F3000
G1 X95.107 Y102.169 E205.1864
G1 X94.544 Y102.276 E205.2055
G1 X93.971 Y102.240 E205.2246
G1 X93.426 Y102.063 E205.2436
G1 X92.942 Y101.756 E205.2627
G1 X92.551 Y101.339 E205.2817
G1 X92.275 Y100.838 E205.3007
G1 X92.133 Y100.285 E205.3197
G1 X92.133 Y99.715 E205.3387
G1 X92.275 Y99.162 E205.3577
G1 X92.551 Y98.661 E205.3767
G1 X92.914 Y98.274 E205.3943
G1 X93.385 Y97.962 E205.4131
G1 X93.925 Y97.773 E205.4322
G1 X94.496 Y97.725 E205.4512
G1 X95.061 Y97.821 E205.4703
G1 X95.583 Y98.054 E205.4893
G1 X96.031 Y98.409 E205.5083
G1 X96.376 Y98.864 E205.5273
G1 X96.597 Y99.389 E205.5463
G1 X96.680 Y99.953 E205.5652
G1 X96.615 Y100.561 E205.5855
G1 X96.403 Y101.097 E205.6047
G1 X96.123 Y101.482 E205.6206
;segType:Perimeter
G0 X96.769 Y100.124 F5400
G1 X96.202 Y100.519 E205.6435 F2100
G1 X96.049 Y100.905 E205.6574
G1 X95.772 Y101.287 E205.6731
G1 X95.409 Y101.587 E205.6887
G1 X94.982 Y101.788 E205.7044
G1 X94.518 Y101.876 E205.7201
G1 X94.047 Y101.847 E205.7358
G1 X93.598 Y101.701 E205.7515
G1 X93.200 Y101.448 E205.7672
G1 X92.878 Y101.105 E205.7829
G1 X92.650 Y100.692 E205.7986
G1 X92.533 Y100.235 E205.8142
G1 X92.533 Y99.765 E205.8299
G1 X92.650 Y99.308 E205.8456
G1 X92.878 Y98.895 E205.8612
G1 X93.175 Y98.579 E205.8757
G1 X93.565 Y98.320 E205.8913
G1 X94.009 Y98.165 E205.9069
G1 X94.479 Y98.126 E205.9226
G1 X94.943 Y98.204 E205.9383
G1 X95.373 Y98.396 E205.9539
G1 X95.742 Y98.688 E205.9696
G1 X96.026 Y99.063 E205.9852
G1 X96.209 Y99.496 E206.0008
G1 X96.277 Y99.961 E206.0165
G1 X96.229 Y100.408 E206.0314
G1 X96.548 Y101.019
;segType:Loop
G0 X95.273 Y102.530 F5400
G1 X95.232 Y102.550 E206.0329 F3000
G1 X94.569 Y102.676 E206.0554
G1 X93.895 Y102.633 E206.0779
G1 X93.253 Y102.425 E206.1003
G1 X92.684 Y102.064 E206.1227
G1 X92.224 Y101.573 E206.1451
G1 X91.900 Y100.985 E206.1674
G1 X91.733 Y100.335 E206.1898
G1 X91.733 Y99.665 E206.2120
G1 X91.900 Y99.015 E206.2344
G1 X92.224 Y98.427 E206.2567
G1 X92.653 Y97.970 E206.2775
G1 X93.205 Y97.603 E206.2996
G1 X93.841 Y97.382 E206.3220
G1 X94.513 Y97.325 E206.3444
G1 X95.178 Y97.438 E206.3668
G1 X95.793 Y97.712 E206.3892
G1 X96.320 Y98.130 E206.4116
G1 X96.726 Y98.665 E206.4340
G1 X96.985 Y99.282 E206.4562
G1 X97.083 Y99.945 E206.4785
G1 X97.007 Y100.656 E206.5023
G1 X96.757 Y101.289 E206.5249
G1 X96.362 Y101.833 E206.5473
G1 X95.843 Y102.262 E206.5697
G1 X95.447 Y102.449 E206.5843
G0 X110.264 Y123.834 F5400
G0 X140.136 Y123.834
G0 X141.200 Y123.442
G1 X141.200 Y76.904 E208.1321 F3000
G1 X142.780 Y76.904 E208.1847
G1 X142.800 Y121.198 E209.6579
G1 X142.800 Y124.096 E209.7542
G1 X141.200 Y124.096 E209.8074
G1 X141.200 Y123.633 E209.8228
G0 X141.464 Y123.834 F5400
G0 X142.536 Y123.834
G0 X142.982 Y123.435
;segType:Perimeter
G1 X142.342 Y123.698 E209.8458 F2100
G1 X141.600 Y123.698 E209.8705
G1 X141.600 Y77.301 E211.4137
G1 X142.380 Y77.301 E211.4396
G1 X142.400 Y121.198 E212.8996
G1 X142.400 Y123.641 E212.9809
G1 X142.135 Y124.277
G0 X119.864 Y123.834 F5400
G0 X119.200 Y122.582
;segType:Loop
G1 X119.200 Y124.493 E213.0444 F3000
G1 X116.800 Y124.493 E213.1242
G1 X116.800 Y76.507 E214.7202
G1 X119.200 Y76.507 E214.8000
G1 X119.200 Y122.391 E216.3262
G0 X119.864 Y123.834 F5400
G0 X149.736 Y123.834
G0 X167.193 Y101.621
G1 X166.826 Y101.924 E216.3420 F3000
G1 X166.307 Y102.169 E216.3611
G1 X165.744 Y102.276 E216.3801
G1 X165.171 Y102.240 E216.3992
G1 X164.626 Y102.063 E216.4183
G1 X164.142 Y101.756 E216.4373
G1 X163.751 Y101.339 E216.4564
G1 X163.475 Y100.838 E216.4754
G1 X163.334 Y100.285 E216.4944
G1 X163.334 Y99.715 E216.5133
G1 X163.475 Y99.162 E216.5323
G1 X163.751 Y98.661 E216.5513
G1 X164.114 Y98.274 E216.5690
G1 X164.585 Y97.962 E216.5878
G1 X165.126 Y97.773 E216.6068
G1 X165.696 Y97.725 E216.6259
G1 X166.261 Y97.821 E216.6449
G1 X166.783 Y98.054 E216.6640
G1 X167.231 Y98.409 E216.6830
G1 X167.576 Y98.864 E216.7019
G1 X167.797 Y99.389 E216.7209
G1 X167.880 Y99.953 E216.7399
G1 X167.815 Y100.561 E216.7602
G1 X167.603 Y101.097 E216.7794
G1 X167.323 Y101.482 E216.7952
;segType:Perimeter
G0 X167.969 Y100.123 F5400
G1 X167.402 Y100.519 E216.8182 F2100
G1 X167.249 Y100.905 E216.8320
G1 X166.972 Y101.286 E216.8477
G1 X166.609 Y101.587 E216.8634
G1 X166.182 Y101.788 E216.8791
G1 X165.718 Y101.876 E216.8948
G1 X165.247 Y101.847 E216.9105
G1 X164.798 Y101.701 E216.9261
G1 X164.400 Y101.448 E216.9418
G1 X164.077 Y101.105 E216.9575
G1 X163.850 Y100.692 E216.9732
G1 X163.733 Y100.235 E216.9889
G1 X163.733 Y99.765 E217.0045
G1 X163.850 Y99.308 E217.0202
G1 X164.077 Y98.895 E217.0359
G1 X164.375 Y98.579 E217.0503
G1 X164.765 Y98.320 E217.0659
G1 X165.210 Y98.165 E217.0816
G1 X165.679 Y98.126 E217.0972
G1 X166.144 Y98.204 E217.1129
G1 X166.573 Y98.396 E217.1285
G1 X166.942 Y98.688 E217.1442
G1 X167.227 Y99.063 E217.1598
G1 X167.409 Y99.496 E217.1755
G1 X167.477 Y99.961 E217.1911
G1 X167.429 Y100.408 E217.2061
G1 X167.748 Y101.019
;segType:Loop
G0 X166.473 Y102.530 F5400
G1 X166.433 Y102.550 E217.2076 F3000
G1 X165.769 Y102.676 E217.2300
G1 X165.095 Y102.633 E217.2525
G1 X164.453 Y102.425 E217.2749
G1 X163.884 Y102.064 E217.2973
G1 X163.424 Y101.573 E217.3197
G1 X163.100 Y100.985 E217.3421
G1 X162.934 Y100.335 E217.3644
G1 X162.934 Y99.665 E217.3866
G1 X163.100 Y99.015 E217.4090
G1 X163.424 Y98.427 E217.4313
G1 X163.853 Y97.970 E217.4522
G1 X164.405 Y97.603 E217.4742
G1 X165.041 Y97.382 E217.4966
G1 X165.713 Y97.325 E217.5190
G1 X166.378 Y97.438 E217.5415
G1 X166.993 Y97.712 E217.5639
G1 X167.520 Y98.129 E217.5862
G1 X167.926 Y98.665 E217.6086
G1 X168.186 Y99.282 E217.6309
G1 X168.283 Y99.945 E217.6532
G1 X168.208 Y100.656 E217.6769
G1 X167.957 Y101.289 E217.6996
G1 X167.562 Y101.833 E217.7219
G1 X167.043 Y102.262 E217.7443
G1 X166.647 Y102.448 E217.7589
;segType:HShell
G0 X166.758 Y102.616 F5400
G1 X150.600 Y118.662 E218.5163 F3000
G1 X150.600 Y119.202
G1 X168.800 Y101.128 E219.3694
G1 X168.800 Y101.669
G1 X150.600 Y119.743 E220.2225
G1 X150.600 Y120.283
G1 X168.800 Y102.209 E221.0757
G1 X168.800 Y102.749
G1 X150.600 Y120.823 E221.9288
G1 X150.600 Y121.364
G1 X168.800 Y103.290 E222.7819
G1 X168.800 Y103.830
G1 X150.600 Y121.904 E223.6351
G1 X150.600 Y122.444
G1 X168.800 Y104.370 E224.4882
G1 X168.800 Y104.911
G1 X150.600 Y122.985 E225.3413
G1 X150.600 Y123.525
G1 X168.800 Y105.451 E226.1945
G1 X168.800 Y105.992
G1 X150.600 Y124.065 E227.0476
G1 X150.600 Y124.606
G1 X168.800 Y106.532 E227.9007
G1 X168.800 Y107.072
G1 X149.429 Y126.309 E228.8087
G1 X149.973 Y126.309
G1 X168.800 Y107.613 E229.6913
G1 X168.800 Y108.153
G1 X150.517 Y126.309 E230.5482
G1 X151.061 Y126.309
G1 X168.800 Y108.693 E231.3797
G1 X168.800 Y109.234
G1 X151.605 Y126.309 E232.1857
G1 X152.149 Y126.309
G1 X168.800 Y109.774 E232.9662
G1 X168.800 Y110.314
G1 X152.694 Y126.309 E233.7212
G1 X153.238 Y126.309
G1 X168.800 Y110.855 E234.4507
G1 X168.800 Y111.395
G1 X153.782 Y126.309 E235.1546
G1 X154.326 Y126.309
G1 X168.800 Y111.935 E235.8331
G1 X168.800 Y112.476
G1 X154.870 Y126.309 E236.4861
G1 X155.414 Y126.309
G1 X168.800 Y113.016 E237.1135
G1 X168.800 Y113.556
G1 X155.958 Y126.309 E237.7155
G1 X156.503 Y126.309
G1 X168.800 Y114.097 E238.2919
G1 X168.800 Y114.637
G1 X157.047 Y126.309 E238.8428
G1 X157.591 Y126.309
G1 X168.800 Y115.177 E239.3683
G1 X168.800 Y115.718
G1 X158.135 Y126.309 E239.8682
G1 X158.679 Y126.309
G1 X168.800 Y116.258 E240.3426
G1 X168.800 Y116.798
G1 X159.223 Y126.309 E240.7915
G1 X159.767 Y126.309
G1 X168.800 Y117.339 E241.2149
G1 X168.800 Y117.879
G1 X160.311 Y126.309 E241.6128
G1 X160.856 Y126.309
G1 X168.800 Y118.419 E241.9852
G1 X168.800 Y118.960
G1 X161.400 Y126.309 E242.3321
G1 X161.944 Y126.309
G1 X168.800 Y119.500 E242.6535
G1 X168.800 Y120.040
G1 X162.488 Y126.309 E242.9494
G1 X163.032 Y126.309
G1 X168.800 Y120.581 E243.2197
G1 X168.800 Y121.121
G1 X163.576 Y126.309 E243.4646
G1 X164.120 Y126.309
G1 X168.800 Y121.661 E243.6840
G1 X168.800 Y122.202
G1 X164.665 Y126.309 E243.8778
G1 X165.209 Y126.309
G1 X168.800 Y122.742 E244.0462
G1 X168.800 Y123.282
G1 X165.753 Y126.309 E244.1890
G1 X166.355 Y126.251
G1 X168.739 Y123.883 E244.3008
G0 X165.993 Y102.835 F5400
G1 X150.600 Y118.122 E245.0224 F3000
G1 X150.600 Y117.581
G1 X165.431 Y102.853 E245.7176
G1 X164.947 Y102.794
G1 X150.600 Y117.041 E246.3901
G1 X150.600 Y116.501
G1 X164.537 Y102.661 E247.0433
G1 X164.172 Y102.482
G1 X150.600 Y115.960 E247.6795
G1 X150.600 Y115.420
G1 X163.840 Y102.271 E248.3002
G1 X163.560 Y102.010
G1 X150.600 Y114.880 E248.9077
G1 X150.600 Y114.339
G1 X163.297 Y101.730 E249.5029
G1 X163.095 Y101.390
G1 X150.600 Y113.799 E250.0886
G1 X150.600 Y113.259
G1 X162.907 Y101.037 E250.6654
G1 X162.797 Y100.606
G1 X150.600 Y112.718 E251.2372
G1 X150.600 Y112.178
G1 X162.734 Y100.128 E251.8059
G1 X162.752 Y99.570
G1 X150.600 Y111.638 E252.3755
G1 X150.600 Y111.097
G1 X162.999 Y98.784 E252.9568
G0 X168.524 Y124.638 F5400
G1 X167.110 Y126.042 E253.0230 F3000
G0 X150.514 Y124.691 F5400
G1 X148.885 Y126.309 E253.0994 F3000
G1 X148.341 Y126.309
G1 X149.969 Y124.691 E253.1757
G1 X149.425 Y124.691
G1 X147.796 Y126.309 E253.2521
G1 X147.252 Y126.309
G1 X148.881 Y124.691 E253.3284
G1 X148.337 Y124.691
G1 X146.708 Y126.309 E253.4048
G1 X146.164 Y126.309
G1 X147.793 Y124.691 E253.4812
G1 X147.249 Y124.691
G1 X145.620 Y126.309 E253.5575
G1 X145.076 Y126.309
G1 X146.705 Y124.691 E253.6339
G1 X146.160 Y124.691
G1 X144.532 Y126.309 E253.7102
G1 X143.988 Y126.309
G1 X145.616 Y124.691 E253.7866
G1 X145.072 Y124.691
G1 X143.443 Y126.309 E253.8629
G1 X142.899 Y126.309
G1 X144.528 Y124.691 E253.9393
G1 X143.984 Y124.691
G1 X142.355 Y126.309 E254.0156
G1 X141.811 Y126.309
G1 X143.440 Y124.691 E254.0920
G1 X142.896 Y124.691
G1 X141.267 Y126.309 E254.1683
G1 X140.723 Y126.309
G1 X142.352 Y124.691 E254.2447
G1 X141.807 Y124.691
G1 X140.179 Y126.309 E254.3211
G1 X139.634 Y126.309
G1 X141.263 Y124.691 E254.3974
G1 X140.719 Y124.691
G1 X139.090 Y126.309 E254.4738
G1 X138.546 Y126.309
G1 X140.175 Y124.691 E254.5501
G1 X139.631 Y124.691
G1 X138.002 Y126.309 E254.6265
G1 X137.458 Y126.309
G1 X139.087 Y124.691 E254.7028
G1 X138.543 Y124.691
G1 X136.914 Y126.309 E254.7792
G1 X136.370 Y126.309
G1 X137.998 Y124.691 E254.8555
G1 X137.454 Y124.691
G1 X135.826 Y126.309 E254.9319
G1 X135.281 Y126.309
G1 X136.910 Y124.691 E255.0083
G1 X136.366 Y124.691
G1 X134.737 Y126.309 E255.0846
G1 X134.193 Y126.309
G1 X135.822 Y124.691 E255.1610
G1 X135.278 Y124.691
G1 X133.649 Y126.309 E255.2373
G1 X133.105 Y126.309
G1 X134.734 Y124.691 E255.3137
G1 X134.190 Y124.691
G1 X132.561 Y126.309 E255.3900
G1 X132.017 Y126.309
G1 X133.645 Y124.691 E255.4664
G1 X133.101 Y124.691
G1 X131.472 Y126.309 E255.5427
G1 X130.928 Y126.309
G1 X132.557 Y124.691 E255.6191
G1 X132.013 Y124.691
G1 X130.384 Y126.309 E255.6954
G1 X129.840 Y126.309
G1 X131.469 Y124.691 E255.7718
G1 X130.925 Y124.691
G1 X129.296 Y126.309 E255.8482
G1 X128.752 Y126.309
G1 X130.381 Y124.691 E255.9245
G1 X129.837 Y124.691
G1 X128.208 Y126.309 E256.0009
G1 X127.664 Y126.309
G1 X129.292 Y124.691 E256.0772
G1 X128.748 Y124.691
G1 X127.119 Y126.309 E256.1536
G1 X126.575 Y126.309
G1 X128.204 Y124.691 E256.2299
G1 X127.660 Y124.691
G1 X126.031 Y126.309 E256.3063
G1 X125.487 Y126.309
G1 X127.116 Y124.691 E256.3826
G1 X126.572 Y124.691
G1 X124.943 Y126.309 E256.4590
G1 X124.399 Y126.309
G1 X126.028 Y124.691 E256.5354
G1 X125.483 Y124.691
G1 X123.855 Y126.309 E256.6117
G1 X123.310 Y126.309
G1 X124.939 Y124.691 E256.6881
G1 X124.395 Y124.691
G1 X122.766 Y126.309 E256.7644
G1 X122.222 Y126.309
G1 X123.851 Y124.691 E256.8408
G1 X123.307 Y124.691
G1 X121.678 Y126.309 E256.9171
G1 X121.134 Y126.309
G1 X122.763 Y124.691 E256.9935
G1 X122.219 Y124.691
G1 X120.590 Y126.309 E257.0698
G1 X120.046 Y126.309
G1 X121.675 Y124.691 E257.1462
G1 X121.130 Y124.691
G1 X119.502 Y126.309 E257.2225
G1 X118.957 Y126.309
G1 X120.586 Y124.691 E257.2989
G1 X120.042 Y124.691
G1 X118.413 Y126.309 E257.3753
G1 X117.869 Y126.309
G1 X119.498 Y124.691 E257.4516
G1 X118.954 Y124.691
G1 X117.325 Y126.309 E257.5280
G1 X116.781 Y126.309
G1 X118.410 Y124.691 E257.6043
G1 X117.866 Y124.691
G1 X116.237 Y126.309 E257.6807
G1 X115.693 Y126.309
G1 X117.321 Y124.691 E257.7570
G1 X116.777 Y124.691
G1 X115.148 Y126.309 E257.8334
G1 X114.604 Y126.309
G1 X116.233 Y124.691 E257.9097
G1 X115.689 Y124.691
G1 X114.060 Y126.309 E257.9861
G1 X113.516 Y126.309
G1 X115.145 Y124.691 E258.0625
G1 X114.601 Y124.691
G1 X112.972 Y126.309 E258.1388
G1 X112.428 Y126.309
G1 X114.057 Y124.691 E258.2152
G1 X113.513 Y124.691
G1 X111.884 Y126.309 E258.2915
G1 X111.340 Y126.309
G1 X112.968 Y124.691 E258.3679
G1 X112.424 Y124.691
G1 X110.795 Y126.309 E258.4442
G1 X110.251 Y126.309
G1 X111.880 Y124.691 E258.5206
G1 X111.336 Y124.691
G1 X109.707 Y126.309 E258.5969
G1 X109.163 Y126.309
G1 X110.792 Y124.691 E258.6733
G1 X110.248 Y124.691
G1 X108.619 Y126.309 E258.7496
G1 X108.075 Y126.309
G1 X109.704 Y124.691 E258.8260
G1 X109.400 Y124.452
G1 X107.531 Y126.309 E258.9136
G1 X106.986 Y126.309
G1 X109.400 Y123.912 E259.0268
G1 X109.400 Y123.371
G1 X106.442 Y126.309 E259.1654
G1 X105.898 Y126.309
G1 X109.400 Y122.831 E259.3296
G1 X109.400 Y122.291
G1 X105.354 Y126.309 E259.5193
G1 X104.810 Y126.309
G1 X109.400 Y121.750 E259.7344
G1 X109.400 Y121.210
G1 X104.266 Y126.309 E259.9751
G1 X103.722 Y126.309
G1 X109.400 Y120.670 E260.2413
G1 X109.400 Y120.129
G1 X103.178 Y126.309 E260.5330
G1 X102.633 Y126.309
G1 X109.400 Y119.589 E260.8502
G1 X109.400 Y119.049
G1 X102.089 Y126.309 E261.1929
G1 X101.545 Y126.309
G1 X109.400 Y118.508 E261.5610
G1 X109.400 Y117.968
G1 X101.001 Y126.309 E261.9548
G1 X100.457 Y126.309
G1 X109.400 Y117.428 E262.3740
G1 X109.400 Y116.887
G1 X99.913 Y126.309 E262.8187
G1 X99.369 Y126.309
G1 X109.400 Y116.347 E263.2889
G1 X109.400 Y115.807
G1 X98.825 Y126.309 E263.7846
G1 X98.280 Y126.309
G1 X109.400 Y115.266 E264.3059
G1 X109.400 Y114.726
G1 X97.736 Y126.309 E264.8526
G1 X97.192 Y126.309
G1 X109.400 Y114.186 E265.4248
G1 X109.400 Y113.645
G1 X96.648 Y126.309 E266.0226
G1 X96.104 Y126.309
G1 X109.400 Y113.105 E266.6459
G1 X109.400 Y112.564
G1 X95.560 Y126.309 E267.2946
G1 X95.016 Y126.309
G1 X109.400 Y112.024 E267.9689
G1 X109.400 Y111.484
G1 X94.471 Y126.309 E268.6687
G1 X93.945 Y126.291
G1 X109.400 Y110.943 E269.3931
G1 X109.400 Y110.403
G1 X93.465 Y126.228 E270.1400
G1 X93.044 Y126.105
G1 X109.400 Y109.863 E270.9067
G1 X109.400 Y109.322
G1 X92.660 Y125.946 E271.6914
G1 X92.343 Y125.721
G1 X109.400 Y108.782 E272.4909
G1 X109.400 Y108.242
G1 X92.036 Y125.485 E273.3049
G1 X91.799 Y125.180
G1 X109.400 Y107.701 E274.1299
G1 X109.400 Y107.161
G1 X91.571 Y124.866 E274.9656
G1 X91.413 Y124.483
G1 X109.400 Y106.621 E275.8088
G1 X109.400 Y106.080
G1 X91.285 Y124.069 E276.6579
G1 X91.222 Y123.592
G1 X109.400 Y105.540 E277.5100
G1 X109.400 Y105.000
G1 X91.200 Y123.074 E278.3631
G1 X91.200 Y122.533
G1 X109.400 Y104.459 E279.2162
G1 X109.400 Y103.919
G1 X91.200 Y121.993 E280.0693
G1 X91.200 Y121.453
G1 X109.400 Y103.379 E280.9225
G1 X109.400 Y102.838
G1 X91.200 Y120.912 E281.7756
G1 X91.200 Y120.372
G1 X109.400 Y102.298 E282.6287
G1 X109.400 Y101.758
G1 X91.200 Y119.832 E283.4818
G1 X91.200 Y119.291
G1 X109.400 Y101.217 E284.3349
G1 X109.400 Y100.677
G1 X91.200 Y118.751 E285.1881
G1 X91.200 Y118.211
G1 X109.400 Y100.137 E286.0412
G1 X109.400 Y99.596
G1 X91.200 Y117.670 E286.8943
G1 X91.200 Y117.130
G1 X109.400 Y99.056 E287.7474
G1 X109.400 Y98.516
G1 X91.200 Y116.590 E288.6005
G1 X91.200 Y116.049
G1 X109.400 Y97.975 E289.4537
G1 X109.400 Y97.435
G1 X91.200 Y115.509 E290.3068
G1 X91.200 Y114.969
G1 X109.400 Y96.895 E291.1599
G1 X109.400 Y96.354
G1 X91.200 Y114.428 E292.0130
G1 X91.200 Y113.888
G1 X109.400 Y95.814 E292.8661
G1 X109.400 Y95.274
G1 X91.200 Y113.348 E293.7193
G1 X91.200 Y112.807
G1 X109.400 Y94.733 E294.5724
G1 X109.400 Y94.193
G1 X91.200 Y112.267 E295.4255
G1 X91.200 Y111.726
G1 X109.400 Y93.653 E296.2786
G1 X109.400 Y93.112
G1 X91.200 Y111.186 E297.1317
G1 X91.200 Y110.646
G1 X109.400 Y92.572 E297.9848
G1 X109.400 Y92.032
G1 X91.200 Y110.105 E298.8380
G1 X91.200 Y109.565
G1 X109.400 Y91.491 E299.6911
G1 X109.400 Y90.951
G1 X91.200 Y109.025 E300.5442
G1 X91.200 Y108.484
G1 X109.400 Y90.411 E301.3973
G1 X109.400 Y89.870
G1 X91.200 Y107.944 E302.2504
G1 X91.200 Y107.404
G1 X109.400 Y89.330 E303.1036
G1 X109.400 Y88.789
G1 X97.074 Y101.030 E303.6813
G0 X110.542 Y76.309 F5400
G1 X113.178 Y73.691 E303.8049 F3000
G1 X112.634 Y73.691
G1 X109.998 Y76.309 E303.9284
G1 X109.454 Y76.309
G1 X112.090 Y73.691 E304.0519
G1 X111.545 Y73.691
G1 X91.200 Y93.895 E305.0056
G1 X91.200 Y93.355
G1 X111.001 Y73.691 E305.9338
G1 X110.457 Y73.691
G1 X91.200 Y92.815 E306.8364
G1 X91.200 Y92.274
G1 X109.913 Y73.691 E307.7136
G1 X109.369 Y73.691
G1 X91.200 Y91.734 E308.5652
G1 X91.200 Y91.194
G1 X108.825 Y73.691 E309.3914
G1 X108.281 Y73.691
G1 X91.200 Y90.653 E310.1920
G1 X91.200 Y90.113
G1 X107.736 Y73.691 E310.9671
G1 X107.192 Y73.691
G1 X91.200 Y89.573 E311.7168
G1 X91.200 Y89.032
G1 X106.648 Y73.691 E312.4409
G1 X106.104 Y73.691
G1 X91.200 Y88.492 E313.1395
G1 X91.200 Y87.951
G1 X105.560 Y73.691 E313.8126
G1 X105.016 Y73.691
G1 X91.200 Y87.411 E314.4602
G1 X91.200 Y86.871
G1 X104.472 Y73.691 E315.0823
G1 X103.928 Y73.691
G1 X91.200 Y86.330 E315.6789
G1 X91.200 Y85.790
G1 X103.383 Y73.691 E316.2500
G1 X102.839 Y73.691
G1 X91.200 Y85.250 E316.7956
G1 X91.200 Y84.709
G1 X102.295 Y73.691 E317.3157
G1 X101.751 Y73.691
G1 X91.200 Y84.169 E317.8103
G1 X91.200 Y83.629
G1 X101.207 Y73.691 E318.2794
G1 X100.663 Y73.691
G1 X91.200 Y83.088 E318.7229
G1 X91.200 Y82.548
G1 X100.119 Y73.691 E319.1410
G1 X99.574 Y73.691
G1 X91.200 Y82.008 E319.5336
G1 X91.200 Y81.467
G1 X99.030 Y73.691 E319.9006
G1 X98.486 Y73.691
G1 X91.200 Y80.927 E320.2422
G1 X91.200 Y80.387
G1 X97.942 Y73.691 E320.5582
G1 X97.398 Y73.691
G1 X91.200 Y79.846 E320.8487
G1 X91.200 Y79.306
G1 X96.854 Y73.691 E321.1138
G1 X96.310 Y73.691
G1 X91.200 Y78.766 E321.3533
G1 X91.200 Y78.225
G1 X95.766 Y73.691 E321.5673
G1 X95.221 Y73.691
G1 X91.200 Y77.685 E321.7558
G1 X91.200 Y77.145
G1 X94.677 Y73.691 E321.9188
G1 X94.133 Y73.691
G1 X91.200 Y76.604 E322.0563
G1 X91.278 Y75.986
G1 X93.514 Y73.766 E322.1611
G0 X91.556 Y75.169 F5400
G1 X92.694 Y74.039 E322.2145 F3000
G0 X93.032 Y97.479 F5400
G1 X109.400 Y81.225 E322.9817 F3000
G1 X109.400 Y81.765
G1 X93.878 Y97.179 E323.7093
G1 X94.472 Y97.129
G1 X109.400 Y82.305 E324.4090
G1 X109.400 Y82.846
G1 X94.948 Y97.197 E325.0865
G1 X95.379 Y97.310
G1 X109.400 Y83.386 E325.7437
G1 X109.400 Y83.926
G1 X95.755 Y97.477 E326.3833
G1 X96.085 Y97.689
G1 X109.400 Y84.467 E327.0074
G1 X109.400 Y85.007
G1 X96.388 Y97.929 E327.6174
G1 X96.639 Y98.220
G1 X109.400 Y85.547 E328.2156
G1 X109.400 Y86.088
G1 X96.873 Y98.528 E328.8028
G1 X97.042 Y98.901
G1 X109.400 Y86.628 E329.3821
G1 X109.400 Y87.168
G1 X97.189 Y99.295 E329.9544
G1 X97.259 Y99.766
G1 X109.400 Y87.709 E330.5236
G1 X109.400 Y88.249
G1 X97.244 Y100.321 E331.0934
G0 X109.400 Y76.362 F5400
G1 X91.200 Y94.436 E331.9465 F3000
G1 X91.200 Y94.976
G1 X109.400 Y76.902 E332.7996
G1 X109.400 Y77.442
G1 X91.200 Y95.516 E333.6527
G1 X91.200 Y96.057
G1 X109.400 Y77.983 E334.5058
G1 X109.400 Y78.523
G1 X91.200 Y96.597 E335.3590
G1 X91.200 Y97.137
G1 X109.400 Y79.063 E336.2121
G1 X109.400 Y79.604
G1 X91.200 Y97.678 E337.0652
G1 X91.200 Y98.218
G1 X109.400 Y80.144 E337.9183
G1 X109.400 Y80.684
G1 X91.200 Y98.758 E338.7714
G1 X91.200 Y99.299
G1 X91.897 Y98.606 E338.8042
G1 X91.579 Y99.462
G1 X91.200 Y99.839 E338.8219
G1 X91.200 Y100.379
G1 X91.533 Y100.048 E338.8376
G1 X91.580 Y100.542
G1 X91.200 Y100.920 E338.8554
G1 X91.200 Y101.460
G1 X91.690 Y100.973 E338.8784
G1 X91.867 Y101.338
G1 X91.200 Y102.000 E338.9097
G1 X91.200 Y102.541
G1 X92.059 Y101.687 E338.9500
G1 X92.321 Y101.968
G1 X91.200 Y103.081 E339.0025
G1 X91.200 Y103.621
G1 X92.591 Y102.240 E339.0677
G1 X92.923 Y102.451
G1 X91.200 Y104.162 E339.1485
G1 X91.200 Y104.702
G1 X93.275 Y102.641 E339.2458
G1 X93.685 Y102.774
G1 X91.200 Y105.242 E339.3623
G1 X91.200 Y105.783
G1 X94.155 Y102.848 E339.5008
G1 X94.693 Y102.854
G1 X91.200 Y106.323 E339.6645
G1 X91.200 Y106.863
G1 X95.404 Y102.689 E339.8616
G0 X110.264 Y77.166 F5400
G0 X116.527 Y76.309
G1 X119.163 Y73.691 E339.9851 F3000
G0 X132.851 Y76.309 F5400
G1 X135.487 Y73.691 E340.1087 F3000
G1 X136.031 Y73.691
G1 X133.396 Y76.309 E340.2322
G1 X133.940 Y76.309
G1 X136.576 Y73.691 E340.3557
G1 X137.120 Y73.691
G1 X134.484 Y76.309 E340.4793
G1 X135.028 Y76.309
G1 X137.664 Y73.691 E340.6028
G1 X138.208 Y73.691
G1 X135.572 Y76.309 E340.7263
G1 X136.116 Y76.309
G1 X138.752 Y73.691 E340.8499
G1 X139.296 Y73.691
G1 X136.660 Y76.309 E340.9734
G0 X144.822 Y76.309 F5400
G1 X147.458 Y73.691 E341.0969 F3000
G1 X148.002 Y73.691
G1 X145.366 Y76.309 E341.2205
G1 X145.911 Y76.309
G1 X148.546 Y73.691 E341.3440
G1 X149.091 Y73.691
G1 X146.455 Y76.309 E341.4675
G0 X133.311 Y73.691 F5400
G1 X130.675 Y76.309 E341.5911 F3000
G1 X130.131 Y76.309
G1 X132.767 Y73.691 E341.7146
G1 X132.222 Y73.691
G1 X129.587 Y76.309 E341.8381
G1 X129.042 Y76.309
G1 X131.678 Y73.691 E341.9617
G1 X131.134 Y73.691
G1 X128.498 Y76.309 E342.0852
G0 X121.340 Y73.691 F5400
G1 X118.704 Y76.309 E342.2088 F3000
G0 X122.513 Y76.309 F5400
G1 X125.149 Y73.691 E342.3323 F3000
G1 X124.605 Y73.691
G1 X121.969 Y76.309 E342.4558
G1 X121.425 Y76.309
G1 X124.060 Y73.691 E342.5794
G1 X123.516 Y73.691
G1 X120.880 Y76.309 E342.7029
G0 X112.719 Y76.309 F5400
G1 X115.354 Y73.691 E342.8264 F3000
G0 X124.689 Y76.309 F5400
G1 X127.325 Y73.691 E342.9500 F3000
G0 X140.469 Y76.309 F5400
G1 X143.105 Y73.691 E343.0735 F3000
G1 X143.649 Y73.691
G1 X141.013 Y76.309 E343.1970
G1 X141.558 Y76.309
G1 X144.193 Y73.691 E343.3206
G1 X144.737 Y73.691
G1 X142.102 Y76.309 E343.4441
G1 X142.646 Y76.309
G1 X145.282 Y73.691 E343.5676
G0 X151.267 Y73.691 F5400
G1 X148.631 Y76.309 E343.6912 F3000
G1 X149.175 Y76.309
G1 X151.811 Y73.691 E343.8147
G1 X152.355 Y73.691
G1 X149.720 Y76.309 E343.9382
G1 X150.264 Y76.309
G1 X152.899 Y73.691 E344.0618
G1 X153.444 Y73.691
G1 X150.600 Y76.515 E344.1951
G1 X150.600 Y77.056
G1 X153.988 Y73.691 E344.3539
G1 X154.532 Y73.691
G1 X150.600 Y77.596 E344.5382
G1 X150.600 Y78.136
G1 X155.076 Y73.691 E344.7481
G1 X155.620 Y73.691
G1 X150.600 Y78.677 E344.9834
G1 X150.600 Y79.217
G1 X156.164 Y73.691 E345.2442
G1 X156.708 Y73.691
G1 X150.600 Y79.758 E345.5306
G1 X150.600 Y80.298
G1 X157.253 Y73.691 E345.8424
G1 X157.797 Y73.691
G1 X150.600 Y80.838 E346.1798
G1 X150.600 Y81.379
G1 X158.341 Y73.691 E346.5426
G1 X158.885 Y73.691
G1 X150.600 Y81.919 E346.9310
G1 X150.600 Y82.459
G1 X159.429 Y73.691 E347.3449
G1 X159.973 Y73.691
G1 X150.600 Y83.000 E347.7842
G1 X150.600 Y83.540
G1 X160.517 Y73.691 E348.2491
G1 X161.061 Y73.691
G1 X150.600 Y84.080 E348.7395
G1 X150.600 Y84.621
G1 X161.606 Y73.691 E349.2554
G1 X162.150 Y73.691
G1 X150.600 Y85.161 E349.7968
G1 X150.600 Y85.701
G1 X162.694 Y73.691 E350.3637
G1 X163.238 Y73.691
G1 X150.600 Y86.242 E350.9561
G1 X150.600 Y86.782
G1 X163.782 Y73.691 E351.5740
G1 X164.326 Y73.691
G1 X150.600 Y87.322 E352.2174
G1 X150.600 Y87.863
G1 X164.870 Y73.691 E352.8863
G1 X165.415 Y73.691
G1 X150.600 Y88.403 E353.5807
G1 X150.600 Y88.943
G1 X165.954 Y73.696 E354.3005
G1 X166.434 Y73.759
G1 X150.600 Y89.484 E355.0427
G1 X150.600 Y90.024
G1 X166.876 Y73.861 E355.8056
G1 X167.260 Y74.020
G1 X150.600 Y90.564 E356.5865
G1 X150.600 Y91.105
G1 X167.593 Y74.230 E357.3830
G1 X167.900 Y74.465
G1 X150.600 Y91.645 E358.1940
G1 X150.600 Y92.185
G1 X168.152 Y74.756 E359.0167
G1 X168.387 Y75.062
G1 X150.600 Y92.726 E359.8504
G1 X150.600 Y93.266
G1 X168.554 Y75.436 E360.6920
G1 X168.702 Y75.831
G1 X150.600 Y93.806 E361.5405
G1 X150.600 Y94.347
G1 X168.765 Y76.308 E362.3920
G1 X168.800 Y76.813
G1 X150.600 Y94.887 E363.2451
G1 X150.600 Y95.427
G1 X168.800 Y77.353 E364.0982
G1 X168.800 Y77.894
G1 X150.600 Y95.968 E364.9513
G1 X150.600 Y96.508
G1 X168.800 Y78.434 E365.8045
G1 X168.800 Y78.974
G1 X150.600 Y97.048 E366.6576
G1 X150.600 Y97.589
G1 X168.800 Y79.515 E367.5107
G1 X168.800 Y80.055
G1 X150.600 Y98.129 E368.3638
G1 X150.600 Y98.669
G1 X168.800 Y80.596 E369.2169
G1 X168.800 Y81.136
G1 X150.600 Y99.210 E370.0701
G1 X150.600 Y99.750
G1 X168.800 Y81.676 E370.9232
G1 X168.800 Y82.217
G1 X150.600 Y100.290 E371.7763
G1 X150.600 Y100.831
G1 X168.800 Y82.757 E372.6294
G1 X168.800 Y83.297
G1 X150.600 Y101.371 E373.4825
G1 X150.600 Y101.911
G1 X168.800 Y83.838 E374.3356
G1 X168.800 Y84.378
G1 X150.600 Y102.452 E375.1888
G1 X150.600 Y102.992
G1 X168.800 Y84.918 E376.0419
G1 X168.800 Y85.459
G1 X150.600 Y103.532 E376.8950
G1 X150.600 Y104.073
G1 X168.800 Y85.999 E377.7481
G1 X168.800 Y86.539
G1 X150.600 Y104.613 E378.6012
G1 X150.600 Y105.154
G1 X168.800 Y87.080 E379.4544
G1 X168.800 Y87.620
G1 X150.600 Y105.694 E380.3075
G1 X150.600 Y106.234
G1 X168.800 Y88.160 E381.1606
G1 X168.800 Y88.701
G1 X150.600 Y106.775 E382.0137
G1 X150.600 Y107.315
G1 X168.800 Y89.241 E382.8668
G1 X168.800 Y89.781
G1 X150.600 Y107.855 E383.7200
G1 X150.600 Y108.396
G1 X168.800 Y90.322 E384.5731
G1 X168.800 Y90.862
G1 X150.600 Y108.936 E385.4262
G1 X150.600 Y109.476
G1 X168.800 Y91.402 E386.2793
G1 X168.800 Y91.943
G1 X150.600 Y110.017 E387.1324
G1 X150.600 Y110.557
G1 X168.800 Y92.483 E387.9855
G1 X168.800 Y93.023
G1 X164.398 Y97.395 E388.1919
G1 X165.167 Y97.172
G1 X168.800 Y93.564 E388.3622
G1 X168.800 Y94.104
G1 X165.753 Y97.131 E388.5051
G1 X166.218 Y97.209
G1 X168.800 Y94.644 E388.6261
G1 X168.800 Y95.185
G1 X166.635 Y97.335 E388.7276
G1 X167.011 Y97.502
G1 X168.800 Y95.725 E388.8115
G1 X168.800 Y96.265
G1 X167.330 Y97.725 E388.8804
G1 X167.633 Y97.965
G1 X168.800 Y96.806 E388.9351
G1 X168.800 Y97.346
G1 X167.874 Y98.266 E388.9786
G1 X168.106 Y98.576
G1 X168.800 Y97.886 E389.0111
G1 X168.800 Y98.427
G1 X168.266 Y98.957 E389.0362
G1 X168.400 Y99.365
G1 X168.800 Y98.967 E389.0549
G1 X168.800 Y99.507
G1 X168.469 Y99.836 E389.0704
G1 X168.435 Y100.411
G1 X168.800 Y100.048 E389.0876
G1 X168.800 Y100.588
G1 X168.222 Y101.163 E389.1147
; ------------------------------------
; Layer #1
; ------------------------------------
G21 ; mm
G90 ; abs
G92 E0 ; reset extr
M73 S5
M106 S0
;segType:Loop
G0 F1200 E-1.0000
G0 F300 Z0.400
G0 X167.772 Y73.614 F5400
G0 F1200 E0.0000
G1 X168.399 Y74.095 E0.0258 F2700
G1 X168.939 Y74.799 E0.0547
G1 X169.279 Y75.619 E0.0836
G1 X169.400 Y76.539 E0.1138
G1 X169.400 Y123.461 E1.6433
G1 X169.279 Y124.381 E1.6735
G1 X168.939 Y125.201 E1.7025
G1 X168.399 Y125.905 E1.7314
G1 X167.696 Y126.444 E1.7603
G1 X166.878 Y126.783 E1.7891
G1 X165.960 Y126.904 E1.8193
G1 X94.040 Y126.904 E4.1635
G1 X93.122 Y126.783 E4.1937
G1 X92.304 Y126.444 E4.2226
G1 X91.601 Y125.905 E4.2515
G1 X91.061 Y125.201 E4.2804
G1 X90.721 Y124.381 E4.3093
G1 X90.600 Y123.461 E4.3395
G1 X90.600 Y76.539 E5.8690
G1 X90.721 Y75.619 E5.8992
G1 X91.061 Y74.799 E5.9282
G1 X91.601 Y74.095 E5.9571
G1 X92.304 Y73.556 E5.9859
G1 X93.122 Y73.217 E6.0148
G1 X94.040 Y73.096 E6.0450
G1 X165.960 Y73.096 E8.3892
G1 X166.878 Y73.217 E8.4194
G1 X167.607 Y73.519 E8.4451
G0 F1200 E7.4451
G0 X166.460 Y73.233 F5400
G0 F1200 E8.4451
;segType:Perimeter
G1 X167.036 Y72.852 E8.4677 F1890
G1 X167.899 Y73.209 E8.4981
G1 X168.685 Y73.813 E8.5304
G1 X169.289 Y74.600 E8.5627
G1 X169.669 Y75.516 E8.5951
G1 X169.800 Y76.513 E8.6278
G1 X169.800 Y123.487 E10.1590
G1 X169.669 Y124.484 E10.1917
G1 X169.289 Y125.400 E10.2241
G1 X168.685 Y126.187 E10.2564
G1 X167.899 Y126.791 E10.2887
G1 X166.983 Y127.170 E10.3210
G1 X165.987 Y127.301 E10.3538
G1 X94.013 Y127.301 E12.6997
G1 X93.017 Y127.170 E12.7325
G1 X92.101 Y126.791 E12.7648
G1 X91.315 Y126.187 E12.7971
G1 X90.711 Y125.400 E12.8294
G1 X90.331 Y124.484 E12.8618
G1 X90.200 Y123.487 E12.8946
G1 X90.200 Y76.513 E14.4257
G1 X90.331 Y75.516 E14.4584
G1 X90.711 Y74.600 E14.4908
G1 X91.315 Y73.813 E14.5231
G1 X92.101 Y73.209 E14.5554
G1 X93.017 Y72.830 E14.5877
G1 X94.013 Y72.699 E14.6205
G1 X165.987 Y72.699 E16.9665
G1 X166.926 Y72.822 E16.9973
G1 X167.231 Y73.440
;segType:Loop
G0 X168.242 Y74.546 F5400
G1 X168.589 Y74.998 E17.0159 F2700
G1 X168.889 Y75.723 E17.0415
G1 X169.000 Y76.565 E17.0692
G1 X169.000 Y123.435 E18.5969
G1 X168.889 Y124.277 E18.6246
G1 X168.589 Y125.002 E18.6501
G1 X168.113 Y125.623 E18.6756
G1 X167.493 Y126.098 E18.7011
G1 X166.773 Y126.396 E18.7265
G1 X165.934 Y126.507 E18.7541
G1 X94.066 Y126.507 E21.0966
G1 X93.227 Y126.396 E21.1242
G1 X92.507 Y126.098 E21.1496
G1 X91.887 Y125.623 E21.1751
G1 X91.411 Y125.002 E21.2006
G1 X91.111 Y124.277 E21.2261
G1 X91.000 Y123.435 E21.2538
G1 X91.000 Y76.565 E22.7816
G1 X91.111 Y75.723 E22.8093
G1 X91.411 Y74.998 E22.8348
G1 X91.887 Y74.377 E22.8603
G1 X92.507 Y73.902 E22.8858
G1 X93.227 Y73.604 E22.9112
G1 X94.066 Y73.493 E22.9388
G1 X165.934 Y73.493 E25.2813
G1 X166.773 Y73.604 E25.3089
G1 X167.493 Y73.902 E25.3343
G1 X168.113 Y74.377 E25.3597
G1 X168.125 Y74.394 E25.3604
G0 X148.664 Y77.166 F5400
G0 X147.600 Y78.352
G1 X147.600 Y124.096 E26.8514 F2700
G1 X146.000 Y124.096 E26.9036
G1 X146.000 Y82.100 E28.2724
G1 X146.045 Y76.904 E28.4418
G1 X147.600 Y76.904 E28.4924
G1 X147.600 Y78.161 E28.5334
;segType:Perimeter
G0 X148.218 Y77.565 F5400
G1 X148.858 Y77.301 E28.5560 F1890
G1 X149.600 Y77.301 E28.5801
G1 X149.600 Y123.698 E30.0925
G1 X148.800 Y123.698 E30.1185
G1 X148.800 Y77.359 E31.6290
G1 X149.065 Y76.723
;segType:Loop
G0 X148.000 Y79.212 F5400
G1 X148.000 Y76.507 E31.7171 F2700
G1 X150.400 Y76.507 E31.7953
G1 X150.400 Y124.493 E33.3594
G1 X148.000 Y124.493 E33.4376
G1 X148.000 Y79.403 E34.9073
G0 X147.336 Y77.166 F5400
G0 X143.177 Y73.691
;segType:HShell
G1 X145.813 Y76.309 E35.0284 F2700
G1 X146.357 Y76.309
G1 X143.721 Y73.691 E35.1495
G1 X144.266 Y73.691
G1 X146.901 Y76.309 E35.2705
;segType:Perimeter
G0 X146.935 Y76.723 F5400
G1 X147.200 Y77.359 E35.2930 F1890
G1 X147.200 Y123.698 E36.8034
G1 X146.400 Y123.698 E36.8295
G1 X146.400 Y82.102 E38.1854
G1 X146.442 Y77.301 E38.3418
G1 X147.142 Y77.301 E38.3646
G1 X147.782 Y77.565
G0 F1200 E37.3646
G0 X150.000 Y77.558 F5400
G0 F1200 E38.3646
;segType:Loop
G1 X150.000 Y124.096 E39.8815 F2700
G1 X148.400 Y124.096 E39.9337
G1 X148.400 Y76.904 E41.4719
G1 X150.000 Y76.904 E41.5240
G1 X150.000 Y77.367 E41.5391
G0 X149.736 Y77.166 F5400
G0 X146.306 Y77.166
G0 X145.600 Y78.609
G1 X145.600 Y124.493 E43.0347 F2700
G1 X143.200 Y124.493 E43.1129
G1 X143.200 Y82.098 E44.4947
G1 X143.249 Y76.507 E44.6770
G1 X145.600 Y76.507 E44.7536
G1 X145.600 Y78.418 E44.8159
G0 X144.936 Y77.166 F5400
G0 X141.001 Y73.691
;segType:HShell
G1 X143.637 Y76.309 E44.9369 F2700
G1 X144.181 Y76.309
G1 X141.545 Y73.691 E45.0580
G1 X142.089 Y73.691
G1 X144.725 Y76.309 E45.1791
;segType:Perimeter
G0 X144.535 Y76.723 F5400
G1 X144.800 Y77.359 E45.2015 F1890
G1 X144.800 Y123.698 E46.7120
G1 X144.000 Y123.698 E46.7380
G1 X144.000 Y82.102 E48.0939
G1 X144.042 Y77.301 E48.2504
G1 X144.742 Y77.301 E48.2732
G1 X145.382 Y77.565
;segType:Loop
G0 X145.200 Y78.352 F5400
G1 X145.200 Y124.096 E49.7642 F2700
G1 X143.600 Y124.096 E49.8163
G1 X143.600 Y82.100 E51.1852
G1 X143.645 Y76.904 E51.3545
G1 X145.200 Y76.904 E51.4052
G1 X145.200 Y78.161 E51.4462
G0 X145.625 Y79.216 F5400
G1 X145.649 Y76.507 E51.5344 F2700
G1 X148.000 Y76.507 E51.6111
G1 X148.000 Y124.493 E53.1752
G1 X145.600 Y124.493 E53.2534
G1 X145.600 Y82.098 E54.6352
G1 X145.623 Y79.407 E54.7230
G0 X144.936 Y77.166 F5400
G0 X138.280 Y73.691
;segType:HShell
G1 X140.916 Y76.309 E54.8440 F2700
G1 X140.372 Y76.309
G1 X137.736 Y73.691 E54.9651
G1 X137.192 Y73.691
G1 X139.828 Y76.309 E55.0862
;segType:Perimeter
G0 X139.735 Y76.723 F5400
G1 X140.000 Y77.359 E55.1086 F1890
G1 X140.000 Y123.698 E56.6191
G1 X139.200 Y123.698 E56.6452
G1 X139.200 Y82.102 E58.0010
G1 X139.242 Y77.301 E58.1575
G1 X139.942 Y77.301 E58.1803
G1 X140.582 Y77.565
G0 F1200 E57.1803
G0 X140.400 Y78.352 F5400
G0 F1200 E58.1803
;segType:Loop
G1 X140.400 Y124.096 E59.6713 F2700
G1 X138.800 Y124.096 E59.7235
G1 X138.800 Y82.100 E61.0923
G1 X138.845 Y76.904 E61.2617
G1 X140.400 Y76.904 E61.3123
G1 X140.400 Y78.161 E61.3533
G0 X140.800 Y79.403 F5400
G1 X140.800 Y124.493 E62.8230 F2700
G1 X138.400 Y124.493 E62.9012
G1 X138.400 Y82.098 E64.2831
G1 X138.448 Y76.507 E64.4653
G1 X140.800 Y76.507 E64.5419
G1 X140.800 Y79.212 E64.6301
G0 X140.136 Y77.166 F5400
G0 X133.383 Y73.691
;segType:HShell
G1 X136.019 Y76.309 E64.7512 F2700
G1 X136.563 Y76.309
G1 X133.927 Y73.691 E64.8722
G1 X134.471 Y73.691
G1 X137.107 Y76.309 E64.9933
;segType:Perimeter
G0 X137.335 Y76.723 F5400
G1 X137.600 Y77.359 E65.0158 F1890
G1 X137.600 Y123.698 E66.5262
G1 X136.800 Y123.698 E66.5523
G1 X136.800 Y77.301 E68.0646
G1 X137.542 Y77.301 E68.0888
G1 X138.182 Y77.565
;segType:Loop
G0 X138.000 Y78.352 F5400
G1 X138.000 Y124.096 E69.5798 F2700
G1 X136.400 Y124.096 E69.6319
G1 X136.400 Y76.904 E71.1701
G1 X138.000 Y76.904 E71.2222
G1 X138.000 Y78.161 E71.2632
G0 X137.736 Y77.166 F5400
G0 X136.664 Y77.166
G0 X136.000 Y79.212
G1 X136.000 Y76.507 E71.3514 F2700
G1 X138.400 Y76.507 E71.4296
G1 X138.400 Y124.493 E72.9936
G1 X136.000 Y124.493 E73.0719
G1 X136.000 Y79.403 E74.5416
G0 X135.336 Y77.166 F5400
G0 X134.264 Y77.166
G0 X133.200 Y78.352
G1 X133.200 Y124.096 E76.0326 F2700
G1 X131.600 Y124.096 E76.0847
G1 X131.600 Y76.904 E77.6229
G1 X133.200 Y76.904 E77.6750
G1 X133.200 Y78.161 E77.7160
;segType:Perimeter
G0 X133.818 Y77.565 F5400
G1 X134.458 Y77.301 E77.7386 F1890
G1 X135.200 Y77.301 E77.7628
G1 X135.200 Y123.698 E79.2751
G1 X134.400 Y123.698 E79.3011
G1 X134.400 Y77.359 E80.8116
G1 X134.665 Y76.723
;segType:Loop
G0 X136.000 Y78.608 F5400
G1 X136.000 Y124.493 E82.3072 F2700
G1 X133.600 Y124.493 E82.3854
G1 X133.600 Y76.507 E83.9495
G1 X136.000 Y76.507 E84.0277
G1 X136.000 Y78.417 E84.0899
G0 X135.336 Y77.166 F5400
G0 X129.030 Y73.691
;segType:HShell
G1 X131.666 Y76.309 E84.2110 F2700
G1 X132.210 Y76.309
G1 X129.574 Y73.691 E84.3321
G1 X130.118 Y73.691
G1 X132.754 Y76.309 E84.4532
;segType:Perimeter
G0 X132.535 Y76.723 F5400
G1 X132.800 Y77.359 E84.4756 F1890
G1 X132.800 Y123.698 E85.9860
G1 X132.000 Y123.698 E86.0121
G1 X132.000 Y77.301 E87.5244
G1 X132.742 Y77.301 E87.5486
G1 X133.382 Y77.565
G0 F1200 E86.5486
G0 X135.600 Y77.558 F5400
G0 F1200 E87.5486
;segType:Loop
G1 X135.600 Y124.096 E89.0655 F2700
G1 X134.000 Y124.096 E89.1177
G1 X134.000 Y76.904 E90.6559
G1 X135.600 Y76.904 E90.7080
G1 X135.600 Y77.367 E90.7231
G0 X135.336 Y77.166 F5400
G0 X131.864 Y77.166
G0 X131.200 Y78.418
G1 X131.200 Y76.507 E90.7854 F2700
G1 X133.600 Y76.507 E90.8636
G1 X133.600 Y124.493 E92.4276
G1 X131.200 Y124.493 E92.5059
G1 X131.200 Y78.609 E94.0014
G0 X130.536 Y77.166 F5400
G0 X129.464 Y77.166
G0 X128.400 Y78.352
G1 X128.400 Y124.096 E95.4925 F2700
G1 X126.800 Y124.096 E95.5446
G1 X126.800 Y82.100 E96.9134
G1 X126.845 Y76.904 E97.0828
G1 X128.400 Y76.904 E97.1335
G1 X128.400 Y78.161 E97.1744
;segType:Perimeter
G0 X129.018 Y77.565 F5400
G1 X129.658 Y77.301 E97.1970 F1890
G1 X130.400 Y77.301 E97.2212
G1 X130.400 Y123.698 E98.7335
G1 X129.600 Y123.698 E98.7595
G1 X129.600 Y77.359 E100.2700
G1 X129.865 Y76.723
;segType:Loop
G0 X128.800 Y79.212 F5400
G1 X128.800 Y76.507 E100.3581 F2700
G1 X131.200 Y76.507 E100.4364
G1 X131.200 Y124.493 E102.0004
G1 X128.800 Y124.493 E102.0786
G1 X128.800 Y79.403 E103.5483
G0 X128.192 Y77.301 F5400
G0 X126.309 Y73.691
;segType:HShell
G1 X128.945 Y76.309 E103.6694 F2700
G1 X128.401 Y76.309
G1 X125.765 Y73.691 E103.7905
G1 X125.221 Y73.691
G1 X127.857 Y76.309 E103.9116
;segType:Perimeter
G0 X127.735 Y76.723 F5400
G1 X128.000 Y77.359 E103.9340 F1890
G1 X128.000 Y123.698 E105.4444
G1 X127.200 Y123.698 E105.4705
G1 X127.200 Y82.102 E106.8264
G1 X127.242 Y77.301 E106.9828
G1 X127.942 Y77.301 E107.0057
G1 X128.582 Y77.565
G0 F1200 E106.0057
G0 X130.800 Y77.558 F5400
G0 F1200 E107.0057
;segType:Loop
G1 X130.800 Y124.096 E108.5226 F2700
G1 X129.200 Y124.096 E108.5747
G1 X129.200 Y76.904 E110.1129
G1 X130.800 Y76.904 E110.1650
G1 X130.800 Y77.367 E110.1801
G0 X130.536 Y77.166 F5400
G0 X127.106 Y77.166
G0 X126.425 Y79.216
G1 X126.449 Y76.507 E110.2684 F2700
G1 X128.800 Y76.507 E110.3450
G1 X128.800 Y124.493 E111.9091
G1 X126.400 Y124.493 E111.9873
G1 X126.400 Y82.098 E113.3692
G1 X126.423 Y79.407 E113.4569
G0 X125.736 Y77.166 F5400
G0 X121.412 Y73.691
;segType:HShell
G1 X124.048 Y76.309 E113.5780 F2700
G1 X124.592 Y76.309
G1 X121.956 Y73.691 E113.6991
G1 X122.500 Y73.691
G1 X125.136 Y76.309 E113.8201
;segType:Perimeter
G0 X125.335 Y76.723 F5400
G1 X125.600 Y77.359 E113.8426 F1890
G1 X125.600 Y123.698 E115.3530
G1 X124.800 Y123.698 E115.3791
G1 X124.800 Y82.102 E116.7349
G1 X124.842 Y77.301 E116.8914
G1 X125.542 Y77.301 E116.9142
G1 X126.182 Y77.565
;segType:Loop
G0 X126.000 Y78.352 F5400
G1 X126.000 Y124.096 E118.4052 F2700
G1 X124.400 Y124.096 E118.4574
G1 X124.400 Y82.100 E119.8262
G1 X124.445 Y76.904 E119.9956
G1 X126.000 Y76.904 E120.0463
G1 X126.000 Y78.161 E120.0872
G0 X125.736 Y77.166 F5400
G0 X124.706 Y77.166
G0 X124.025 Y79.215
G1 X124.048 Y76.507 E120.1755 F2700
G1 X126.400 Y76.507 E120.2521
G1 X126.400 Y124.493 E121.8162
G1 X124.000 Y124.493 E121.8944
G1 X124.000 Y82.098 E123.2763
G1 X124.024 Y79.407 E123.3640
G0 X123.336 Y77.166 F5400
G0 X119.235 Y73.691
;segType:HShell
G1 X121.871 Y76.309 E123.4851 F2700
G1 X122.415 Y76.309
G1 X119.780 Y73.691 E123.6062
G1 X120.324 Y73.691
G1 X122.960 Y76.309 E123.7272
;segType:Perimeter
G0 X122.935 Y76.723 F5400
G1 X123.200 Y77.359 E123.7497 F1890
G1 X123.200 Y123.698 E125.2601
G1 X122.400 Y123.698 E125.2862
G1 X122.400 Y82.102 E126.6420
G1 X122.442 Y77.301 E126.7985
G1 X123.142 Y77.301 E126.8213
G1 X123.782 Y77.565
;segType:Loop
G0 X123.600 Y78.352 F5400
G1 X123.600 Y124.096 E128.3123 F2700
G1 X122.000 Y124.096 E128.3645
G1 X122.000 Y82.100 E129.7333
G1 X122.045 Y76.904 E129.9027
G1 X123.600 Y76.904 E129.9533
G1 X123.600 Y78.161 E129.9943
G0 X123.336 Y77.166 F5400
G0 X122.306 Y77.166
G0 X121.625 Y79.216
G1 X121.649 Y76.507 E130.0826 F2700
G1 X124.000 Y76.507 E130.1592
G1 X124.000 Y124.493 E131.7233
G1 X121.600 Y124.493 E131.8015
G1 X121.600 Y82.098 E133.1834
G1 X121.624 Y79.407 E133.2711
G0 X120.936 Y77.166 F5400
G0 X117.059 Y73.691
;segType:HShell
G1 X119.695 Y76.309 E133.3922 F2700
G1 X120.239 Y76.309
G1 X117.603 Y73.691 E133.5133
G1 X118.147 Y73.691
G1 X120.783 Y76.309 E133.6343
;segType:Perimeter
G0 X120.535 Y76.723 F5400
G1 X120.800 Y77.359 E133.6568 F1890
G1 X120.800 Y123.698 E135.1672
G1 X120.000 Y123.698 E135.1933
G1 X120.000 Y77.301 E136.7056
G1 X120.742 Y77.301 E136.7298
G1 X121.382 Y77.565
;segType:Loop
G0 X121.200 Y78.352 F5400
G1 X121.200 Y124.096 E138.2208 F2700
G1 X119.600 Y124.096 E138.2729
G1 X119.600 Y76.904 E139.8111
G1 X121.200 Y76.904 E139.8633
G1 X121.200 Y78.161 E139.9042
G0 X120.936 Y77.166 F5400
G0 X119.864 Y77.166
G0 X119.200 Y79.403
G1 X119.200 Y124.493 E141.3739 F2700
G1 X116.800 Y124.493 E141.4521
G1 X116.800 Y76.507 E143.0162
G1 X119.200 Y76.507 E143.0944
G1 X119.200 Y79.212 E143.1826
G0 X118.592 Y77.301 F5400
G0 X116.515 Y73.691
;segType:HShell
G1 X119.151 Y76.309 E143.3037 F2700
G1 X118.606 Y76.309
G1 X115.971 Y73.691 E143.4247
G1 X115.427 Y73.691
G1 X118.062 Y76.309 E143.5458
;segType:Perimeter
G0 X118.135 Y76.723 F5400
G1 X118.400 Y77.359 E143.5683 F1890
G1 X118.400 Y123.698 E145.0787
G1 X117.600 Y123.698 E145.1048
G1 X117.600 Y77.301 E146.6171
G1 X118.342 Y77.301 E146.6413
G1 X118.982 Y77.565
G0 F1200 E145.6413
G0 X118.800 Y78.352 F5400
G0 F1200 E146.6413
;segType:Loop
G1 X118.800 Y124.096 E148.1323 F2700
G1 X117.200 Y124.096 E148.1844
G1 X117.200 Y76.904 E149.7226
G1 X118.800 Y76.904 E149.7747
G1 X118.800 Y78.161 E149.8157
G0 X118.536 Y77.166 F5400
G0 X117.464 Y77.166
G0 X116.800 Y79.403
G1 X116.800 Y124.493 E151.2854 F2700
G1 X114.400 Y124.493 E151.3636
G1 X114.400 Y76.507 E152.9277
G1 X116.800 Y76.507 E153.0059
G1 X116.800 Y79.212 E153.0940
G0 X116.192 Y77.301 F5400
G0 X114.338 Y73.691
;segType:HShell
G1 X116.974 Y76.309 E153.2151 F2700
G1 X116.430 Y76.309
G1 X113.794 Y73.691 E153.3362
G1 X113.250 Y73.691
G1 X115.886 Y76.309 E153.4573
;segType:Perimeter
G0 X115.735 Y76.723 F5400
G1 X116.000 Y77.359 E153.4797 F1890
G1 X116.000 Y123.698 E154.9901
G1 X115.200 Y123.698 E155.0162
G1 X115.200 Y77.301 E156.5285
G1 X115.942 Y77.301 E156.5527
G1 X116.582 Y77.565
G0 F1200 E155.5527
G0 X116.400 Y78.352 F5400
G0 F1200 E156.5527
;segType:Loop
G1 X116.400 Y124.096 E158.0437 F2700
G1 X114.800 Y124.096 E158.0958
G1 X114.800 Y76.904 E159.6340
G1 X116.400 Y76.904 E159.6862
G1 X116.400 Y78.161 E159.7271
G0 X116.136 Y77.166 F5400
G0 X115.064 Y77.166
G0 X114.400 Y79.403
G1 X114.400 Y124.493 E161.1968 F2700
G1 X112.000 Y124.493 E161.2751
G1 X112.000 Y76.507 E162.8391
G1 X114.400 Y76.507 E162.9174
G1 X114.400 Y79.212 E163.0055
G0 X113.736 Y77.166 F5400
G0 X109.441 Y73.691
;segType:HShell
G1 X112.077 Y76.309 E163.1266 F2700
G1 X112.621 Y76.309
G1 X109.985 Y73.691 E163.2477
G1 X110.529 Y73.691
G1 X113.165 Y76.309 E163.3688
;segType:Perimeter
G0 X113.335 Y76.723 F5400
G1 X113.600 Y77.359 E163.3912 F1890
G1 X113.600 Y123.698 E164.9016
G1 X112.800 Y123.698 E164.9277
G1 X112.800 Y77.301 E166.4400
G1 X113.542 Y77.301 E166.4642
G1 X114.182 Y77.565
G0 F1200 E165.4642
G0 X114.000 Y78.352 F5400
G0 F1200 E166.4642
;segType:Loop
G1 X114.000 Y124.096 E167.9552 F2700
G1 X112.400 Y124.096 E168.0074
G1 X112.400 Y76.904 E169.5456
G1 X114.000 Y76.904 E169.5977
G1 X114.000 Y78.161 E169.6387
G0 X113.736 Y77.166 F5400
G0 X112.664 Y77.166
G0 X112.000 Y79.403
G1 X112.000 Y124.493 E171.1084 F2700
G1 X109.600 Y124.493 E171.1866
G1 X109.600 Y76.507 E172.7506
G1 X112.000 Y76.507 E172.8288
G1 X112.000 Y79.212 E172.9170
G0 X111.336 Y77.166 F5400
G0 X107.265 Y73.691
;segType:HShell
G1 X109.900 Y76.309 E173.0381 F2700
G1 X110.444 Y76.309
G1 X107.809 Y73.691 E173.1592
G1 X108.353 Y73.691
G1 X110.989 Y76.309 E173.2802
;segType:Perimeter
G0 X110.935 Y76.723 F5400
G1 X111.200 Y77.359 E173.3027 F1890
G1 X111.200 Y123.698 E174.8131
G1 X110.400 Y123.698 E174.8392
G1 X110.400 Y77.301 E176.3515
G1 X111.142 Y77.301 E176.3757
G1 X111.782 Y77.565
G0 F1200 E175.3757
G0 X111.600 Y78.352 F5400
G0 F1200 E176.3757
;segType:Loop
G1 X111.600 Y124.096 E177.8667 F2700
G1 X110.000 Y124.096 E177.9188
G1 X110.000 Y76.904 E179.4570
G1 X111.600 Y76.904 E179.5091
G1 X111.600 Y78.161 E179.5501
G0 X112.664 Y77.166 F5400
G0 X140.136 Y77.166
G0 X140.800 Y79.212
G1 X140.800 Y76.507 E179.6383 F2700
G1 X143.159 Y76.507 E179.7151
G1 X143.200 Y118.897 E181.0968
G1 X143.200 Y124.493 E181.2792
G1 X140.800 Y124.493 E181.3574
G1 X140.800 Y79.403 E182.8271
G0 X141.464 Y77.166 F5400
G0 X149.736 Y77.166
G0 X163.922 Y101.216
G0 X164.716 Y101.874
G0 X165.730 Y102.067
G0 X167.193 Y101.621
G1 X166.826 Y101.924 E182.8427 F2700
G1 X166.307 Y102.169 E182.8613
G1 X165.744 Y102.276 E182.8800
G1 X165.171 Y102.240 E182.8987
G1 X164.626 Y102.063 E182.9174
G1 X164.142 Y101.756 E182.9361
G1 X163.751 Y101.339 E182.9547
G1 X163.475 Y100.838 E182.9734
G1 X163.334 Y100.285 E182.9920
G1 X163.334 Y99.715 E183.0106
G1 X163.475 Y99.162 E183.0292
G1 X163.751 Y98.661 E183.0478
G1 X164.086 Y98.304 E183.0637
G1 X164.544 Y97.986 E183.0819
G1 X165.079 Y97.787 E183.1006
G1 X165.648 Y97.727 E183.1192
G1 X166.214 Y97.811 E183.1378
G1 X166.741 Y98.033 E183.1565
G1 X167.195 Y98.378 E183.1751
G1 X167.549 Y98.824 E183.1936
G1 X167.781 Y99.346 E183.2123
G1 X167.886 Y99.989 E183.2335
G1 X167.813 Y100.566 E183.2524
G1 X167.603 Y101.097 E183.2711
G1 X167.323 Y101.482 E183.2866
;segType:Perimeter
G0 X167.974 Y100.133 F5400
G1 X167.402 Y100.521 E183.3091 F1890
G1 X167.249 Y100.905 E183.3226
G1 X166.972 Y101.286 E183.3380
G1 X166.609 Y101.587 E183.3533
G1 X166.182 Y101.788 E183.3687
G1 X165.718 Y101.876 E183.3841
G1 X165.247 Y101.847 E183.3995
G1 X164.798 Y101.701 E183.4149
G1 X164.400 Y101.448 E183.4302
G1 X164.077 Y101.105 E183.4456
G1 X163.850 Y100.692 E183.4610
G1 X163.733 Y100.235 E183.4763
G1 X163.733 Y99.765 E183.4917
G1 X163.850 Y99.308 E183.5070
G1 X164.077 Y98.895 E183.5224
G1 X164.349 Y98.606 E183.5353
G1 X164.732 Y98.340 E183.5505
G1 X165.172 Y98.177 E183.5658
G1 X165.640 Y98.128 E183.5812
G1 X166.105 Y98.196 E183.5965
G1 X166.538 Y98.379 E183.6118
G1 X166.912 Y98.663 E183.6271
G1 X167.204 Y99.031 E183.6424
G1 X167.395 Y99.460 E183.6577
G1 X167.482 Y99.997 E183.6754
G1 X167.430 Y100.410 E183.6890
G1 X167.745 Y101.023
;segType:Loop
G0 X166.473 Y102.530 F5400
G1 X166.433 Y102.550 E183.6905 F2700
G1 X165.769 Y102.676 E183.7125
G1 X165.095 Y102.633 E183.7345
G1 X164.453 Y102.425 E183.7565
G1 X163.884 Y102.064 E183.7785
G1 X163.424 Y101.573 E183.8004
G1 X163.100 Y100.985 E183.8223
G1 X162.934 Y100.335 E183.8442
G1 X162.934 Y99.665 E183.8660
G1 X163.100 Y99.015 E183.8879
G1 X163.424 Y98.427 E183.9098
G1 X163.822 Y98.003 E183.9287
G1 X164.356 Y97.632 E183.9499
G1 X164.987 Y97.397 E183.9719
G1 X165.657 Y97.327 E183.9938
G1 X166.323 Y97.425 E184.0158
G1 X166.943 Y97.686 E184.0377
G1 X167.478 Y98.093 E184.0596
G1 X167.895 Y98.618 E184.0815
G1 X168.168 Y99.232 E184.1034
G1 X168.290 Y99.982 E184.1281
G1 X168.204 Y100.665 E184.1506
G1 X167.957 Y101.289 E184.1724
G1 X167.562 Y101.833 E184.1944
G1 X167.043 Y102.262 E184.2163
G1 X166.647 Y102.448 E184.2306
G0 X149.736 Y123.834 F5400
G0 X141.464 Y123.834
G0 X141.200 Y123.442
G1 X141.200 Y76.904 E185.7474 F2700
G1 X142.759 Y76.904 E185.7983
G1 X142.800 Y118.897 E187.1670
G1 X142.800 Y124.096 E187.3364
G1 X141.200 Y124.096 E187.3886
G1 X141.200 Y123.633 E187.4037
G0 X141.464 Y123.834 F5400
G0 X142.536 Y123.834
G0 X142.982 Y123.435
;segType:Perimeter
G1 X142.342 Y123.698 E187.4262 F1890
G1 X141.600 Y123.698 E187.4504
G1 X141.600 Y77.301 E188.9627
G1 X142.360 Y77.301 E188.9875
G1 X142.400 Y118.898 E190.3433
G1 X142.400 Y123.641 E190.4979
G1 X142.135 Y124.277
G0 X122.264 Y123.834 F5400
G0 X121.600 Y122.582
;segType:Loop
G1 X121.600 Y124.493 E190.5602 F2700
G1 X119.200 Y124.493 E190.6384
G1 X119.200 Y76.507 E192.2025
G1 X121.600 Y76.507 E192.2807
G1 X121.600 Y122.391 E193.7763
G0 X120.936 Y123.834 F5400
G0 X110.264 Y123.834
G0 X95.993 Y101.621
G1 X95.626 Y101.925 E193.7918 F2700
G1 X95.107 Y102.169 E193.8105
G1 X94.544 Y102.276 E193.8292
G1 X93.971 Y102.240 E193.8479
G1 X93.426 Y102.063 E193.8666
G1 X92.942 Y101.756 E193.8852
G1 X92.551 Y101.339 E193.9039
G1 X92.275 Y100.838 E193.9225
G1 X92.133 Y100.285 E193.9411
G1 X92.133 Y99.715 E193.9597
G1 X92.275 Y99.162 E193.9783
G1 X92.551 Y98.661 E193.9970
G1 X92.886 Y98.304 E194.0129
G1 X93.344 Y97.986 E194.0311
G1 X93.880 Y97.787 E194.0497
G1 X94.448 Y97.727 E194.0684
G1 X95.014 Y97.811 E194.0870
G1 X95.541 Y98.033 E194.1056
G1 X95.995 Y98.378 E194.1242
G1 X96.349 Y98.824 E194.1428
G1 X96.581 Y99.345 E194.1614
G1 X96.675 Y99.907 E194.1800
G1 X96.617 Y100.556 E194.2012
G1 X96.403 Y101.097 E194.2202
G1 X96.123 Y101.482 E194.2357
;segType:Perimeter
G0 X96.764 Y100.115 F5400
G1 X96.203 Y100.517 E194.2582 F1890
G1 X96.049 Y100.905 E194.2718
G1 X95.772 Y101.287 E194.2872
G1 X95.409 Y101.587 E194.3025
G1 X94.982 Y101.788 E194.3179
G1 X94.518 Y101.876 E194.3333
G1 X94.047 Y101.847 E194.3487
G1 X93.598 Y101.701 E194.3641
G1 X93.200 Y101.448 E194.3794
G1 X92.878 Y101.105 E194.3948
G1 X92.650 Y100.692 E194.4101
G1 X92.533 Y100.235 E194.4255
G1 X92.533 Y99.765 E194.4408
G1 X92.650 Y99.308 E194.4562
G1 X92.878 Y98.895 E194.4716
G1 X93.149 Y98.606 E194.4845
G1 X93.532 Y98.340 E194.4997
G1 X93.972 Y98.177 E194.5150
G1 X94.440 Y98.128 E194.5303
G1 X94.905 Y98.196 E194.5457
G1 X95.338 Y98.379 E194.5610
G1 X95.712 Y98.663 E194.5763
G1 X96.004 Y99.031 E194.5916
G1 X96.195 Y99.460 E194.6069
G1 X96.273 Y99.923 E194.6222
G1 X96.229 Y100.407 E194.6380
G1 X96.550 Y101.016
;segType:Loop
G0 X95.273 Y102.530 F5400
G1 X95.232 Y102.550 E194.6395 F2700
G1 X94.569 Y102.676 E194.6615
G1 X93.895 Y102.633 E194.6835
G1 X93.253 Y102.425 E194.7055
G1 X92.684 Y102.064 E194.7275
G1 X92.224 Y101.573 E194.7494
G1 X91.900 Y100.985 E194.7713
G1 X91.733 Y100.335 E194.7931
G1 X91.733 Y99.665 E194.8150
G1 X91.900 Y99.015 E194.8368
G1 X92.224 Y98.427 E194.8587
G1 X92.622 Y98.003 E194.8777
G1 X93.156 Y97.632 E194.8989
G1 X93.787 Y97.397 E194.9208
G1 X94.457 Y97.327 E194.9428
G1 X95.123 Y97.425 E194.9647
G1 X95.743 Y97.686 E194.9867
G1 X96.278 Y98.093 E195.0086
G1 X96.695 Y98.618 E195.0304
G1 X96.967 Y99.230 E195.0522
G1 X97.078 Y99.892 E195.0741
G1 X97.011 Y100.648 E195.0989
G1 X96.757 Y101.289 E195.1213
G1 X96.362 Y101.833 E195.1432
G1 X95.843 Y102.262 E195.1652
G1 X95.447 Y102.449 E195.1795
;segType:HShell
G0 X91.670 Y100.892 F5400
G1 X91.200 Y100.425 E195.2011 F2700
G1 X91.200 Y99.885
G1 X91.533 Y100.216 E195.2164
G1 X91.533 Y99.676
G1 X91.200 Y99.345 E195.2317
G1 X91.200 Y98.804
G1 X91.637 Y99.238 E195.2518
G1 X91.772 Y98.833
G1 X91.200 Y98.264 E195.2781
G1 X91.200 Y97.724
G1 X91.965 Y98.483 E195.3132
G1 X92.192 Y98.169
G1 X91.200 Y97.183 E195.3588
G1 X91.200 Y96.643
G1 X92.455 Y97.889 E195.4165
G1 X92.767 Y97.659
G1 X91.200 Y96.103 E195.4885
G1 X91.200 Y95.562
G1 X93.094 Y97.443 E195.5755
G1 X93.489 Y97.296
G1 X91.200 Y95.022 E195.6807
G1 X91.200 Y94.481
G1 X93.921 Y97.184 E195.8057
G1 X94.413 Y97.132
G1 X91.200 Y93.941 E195.9533
G1 X91.200 Y93.401
G1 X95.037 Y97.212 E196.1296
G0 X110.264 Y77.166 F5400
G0 X117.518 Y76.309
G1 X114.882 Y73.691 E196.2507 F2700
G0 X115.342 Y76.309 F5400
G1 X112.706 Y73.691 E196.3717 F2700
G1 X112.162 Y73.691
G1 X114.798 Y76.309 E196.4928
G1 X114.253 Y76.309
G1 X111.618 Y73.691 E196.6139
G1 X111.073 Y73.691
G1 X113.709 Y76.309 E196.7350
G0 X108.897 Y73.691 F5400
G1 X111.533 Y76.309 E196.8561 F2700
G0 X106.720 Y73.691 F5400
G1 X109.400 Y76.353 E196.9792 F2700
G1 X109.400 Y76.893
G1 X106.176 Y73.691 E197.1273
G1 X105.632 Y73.691
G1 X109.400 Y77.433 E197.3004
G1 X109.400 Y77.974
G1 X105.088 Y73.691 E197.4984
G1 X104.544 Y73.691
G1 X109.400 Y78.514 E197.7215
G1 X109.400 Y79.054
G1 X104.000 Y73.691 E197.9696
G1 X103.456 Y73.691
G1 X109.400 Y79.595 E198.2427
G1 X109.400 Y80.135
G1 X102.911 Y73.691 E198.5408
G1 X102.367 Y73.691
G1 X109.400 Y80.675 E198.8639
G1 X109.400 Y81.216
G1 X101.823 Y73.691 E199.2119
G1 X101.279 Y73.691
G1 X109.400 Y81.756 E199.5850
G1 X109.400 Y82.296
G1 X100.735 Y73.691 E199.9830
G1 X100.191 Y73.691
G1 X109.400 Y82.837 E200.4061
G1 X109.400 Y83.377
G1 X99.647 Y73.691 E200.8541
G1 X99.103 Y73.691
G1 X109.400 Y83.917 E201.3272
G1 X109.400 Y84.458
G1 X98.558 Y73.691 E201.8252
G1 X98.014 Y73.691
G1 X109.400 Y84.998 E202.3482
G1 X109.400 Y85.538
G1 X97.470 Y73.691 E202.8962
G1 X96.926 Y73.691
G1 X109.400 Y86.079 E203.4693
G1 X109.400 Y86.619
G1 X96.382 Y73.691 E204.0673
G1 X95.838 Y73.691
G1 X109.400 Y87.159 E204.6903
G1 X109.400 Y87.700
G1 X95.294 Y73.691 E205.3383
G1 X94.749 Y73.691
G1 X109.400 Y88.240 E206.0113
G1 X109.400 Y88.780
G1 X94.205 Y73.691 E206.7093
G1 X93.710 Y73.740
G1 X109.400 Y89.321 E207.4301
G1 X109.400 Y89.861
G1 X93.240 Y73.813 E208.1724
G1 X92.856 Y73.972
G1 X109.400 Y90.401 E208.9324
G1 X109.400 Y90.942
G1 X92.499 Y74.159 E209.7087
G1 X92.193 Y74.394
G1 X109.400 Y91.482 E210.4992
G1 X109.400 Y92.022
G1 X91.919 Y74.663 E211.3022
G1 X91.684 Y74.970
G1 X109.400 Y92.563 E212.1160
G1 X109.400 Y93.103
G1 X91.494 Y75.321 E212.9386
G1 X91.335 Y75.704
G1 X109.400 Y93.643 E213.7685
G1 X109.400 Y94.184
G1 X91.254 Y76.164 E214.6020
G1 X91.200 Y76.650
G1 X109.400 Y94.724 E215.4381
G1 X109.400 Y95.265
G1 X91.200 Y77.191 E216.2742
G1 X91.200 Y77.731
G1 X109.400 Y95.805 E217.1102
G1 X109.400 Y96.345
G1 X91.200 Y78.271 E217.9463
G1 X91.200 Y78.812
G1 X109.400 Y96.886 E218.7824
G1 X109.400 Y97.426
G1 X91.200 Y79.352 E219.6185
G1 X91.200 Y79.892
G1 X109.400 Y97.966 E220.4545
G1 X109.400 Y98.507
G1 X91.200 Y80.433 E221.2906
G1 X91.200 Y80.973
G1 X109.400 Y99.047 E222.1267
G1 X109.400 Y99.587
G1 X91.200 Y81.513 E222.9628
G1 X91.200 Y82.054
G1 X109.400 Y100.128 E223.7988
G1 X109.400 Y100.668
G1 X91.200 Y82.594 E224.6349
G1 X91.200 Y83.134
G1 X109.400 Y101.208 E225.4710
G1 X109.400 Y101.749
G1 X91.200 Y83.675 E226.3071
G1 X91.200 Y84.215
G1 X109.400 Y102.289 E227.1431
G1 X109.400 Y102.829
G1 X91.200 Y84.755 E227.9792
G1 X91.200 Y85.296
G1 X109.400 Y103.370 E228.8153
G1 X109.400 Y103.910
G1 X91.200 Y85.836 E229.6514
G1 X91.200 Y86.376
G1 X109.400 Y104.450 E230.4874
G1 X109.400 Y104.991
G1 X91.200 Y86.917 E231.3235
G1 X91.200 Y87.457
G1 X109.400 Y105.531 E232.1596
G1 X109.400 Y106.071
G1 X91.200 Y87.997 E232.9957
G1 X91.200 Y88.538
G1 X109.400 Y106.612 E233.8317
G1 X109.400 Y107.152
G1 X91.200 Y89.078 E234.6678
G1 X91.200 Y89.618
G1 X109.400 Y107.692 E235.5039
G1 X109.400 Y108.233
G1 X91.200 Y90.159 E236.3400
G1 X91.200 Y90.699
G1 X109.400 Y108.773 E237.1760
G1 X109.400 Y109.313
G1 X91.200 Y91.239 E238.0121
G1 X91.200 Y91.780
G1 X109.400 Y109.854 E238.8482
G1 X109.400 Y110.394
G1 X91.200 Y92.320 E239.6843
G1 X91.200 Y92.860
G1 X96.017 Y97.644 E239.9055
G0 X110.264 Y77.166 F5400
G0 X123.504 Y76.309
G1 X120.868 Y73.691 E240.0266 F2700
G0 X149.736 Y77.166 F5400
G0 X168.374 Y99.253
G1 X168.800 Y99.676 E240.0462 F2700
G1 X168.800 Y100.216
G1 X168.479 Y99.897 E240.0610
G1 X168.439 Y100.398
G1 X168.800 Y100.757 E240.0775
G1 X168.800 Y101.297
G1 X168.347 Y100.847 E240.0984
G1 X168.193 Y101.235
G1 X168.800 Y101.837 E240.1263
G1 X168.800 Y102.378
G1 X167.994 Y101.577 E240.1633
G1 X167.766 Y101.891
G1 X168.800 Y102.918 E240.2108
G1 X168.800 Y103.459
G1 X167.486 Y102.154 E240.2712
G1 X167.189 Y102.399
G1 X168.800 Y103.999 E240.3452
G1 X168.800 Y104.539
G1 X166.830 Y102.582 E240.4357
G1 X166.453 Y102.748
G1 X168.800 Y105.080 E240.5436
G1 X168.800 Y105.620
G1 X165.996 Y102.835 E240.6724
G1 X165.473 Y102.856
G1 X168.800 Y106.160 E240.8253
G1 X168.800 Y106.701
G1 X164.827 Y102.755 E241.0078
G0 X149.736 Y77.166 F5400
G0 X139.284 Y76.309
G1 X136.648 Y73.691 E241.1288 F2700
G1 X136.104 Y73.691
G1 X138.739 Y76.309 E241.2499
G1 X138.195 Y76.309
G1 X135.559 Y73.691 E241.3710
G1 X135.015 Y73.691
G1 X137.651 Y76.309 E241.4921
G0 X125.680 Y76.309 F5400
G1 X123.044 Y73.691 E241.6132 F2700
G1 X123.589 Y73.691
G1 X126.224 Y76.309 E241.7342
G1 X126.768 Y76.309
G1 X124.133 Y73.691 E241.8553
G1 X124.677 Y73.691
G1 X127.313 Y76.309 E241.9764
G0 X132.839 Y73.691 F5400
G1 X135.475 Y76.309 E242.0975 F2700
G1 X134.930 Y76.309
G1 X132.295 Y73.691 E242.2185
G1 X131.750 Y73.691
G1 X134.386 Y76.309 E242.3396
G1 X133.842 Y76.309
G1 X131.206 Y73.691 E242.4607
G1 X130.662 Y73.691
G1 X133.298 Y76.309 E242.5818
G0 X147.446 Y76.309 F5400
G1 X144.810 Y73.691 E242.7029 F2700
G1 X145.354 Y73.691
G1 X147.990 Y76.309 E242.8239
G1 X148.534 Y76.309
G1 X145.898 Y73.691 E242.9450
G1 X146.442 Y73.691
G1 X149.078 Y76.309 E243.0661
G1 X149.622 Y76.309
G1 X146.986 Y73.691 E243.1872
G1 X147.530 Y73.691
G1 X150.166 Y76.309 E243.3083
G0 X140.457 Y73.691 F5400
G1 X143.092 Y76.309 E243.4293 F2700
G1 X142.548 Y76.309
G1 X139.912 Y73.691 E243.5504
G1 X139.368 Y73.691
G1 X142.004 Y76.309 E243.6715
G1 X141.460 Y76.309
G1 X138.824 Y73.691 E243.7926
G0 X118.691 Y73.691 F5400
G1 X121.327 Y76.309 E243.9136 F2700
G0 X126.853 Y73.691 F5400
G1 X129.489 Y76.309 E244.0347 F2700
G1 X130.033 Y76.309
G1 X127.397 Y73.691 E244.1558
G1 X127.942 Y73.691
G1 X130.577 Y76.309 E244.2769
G1 X131.122 Y76.309
G1 X128.486 Y73.691 E244.3980
G0 X142.633 Y73.691 F5400
G1 X145.269 Y76.309 E244.5190 F2700
G0 X167.893 Y74.460 F5400
G1 X168.025 Y74.591 E244.5251 F2700
G0 X166.675 Y73.791 F5400
G1 X168.697 Y75.799 E244.6180 F2700
G1 X168.780 Y76.421
G1 X166.048 Y73.708 E244.7435
G1 X165.487 Y73.691
G1 X168.800 Y76.982 E244.8957
G1 X168.800 Y77.522
G1 X164.943 Y73.691 E245.0729
G1 X164.398 Y73.691
G1 X168.800 Y78.063 E245.2751
G1 X168.800 Y78.603
G1 X163.854 Y73.691 E245.5023
G1 X163.310 Y73.691
G1 X168.800 Y79.143 E245.7545
G1 X168.800 Y79.684
G1 X162.766 Y73.691 E246.0317
G1 X162.222 Y73.691
G1 X168.800 Y80.224 E246.3339
G1 X168.800 Y80.764
G1 X161.678 Y73.691 E246.6611
G1 X161.134 Y73.691
G1 X168.800 Y81.305 E247.0133
G1 X168.800 Y81.845
G1 X160.590 Y73.691 E247.3904
G1 X160.045 Y73.691
G1 X168.800 Y82.385 E247.7926
G1 X168.800 Y82.926
G1 X159.501 Y73.691 E248.2198
G1 X158.957 Y73.691
G1 X168.800 Y83.466 E248.6719
G1 X168.800 Y84.006
G1 X158.413 Y73.691 E249.1491
G1 X157.869 Y73.691
G1 X168.800 Y84.547 E249.6512
G1 X168.800 Y85.087
G1 X157.325 Y73.691 E250.1784
G1 X156.781 Y73.691
G1 X168.800 Y85.627 E250.7305
G1 X168.800 Y86.168
G1 X156.236 Y73.691 E251.3076
G1 X155.692 Y73.691
G1 X168.800 Y86.708 E251.9098
G1 X168.800 Y87.248
G1 X155.148 Y73.691 E252.5369
G1 X154.604 Y73.691
G1 X168.800 Y87.789 E253.1890
G1 X168.800 Y88.329
G1 X154.060 Y73.691 E253.8661
G1 X153.516 Y73.691
G1 X168.800 Y88.869 E254.5682
G1 X168.800 Y89.410
G1 X152.972 Y73.691 E255.2953
G1 X152.428 Y73.691
G1 X168.800 Y89.950 E256.0474
G1 X168.800 Y90.490
G1 X151.883 Y73.691 E256.8245
G1 X151.339 Y73.691
G1 X168.800 Y91.031 E257.6266
G1 X168.800 Y91.571
G1 X150.795 Y73.691 E258.4537
G1 X150.251 Y73.691
G1 X168.800 Y92.111 E259.3058
G1 X168.800 Y92.652
G1 X149.707 Y73.691 E260.1829
G1 X149.163 Y73.691
G1 X168.800 Y93.192 E261.0849
G1 X168.800 Y93.732
G1 X148.619 Y73.691 E262.0120
G1 X148.074 Y73.691
G1 X168.800 Y94.273 E262.9641
G1 X168.800 Y94.813
G1 X150.600 Y76.739 E263.8001
G1 X150.600 Y77.279
G1 X168.800 Y95.353 E264.6362
G1 X168.800 Y95.894
G1 X150.600 Y77.820 E265.4722
G1 X150.600 Y78.360
G1 X168.800 Y96.434 E266.3083
G1 X168.800 Y96.974
G1 X150.600 Y78.901 E267.1444
G1 X150.600 Y79.441
G1 X168.800 Y97.515 E267.9804
G1 X168.800 Y98.055
G1 X150.600 Y79.981 E268.8165
G1 X150.600 Y80.522
G1 X168.800 Y98.595 E269.6525
G1 X168.800 Y99.136
G1 X167.671 Y98.014 E269.7044
G1 X167.561 Y97.905
G1 X150.600 Y81.062 E270.4836
G1 X150.600 Y81.602
G1 X166.333 Y97.226 E271.2063
G1 X165.694 Y97.132
G1 X150.600 Y82.143 E271.8997
G1 X150.600 Y82.683
G1 X165.194 Y97.176 E272.5701
G1 X164.749 Y97.274
G1 X150.600 Y83.223 E273.2200
G1 X150.600 Y83.764
G1 X164.353 Y97.421 E273.8518
G1 X164.015 Y97.626
G1 X150.600 Y84.304 E274.4681
G1 X150.600 Y84.844
G1 X163.695 Y97.849 E275.0697
G1 X163.432 Y98.127
G1 X150.600 Y85.385 E275.6591
G1 X150.600 Y85.925
G1 X163.194 Y98.431 E276.2376
G1 X163.001 Y98.780
G1 X150.600 Y86.465 E276.8073
G1 X150.600 Y87.006
G1 X162.853 Y99.174 E277.3702
G1 X162.743 Y99.605
G1 X150.600 Y87.546 E277.9280
G1 X150.600 Y88.086
G1 X162.734 Y100.136 E278.4854
G1 X162.842 Y100.784
G1 X150.600 Y88.627 E279.0477
G1 X150.600 Y89.167
G1 X168.800 Y107.241 E279.8838
G1 X168.800 Y107.781
G1 X150.600 Y89.707 E280.7199
G1 X150.600 Y90.248
G1 X168.800 Y108.322 E281.5559
G1 X168.800 Y108.862
G1 X150.600 Y90.788 E282.3920
G1 X150.600 Y91.328
G1 X168.800 Y109.402 E283.2280
G1 X168.800 Y109.943
G1 X150.600 Y91.869 E284.0641
G1 X150.600 Y92.409
G1 X168.800 Y110.483 E284.9002
G1 X168.800 Y111.023
G1 X150.600 Y92.949 E285.7362
G1 X150.600 Y93.490
G1 X168.800 Y111.564 E286.5723
G1 X168.800 Y112.104
G1 X150.600 Y94.030 E287.4083
G1 X150.600 Y94.570
G1 X168.800 Y112.644 E288.2444
G1 X168.800 Y113.185
G1 X150.600 Y95.111 E289.0805
G1 X150.600 Y95.651
G1 X168.800 Y113.725 E289.9165
G1 X168.800 Y114.265
G1 X150.600 Y96.191 E290.7526
G1 X150.600 Y96.732
G1 X168.800 Y114.806 E291.5886
G1 X168.800 Y115.346
G1 X150.600 Y97.272 E292.4247
G1 X150.600 Y97.812
G1 X168.800 Y115.886 E293.2608
G1 X168.800 Y116.427
G1 X150.600 Y98.353 E294.0968
G1 X150.600 Y98.893
G1 X168.800 Y116.967 E294.9329
G1 X168.800 Y117.507
G1 X150.600 Y99.433 E295.7689
G1 X150.600 Y99.974
G1 X168.800 Y118.048 E296.6050
G1 X168.800 Y118.588
G1 X150.600 Y100.514 E297.4411
G1 X150.600 Y101.054
G1 X168.800 Y119.128 E298.2771
G1 X168.800 Y119.669
G1 X150.600 Y101.595 E299.1132
G1 X150.600 Y102.135
G1 X168.800 Y120.209 E299.9492
G1 X168.800 Y120.749
G1 X150.600 Y102.675 E300.7853
G1 X150.600 Y103.216
G1 X168.800 Y121.290 E301.6214
G1 X168.800 Y121.830
G1 X150.600 Y103.756 E302.4574
G1 X150.600 Y104.297
G1 X168.800 Y122.370 E303.2935
G1 X168.800 Y122.911
G1 X150.600 Y104.837 E304.1295
G1 X150.600 Y105.377
G1 X168.797 Y123.448 E304.9654
G1 X168.734 Y123.925
G1 X150.600 Y105.918 E305.7984
G1 X150.600 Y106.458
G1 X168.635 Y124.368 E306.6269
G1 X168.477 Y124.751
G1 X150.600 Y106.998 E307.4481
G1 X150.600 Y107.539
G1 X168.272 Y125.088 E308.2599
G1 X168.036 Y125.394
G1 X150.600 Y108.079 E309.0609
G1 X150.600 Y108.619
G1 X167.750 Y125.650 E309.8487
G1 X167.443 Y125.886
G1 X150.600 Y109.160 E310.6224
G1 X150.600 Y109.700
G1 X167.072 Y126.057 E311.3791
G1 X166.680 Y126.208
G1 X150.600 Y110.240 E312.1177
G1 X150.600 Y110.781
G1 X166.200 Y126.272 E312.8343
G1 X165.693 Y126.309
G1 X150.600 Y111.321 E313.5276
G1 X150.600 Y111.861
G1 X165.148 Y126.309 E314.1959
G1 X164.604 Y126.309
G1 X150.600 Y112.402 E314.8392
G1 X150.600 Y112.942
G1 X164.060 Y126.309 E315.4575
G1 X163.516 Y126.309
G1 X150.600 Y113.482 E316.0509
G1 X150.600 Y114.023
G1 X162.972 Y126.309 E316.6192
G1 X162.428 Y126.309
G1 X150.600 Y114.563 E317.1625
G1 X150.600 Y115.103
G1 X161.884 Y126.309 E317.6809
G1 X161.340 Y126.309
G1 X150.600 Y115.644 E318.1742
G1 X150.600 Y116.184
G1 X160.795 Y126.309 E318.6426
G1 X160.251 Y126.309
G1 X150.600 Y116.724 E319.0859
G1 X150.600 Y117.265
G1 X159.707 Y126.309 E319.5043
G1 X159.163 Y126.309
G1 X150.600 Y117.805 E319.8977
G1 X150.600 Y118.345
G1 X158.619 Y126.309 E320.2660
G1 X158.075 Y126.309
G1 X150.600 Y118.886 E320.6094
G1 X150.600 Y119.426
G1 X157.531 Y126.309 E320.9278
G1 X156.986 Y126.309
G1 X150.600 Y119.966 E321.2212
G1 X150.600 Y120.507
G1 X156.442 Y126.309 E321.4896
G1 X155.898 Y126.309
G1 X150.600 Y121.047 E321.7330
G1 X150.600 Y121.587
G1 X155.354 Y126.309 E321.9514
G1 X154.810 Y126.309
G1 X150.600 Y122.128 E322.1448
G1 X150.600 Y122.668
G1 X154.266 Y126.309 E322.3132
G1 X153.722 Y126.309
G1 X150.600 Y123.208 E322.4566
G1 X150.600 Y123.749
G1 X153.178 Y126.309 E322.5750
G1 X152.633 Y126.309
G1 X150.600 Y124.289 E322.6684
G1 X150.460 Y124.691
G1 X152.089 Y126.309 E322.7433
G1 X151.545 Y126.309
G1 X149.916 Y124.691 E322.8181
G1 X149.372 Y124.691
G1 X151.001 Y126.309 E322.8929
G1 X150.457 Y126.309
G1 X148.828 Y124.691 E322.9678
G1 X148.284 Y124.691
G1 X149.913 Y126.309 E323.0426
G1 X149.369 Y126.309
G1 X147.740 Y124.691 E323.1174
G1 X147.196 Y124.691
G1 X148.824 Y126.309 E323.1922
G1 X148.280 Y126.309
G1 X146.651 Y124.691 E323.2671
G1 X146.107 Y124.691
G1 X147.736 Y126.309 E323.3419
G1 X147.192 Y126.309
G1 X145.563 Y124.691 E323.4167
G1 X145.019 Y124.691
G1 X146.648 Y126.309 E323.4916
G1 X146.104 Y126.309
G1 X144.475 Y124.691 E323.5664
G1 X143.931 Y124.691
G1 X145.560 Y126.309 E323.6412
G1 X145.016 Y126.309
G1 X143.387 Y124.691 E323.7160
G1 X142.843 Y124.691
G1 X144.471 Y126.309 E323.7909
G1 X143.927 Y126.309
G1 X142.298 Y124.691 E323.8657
G1 X141.754 Y124.691
G1 X143.383 Y126.309 E323.9405
G1 X142.839 Y126.309
G1 X141.210 Y124.691 E324.0154
G1 X140.666 Y124.691
G1 X142.295 Y126.309 E324.0902
G1 X141.751 Y126.309
G1 X140.122 Y124.691 E324.1650
G1 X139.578 Y124.691
G1 X141.207 Y126.309 E324.2399
G1 X140.662 Y126.309
G1 X139.034 Y124.691 E324.3147
G1 X138.489 Y124.691
G1 X140.118 Y126.309 E324.3895
G1 X139.574 Y126.309
G1 X137.945 Y124.691 E324.4643
G1 X137.401 Y124.691
G1 X139.030 Y126.309 E324.5392
G1 X138.486 Y126.309
G1 X136.857 Y124.691 E324.6140
G1 X136.313 Y124.691
G1 X137.942 Y126.309 E324.6888
G1 X137.398 Y126.309
G1 X135.769 Y124.691 E324.7637
G1 X135.225 Y124.691
G1 X136.854 Y126.309 E324.8385
G1 X136.309 Y126.309
G1 X134.681 Y124.691 E324.9133
G1 X134.136 Y124.691
G1 X135.765 Y126.309 E324.9881
G1 X135.221 Y126.309
G1 X133.592 Y124.691 E325.0630
G1 X133.048 Y124.691
G1 X134.677 Y126.309 E325.1378
G1 X134.133 Y126.309
G1 X132.504 Y124.691 E325.2126
G1 X131.960 Y124.691
G1 X133.589 Y126.309 E325.2875
G1 X133.045 Y126.309
G1 X131.416 Y124.691 E325.3623
G1 X130.872 Y124.691
G1 X132.500 Y126.309 E325.4371
G1 X131.956 Y126.309
G1 X130.328 Y124.691 E325.5119
G1 X129.783 Y124.691
G1 X131.412 Y126.309 E325.5868
G1 X130.868 Y126.309
G1 X129.239 Y124.691 E325.6616
G1 X128.695 Y124.691
G1 X130.324 Y126.309 E325.7364
G1 X129.780 Y126.309
G1 X128.151 Y124.691 E325.8113
G1 X127.607 Y124.691
G1 X129.236 Y126.309 E325.8861
G1 X128.692 Y126.309
G1 X127.063 Y124.691 E325.9609
G1 X126.519 Y124.691
G1 X128.147 Y126.309 E326.0357
G1 X127.603 Y126.309
G1 X125.974 Y124.691 E326.1106
G1 X125.430 Y124.691
G1 X127.059 Y126.309 E326.1854
G1 X126.515 Y126.309
G1 X124.886 Y124.691 E326.2602
G1 X124.342 Y124.691
G1 X125.971 Y126.309 E326.3351
G1 X125.427 Y126.309
G1 X123.798 Y124.691 E326.4099
G1 X123.254 Y124.691
G1 X124.883 Y126.309 E326.4847
G1 X124.338 Y126.309
G1 X122.710 Y124.691 E326.5596
G1 X122.166 Y124.691
G1 X123.794 Y126.309 E326.6344
G1 X123.250 Y126.309
G1 X121.621 Y124.691 E326.7092
G1 X121.077 Y124.691
G1 X122.706 Y126.309 E326.7840
G1 X122.162 Y126.309
G1 X120.533 Y124.691 E326.8589
G1 X119.989 Y124.691
G1 X121.618 Y126.309 E326.9337
G1 X121.074 Y126.309
G1 X119.445 Y124.691 E327.0085
G1 X118.901 Y124.691
G1 X120.530 Y126.309 E327.0834
G1 X119.985 Y126.309
G1 X118.357 Y124.691 E327.1582
G1 X117.812 Y124.691
G1 X119.441 Y126.309 E327.2330
G1 X118.897 Y126.309
G1 X117.268 Y124.691 E327.3078
G1 X116.724 Y124.691
G1 X118.353 Y126.309 E327.3827
G1 X117.809 Y126.309
G1 X116.180 Y124.691 E327.4575
G1 X115.636 Y124.691
G1 X117.265 Y126.309 E327.5323
G1 X116.721 Y126.309
G1 X115.092 Y124.691 E327.6072
G1 X114.548 Y124.691
G1 X116.177 Y126.309 E327.6820
G1 X115.632 Y126.309
G1 X114.004 Y124.691 E327.7568
G1 X113.459 Y124.691
G1 X115.088 Y126.309 E327.8316
G1 X114.544 Y126.309
G1 X112.915 Y124.691 E327.9065
G1 X112.371 Y124.691
G1 X114.000 Y126.309 E327.9813
G1 X113.456 Y126.309
G1 X111.827 Y124.691 E328.0561
G1 X111.283 Y124.691
G1 X112.912 Y126.309 E328.1310
G1 X112.368 Y126.309
G1 X110.739 Y124.691 E328.2058
G1 X110.195 Y124.691
G1 X111.823 Y126.309 E328.2806
G1 X111.279 Y126.309
G1 X109.650 Y124.691 E328.3555
G0 X93.171 Y126.158 F5400
G1 X91.362 Y124.362 E328.4386 F2700
G1 X91.236 Y123.696
G1 X93.834 Y126.276 E328.5579
G1 X94.411 Y126.309
G1 X91.200 Y123.120 E328.7055
G1 X91.200 Y122.579
G1 X94.955 Y126.309 E328.8780
G1 X95.499 Y126.309
G1 X91.200 Y122.039 E329.0755
G1 X91.200 Y121.499
G1 X96.044 Y126.309 E329.2980
G1 X96.588 Y126.309
G1 X91.200 Y120.958 E329.5455
G1 X91.200 Y120.418
G1 X97.132 Y126.309 E329.8180
G1 X97.676 Y126.309
G1 X91.200 Y119.878 E330.1155
G1 X91.200 Y119.337
G1 X98.220 Y126.309 E330.4379
G1 X98.764 Y126.309
G1 X91.200 Y118.797 E330.7854
G1 X91.200 Y118.256
G1 X99.308 Y126.309 E331.1579
G1 X99.853 Y126.309
G1 X91.200 Y117.716 E331.5554
G1 X91.200 Y117.176
G1 X100.397 Y126.309 E331.9779
G1 X100.941 Y126.309
G1 X91.200 Y116.635 E332.4254
G1 X91.200 Y116.095
G1 X101.485 Y126.309 E332.8978
G1 X102.029 Y126.309
G1 X91.200 Y115.555 E333.3953
G1 X91.200 Y115.014
G1 X102.573 Y126.309 E333.9178
G1 X103.117 Y126.309
G1 X91.200 Y114.474 E334.4652
G1 X91.200 Y113.934
G1 X103.661 Y126.309 E335.0377
G1 X104.206 Y126.309
G1 X91.200 Y113.393 E335.6351
G1 X91.200 Y112.853
G1 X104.750 Y126.309 E336.2576
G1 X105.294 Y126.309
G1 X91.200 Y112.313 E336.9050
G1 X91.200 Y111.772
G1 X105.838 Y126.309 E337.5774
G1 X106.382 Y126.309
G1 X91.200 Y111.232 E338.2748
G1 X91.200 Y110.692
G1 X106.926 Y126.309 E338.9972
G1 X107.470 Y126.309
G1 X91.200 Y110.151 E339.7446
G1 X91.200 Y109.611
G1 X108.015 Y126.309 E340.5170
G1 X108.559 Y126.309
G1 X91.200 Y109.071 E341.3144
G1 X91.200 Y108.530
G1 X109.103 Y126.309 E342.1368
G1 X109.647 Y126.309
G1 X91.200 Y107.990 E342.9842
G1 X91.200 Y107.450
G1 X110.191 Y126.309 E343.8566
G1 X110.735 Y126.309
G1 X91.200 Y106.909 E344.7539
G1 X91.200 Y106.369
G1 X109.400 Y124.443 E345.5900
G1 X109.400 Y123.903
G1 X91.200 Y105.829 E346.4261
G1 X91.200 Y105.288
G1 X109.400 Y123.362 E347.2621
G1 X109.400 Y122.822
G1 X91.200 Y104.748 E348.0982
G1 X91.200 Y104.208
G1 X109.400 Y122.282 E348.9342
G1 X109.400 Y121.741
G1 X91.200 Y103.667 E349.7703
G1 X91.200 Y103.127
G1 X109.400 Y121.201 E350.6064
G1 X109.400 Y120.661
G1 X91.200 Y102.587 E351.4424
G1 X91.200 Y102.046
G1 X109.400 Y120.120 E352.2785
G1 X109.400 Y119.580
G1 X91.200 Y101.506 E353.1145
G1 X91.200 Y100.966
G1 X109.400 Y119.040 E353.9506
G1 X109.400 Y118.499
G1 X93.506 Y102.716 E354.6807
G1 X94.186 Y102.850
G1 X109.400 Y117.959 E355.3796
G1 X109.400 Y117.418
G1 X94.727 Y102.848 E356.0536
G1 X95.184 Y102.761
G1 X109.400 Y116.878 E356.7066
G1 X109.400 Y116.338
G1 X95.575 Y102.608 E357.3417
G1 X95.944 Y102.434
G1 X109.400 Y115.797 E357.9599
G1 X109.400 Y115.257
G1 X96.242 Y102.190 E358.5643
G1 X96.532 Y101.938
G1 X109.400 Y114.717 E359.1555
G1 X109.400 Y114.176
G1 X96.760 Y101.624 E359.7361
G1 X96.970 Y101.293
G1 X109.400 Y113.636 E360.3071
G1 X109.400 Y113.096
G1 X97.124 Y100.905 E360.8710
G1 X97.228 Y100.467
G1 X109.400 Y112.555 E361.4302
G1 X109.400 Y112.015
G1 X97.272 Y99.971 E361.9873
G1 X97.190 Y99.349
G1 X109.400 Y111.475 E362.5483
G1 X109.400 Y110.934
G1 X96.770 Y98.392 E363.1284
; ------------------------------------
; Layer #2
; ------------------------------------
G21 ; mm
G90 ; abs
G92 E0 ; reset extr
M73 S10
M106 S0
G0 F1200 E-1.0000
G0 F300 Z0.600
G0 X109.992 Y76.896 F5400
G0 X167.772 Y73.614
G0 F1200 E0.0000
;segType:Loop
G1 X168.399 Y74.095 E0.0258 F2700
G1 X168.939 Y74.799 E0.0547
G1 X169.279 Y75.619 E0.0836
G1 X169.400 Y76.539 E0.1138
G1 X169.400 Y123.461 E1.6433
G1 X169.279 Y124.381 E1.6735
G1 X168.939 Y125.201 E1.7025
G1 X168.399 Y125.905 E1.7314
G1 X167.696 Y126.444 E1.7603
G1 X166.878 Y126.783 E1.7891
G1 X165.960 Y126.904 E1.8193
G1 X94.040 Y126.904 E4.1635
G1 X93.122 Y126.783 E4.1937
G1 X92.304 Y126.444 E4.2226
G1 X91.601 Y125.905 E4.2515
G1 X91.061 Y125.201 E4.2804
G1 X90.721 Y124.381 E4.3093
G1 X90.600 Y123.461 E4.3395
G1 X90.600 Y76.539 E5.8690
G1 X90.721 Y75.619 E5.8992
G1 X91.061 Y74.799 E5.9282
G1 X91.601 Y74.095 E5.9571
G1 X92.304 Y73.556 E5.9859
G1 X93.122 Y73.217 E6.0148
G1 X94.040 Y73.096 E6.0450
G1 X165.960 Y73.096 E8.3892
G1 X166.878 Y73.217 E8.4194
G1 X167.607 Y73.519 E8.4451
G0 F1200 E7.4451
G0 X166.460 Y73.233 F5400
G0 F1200 E8.4451
;segType:Perimeter
G1 X167.036 Y72.852 E8.4677 F1890
G1 X167.899 Y73.209 E8.4981
G1 X168.685 Y73.813 E8.5304
G1 X169.289 Y74.600 E8.5627
G1 X169.669 Y75.516 E8.5951
G1 X169.800 Y76.513 E8.6278
G1 X169.800 Y123.487 E10.1590
G1 X169.669 Y124.484 E10.1917
G1 X169.289 Y125.400 E10.2241
G1 X168.685 Y126.187 E10.2564
G1 X167.899 Y126.791 E10.2887
G1 X166.983 Y127.170 E10.3210
G1 X165.987 Y127.301 E10.3538
G1 X94.013 Y127.301 E12.6997
G1 X93.017 Y127.170 E12.7325
G1 X92.101 Y126.791 E12.7648
G1 X91.315 Y126.187 E12.7971
G1 X90.711 Y125.400 E12.8294
G1 X90.331 Y124.484 E12.8618
G1 X90.200 Y123.487 E12.8946
G1 X90.200 Y76.513 E14.4257
G1 X90.331 Y75.516 E14.4584
G1 X90.711 Y74.600 E14.4908
G1 X91.315 Y73.813 E14.5231
G1 X92.101 Y73.209 E14.5554
G1 X93.017 Y72.830 E14.5877
G1 X94.013 Y72.699 E14.6205
G1 X165.987 Y72.699 E16.9665
G1 X166.926 Y72.822 E16.9973
G1 X167.231 Y73.440
;segType:Loop
G0 X168.242 Y74.546 F5400
G1 X168.589 Y74.998 E17.0159 F2700
G1 X168.889 Y75.723 E17.0415
G1 X169.000 Y76.565 E17.0692
G1 X169.000 Y123.435 E18.5969
G1 X168.889 Y124.277 E18.6246
G1 X168.589 Y125.002 E18.6501
G1 X168.113 Y125.623 E18.6756
G1 X167.493 Y126.098 E18.7011
G1 X166.773 Y126.396 E18.7265
G1 X165.934 Y126.507 E18.7541
G1 X94.066 Y126.507 E21.0966
G1 X93.227 Y126.396 E21.1242
G1 X92.507 Y126.098 E21.1496
G1 X91.887 Y125.623 E21.1751
G1 X91.411 Y125.002 E21.2006
G1 X91.111 Y124.277 E21.2261
G1 X91.000 Y123.435 E21.2538
G1 X91.000 Y76.565 E22.7816
G1 X91.111 Y75.723 E22.8093
G1 X91.411 Y74.998 E22.8348
G1 X91.887 Y74.377 E22.8603
G1 X92.507 Y73.902 E22.8858
G1 X93.227 Y73.604 E22.9112
G1 X94.066 Y73.493 E22.9388
G1 X165.934 Y73.493 E25.2813
G1 X166.773 Y73.604 E25.3089
G1 X167.493 Y73.902 E25.3343
G1 X168.113 Y74.377 E25.3597
G1 X168.125 Y74.394 E25.3604
G0 X148.664 Y77.166 F5400
G0 X147.600 Y78.352
G1 X147.600 Y124.096 E26.8514 F2700
G1 X146.000 Y124.096 E26.9036
G1 X146.000 Y76.904 E28.4418
G1 X147.600 Y76.904 E28.4939
G1 X147.600 Y78.161 E28.5349
;segType:Perimeter
G0 X148.218 Y77.565 F5400
G1 X148.858 Y77.301 E28.5574 F1890
G1 X149.600 Y77.301 E28.5816
G1 X149.600 Y123.698 E30.0939
G1 X148.800 Y123.698 E30.1200
G1 X148.800 Y77.359 E31.6304
G1 X149.065 Y76.723
;segType:Loop
G0 X150.400 Y78.609 F5400
G1 X150.400 Y124.493 E33.1260 F2700
G1 X148.000 Y124.493 E33.2042
G1 X148.000 Y76.507 E34.7683
G1 X150.400 Y76.507 E34.8465
G1 X150.400 Y78.418 E34.9088
;segType:HShell
G0 X148.546 Y73.691 F5400
G1 X145.911 Y76.309 E35.0298 F2700
G1 X146.455 Y76.309
G1 X149.091 Y73.691 E35.1509
G1 X149.635 Y73.691
G1 X146.999 Y76.309 E35.2720
;segType:Perimeter
G0 X146.935 Y76.723 F5400
G1 X147.200 Y77.359 E35.2944 F1890
G1 X147.200 Y123.698 E36.8049
G1 X146.400 Y123.698 E36.8310
G1 X146.400 Y77.301 E38.3433
G1 X147.142 Y77.301 E38.3675
G1 X147.782 Y77.565
G0 F1200 E37.3675
G0 X150.000 Y77.558 F5400
G0 F1200 E38.3675
;segType:Loop
G1 X150.000 Y124.096 E39.8843 F2700
G1 X148.400 Y124.096 E39.9365
G1 X148.400 Y76.904 E41.4747
G1 X150.000 Y76.904 E41.5268
G1 X150.000 Y77.367 E41.5419
G0 X149.736 Y77.166 F5400
G0 X148.664 Y77.166
G0 X148.000 Y79.403
G1 X148.000 Y124.493 E43.0116 F2700
G1 X145.600 Y124.493 E43.0898
G1 X145.600 Y76.507 E44.6539
G1 X148.000 Y76.507 E44.7321
G1 X148.000 Y79.212 E44.8203
;segType:HShell
G0 X148.002 Y73.691 F5400
G1 X145.366 Y76.309 E44.9413 F2700
G1 X144.822 Y76.309
G1 X147.458 Y73.691 E45.0624
G1 X146.914 Y73.691
G1 X144.278 Y76.309 E45.1835
;segType:Perimeter
G0 X144.535 Y76.723 F5400
G1 X144.800 Y77.359 E45.2059 F1890
G1 X144.800 Y123.698 E46.7164
G1 X144.000 Y123.698 E46.7424
G1 X144.000 Y77.301 E48.2547
G1 X144.742 Y77.301 E48.2789
G1 X145.382 Y77.565
G0 F1200 E47.2789
G0 X145.200 Y78.352 F5400
G0 F1200 E48.2789
;segType:Loop
G1 X145.200 Y124.096 E49.7699 F2700
G1 X143.600 Y124.096 E49.8221
G1 X143.600 Y76.904 E51.3603
G1 X145.200 Y76.904 E51.4124
G1 X145.200 Y78.161 E51.4534
G0 X145.600 Y79.403 F5400
G1 X145.600 Y124.493 E52.9231 F2700
G1 X143.200 Y124.493 E53.0013
G1 X143.200 Y76.507 E54.5654
G1 X145.600 Y76.507 E54.6436
G1 X145.600 Y79.212 E54.7317
;segType:HShell
G0 X143.649 Y73.691 F5400
G1 X141.013 Y76.309 E54.8528 F2700
G1 X140.469 Y76.309
G1 X143.105 Y73.691 E54.9739
G1 X142.561 Y73.691
G1 X139.925 Y76.309 E55.0950
;segType:Perimeter
G0 X139.735 Y76.723 F5400
G1 X140.000 Y77.359 E55.1174 F1890
G1 X140.000 Y123.698 E56.6278
G1 X139.200 Y123.698 E56.6539
G1 X139.200 Y77.301 E58.1662
G1 X139.942 Y77.301 E58.1904
G1 X140.582 Y77.565
G0 F1200 E57.1904
G0 X140.400 Y78.352 F5400
G0 F1200 E58.1904
;segType:Loop
G1 X140.400 Y124.096 E59.6814 F2700
G1 X138.800 Y124.096 E59.7336
G1 X138.800 Y76.904 E61.2718
G1 X140.400 Y76.904 E61.3239
G1 X140.400 Y78.161 E61.3649
G0 X140.800 Y79.403 F5400
G1 X140.800 Y124.493 E62.8346 F2700
G1 X138.400 Y124.493 E62.9128
G1 X138.400 Y76.507 E64.4769
G1 X140.800 Y76.507 E64.5551
G1 X140.800 Y79.212 E64.6432
;segType:HShell
G0 X138.752 Y73.691 F5400
G1 X136.116 Y76.309 E64.7643 F2700
G1 X136.660 Y76.309
G1 X139.296 Y73.691 E64.8854
G1 X139.840 Y73.691
G1 X137.204 Y76.309 E65.0065
;segType:Perimeter
G0 X137.335 Y76.723 F5400
G1 X137.600 Y77.359 E65.0289 F1890
G1 X137.600 Y123.698 E66.5393
G1 X136.800 Y123.698 E66.5654
G1 X136.800 Y77.301 E68.0777
G1 X137.542 Y77.301 E68.1019
G1 X138.182 Y77.565
G0 F1200 E67.1019
G0 X138.000 Y78.352 F5400
G0 F1200 E68.1019
;segType:Loop
G1 X138.000 Y124.096 E69.5929 F2700
G1 X136.400 Y124.096 E69.6451
G1 X136.400 Y76.904 E71.1832
G1 X138.000 Y76.904 E71.2354
G1 X138.000 Y78.161 E71.2763
G0 X138.400 Y79.403 F5400
G1 X138.400 Y124.493 E72.7460 F2700
G1 X136.000 Y124.493 E72.8243
G1 X136.000 Y76.507 E74.3883
G1 X138.400 Y76.507 E74.4665
G1 X138.400 Y79.212 E74.5547
G0 X137.736 Y77.166 F5400
G0 X134.264 Y77.166
G0 X133.200 Y78.352
G1 X133.200 Y124.096 E76.0457 F2700
G1 X131.600 Y124.096 E76.0979
G1 X131.600 Y76.904 E77.6360
G1 X133.200 Y76.904 E77.6882
G1 X133.200 Y78.161 E77.7292
;segType:Perimeter
G0 X133.818 Y77.565 F5400
G1 X134.458 Y77.301 E77.7517 F1890
G1 X135.200 Y77.301 E77.7759
G1 X135.200 Y123.698 E79.2882
G1 X134.400 Y123.698 E79.3143
G1 X134.400 Y77.359 E80.8247
G1 X134.665 Y76.723
;segType:Loop
G0 X136.000 Y78.608 F5400
G1 X136.000 Y124.493 E82.3203 F2700
G1 X133.600 Y124.493 E82.3985
G1 X133.600 Y76.507 E83.9626
G1 X136.000 Y76.507 E84.0408
G1 X136.000 Y78.417 E84.1031
;segType:HShell
G0 X136.031 Y73.691 F5400
G1 X133.396 Y76.309 E84.2242 F2700
G1 X132.851 Y76.309
G1 X135.487 Y73.691 E84.3452
G1 X134.943 Y73.691
G1 X132.307 Y76.309 E84.4663
;segType:Perimeter
G0 X132.535 Y76.723 F5400
G1 X132.800 Y77.359 E84.4888 F1890
G1 X132.800 Y123.698 E85.9992
G1 X132.000 Y123.698 E86.0253
G1 X132.000 Y77.301 E87.5376
G1 X132.742 Y77.301 E87.5618
G1 X133.382 Y77.565
G0 F1200 E86.5618
