; GCode generated by CraftWare

M103 (disable RPM)
M73 P0 (enable build progress)
G21 (set units to mm)
G90 (set positioning to absolute)
M109 S65 T0 (set HBP temperature)
M104 S190 T0 (set extruder temperature) (temp updated by printOMatic)
G162 X Y F2500 (home XY axes maximum)
G161 Z F1100 (home Z axis minimum)
G92 Z-5 (set Z to -5)
G1 Z0.0 (move Z to "0")
G161 Z F100 (home Z axis minimum)
M132 X Y Z A B (Recall stored home offsets for XYZAB axis)
(**** end homing ****)
G1 X-110.5 Y-74 Z150 F3300.0 (move to waiting position)
G130 X20 Y20 Z20 A20 B20 (Lower stepper Vrefs while heating)
M6 T0 (wait for toolhead, and HBP to reach temperature)
G130 X127 Y127 Z40 A127 B127 (Set Stepper motor Vref to defaults)
M108 R3.0 T0
G0 X-110.5 Y-74 (Position Nozzle)
G0 Z0.6      (Position Height)
M108 R5.0    (Set Extruder Speed)
M101         (Start Extruder)
G4 P2000     (Create Anchor)
; ------------------------------------
; Layer #0
; ------------------------------------
G21 ; mm
G90 ; abs
G92 E0 ; reset extr
M73 S0
M106 S0
;segType:Skirt
G0 F1200 E-1.0000
G0 F300 Z0.200
G0 X90.120 Y129.240 F5400
G0 F1200 E0.0000
G1 X90.522 Y129.485 E0.0196 F3000
G1 X90.845 Y129.811 E0.0387
G1 X91.167 Y129.975 E0.0537
G1 X92.456 Y130.465 E0.1110
G1 X167.544 Y130.465 E3.2328
G1 X167.705 Y130.302 E3.2424
G1 X168.027 Y130.302 E3.2557
G1 X169.639 Y129.321 E3.3342
G1 X171.572 Y127.361 E3.4486
G1 X171.814 Y126.953 E3.4683
G1 X172.136 Y126.626 E3.4874
G1 X172.378 Y126.218 E3.5072
G1 X172.539 Y125.728 E3.5286
G1 X172.780 Y125.320 E3.5483
G1 X172.780 Y75.007 E5.6401
G1 X172.458 Y74.027 E5.6830
G1 X172.217 Y73.619 E5.7027
G1 X171.895 Y73.292 E5.7218
G1 X171.653 Y72.884 E5.7415
G1 X169.397 Y70.597 E5.8751
G1 X168.591 Y70.107 E5.9143
G1 X168.108 Y69.943 E5.9355
G1 X167.705 Y69.698 E5.9551
G1 X166.738 Y69.698 E5.9953
G1 X166.577 Y69.535 E6.0048
G1 X93.745 Y69.535 E9.0328
G1 X92.054 Y69.780 E9.1039
G1 X91.650 Y70.025 E9.1235
G1 X91.328 Y70.025 E9.1369
G1 X90.522 Y70.515 E9.1761
G1 X88.267 Y72.802 E9.3096
G1 X88.025 Y73.210 E9.3294
G1 X87.703 Y73.537 E9.3484
G1 X87.220 Y74.354 E9.3879
G1 X87.220 Y74.680 E9.4015
G1 X87.058 Y74.844 E9.4110
G1 X87.058 Y125.156 E11.5028
G1 X87.220 Y125.646 E11.5242
G1 X87.381 Y125.810 E11.5338
G1 X87.381 Y126.136 E11.5473
G1 X87.622 Y126.544 E11.5670
G1 X87.944 Y126.871 E11.5861
G1 X88.186 Y127.280 E11.6059
G1 X90.120 Y129.240 E11.7203
G1 X90.281 Y129.893 E11.7483
G1 X90.845 Y130.302 E11.7773
G1 X91.167 Y130.465 E11.7923
G1 X92.456 Y130.955 E11.8496
G1 X167.544 Y130.955 E14.9714
G1 X167.705 Y130.792 E14.9809
G1 X168.027 Y130.792 E14.9943
G1 X169.639 Y129.811 E15.0728
G1 X172.217 Y127.198 E15.2254
G1 X172.458 Y126.790 E15.2451
G1 X172.780 Y126.463 E15.2642
G1 X173.103 Y125.483 E15.3071
G1 X173.264 Y125.320 E15.3166
G1 X173.264 Y75.007 E17.4084
G1 X172.942 Y74.027 E17.4513
G1 X172.700 Y73.619 E17.4710
G1 X172.378 Y73.292 E17.4900
G1 X172.136 Y72.884 E17.5098
G1 X169.558 Y70.270 E17.6624
G1 X169.155 Y70.025 E17.6820
G1 X168.833 Y69.698 E17.7011
G1 X167.866 Y69.372 E17.7435
G1 X167.705 Y69.208 E17.7531
G1 X166.738 Y69.208 E17.7933
G1 X166.577 Y69.045 E17.8028
G1 X93.745 Y69.045 E20.8308
G1 X92.054 Y69.290 E20.9019
G1 X91.650 Y69.535 E20.9215
G1 X91.328 Y69.535 E20.9349
G1 X90.522 Y70.025 E20.9741
G1 X87.622 Y72.966 E21.1458
G1 X87.381 Y73.374 E21.1655
G1 X87.058 Y73.700 E21.1846
G1 X86.897 Y74.190 E21.2060
G1 X86.736 Y74.354 E21.2156
G1 X86.736 Y74.680 E21.2291
G1 X86.575 Y74.844 E21.2387
G1 X86.575 Y125.156 E23.3304
G1 X86.736 Y125.646 E23.3519
G1 X86.897 Y125.810 E23.3614
G1 X86.897 Y126.136 E23.3750
G1 X87.139 Y126.544 E23.3947
G1 X87.461 Y126.871 E23.4138
G1 X87.703 Y127.280 E23.4335
G1 X90.281 Y129.893 E23.5862
G0 F1200 E22.5862
G0 X93.044 Y127.969 F5400
G0 X95.808 Y126.044
G0 X133.364 Y124.274
G0 X133.837 Y76.727
G0 X169.250 Y76.872
G0 F1200 E23.5862
;segType:Loop
G1 X169.250 Y123.449 E25.5226 F3000
G1 X169.134 Y124.334 E25.5598
G1 X168.811 Y125.113 E25.5948
G1 X168.297 Y125.783 E25.6299
G1 X167.625 Y126.298 E25.6651
G1 X166.842 Y126.623 E25.7003
G1 X165.952 Y126.740 E25.7377
G1 X94.049 Y126.740 E28.7271
G1 X93.158 Y126.623 E28.7644
G1 X92.375 Y126.298 E28.7997
G1 X91.703 Y125.783 E28.8348
G1 X91.189 Y125.113 E28.8700
G1 X90.866 Y124.334 E28.9050
G1 X90.750 Y123.449 E28.9421
G1 X90.750 Y76.551 E30.8919
G1 X90.866 Y75.666 E30.9290
G1 X91.189 Y74.887 E30.9640
G1 X91.703 Y74.217 E30.9992
G1 X92.375 Y73.702 E31.0343
G1 X93.158 Y73.377 E31.0696
G1 X94.049 Y73.260 E31.1069
G1 X165.952 Y73.260 E34.0963
G1 X166.842 Y73.377 E34.1337
G1 X167.625 Y73.702 E34.1689
G1 X168.297 Y74.217 E34.2041
G1 X168.811 Y74.887 E34.2392
G1 X169.134 Y75.666 E34.2742
G1 X169.250 Y76.551 E34.3114
G1 X169.250 Y76.627 E34.3145
;segType:Perimeter
G0 X168.847 Y75.218 F5400
G1 X169.630 Y75.605 E34.3508 F2100
G1 X169.750 Y76.517 E34.3891
G1 X169.750 Y123.483 E36.3417
G1 X169.620 Y124.468 E36.3830
G1 X169.246 Y125.371 E36.4236
G1 X168.651 Y126.147 E36.4643
G1 X167.875 Y126.742 E36.5050
G1 X166.971 Y127.117 E36.5457
G1 X165.984 Y127.247 E36.5870
G1 X94.016 Y127.247 E39.5791
G1 X93.029 Y127.117 E39.6205
G1 X92.125 Y126.742 E39.6612
G1 X91.349 Y126.147 E39.7019
G1 X90.754 Y125.371 E39.7425
G1 X90.380 Y124.468 E39.7831
G1 X90.250 Y123.483 E39.8244
G1 X90.250 Y76.517 E41.7771
G1 X90.380 Y75.532 E41.8184
G1 X90.754 Y74.629 E41.8590
G1 X91.349 Y73.853 E41.8996
G1 X92.125 Y73.258 E41.9403
G1 X93.029 Y72.883 E41.9810
G1 X94.016 Y72.753 E42.0224
G1 X165.984 Y72.753 E45.0145
G1 X166.971 Y72.883 E45.0558
G1 X167.875 Y73.258 E45.0965
G1 X168.651 Y73.853 E45.1372
G1 X169.246 Y74.629 E45.1779
G1 X169.592 Y75.464 E45.2154
G1 X169.110 Y76.199
;segType:Loop
G0 X162.927 Y98.799 F5400
G1 X163.226 Y98.255 E45.2412 F3000
G1 X163.732 Y97.717 E45.2719
G1 X164.354 Y97.322 E45.3026
G1 X165.052 Y97.095 E45.3331
G1 X165.783 Y97.049 E45.3635
G1 X166.504 Y97.186 E45.3940
G1 X167.169 Y97.499 E45.4246
G1 X167.737 Y97.969 E45.4553
G1 X168.173 Y98.568 E45.4861
G1 X168.447 Y99.260 E45.5170
G1 X168.530 Y99.920 E45.5446
G1 X168.455 Y100.721 E45.5781
G1 X168.173 Y101.432 E45.6099
G1 X167.737 Y102.031 E45.6407
G1 X167.169 Y102.501 E45.6713
G1 X166.504 Y102.814 E45.7019
G1 X165.783 Y102.951 E45.7324
G1 X165.052 Y102.905 E45.7628
G1 X164.354 Y102.678 E45.7933
G1 X163.732 Y102.283 E45.8240
G1 X163.226 Y101.745 E45.8547
G1 X162.869 Y101.094 E45.8856
G1 X162.683 Y100.373 E45.9165
G1 X162.683 Y99.627 E45.9475
G1 X162.838 Y99.025 E45.9734
G0 X163.843 Y101.284 F5400
G0 X164.677 Y101.974
G0 X165.736 Y102.176
G0 X167.040 Y101.953
G1 X166.901 Y102.068 E45.9809 F3000
G1 X166.350 Y102.327 E46.0062
G1 X165.752 Y102.441 E46.0315
G1 X165.146 Y102.403 E46.0568
G1 X164.566 Y102.215 E46.0821
G1 X164.051 Y101.888 E46.1075
G1 X163.632 Y101.442 E46.1329
G1 X163.336 Y100.904 E46.1584
G1 X163.183 Y100.308 E46.1840
G1 X163.183 Y99.692 E46.2096
G1 X163.336 Y99.096 E46.2352
G1 X163.632 Y98.558 E46.2607
G1 X164.051 Y98.112 E46.2861
G1 X164.566 Y97.785 E46.3115
G1 X165.146 Y97.597 E46.3368
G1 X165.752 Y97.559 E46.3621
G1 X166.350 Y97.673 E46.3874
G1 X166.901 Y97.932 E46.4128
G1 X167.372 Y98.321 E46.4382
G1 X167.732 Y98.817 E46.4636
G1 X167.959 Y99.389 E46.4892
G1 X168.027 Y99.928 E46.5118
G1 X167.964 Y100.600 E46.5398
G1 X167.732 Y101.183 E46.5659
G1 X167.372 Y101.679 E46.5914
G1 X167.227 Y101.798 E46.5992
;segType:Perimeter
G0 X168.155 Y100.035 F5400
G1 X167.446 Y100.547 E46.6356 F2100
G1 X167.292 Y100.934 E46.6529
G1 X167.007 Y101.326 E46.6731
G1 X166.634 Y101.635 E46.6932
G1 X166.196 Y101.841 E46.7133
G1 X165.721 Y101.932 E46.7334
G1 X165.239 Y101.901 E46.7535
G1 X164.779 Y101.752 E46.7736
G1 X164.370 Y101.492 E46.7938
G1 X164.038 Y101.139 E46.8139
G1 X163.804 Y100.713 E46.8341
G1 X163.683 Y100.243 E46.8543
G1 X163.683 Y99.757 E46.8745
G1 X163.804 Y99.287 E46.8947
G1 X164.038 Y98.861 E46.9149
G1 X164.370 Y98.508 E46.9350
G1 X164.779 Y98.248 E46.9552
G1 X165.239 Y98.099 E46.9753
G1 X165.721 Y98.068 E46.9954
G1 X166.196 Y98.159 E47.0155
G1 X166.634 Y98.365 E47.0356
G1 X167.007 Y98.674 E47.0557
G1 X167.292 Y99.066 E47.0759
G1 X167.471 Y99.518 E47.0961
G1 X167.524 Y99.936 E47.1136
G1 X167.480 Y100.405 E47.1332
G1 X167.878 Y101.191
G0 X165.194 Y102.142 F5400
G0 X164.217 Y101.682
G0 X163.580 Y100.805
G0 X149.821 Y77.073
G0 X114.245 Y73.767
;segType:Loop
G1 X165.919 Y73.767 E49.2816 F3000
G1 X166.713 Y73.872 E49.3149
G1 X167.376 Y74.146 E49.3447
G1 X167.942 Y74.582 E49.3744
G1 X168.376 Y75.146 E49.4040
G1 X168.647 Y75.800 E49.4334
G1 X168.750 Y76.584 E49.4663
G1 X168.750 Y123.416 E51.4133
G1 X168.647 Y124.200 E51.4462
G1 X168.376 Y124.854 E51.4757
G1 X167.942 Y125.419 E51.5052
G1 X167.376 Y125.854 E51.5349
G1 X166.713 Y126.128 E51.5648
G1 X165.919 Y126.233 E51.5981
G1 X94.081 Y126.233 E54.5847
G1 X93.287 Y126.128 E54.6180
G1 X92.624 Y125.854 E54.6479
G1 X92.058 Y125.419 E54.6776
G1 X91.624 Y124.854 E54.7071
G1 X91.353 Y124.200 E54.7366
G1 X91.250 Y123.416 E54.7695
G1 X91.250 Y76.584 E56.7165
G1 X91.353 Y75.800 E56.7494
G1 X91.624 Y75.146 E56.7788
G1 X92.058 Y74.582 E56.8084
G1 X92.624 Y74.146 E56.8381
G1 X93.287 Y73.872 E56.8679
G1 X94.081 Y73.767 E56.9012
G1 X114.003 Y73.767 E57.7295
G0 X114.124 Y77.710 F5400
G1 X114.150 Y124.260 E59.6648 F3000
G1 X112.250 Y124.260 E59.7439
G1 X112.250 Y76.740 E61.7195
G1 X114.123 Y76.740 E61.7974
G1 X114.123 Y77.465 E61.8275
;segType:Perimeter
G0 X114.418 Y77.585 F5400
G1 X115.223 Y77.247 E61.8638 F2100
G1 X116.023 Y77.247 E61.8971
G1 X116.050 Y123.753 E63.8306
G1 X115.150 Y123.753 E63.8681
G1 X115.150 Y77.320 E65.7985
G1 X115.483 Y76.505
;segType:Loop
G0 X111.871 Y76.233 F5400
G1 X112.223 Y76.233 E65.8132 F3000
G1 X114.150 Y76.233 E65.8933
G1 X114.623 Y76.233 E65.9129
G1 X116.550 Y76.233 E65.9931
G1 X117.023 Y76.233 E66.0127
G1 X118.950 Y76.233 E66.0928
G1 X119.423 Y76.233 E66.1125
G1 X121.350 Y76.233 E66.1926
G1 X121.823 Y76.233 E66.2123
G1 X123.750 Y76.233 E66.2924
G1 X124.223 Y76.233 E66.3121
G1 X126.150 Y76.233 E66.3922
G1 X126.623 Y76.233 E66.4119
G1 X128.550 Y76.233 E66.4920
G1 X129.050 Y76.233 E66.5128
G1 X130.950 Y76.233 E66.5918
G1 X131.423 Y76.233 E66.6114
G1 X133.350 Y76.233 E66.6916
G1 X133.823 Y76.233 E66.7112
G1 X135.750 Y76.233 E66.7913
G1 X136.223 Y76.233 E66.8110
G1 X138.150 Y76.233 E66.8911
G1 X138.650 Y76.233 E66.9119
G1 X140.550 Y76.233 E66.9909
G1 X141.050 Y76.233 E67.0117
G1 X142.950 Y76.233 E67.0907
G1 X143.450 Y76.233 E67.1115
G1 X145.350 Y76.233 E67.1905
G1 X145.823 Y76.233 E67.2101
G1 X147.750 Y76.233 E67.2902
G1 X148.223 Y76.233 E67.3099
G1 X150.650 Y76.233 E67.4108
G1 X150.650 Y124.767 E69.4286
G1 X148.250 Y124.767 E69.5284
G1 X147.750 Y124.767 E69.5492
G1 X145.851 Y124.767 E69.6282
G1 X145.350 Y124.767 E69.6490
G1 X143.450 Y124.767 E69.7280
G1 X142.950 Y124.767 E69.7488
G1 X141.050 Y124.767 E69.8277
G1 X140.550 Y124.767 E69.8485
G1 X138.650 Y124.767 E69.9275
G1 X138.150 Y124.767 E69.9483
G1 X136.251 Y124.767 E70.0273
G1 X135.750 Y124.767 E70.0481
G1 X133.851 Y124.767 E70.1270
G1 X133.350 Y124.767 E70.1479
G1 X131.450 Y124.767 E70.2269
G1 X130.950 Y124.767 E70.2476
G1 X129.050 Y124.767 E70.3266
G1 X128.550 Y124.767 E70.3474
G1 X126.651 Y124.767 E70.4264
G1 X126.150 Y124.767 E70.4472
G1 X124.251 Y124.767 E70.5262
G1 X123.750 Y124.767 E70.5470
G1 X121.851 Y124.767 E70.6259
G1 X121.350 Y124.767 E70.6468
G1 X119.450 Y124.767 E70.7258
G1 X118.950 Y124.767 E70.7465
G1 X117.051 Y124.767 E70.8255
G1 X116.550 Y124.767 E70.8463
G1 X114.651 Y124.767 E70.9253
G1 X114.150 Y124.767 E70.9461
G1 X112.251 Y124.767 E71.0251
G1 X111.750 Y124.767 E71.0459
G1 X109.350 Y124.767 E71.1457
G1 X109.350 Y76.233 E73.1635
G1 X111.629 Y76.233 E73.2582
G0 X111.724 Y77.710 F5400
G1 X111.750 Y124.260 E75.1936 F3000
G1 X109.850 Y124.260 E75.2726
G1 X109.850 Y76.740 E77.2483
G1 X111.723 Y76.740 E77.3261
G1 X111.723 Y77.465 E77.3563
;segType:Perimeter
G0 X112.018 Y77.585 F5400
G1 X112.823 Y77.247 E77.3926 F2100
G1 X113.623 Y77.247 E77.4259
G1 X113.650 Y123.753 E79.3594
G1 X112.750 Y123.753 E79.3968
G1 X112.750 Y77.320 E81.3273
G1 X113.083 Y76.505
G0 X110.179 Y77.073 F5400
G0 X96.609 Y98.068
;segType:Loop
G1 X96.973 Y98.569 E81.3530 F3000
G1 X97.247 Y99.260 E81.3839
G1 X97.330 Y99.920 E81.4116
G1 X97.254 Y100.720 E81.4450
G1 X96.973 Y101.432 E81.4768
G1 X96.537 Y102.031 E81.5076
G1 X95.969 Y102.501 E81.5383
G1 X95.303 Y102.814 E81.5689
G1 X94.583 Y102.951 E81.5993
G1 X93.852 Y102.905 E81.6298
G1 X93.154 Y102.678 E81.6603
G1 X92.532 Y102.283 E81.6909
G1 X92.026 Y101.745 E81.7217
G1 X91.668 Y101.094 E81.7525
G1 X91.483 Y100.373 E81.7835
G1 X91.483 Y99.627 E81.8145
G1 X91.668 Y98.906 E81.8454
G1 X92.026 Y98.255 E81.8763
G1 X92.532 Y97.717 E81.9070
G1 X93.154 Y97.322 E81.9377
G1 X93.852 Y97.095 E81.9682
G1 X94.583 Y97.049 E81.9986
G1 X95.303 Y97.186 E82.0291
G1 X95.969 Y97.499 E82.0597
G1 X96.444 Y97.892 E82.0853
G0 X95.840 Y101.954 F5400
G1 X95.701 Y102.068 E82.0928 F3000
G1 X95.149 Y102.327 E82.1181
G1 X94.552 Y102.441 E82.1434
G1 X93.946 Y102.403 E82.1687
G1 X93.367 Y102.215 E82.1940
G1 X92.851 Y101.888 E82.2194
G1 X92.432 Y101.442 E82.2448
G1 X92.136 Y100.904 E82.2704
G1 X91.983 Y100.308 E82.2959
G1 X91.983 Y99.692 E82.3216
G1 X92.136 Y99.096 E82.3471
G1 X92.432 Y98.558 E82.3726
G1 X92.851 Y98.112 E82.3981
G1 X93.367 Y97.785 E82.4235
G1 X93.946 Y97.597 E82.4488
G1 X94.552 Y97.559 E82.4741
G1 X95.149 Y97.673 E82.4993
G1 X95.701 Y97.932 E82.5247
G1 X96.172 Y98.321 E82.5501
G1 X96.533 Y98.818 E82.5756
G1 X96.759 Y99.389 E82.6011
G1 X96.827 Y99.928 E82.6237
G1 X96.764 Y100.599 E82.6518
G1 X96.533 Y101.183 E82.6779
G1 X96.172 Y101.679 E82.7033
G1 X96.027 Y101.798 E82.7112
;segType:Perimeter
G0 X96.955 Y100.035 F5400
G1 X96.246 Y100.547 E82.7475 F2100
G1 X96.093 Y100.934 E82.7648
G1 X95.807 Y101.326 E82.7850
G1 X95.434 Y101.635 E82.8052
G1 X94.996 Y101.841 E82.8253
G1 X94.521 Y101.932 E82.8454
G1 X94.039 Y101.901 E82.8655
G1 X93.579 Y101.752 E82.8856
G1 X93.170 Y101.492 E82.9057
G1 X92.838 Y101.139 E82.9259
G1 X92.604 Y100.713 E82.9461
G1 X92.483 Y100.243 E82.9662
G1 X92.483 Y99.757 E82.9865
G1 X92.604 Y99.287 E83.0066
G1 X92.838 Y98.861 E83.0268
G1 X93.170 Y98.508 E83.0470
G1 X93.579 Y98.248 E83.0671
G1 X94.039 Y98.099 E83.0872
G1 X94.521 Y98.068 E83.1073
G1 X94.996 Y98.159 E83.1274
G1 X95.434 Y98.365 E83.1475
G1 X95.807 Y98.674 E83.1677
G1 X96.093 Y99.066 E83.1879
G1 X96.271 Y99.518 E83.2080
G1 X96.324 Y99.936 E83.2256
G1 X96.280 Y100.405 E83.2452
G1 X96.678 Y101.190
G0 X95.982 Y98.505 F5400
G0 X91.500 Y95.438
;segType:HShell
G1 X109.100 Y77.595 E84.2871 F3000
;segType:Perimeter
G0 X109.618 Y77.585 F5400
G1 X110.423 Y77.247 E84.3234 F2100
G1 X111.223 Y77.247 E84.3567
G1 X111.250 Y123.753 E86.2902
G1 X110.350 Y123.753 E86.3277
G1 X110.350 Y77.320 E88.2581
G1 X110.683 Y76.505
G0 X116.194 Y77.073 F5400
G0 X116.524 Y77.710
;segType:Loop
G1 X116.550 Y124.260 E90.1934 F3000
G1 X114.650 Y124.260 E90.2725
G1 X114.650 Y76.740 E92.2481
G1 X116.523 Y76.740 E92.3260
G1 X116.523 Y77.465 E92.3562
G0 X117.379 Y77.073 F5400
G0 X120.994 Y77.073
G0 X121.324 Y77.710
G1 X121.350 Y124.260 E94.2915 F3000
G1 X119.450 Y124.260 E94.3705
G1 X119.450 Y76.740 E96.3462
G1 X121.323 Y76.740 E96.4241
G1 X121.323 Y77.465 E96.4542
;segType:Perimeter
G0 X121.618 Y77.585 F5400
G1 X122.423 Y77.247 E96.4905 F2100
G1 X123.223 Y77.247 E96.5238
G1 X123.250 Y123.753 E98.4573
G1 X122.350 Y123.753 E98.4947
G1 X122.350 Y77.320 E100.4252
G1 X122.683 Y76.505
;segType:Loop
G0 X123.724 Y77.710 F5400
G1 X123.750 Y124.260 E102.3605 F3000
G1 X121.850 Y124.260 E102.4395
G1 X121.850 Y76.740 E104.4152
G1 X123.723 Y76.740 E104.4931
G1 X123.723 Y77.465 E104.5232
;segType:Perimeter
G0 X124.018 Y77.585 F5400
G1 X124.823 Y77.247 E104.5595 F2100
G1 X125.623 Y77.247 E104.5928
G1 X125.650 Y123.753 E106.5263
G1 X124.750 Y123.753 E106.5637
G1 X124.750 Y77.320 E108.4942
G1 X125.083 Y76.505
;segType:Loop
G0 X126.124 Y77.710 F5400
G1 X126.150 Y124.260 E110.4295 F3000
G1 X124.250 Y124.260 E110.5086
G1 X124.250 Y76.740 E112.4842
G1 X126.123 Y76.740 E112.5621
G1 X126.123 Y77.465 E112.5923
;segType:Perimeter
G0 X126.418 Y77.585 F5400
G1 X127.223 Y77.247 E112.6285 F2100
G1 X128.050 Y77.247 E112.6629
G1 X128.050 Y123.753 E114.5964
G1 X127.150 Y123.753 E114.6339
G1 X127.150 Y77.320 E116.5643
G1 X127.483 Y76.505
G0 X132.994 Y77.073 F5400
G0 X133.324 Y77.710
;segType:Loop
G1 X133.351 Y124.260 E118.4996 F3000
G1 X131.450 Y124.260 E118.5787
G1 X131.450 Y76.740 E120.5543
G1 X133.323 Y76.740 E120.6322
G1 X133.323 Y77.465 E120.6623
;segType:Perimeter
G0 X133.618 Y77.585 F5400
G1 X134.423 Y77.247 E120.6986 F2100
G1 X135.223 Y77.247 E120.7319
G1 X135.250 Y123.753 E122.6654
G1 X134.350 Y123.753 E122.7028
G1 X134.350 Y77.320 E124.6333
G1 X134.684 Y76.505
;segType:Loop
G0 X135.724 Y77.710 F5400
G1 X135.751 Y124.260 E126.5686 F3000
G1 X133.850 Y124.260 E126.6476
G1 X133.850 Y76.740 E128.6233
G1 X135.723 Y76.740 E128.7012
G1 X135.723 Y77.465 E128.7313
;segType:Perimeter
G0 X136.018 Y77.585 F5400
G1 X136.823 Y77.247 E128.7676 F2100
G1 X137.650 Y77.247 E128.8020
G1 X137.650 Y123.753 E130.7355
G1 X136.750 Y123.753 E130.7729
G1 X136.750 Y77.320 E132.7034
G1 X137.084 Y76.505
;segType:Loop
G0 X138.150 Y77.684 F5400
G1 X138.150 Y124.260 E134.6398 F3000
G1 X136.250 Y124.260 E134.7188
G1 X136.250 Y76.740 E136.6945
G1 X138.150 Y76.740 E136.7735
G1 X138.150 Y77.438 E136.8025
;segType:Perimeter
G0 X138.418 Y77.585 F5400
G1 X139.223 Y77.247 E136.8388 F2100
G1 X140.050 Y77.247 E136.8732
G1 X140.050 Y123.753 E138.8067
G1 X139.150 Y123.753 E138.8442
G1 X139.150 Y77.320 E140.7746
G1 X139.484 Y76.505
;segType:Loop
G0 X140.550 Y77.684 F5400
G1 X140.550 Y124.260 E142.7111 F3000
G1 X138.650 Y124.260 E142.7900
G1 X138.650 Y76.740 E144.7657
G1 X140.550 Y76.740 E144.8447
G1 X140.550 Y77.438 E144.8738
;segType:Perimeter
G0 X140.818 Y77.585 F5400
G1 X141.623 Y77.247 E144.9100 F2100
G1 X142.450 Y77.247 E144.9444
G1 X142.450 Y123.753 E146.8780
G1 X141.550 Y123.753 E146.9154
G1 X141.550 Y77.320 E148.8458
G1 X141.884 Y76.505
;segType:Loop
G0 X142.950 Y77.684 F5400
G1 X142.950 Y124.260 E150.7823 F3000
G1 X141.050 Y124.260 E150.8613
G1 X141.050 Y76.740 E152.8369
G1 X142.950 Y76.740 E152.9159
G1 X142.950 Y77.438 E152.9450
;segType:Perimeter
G0 X143.218 Y77.585 F5400
G1 X144.023 Y77.247 E152.9813 F2100
G1 X144.823 Y77.247 E153.0145
G1 X144.850 Y123.753 E154.9481
G1 X143.950 Y123.753 E154.9855
G1 X143.950 Y77.320 E156.9159
G1 X144.284 Y76.505
;segType:HShell
G0 X146.962 Y75.980 F5400
G1 X148.895 Y74.021 E157.0303 F3000
G1 X149.579 Y74.021
G1 X147.647 Y75.980 E157.1447
G1 X148.331 Y75.980
G1 X150.263 Y74.021 E157.2591
G1 X150.948 Y74.021
G1 X149.015 Y75.980 E157.3735
;segType:Perimeter
G0 X149.317 Y76.505 F5400
G1 X149.650 Y77.320 E157.4101 F2100
G1 X149.650 Y123.753 E159.3406
G1 X148.750 Y123.753 E159.3780
G1 X148.750 Y77.247 E161.3115
G1 X149.577 Y77.247 E161.3459
G1 X150.382 Y77.585
;segType:Loop
G0 X150.150 Y78.596 F5400
G1 X150.150 Y124.260 E163.2445 F3000
G1 X148.250 Y124.260 E163.3234
G1 X148.250 Y76.740 E165.2991
G1 X150.150 Y76.740 E165.3781
G1 X150.150 Y78.351 E165.4451
G0 X149.821 Y77.073 F5400
G0 X129.379 Y77.073
G0 X128.550 Y77.684
G1 X128.550 Y124.260 E167.3815 F3000
G1 X126.650 Y124.260 E167.4605
G1 X126.650 Y76.740 E169.4362
G1 X128.550 Y76.740 E169.5152
G1 X128.550 Y77.438 E169.5442
G0 X129.379 Y77.073 F5400
G0 X130.594 Y77.073
G0 X131.218 Y77.585
;segType:Perimeter
G1 X132.023 Y77.247 E169.5805 F2100
G1 X132.823 Y77.247 E169.6138
G1 X132.850 Y123.753 E171.5473
G1 X131.950 Y123.753 E171.5847
G1 X131.950 Y77.320 E173.5152
G1 X132.284 Y76.505
G0 X144.994 Y77.073 F5400
G0 X145.324 Y77.710
;segType:Loop
G1 X145.351 Y124.260 E175.4505 F3000
G1 X143.450 Y124.260 E175.5295
G1 X143.450 Y76.740 E177.5052
G1 X145.323 Y76.740 E177.5831
G1 X145.323 Y77.465 E177.6132
G0 X144.994 Y77.073 F5400
G0 X119.779 Y77.073
G0 X119.218 Y77.585
;segType:Perimeter
G1 X120.023 Y77.247 E177.6495 F2100
G1 X120.823 Y77.247 E177.6828
G1 X120.850 Y123.753 E179.6163
G1 X119.950 Y123.753 E179.6537
G1 X119.950 Y77.320 E181.5842
G1 X120.283 Y76.505
G0 X119.779 Y77.073 F5400
G0 X118.621 Y123.927
G0 X117.379 Y123.927
G0 X117.050 Y123.317
;segType:Loop
G1 X117.050 Y76.740 E183.5206 F3000
G1 X118.923 Y76.740 E183.5985
G1 X118.950 Y120.430 E185.4149
G1 X118.950 Y124.260 E185.5742
G1 X117.050 Y124.260 E185.6532
G1 X117.050 Y123.562 E185.6822
G0 X117.379 Y123.927 F5400
G0 X118.621 Y123.927
G0 X119.182 Y123.416
;segType:Perimeter
G1 X118.377 Y123.753 E185.7185 F2100
G1 X117.550 Y123.753 E185.7529
G1 X117.550 Y77.247 E187.6864
G1 X118.423 Y77.247 E187.7227
G1 X118.450 Y120.430 E189.5181
G1 X118.450 Y123.680 E189.6532
G1 X118.116 Y124.496
G0 X128.050 Y123.999 F5400
G0 X129.050 Y123.317
;segType:Loop
G1 X129.050 Y76.740 E191.5896 F3000
G1 X130.923 Y76.740 E191.6675
G1 X130.950 Y120.430 E193.4839
G1 X130.950 Y124.260 E193.6432
G1 X129.050 Y124.260 E193.7222
G1 X129.050 Y123.562 E193.7512
G0 X129.379 Y123.927 F5400
G0 X130.621 Y123.927
G0 X131.182 Y123.416
;segType:Perimeter
G1 X130.377 Y123.753 E193.7875 F2100
G1 X129.550 Y123.753 E193.8219
G1 X129.550 Y77.247 E195.7554
G1 X130.423 Y77.247 E195.7917
G1 X130.450 Y120.430 E197.5871
G1 X130.450 Y123.680 E197.7222
G1 X130.117 Y124.496
G0 X145.021 Y123.927 F5400
G0 X145.850 Y123.317
;segType:Loop
G1 X145.850 Y76.740 E199.6586 F3000
G1 X147.723 Y76.740 E199.7365
G1 X147.750 Y120.430 E201.5529
G1 X147.750 Y124.260 E201.7122
G1 X145.850 Y124.260 E201.7912
G1 X145.850 Y123.562 E201.8202
G0 X146.179 Y123.927 F5400
G0 X147.421 Y123.927
G0 X147.982 Y123.416
;segType:Perimeter
G1 X147.177 Y123.753 E201.8565 F2100
G1 X146.350 Y123.753 E201.8909
G1 X146.350 Y77.247 E203.8244
G1 X147.223 Y77.247 E203.8607
G1 X147.250 Y120.430 E205.6560
G1 X147.250 Y123.680 E205.7911
G1 X146.917 Y124.496
;segType:HShell
G0 X150.595 Y125.021 F5400
G1 X149.650 Y125.979 E205.8471 F3000
G1 X148.965 Y125.979
G1 X149.911 Y125.021 E205.9031
G1 X149.227 Y125.021
G1 X148.281 Y125.979 E205.9591
G1 X147.597 Y125.979
G1 X148.542 Y125.021 E206.0151
G1 X147.858 Y125.021
G1 X146.912 Y125.979 E206.0711
G1 X146.228 Y125.979
G1 X147.174 Y125.021 E206.1271
G1 X146.489 Y125.021
G1 X145.544 Y125.979 E206.1830
G1 X144.859 Y125.979
G1 X145.805 Y125.021 E206.2390
G1 X145.121 Y125.021
G1 X144.175 Y125.979 E206.2950
G1 X143.491 Y125.979
G1 X144.436 Y125.021 E206.3510
G1 X143.752 Y125.021
G1 X142.806 Y125.979 E206.4070
G1 X142.122 Y125.979
G1 X143.068 Y125.021 E206.4630
G1 X142.384 Y125.021
G1 X141.438 Y125.979 E206.5189
G1 X140.754 Y125.979
G1 X141.699 Y125.021 E206.5749
G1 X141.015 Y125.021
G1 X140.069 Y125.979 E206.6309
G1 X139.385 Y125.979
G1 X140.331 Y125.021 E206.6869
G1 X139.646 Y125.021
G1 X138.701 Y125.979 E206.7429
G1 X138.016 Y125.979
G1 X138.962 Y125.021 E206.7989
G1 X138.278 Y125.021
G1 X137.332 Y125.979 E206.8548
G1 X136.648 Y125.979
G1 X137.593 Y125.021 E206.9108
G1 X136.909 Y125.021
G1 X135.963 Y125.979 E206.9668
G1 X135.279 Y125.979
G1 X136.225 Y125.021 E207.0228
G1 X135.540 Y125.021
G1 X134.595 Y125.979 E207.0788
G1 X133.910 Y125.979
G1 X134.856 Y125.021 E207.1348
G1 X134.172 Y125.021
G1 X133.226 Y125.979 E207.1908
G1 X132.542 Y125.979
G1 X133.487 Y125.021 E207.2467
G1 X132.803 Y125.021
G1 X131.857 Y125.979 E207.3027
G1 X131.173 Y125.979
G1 X132.119 Y125.021 E207.3587
G1 X131.435 Y125.021
G1 X130.489 Y125.979 E207.4147
G1 X129.804 Y125.979
G1 X130.750 Y125.021 E207.4707
G1 X130.066 Y125.021
G1 X129.120 Y125.979 E207.5267
G1 X128.436 Y125.979
G1 X129.382 Y125.021 E207.5826
G1 X128.697 Y125.021
G1 X127.752 Y125.979 E207.6386
G1 X127.067 Y125.979
G1 X128.013 Y125.021 E207.6946
G1 X127.329 Y125.021
G1 X126.383 Y125.979 E207.7506
G1 X125.699 Y125.979
G1 X126.644 Y125.021 E207.8066
G1 X125.960 Y125.021
G1 X125.014 Y125.979 E207.8626
G1 X124.330 Y125.979
G1 X125.276 Y125.021 E207.9186
G1 X124.591 Y125.021
G1 X123.646 Y125.979 E207.9745
G1 X122.961 Y125.979
G1 X123.907 Y125.021 E208.0305
G1 X123.223 Y125.021
G1 X122.277 Y125.979 E208.0865
G1 X121.593 Y125.979
G1 X122.538 Y125.021 E208.1425
G1 X121.854 Y125.021
G1 X120.908 Y125.979 E208.1985
G1 X120.224 Y125.979
G1 X121.170 Y125.021 E208.2545
G1 X120.486 Y125.021
G1 X119.540 Y125.979 E208.3104
G1 X118.855 Y125.979
G1 X119.801 Y125.021 E208.3664
G1 X119.117 Y125.021
G1 X118.171 Y125.979 E208.4224
G1 X117.487 Y125.979
G1 X118.433 Y125.021 E208.4784
G1 X117.748 Y125.021
G1 X116.803 Y125.979 E208.5344
G1 X116.118 Y125.979
G1 X117.064 Y125.021 E208.5904
G1 X116.380 Y125.021
G1 X115.434 Y125.979 E208.6464
G1 X114.750 Y125.979
G1 X115.695 Y125.021 E208.7023
G1 X115.011 Y125.021
G1 X114.065 Y125.979 E208.7583
G1 X113.381 Y125.979
G1 X114.327 Y125.021 E208.8143
G1 X113.642 Y125.021
G1 X112.697 Y125.979 E208.8703
G1 X112.012 Y125.979
G1 X112.958 Y125.021 E208.9263
G1 X112.274 Y125.021
G1 X111.328 Y125.979 E208.9823
G1 X110.644 Y125.979
G1 X111.589 Y125.021 E209.0382
G1 X110.905 Y125.021
G1 X109.959 Y125.979 E209.0942
G1 X109.275 Y125.979
G1 X110.221 Y125.021 E209.1502
G1 X109.537 Y125.021
G1 X108.591 Y125.979 E209.2062
G1 X107.906 Y125.979
G1 X109.100 Y124.769 E209.2769
G1 X109.100 Y124.076
G1 X107.222 Y125.979 E209.3880
G1 X106.538 Y125.979
G1 X109.100 Y123.382 E209.5397
G1 X109.100 Y122.688
G1 X105.854 Y125.979 E209.7319
G1 X105.169 Y125.979
G1 X109.100 Y121.995 E209.9646
G1 X109.100 Y121.301
G1 X104.485 Y125.979 E210.2379
G1 X103.801 Y125.979
G1 X109.100 Y120.607 E210.5516
G1 X109.100 Y119.913
G1 X103.116 Y125.979 E210.9059
G1 X102.432 Y125.979
G1 X109.100 Y119.220 E211.3006
G1 X109.100 Y118.526
G1 X101.748 Y125.979 E211.7359
G1 X101.063 Y125.979
G1 X109.100 Y117.832 E212.2117
G1 X109.100 Y117.138
G1 X100.379 Y125.979 E212.7280
G1 X99.695 Y125.979
G1 X109.100 Y116.445 E213.2848
G1 X109.100 Y115.751
G1 X99.010 Y125.979 E213.8821
G1 X98.326 Y125.979
G1 X109.100 Y115.057 E214.5199
G1 X109.100 Y114.363
G1 X97.642 Y125.979 E215.1983
G1 X96.957 Y125.979
G1 X109.100 Y113.670 E215.9171
G1 X109.100 Y112.976
G1 X96.273 Y125.979 E216.6765
G1 X95.589 Y125.979
G1 X109.100 Y112.282 E217.4764
G1 X109.100 Y111.588
G1 X94.905 Y125.979 E218.3168
G1 X94.220 Y125.979
G1 X109.100 Y110.895 E219.1978
G1 X109.100 Y110.201
G1 X93.600 Y125.914 E220.1154
G1 X93.065 Y125.763
G1 X109.100 Y109.507 E221.0647
G1 X109.100 Y108.813
G1 X92.613 Y125.527 E222.0407
G1 X92.226 Y125.226
G1 X109.100 Y108.120 E223.0397
G1 X109.100 Y107.426
G1 X91.927 Y124.836 E224.0564
G1 X91.697 Y124.375
G1 X109.100 Y106.732 E225.0867
G1 X109.100 Y106.039
G1 X91.556 Y123.824 E226.1253
G1 X91.500 Y123.187
G1 X109.100 Y105.345 E227.1673
G1 X109.100 Y104.651
G1 X91.500 Y122.493 E228.2092
G1 X91.500 Y121.800
G1 X109.100 Y103.957 E229.2512
G1 X109.100 Y103.264
G1 X91.500 Y121.106 E230.2932
G1 X91.500 Y120.412
G1 X109.100 Y102.570 E231.3351
G1 X109.100 Y101.876
G1 X91.500 Y119.719 E232.3771
G1 X91.500 Y119.025
G1 X109.100 Y101.182 E233.4190
G1 X109.100 Y100.489
G1 X91.500 Y118.331 E234.4610
G1 X91.500 Y117.637
G1 X109.100 Y99.795 E235.5030
G1 X109.100 Y99.101
G1 X91.500 Y116.944 E236.5449
G1 X91.500 Y116.250
G1 X109.100 Y98.407 E237.5869
G1 X109.100 Y97.714
G1 X91.500 Y115.556 E238.6289
G1 X91.500 Y114.862
G1 X109.100 Y97.020 E239.6708
G1 X109.100 Y96.326
G1 X91.500 Y114.169 E240.7128
G1 X91.500 Y113.475
G1 X109.100 Y95.632 E241.7547
G1 X109.100 Y94.939
G1 X91.500 Y112.781 E242.7967
G1 X91.500 Y112.087
G1 X109.100 Y94.245 E243.8387
G1 X109.100 Y93.551
G1 X91.500 Y111.394 E244.8806
G1 X91.500 Y110.700
G1 X109.100 Y92.858 E245.9226
G1 X109.100 Y92.164
G1 X91.500 Y110.006 E246.9646
G1 X91.500 Y109.312
G1 X109.100 Y91.470 E248.0065
G1 X109.100 Y90.776
G1 X91.500 Y108.619 E249.0485
G1 X91.500 Y107.925
G1 X109.100 Y90.083 E250.0904
G1 X109.100 Y89.389
G1 X97.257 Y101.395 E250.7916
G0 X95.822 Y102.849 F5400
G1 X91.500 Y107.231 E251.0475 F3000
G1 X91.500 Y106.537
G1 X94.830 Y103.162 E251.2446
G1 X94.131 Y103.177
G1 X91.500 Y105.844 E251.4003
G1 X91.500 Y105.150
G1 X93.549 Y103.073 E251.5216
G1 X93.034 Y102.901
G1 X91.500 Y104.456 E251.6125
G1 X91.500 Y103.763
G1 X92.613 Y102.634 E251.6784
G1 X92.230 Y102.329
G1 X91.500 Y103.069 E251.7216
G1 X91.500 Y102.375
G1 X91.896 Y101.974 E251.7450
G1 X91.632 Y101.548
G1 X91.500 Y101.681 E251.7528
G0 X91.500 Y96.131 F5400
G1 X109.100 Y78.289 E252.7948 F3000
G1 X109.100 Y78.983
G1 X91.500 Y96.825 E253.8368
G1 X91.500 Y97.519
G1 X109.100 Y79.676 E254.8787
G1 X109.100 Y80.370
G1 X91.500 Y98.213 E255.9207
G0 X94.536 Y97.824 F5400
G0 X95.562 Y98.157
G0 X97.534 Y100.421
G1 X109.100 Y88.695 E256.6054 F3000
G1 X109.100 Y88.001
G1 X97.555 Y99.706 E257.2889
G1 X97.457 Y99.111
G1 X109.100 Y87.308 E257.9782
G1 X109.100 Y86.614
G1 X97.261 Y98.616 E258.6791
G1 X97.003 Y98.183
G1 X109.100 Y85.920 E259.3953
G1 X109.100 Y85.226
G1 X96.711 Y97.786 E260.1287
G1 X96.334 Y97.474
G1 X109.100 Y84.533 E260.8845
G1 X109.100 Y83.839
G1 X95.923 Y97.198 E261.6646
G1 X95.455 Y96.978
G1 X109.100 Y83.145 E262.4725
G1 X109.100 Y82.451
G1 X94.896 Y96.851 E263.3133
G1 X94.246 Y96.816
G1 X109.100 Y81.758 E264.1927
G1 X109.100 Y81.064
G1 X93.406 Y96.974 E265.1218
G0 X109.100 Y76.902 F5400
G1 X91.500 Y94.744 E266.1638 F3000
G1 X91.500 Y94.050
G1 X109.100 Y76.208 E267.2058
G0 X93.371 Y74.116 F5400
G1 X91.589 Y75.922 E267.3113 F3000
G1 X91.500 Y76.707
G1 X94.150 Y74.021 E267.4681
G1 X94.834 Y74.021
G1 X91.500 Y77.400 E267.6655
G1 X91.500 Y78.094
G1 X95.518 Y74.021 E267.9034
G1 X96.203 Y74.021
G1 X91.500 Y78.788 E268.1818
G1 X91.500 Y79.482
G1 X96.887 Y74.021 E268.5007
G1 X97.571 Y74.021
G1 X91.500 Y80.175 E268.8602
G1 X91.500 Y80.869
G1 X98.255 Y74.021 E269.2601
G1 X98.940 Y74.021
G1 X91.500 Y81.563 E269.7005
G1 X91.500 Y82.257
G1 X99.624 Y74.021 E270.1815
G1 X100.308 Y74.021
G1 X91.500 Y82.950 E270.7030
G1 X91.500 Y83.644
G1 X100.993 Y74.021 E271.2650
G1 X101.677 Y74.021
G1 X91.500 Y84.338 E271.8675
G1 X91.500 Y85.032
G1 X102.361 Y74.021 E272.5105
G1 X103.046 Y74.021
G1 X91.500 Y85.725 E273.1940
G1 X91.500 Y86.419
G1 X103.730 Y74.021 E273.9181
G1 X104.414 Y74.021
G1 X91.500 Y87.113 E274.6826
G1 X91.500 Y87.807
G1 X105.099 Y74.021 E275.4877
G1 X105.783 Y74.021
G1 X91.500 Y88.500 E276.3333
G1 X91.500 Y89.194
G1 X106.467 Y74.021 E277.2194
G1 X107.152 Y74.021
G1 X91.500 Y89.888 E278.1460
G1 X91.500 Y90.581
G1 X107.836 Y74.021 E279.1131
G1 X108.520 Y74.021
G1 X91.500 Y91.275 E280.1208
G1 X91.500 Y91.969
G1 X109.204 Y74.021 E281.1689
G1 X109.889 Y74.021
G1 X91.500 Y92.663 E282.2576
G1 X91.500 Y93.356
G1 X110.573 Y74.021 E283.3868
G1 X111.257 Y74.021
G1 X109.325 Y75.980 E283.5012
G1 X110.009 Y75.980
G1 X111.942 Y74.021 E283.6156
G1 X112.626 Y74.021
G1 X110.694 Y75.980 E283.7300
G1 X111.378 Y75.980
G1 X113.310 Y74.021 E283.8444
G1 X113.995 Y74.021
G1 X112.062 Y75.980 E283.9588
G1 X112.747 Y75.980
G1 X114.679 Y74.021 E284.0732
G1 X115.363 Y74.021
G1 X113.431 Y75.980 E284.1876
G1 X114.115 Y75.980
G1 X116.048 Y74.021 E284.3020
G1 X116.732 Y74.021
G1 X114.800 Y75.980 E284.4165
G1 X115.484 Y75.980
G1 X117.416 Y74.021 E284.5309
G1 X118.101 Y74.021
G1 X116.168 Y75.980 E284.6453
G1 X116.853 Y75.980
G1 X118.785 Y74.021 E284.7597
G1 X119.469 Y74.021
G1 X117.537 Y75.980 E284.8741
G1 X118.221 Y75.980
G1 X120.153 Y74.021 E284.9885
G1 X120.838 Y74.021
G1 X118.905 Y75.980 E285.1029
G1 X119.590 Y75.980
G1 X121.522 Y74.021 E285.2173
G1 X122.206 Y74.021
G1 X120.274 Y75.980 E285.3317
G1 X120.958 Y75.980
G1 X122.891 Y74.021 E285.4461
G1 X123.575 Y74.021
G1 X121.643 Y75.980 E285.5606
G1 X122.327 Y75.980
G1 X124.259 Y74.021 E285.6750
G1 X124.944 Y74.021
G1 X123.011 Y75.980 E285.7894
G1 X123.696 Y75.980
G1 X125.628 Y74.021 E285.9038
G1 X126.312 Y74.021
G1 X124.380 Y75.980 E286.0182
G1 X125.064 Y75.980
G1 X126.997 Y74.021 E286.1326
G1 X127.681 Y74.021
G1 X125.749 Y75.980 E286.2470
G1 X126.433 Y75.980
G1 X128.365 Y74.021 E286.3614
G1 X129.050 Y74.021
G1 X127.117 Y75.980 E286.4758
G1 X127.802 Y75.980
G1 X129.734 Y74.021 E286.5903
G1 X130.418 Y74.021
G1 X128.486 Y75.980 E286.7047
G1 X129.170 Y75.980
G1 X131.102 Y74.021 E286.8191
G1 X131.787 Y74.021
G1 X129.854 Y75.980 E286.9335
G1 X130.539 Y75.980
G1 X132.471 Y74.021 E287.0479
G1 X133.155 Y74.021
G1 X131.223 Y75.980 E287.1623
G1 X131.907 Y75.980
G1 X133.840 Y74.021 E287.2767
G1 X134.524 Y74.021
G1 X132.592 Y75.980 E287.3911
G1 X133.276 Y75.980
G1 X135.208 Y74.021 E287.5055
G1 X135.893 Y74.021
G1 X133.960 Y75.980 E287.6199
G1 X134.645 Y75.980
G1 X136.577 Y74.021 E287.7344
G1 X137.261 Y74.021
G1 X135.329 Y75.980 E287.8488
G1 X136.013 Y75.980
G1 X137.946 Y74.021 E287.9632
G1 X138.630 Y74.021
G1 X136.698 Y75.980 E288.0776
G1 X137.382 Y75.980
G1 X139.314 Y74.021 E288.1920
G1 X139.999 Y74.021
G1 X138.066 Y75.980 E288.3064
G1 X138.751 Y75.980
G1 X140.683 Y74.021 E288.4208
G1 X141.367 Y74.021
G1 X139.435 Y75.980 E288.5352
G1 X140.119 Y75.980
G1 X142.051 Y74.021 E288.6496
G1 X142.736 Y74.021
G1 X140.803 Y75.980 E288.7641
G1 X141.488 Y75.980
G1 X143.420 Y74.021 E288.8785
G1 X144.104 Y74.021
G1 X142.172 Y75.980 E288.9929
G1 X142.856 Y75.980
G1 X144.789 Y74.021 E289.1073
G1 X145.473 Y74.021
G1 X143.541 Y75.980 E289.2217
G1 X144.225 Y75.980
G1 X146.157 Y74.021 E289.3361
G1 X146.842 Y74.021
G1 X144.909 Y75.980 E289.4505
G1 X145.594 Y75.980
G1 X147.526 Y74.021 E289.5649
G1 X148.210 Y74.021
G1 X146.278 Y75.980 E289.6793
G0 X149.700 Y75.980 F5400
G1 X151.632 Y74.021 E289.7937 F3000
G1 X152.316 Y74.021
G1 X150.384 Y75.980 E289.9082
G1 X150.900 Y76.150
G1 X153.000 Y74.021 E290.0325
G1 X153.685 Y74.021
G1 X150.900 Y76.844 E290.1974
G1 X150.900 Y77.537
G1 X154.369 Y74.021 E290.4028
G1 X155.053 Y74.021
G1 X150.900 Y78.231 E290.6486
G1 X150.900 Y78.925
G1 X155.738 Y74.021 E290.9350
G1 X156.422 Y74.021
G1 X150.900 Y79.619 E291.2619
G1 X150.900 Y80.312
G1 X157.106 Y74.021 E291.6294
G1 X157.791 Y74.021
G1 X150.900 Y81.006 E292.0373
G1 X150.900 Y81.700
G1 X158.475 Y74.021 E292.4858
G1 X159.159 Y74.021
G1 X150.900 Y82.394 E292.9747
G1 X150.900 Y83.087
G1 X159.844 Y74.021 E293.5042
G1 X160.528 Y74.021
G1 X150.900 Y83.781 E294.0742
G1 X150.900 Y84.475
G1 X161.212 Y74.021 E294.6847
G1 X161.897 Y74.021
G1 X150.900 Y85.169 E295.3358
G1 X150.900 Y85.862
G1 X162.581 Y74.021 E296.0273
G1 X163.265 Y74.021
G1 X150.900 Y86.556 E296.7594
G1 X150.900 Y87.250
G1 X163.950 Y74.021 E297.5319
G1 X164.634 Y74.021
G1 X150.900 Y87.944 E298.3450
G1 X150.900 Y88.637
G1 X165.318 Y74.021 E299.1986
G1 X165.991 Y74.032
G1 X150.900 Y89.331 E300.0920
G1 X150.900 Y90.025
G1 X166.597 Y74.112 E301.0213
G1 X167.093 Y74.303
G1 X150.900 Y90.718 E301.9799
G1 X150.900 Y91.412
G1 X167.513 Y74.570 E302.9635
G1 X167.871 Y74.901
G1 X150.900 Y92.106 E303.9682
G1 X150.900 Y92.800
G1 X168.166 Y75.296 E304.9904
G1 X168.369 Y75.784
G1 X150.900 Y93.493 E306.0246
G1 X150.900 Y94.187
G1 X168.470 Y76.375 E307.0648
G1 X168.500 Y77.039
G1 X150.900 Y94.881 E308.1068
G1 X150.900 Y95.575
G1 X168.500 Y77.732 E309.1488
G1 X168.500 Y78.426
G1 X150.900 Y96.268 E310.1907
G1 X150.900 Y96.962
G1 X168.500 Y79.120 E311.2327
G1 X168.500 Y79.813
G1 X150.900 Y97.656 E312.2746
G1 X150.900 Y98.350
G1 X168.500 Y80.507 E313.3166
G1 X168.500 Y81.201
G1 X150.900 Y99.043 E314.3586
G1 X150.900 Y99.737
G1 X168.500 Y81.895 E315.4005
G1 X168.500 Y82.588
G1 X150.900 Y100.431 E316.4425
G1 X150.900 Y101.125
G1 X168.500 Y83.282 E317.4844
G1 X168.500 Y83.976
G1 X150.900 Y101.818 E318.5264
G1 X150.900 Y102.512
G1 X168.500 Y84.670 E319.5684
G1 X168.500 Y85.363
G1 X150.900 Y103.206 E320.6103
G1 X150.900 Y103.900
G1 X168.500 Y86.057 E321.6523
G1 X168.500 Y86.751
G1 X150.900 Y104.593 E322.6943
G1 X150.900 Y105.287
G1 X168.500 Y87.445 E323.7362
G1 X168.500 Y88.138
G1 X150.900 Y105.981 E324.7782
G1 X150.900 Y106.674
G1 X168.500 Y88.832 E325.8201
G1 X168.500 Y89.526
G1 X150.900 Y107.368 E326.8621
G1 X150.900 Y108.062
G1 X168.500 Y90.220 E327.9041
G1 X168.500 Y90.913
G1 X150.900 Y108.756 E328.9460
G1 X150.900 Y109.449
G1 X168.500 Y91.607 E329.9880
G1 X168.500 Y92.301
G1 X150.900 Y110.143 E331.0300
G1 X150.900 Y110.837
G1 X162.590 Y98.986 E331.7220
G0 X164.560 Y96.989 F5400
G1 X168.500 Y92.994 E331.9552 F3000
G1 X168.500 Y93.688
G1 X165.413 Y96.818 E332.1380
G1 X166.070 Y96.846
G1 X168.500 Y94.382 E332.2819
G1 X168.500 Y95.076
G1 X166.634 Y96.968 E332.3924
G1 X167.101 Y97.188
G1 X168.500 Y95.769 E332.4752
G1 X168.500 Y96.463
G1 X167.517 Y97.460 E332.5334
G1 X167.894 Y97.772
G1 X168.500 Y97.157 E332.5693
G1 X168.500 Y97.851
G1 X168.190 Y98.165 E332.5877
G0 X168.500 Y102.013 F5400
G1 X150.900 Y119.856 E333.6297 F3000
G1 X150.900 Y120.549
G1 X168.500 Y102.707 E334.6716
G1 X168.500 Y103.401
G1 X150.900 Y121.243 E335.7136
G1 X150.900 Y121.937
G1 X168.500 Y104.094 E336.7555
G1 X168.500 Y104.788
G1 X150.900 Y122.630 E337.7975
G1 X150.900 Y123.324
G1 X168.500 Y105.482 E338.8395
G1 X168.500 Y106.176
G1 X150.900 Y124.018 E339.8814
G1 X150.900 Y124.712
G1 X168.500 Y106.869 E340.9234
G1 X168.500 Y107.563
G1 X150.334 Y125.979 E341.9989
G1 X151.018 Y125.979
G1 X168.500 Y108.257 E343.0338
G1 X168.500 Y108.950
G1 X151.703 Y125.979 E344.0283
G1 X152.387 Y125.979
G1 X168.500 Y109.644 E344.9822
G1 X168.500 Y110.338
G1 X153.071 Y125.979 E345.8956
G1 X153.755 Y125.979
G1 X168.500 Y111.032 E346.7686
G1 X168.500 Y111.725
G1 X154.440 Y125.979 E347.6010
G1 X155.124 Y125.979
G1 X168.500 Y112.419 E348.3929
G1 X168.500 Y113.113
G1 X155.808 Y125.979 E349.1442
G1 X156.493 Y125.979
G1 X168.500 Y113.807 E349.8551
G1 X168.500 Y114.500
G1 X157.177 Y125.979 E350.5255
G1 X157.861 Y125.979
G1 X168.500 Y115.194 E351.1553
G1 X168.500 Y115.888
G1 X158.546 Y125.979 E351.7446
G1 X159.230 Y125.979
G1 X168.500 Y116.582 E352.2934
G1 X168.500 Y117.275
G1 X159.914 Y125.979 E352.8017
G1 X160.599 Y125.979
G1 X168.500 Y117.969 E353.2695
G1 X168.500 Y118.663
G1 X161.283 Y125.979 E353.6968
G1 X161.967 Y125.979
G1 X168.500 Y119.357 E354.0835
G1 X168.500 Y120.050
G1 X162.652 Y125.979 E354.4298
G1 X163.336 Y125.979
G1 X168.500 Y120.744 E354.7355
G1 X168.500 Y121.438
G1 X164.020 Y125.979 E355.0007
G1 X164.704 Y125.979
G1 X168.500 Y122.132 E355.2254
G1 X168.500 Y122.825
G1 X165.389 Y125.979 E355.4096
G1 X166.098 Y125.954
G1 X168.482 Y123.538 E355.5508
G0 X162.433 Y99.839 F5400
G1 X150.900 Y111.531 E356.2336 F3000
G1 X150.900 Y112.224
G1 X162.459 Y100.506 E356.9179
G1 X162.601 Y101.056
G1 X150.900 Y112.918 E357.6106
G1 X150.900 Y113.612
G1 X162.820 Y101.527 E358.3163
G1 X163.080 Y101.957
G1 X150.900 Y114.306 E359.0374
G1 X150.900 Y114.999
G1 X163.414 Y102.313 E359.7783
G1 X163.794 Y102.622
G1 X150.900 Y115.693 E360.5416
G1 X150.900 Y116.387
G1 X164.215 Y102.889 E361.3299
G1 X164.725 Y103.065
G1 X150.900 Y117.081 E362.1484
G1 X150.900 Y117.774
G1 X165.301 Y103.175 E363.0010
G1 X165.991 Y103.169
G1 X150.900 Y118.468 E363.8944
G1 X150.900 Y119.162
G1 X166.964 Y102.877 E364.8454
G0 X168.276 Y124.439 F5400
G1 X166.996 Y125.737 E364.9212 F3000
; ------------------------------------
; Layer #1
; ------------------------------------
G21 ; mm
G90 ; abs
G92 E0 ; reset extr
M73 S7
M106 S0
;segType:Loop
G0 F1200 E-1.0000
G0 F300 Z0.400
G0 X169.250 Y76.872 F5400
G0 F1200 E0.0000
G1 X169.250 Y123.449 E1.8977 F3000
G1 X169.134 Y124.334 E1.9341
G1 X168.811 Y125.113 E1.9684
G1 X168.297 Y125.783 E2.0028
G1 X167.625 Y126.298 E2.0373
G1 X166.842 Y126.623 E2.0719
G1 X165.952 Y126.740 E2.1085
G1 X94.049 Y126.740 E5.0381
G1 X93.158 Y126.623 E5.0746
G1 X92.375 Y126.298 E5.1092
G1 X91.703 Y125.783 E5.1437
G1 X91.189 Y125.113 E5.1781
G1 X90.866 Y124.334 E5.2124
G1 X90.750 Y123.449 E5.2488
G1 X90.750 Y76.551 E7.1596
G1 X90.866 Y75.666 E7.1960
G1 X91.189 Y74.887 E7.2303
G1 X91.703 Y74.217 E7.2647
G1 X92.375 Y73.702 E7.2992
G1 X93.158 Y73.377 E7.3338
G1 X94.049 Y73.260 E7.3703
G1 X165.952 Y73.260 E10.2999
G1 X166.842 Y73.377 E10.3365
G1 X167.625 Y73.702 E10.3711
G1 X168.297 Y74.217 E10.4056
G1 X168.811 Y74.887 E10.4400
G1 X169.134 Y75.666 E10.4743
G1 X169.250 Y76.551 E10.5107
G1 X169.250 Y76.627 E10.5138
;segType:Perimeter
G0 X168.847 Y75.218 F5400
G1 X169.630 Y75.605 E10.5493 F2100
G1 X169.750 Y76.517 E10.5868
G1 X169.750 Y123.483 E12.5004
G1 X169.620 Y124.468 E12.5409
G1 X169.246 Y125.371 E12.5807
G1 X168.651 Y126.147 E12.6205
G1 X167.875 Y126.742 E12.6604
G1 X166.971 Y127.117 E12.7003
G1 X165.984 Y127.247 E12.7408
G1 X94.016 Y127.247 E15.6731
G1 X93.029 Y127.117 E15.7136
G1 X92.125 Y126.742 E15.7535
G1 X91.349 Y126.147 E15.7934
G1 X90.754 Y125.371 E15.8332
G1 X90.380 Y124.468 E15.8730
G1 X90.250 Y123.483 E15.9135
G1 X90.250 Y76.517 E17.8271
G1 X90.380 Y75.532 E17.8676
G1 X90.754 Y74.629 E17.9074
G1 X91.349 Y73.853 E17.9472
G1 X92.125 Y73.258 E17.9870
G1 X93.029 Y72.883 E18.0269
G1 X94.016 Y72.753 E18.0675
G1 X165.984 Y72.753 E20.9997
G1 X166.971 Y72.883 E21.0403
G1 X167.875 Y73.258 E21.0802
G1 X168.651 Y73.853 E21.1200
G1 X169.246 Y74.629 E21.1599
G1 X169.592 Y75.464 E21.1967
G1 X169.110 Y76.199
;segType:Loop
G0 X162.927 Y98.799 F5400
G1 X163.226 Y98.255 E21.2219 F3000
G1 X163.732 Y97.717 E21.2521
G1 X164.354 Y97.322 E21.2821
G1 X165.052 Y97.095 E21.3120
G1 X165.783 Y97.049 E21.3418
G1 X166.504 Y97.186 E21.3717
G1 X167.169 Y97.499 E21.4017
G1 X167.737 Y97.969 E21.4317
G1 X168.173 Y98.568 E21.4619
G1 X168.447 Y99.260 E21.4922
G1 X168.540 Y100.000 E21.5226
G1 X168.447 Y100.740 E21.5530
G1 X168.173 Y101.432 E21.5833
G1 X167.737 Y102.031 E21.6135
G1 X167.169 Y102.501 E21.6435
G1 X166.504 Y102.814 E21.6735
G1 X165.783 Y102.951 E21.7034
G1 X165.052 Y102.905 E21.7332
G1 X164.354 Y102.678 E21.7631
G1 X163.732 Y102.283 E21.7931
G1 X163.226 Y101.745 E21.8232
G1 X162.869 Y101.094 E21.8535
G1 X162.683 Y100.373 E21.8838
G1 X162.683 Y99.627 E21.9142
G1 X162.838 Y99.025 E21.9395
G0 X163.843 Y101.284 F5400
G0 X164.677 Y101.974
G0 X165.736 Y102.176
G0 X167.037 Y101.956
G1 X166.901 Y102.068 E21.9467 F3000
G1 X166.350 Y102.327 E21.9715
G1 X165.752 Y102.441 E21.9963
G1 X165.146 Y102.403 E22.0211
G1 X164.566 Y102.215 E22.0459
G1 X164.051 Y101.888 E22.0708
G1 X163.632 Y101.442 E22.0957
G1 X163.336 Y100.904 E22.1207
G1 X163.183 Y100.308 E22.1458
G1 X163.183 Y99.692 E22.1709
G1 X163.336 Y99.096 E22.1959
G1 X163.632 Y98.558 E22.2209
G1 X164.051 Y98.112 E22.2459
G1 X164.566 Y97.785 E22.2708
G1 X165.146 Y97.597 E22.2956
G1 X165.752 Y97.559 E22.3203
G1 X166.350 Y97.673 E22.3451
G1 X166.901 Y97.932 E22.3699
G1 X167.372 Y98.321 E22.3948
G1 X167.732 Y98.817 E22.4198
G1 X167.959 Y99.389 E22.4449
G1 X168.036 Y100.000 E22.4700
G1 X167.959 Y100.611 E22.4950
G1 X167.732 Y101.183 E22.5201
G1 X167.372 Y101.679 E22.5451
G1 X167.224 Y101.801 E22.5529
;segType:Perimeter
G0 X168.166 Y100.056 F5400
G1 X167.444 Y100.551 E22.5885 F2100
G1 X167.292 Y100.934 E22.6053
G1 X167.007 Y101.326 E22.6251
G1 X166.634 Y101.635 E22.6448
G1 X166.196 Y101.841 E22.6646
G1 X165.721 Y101.932 E22.6843
G1 X165.239 Y101.901 E22.7040
G1 X164.779 Y101.752 E22.7237
G1 X164.370 Y101.492 E22.7434
G1 X164.038 Y101.139 E22.7631
G1 X163.804 Y100.713 E22.7829
G1 X163.683 Y100.243 E22.8027
G1 X163.683 Y99.757 E22.8225
G1 X163.804 Y99.287 E22.8423
G1 X164.038 Y98.861 E22.8621
G1 X164.370 Y98.508 E22.8818
G1 X164.779 Y98.248 E22.9016
G1 X165.239 Y98.099 E22.9213
G1 X165.721 Y98.068 E22.9410
G1 X166.196 Y98.159 E22.9607
G1 X166.634 Y98.365 E22.9804
G1 X167.007 Y98.674 E23.0001
G1 X167.292 Y99.066 E23.0199
G1 X167.471 Y99.518 E23.0397
G1 X167.532 Y100.000 E23.0595
G1 X167.480 Y100.409 E23.0763
G1 X167.873 Y101.198
G0 X165.194 Y102.142 F5400
G0 X164.217 Y101.682
G0 X163.580 Y100.805
G0 X149.821 Y77.073
G0 X114.219 Y73.767
;segType:Loop
G1 X165.919 Y73.767 E25.1827 F3000
G1 X166.713 Y73.872 E25.2153
G1 X167.376 Y74.146 E25.2446
G1 X167.942 Y74.582 E25.2737
G1 X168.376 Y75.146 E25.3027
G1 X168.647 Y75.800 E25.3315
G1 X168.750 Y76.584 E25.3638
G1 X168.750 Y123.416 E27.2718
G1 X168.647 Y124.200 E27.3041
G1 X168.376 Y124.854 E27.3329
G1 X167.942 Y125.419 E27.3619
G1 X167.376 Y125.854 E27.3910
G1 X166.713 Y126.128 E27.4203
G1 X165.919 Y126.233 E27.4529
G1 X94.081 Y126.233 E30.3798
G1 X93.287 Y126.128 E30.4125
G1 X92.624 Y125.854 E30.4417
G1 X92.058 Y125.419 E30.4708
G1 X91.624 Y124.854 E30.4998
G1 X91.353 Y124.200 E30.5286
G1 X91.250 Y123.416 E30.5609
G1 X91.250 Y76.584 E32.4690
G1 X91.353 Y75.800 E32.5012
G1 X91.624 Y75.146 E32.5300
G1 X92.058 Y74.582 E32.5590
G1 X92.624 Y74.146 E32.5881
G1 X93.287 Y73.872 E32.6174
G1 X94.081 Y73.767 E32.6500
G1 X113.977 Y73.767 E33.4606
G0 X114.097 Y77.737 F5400
G1 X114.151 Y124.260 E35.3562 F3000
G1 X112.250 Y124.260 E35.4336
G1 X112.250 Y76.740 E37.3698
G1 X114.096 Y76.740 E37.4450
G1 X114.097 Y77.492 E37.4756
;segType:Perimeter
G0 X114.418 Y77.585 F5400
G1 X115.223 Y77.247 E37.5112 F2100
G1 X115.996 Y77.247 E37.5427
G1 X116.050 Y123.753 E39.4376
G1 X115.150 Y123.753 E39.4742
G1 X115.150 Y77.320 E41.3661
G1 X115.483 Y76.505
;segType:Loop
G0 X111.871 Y76.233 F5400
G1 X112.195 Y76.233 E41.3793 F3000
G1 X114.150 Y76.233 E41.4589
G1 X114.595 Y76.233 E41.4771
G1 X116.550 Y76.233 E41.5567
G1 X116.995 Y76.233 E41.5749
G1 X118.950 Y76.233 E41.6545
G1 X119.395 Y76.233 E41.6726
G1 X121.350 Y76.233 E41.7523
G1 X121.795 Y76.233 E41.7704
G1 X123.750 Y76.233 E41.8501
G1 X124.195 Y76.233 E41.8682
G1 X126.150 Y76.233 E41.9478
G1 X126.595 Y76.233 E41.9660
G1 X128.550 Y76.233 E42.0456
G1 X129.050 Y76.233 E42.0660
G1 X130.950 Y76.233 E42.1434
G1 X131.395 Y76.233 E42.1616
G1 X133.350 Y76.233 E42.2412
G1 X133.795 Y76.233 E42.2593
G1 X135.750 Y76.233 E42.3390
G1 X136.195 Y76.233 E42.3571
G1 X138.150 Y76.233 E42.4368
G1 X138.650 Y76.233 E42.4572
G1 X140.550 Y76.233 E42.5346
G1 X141.050 Y76.233 E42.5549
G1 X142.950 Y76.233 E42.6323
G1 X143.450 Y76.233 E42.6527
G1 X145.350 Y76.233 E42.7301
G1 X145.795 Y76.233 E42.7483
G1 X147.750 Y76.233 E42.8279
G1 X148.195 Y76.233 E42.8460
G1 X150.650 Y76.233 E42.9461
G1 X150.650 Y124.767 E44.9235
G1 X148.250 Y124.767 E45.0213
G1 X147.750 Y124.767 E45.0417
G1 X145.852 Y124.767 E45.1191
G1 X145.350 Y124.767 E45.1395
G1 X143.450 Y124.767 E45.2169
G1 X142.950 Y124.767 E45.2373
G1 X141.050 Y124.767 E45.3147
G1 X140.550 Y124.767 E45.3351
G1 X138.650 Y124.767 E45.4125
G1 X138.150 Y124.767 E45.4328
G1 X136.252 Y124.767 E45.5102
G1 X135.750 Y124.767 E45.5306
G1 X133.852 Y124.767 E45.6080
G1 X133.350 Y124.767 E45.6284
G1 X131.450 Y124.767 E45.7058
G1 X130.950 Y124.767 E45.7262
G1 X129.050 Y124.767 E45.8036
G1 X128.550 Y124.767 E45.8240
G1 X126.651 Y124.767 E45.9013
G1 X126.150 Y124.767 E45.9218
G1 X124.251 Y124.767 E45.9991
G1 X123.750 Y124.767 E46.0196
G1 X121.851 Y124.767 E46.0969
G1 X121.350 Y124.767 E46.1173
G1 X119.450 Y124.767 E46.1948
G1 X118.950 Y124.767 E46.2151
G1 X117.051 Y124.767 E46.2925
G1 X116.550 Y124.767 E46.3129
G1 X114.651 Y124.767 E46.3903
G1 X114.150 Y124.767 E46.4107
G1 X112.251 Y124.767 E46.4881
G1 X111.750 Y124.767 E46.5085
G1 X109.350 Y124.767 E46.6063
G1 X109.350 Y76.233 E48.5837
G1 X111.629 Y76.233 E48.6766
G0 X111.697 Y77.737 F5400
G1 X111.751 Y124.260 E50.5721 F3000
G1 X109.850 Y124.260 E50.6496
G1 X109.850 Y76.740 E52.5857
G1 X111.696 Y76.740 E52.6609
G1 X111.697 Y77.492 E52.6916
;segType:Perimeter
G0 X112.018 Y77.585 F5400
G1 X112.823 Y77.247 E52.7271 F2100
G1 X113.596 Y77.247 E52.7587
G1 X113.650 Y123.753 E54.6535
G1 X112.750 Y123.753 E54.6902
G1 X112.750 Y77.320 E56.5820
G1 X113.083 Y76.505
G0 X110.179 Y77.073 F5400
G0 X96.609 Y98.068
;segType:Loop
G1 X96.973 Y98.569 E56.6073 F3000
G1 X97.247 Y99.260 E56.6376
G1 X97.340 Y100.000 E56.6679
G1 X97.247 Y100.740 E56.6983
G1 X96.973 Y101.431 E56.7286
G1 X96.537 Y102.031 E56.7588
G1 X95.969 Y102.501 E56.7889
G1 X95.303 Y102.814 E56.8189
G1 X94.583 Y102.951 E56.8487
G1 X93.852 Y102.905 E56.8785
G1 X93.154 Y102.678 E56.9084
G1 X92.532 Y102.283 E56.9385
G1 X92.026 Y101.745 E56.9686
G1 X91.668 Y101.094 E56.9989
G1 X91.483 Y100.373 E57.0292
G1 X91.483 Y99.627 E57.0596
G1 X91.668 Y98.906 E57.0899
G1 X92.026 Y98.255 E57.1201
G1 X92.532 Y97.717 E57.1503
G1 X93.154 Y97.322 E57.1803
G1 X93.852 Y97.095 E57.2102
G1 X94.583 Y97.049 E57.2400
G1 X95.303 Y97.186 E57.2699
G1 X95.969 Y97.499 E57.2999
G1 X96.444 Y97.892 E57.3250
;segType:HShell
G0 X109.100 Y111.918 F5400
G1 X97.564 Y100.224 E57.9942 F3000
;segType:Perimeter
G0 X96.966 Y100.056 F5400
G1 X96.244 Y100.551 E58.0299 F2100
G1 X96.093 Y100.934 E58.0467
G1 X95.807 Y101.326 E58.0664
G1 X95.434 Y101.635 E58.0862
G1 X94.996 Y101.841 E58.1059
G1 X94.521 Y101.932 E58.1256
G1 X94.039 Y101.901 E58.1453
G1 X93.579 Y101.752 E58.1650
G1 X93.170 Y101.492 E58.1847
G1 X92.838 Y101.139 E58.2045
G1 X92.604 Y100.713 E58.2243
G1 X92.483 Y100.243 E58.2440
G1 X92.483 Y99.757 E58.2639
G1 X92.604 Y99.287 E58.2836
G1 X92.838 Y98.861 E58.3034
G1 X93.170 Y98.508 E58.3232
G1 X93.579 Y98.248 E58.3429
G1 X94.039 Y98.099 E58.3626
G1 X94.521 Y98.068 E58.3823
G1 X94.996 Y98.159 E58.4020
G1 X95.434 Y98.365 E58.4217
G1 X95.807 Y98.674 E58.4414
G1 X96.093 Y99.066 E58.4612
G1 X96.271 Y99.518 E58.4810
G1 X96.332 Y100.000 E58.5008
G1 X96.280 Y100.409 E58.5176
G1 X96.673 Y101.198
;segType:Loop
G0 X95.837 Y101.956 F5400
G1 X95.701 Y102.068 E58.5248 F3000
G1 X95.149 Y102.327 E58.5496
G1 X94.552 Y102.441 E58.5744
G1 X93.946 Y102.403 E58.5992
G1 X93.367 Y102.215 E58.6240
G1 X92.851 Y101.888 E58.6488
G1 X92.432 Y101.442 E58.6738
G1 X92.136 Y100.904 E58.6988
G1 X91.983 Y100.308 E58.7238
G1 X91.983 Y99.692 E58.7490
G1 X92.136 Y99.096 E58.7740
G1 X92.432 Y98.558 E58.7990
G1 X92.851 Y98.112 E58.8240
G1 X93.367 Y97.785 E58.8488
G1 X93.946 Y97.597 E58.8736
G1 X94.552 Y97.559 E58.8984
G1 X95.149 Y97.673 E58.9232
G1 X95.701 Y97.932 E58.9480
G1 X96.172 Y98.321 E58.9729
G1 X96.533 Y98.818 E58.9979
G1 X96.759 Y99.389 E59.0229
G1 X96.836 Y100.000 E59.0480
G1 X96.759 Y100.611 E59.0731
G1 X96.533 Y101.182 E59.0982
G1 X96.172 Y101.679 E59.1232
G1 X96.024 Y101.801 E59.1310
;segType:HShell
G0 X107.301 Y74.021 F5400
G1 X109.234 Y75.980 E59.2431 F3000
G1 X109.100 Y76.538
G1 X106.617 Y74.021 E59.3872
G1 X105.933 Y74.021
G1 X109.100 Y77.231 E59.5709
;segType:Perimeter
G0 X109.618 Y77.585 F5400
G1 X110.423 Y77.247 E59.6065 F2100
G1 X111.196 Y77.247 E59.6380
G1 X111.250 Y123.753 E61.5328
G1 X110.350 Y123.753 E61.5695
G1 X110.350 Y77.320 E63.4614
G1 X110.683 Y76.505
G0 X116.167 Y77.073 F5400
G0 X116.497 Y77.737
;segType:Loop
G1 X116.551 Y124.260 E65.3569 F3000
G1 X114.650 Y124.260 E65.4343
G1 X114.650 Y76.740 E67.3705
G1 X116.496 Y76.740 E67.4457
G1 X116.497 Y77.492 E67.4763
G0 X117.379 Y77.073 F5400
G0 X120.967 Y77.073
G0 X121.297 Y77.737
G1 X121.351 Y124.260 E69.3719 F3000
G1 X119.450 Y124.260 E69.4493
G1 X119.450 Y76.740 E71.3855
G1 X121.296 Y76.740 E71.4607
G1 X121.297 Y77.492 E71.4913
;segType:Perimeter
G0 X121.618 Y77.585 F5400
G1 X122.423 Y77.247 E71.5269 F2100
G1 X123.196 Y77.247 E71.5584
G1 X123.250 Y123.753 E73.4533
G1 X122.350 Y123.753 E73.4899
G1 X122.350 Y77.320 E75.3818
G1 X122.683 Y76.505
;segType:Loop
G0 X123.697 Y77.737 F5400
G1 X123.751 Y124.260 E77.2773 F3000
G1 X121.850 Y124.260 E77.3547
G1 X121.850 Y76.740 E79.2909
G1 X123.696 Y76.740 E79.3661
G1 X123.697 Y77.492 E79.3968
;segType:Perimeter
G0 X124.018 Y77.585 F5400
G1 X124.823 Y77.247 E79.4323 F2100
G1 X125.596 Y77.247 E79.4638
G1 X125.650 Y123.753 E81.3587
G1 X124.750 Y123.753 E81.3954
G1 X124.750 Y77.320 E83.2872
G1 X125.083 Y76.505
;segType:Loop
G0 X126.097 Y77.737 F5400
G1 X126.151 Y124.260 E85.1827 F3000
G1 X124.250 Y124.260 E85.2602
G1 X124.250 Y76.740 E87.1963
G1 X126.096 Y76.740 E87.2715
G1 X126.097 Y77.492 E87.3022
;segType:Perimeter
G0 X126.418 Y77.585 F5400
G1 X127.223 Y77.247 E87.3378 F2100
G1 X128.050 Y77.247 E87.3715
G1 X128.050 Y123.753 E89.2663
G1 X127.150 Y123.753 E89.3030
G1 X127.150 Y77.320 E91.1948
G1 X127.483 Y76.505
G0 X132.967 Y77.073 F5400
G0 X133.297 Y77.738
;segType:Loop
G1 X133.351 Y124.260 E93.0903 F3000
G1 X131.450 Y124.260 E93.1678
G1 X131.450 Y76.740 E95.1039
G1 X133.296 Y76.740 E95.1791
G1 X133.297 Y77.492 E95.2098
;segType:Perimeter
G0 X133.618 Y77.585 F5400
G1 X134.423 Y77.247 E95.2453 F2100
G1 X135.196 Y77.247 E95.2769
G1 X135.250 Y123.753 E97.1717
G1 X134.350 Y123.753 E97.2084
G1 X134.350 Y77.320 E99.1002
G1 X134.684 Y76.505
;segType:Loop
G0 X135.697 Y77.738 F5400
G1 X135.751 Y124.260 E100.9957 F3000
G1 X133.850 Y124.260 E101.0732
G1 X133.850 Y76.740 E103.0093
G1 X135.696 Y76.740 E103.0845
G1 X135.697 Y77.492 E103.1152
;segType:Perimeter
G0 X136.018 Y77.585 F5400
G1 X136.823 Y77.247 E103.1508 F2100
G1 X137.650 Y77.247 E103.1845
G1 X137.650 Y123.753 E105.0793
G1 X136.750 Y123.753 E105.1160
G1 X136.750 Y77.320 E107.0078
G1 X137.084 Y76.505
;segType:Loop
G0 X138.150 Y77.684 F5400
G1 X138.150 Y124.260 E108.9055 F3000
G1 X136.250 Y124.260 E108.9829
G1 X136.250 Y76.740 E110.9191
G1 X138.150 Y76.740 E110.9965
G1 X138.150 Y77.438 E111.0250
;segType:Perimeter
G0 X138.418 Y77.585 F5400
G1 X139.223 Y77.247 E111.0605 F2100
G1 X140.050 Y77.247 E111.0942
G1 X140.050 Y123.753 E112.9891
G1 X139.150 Y123.753 E113.0257
G1 X139.150 Y77.320 E114.9176
G1 X139.484 Y76.505
;segType:Loop
G0 X140.550 Y77.684 F5400
G1 X140.550 Y124.260 E116.8153 F3000
G1 X138.650 Y124.260 E116.8927
G1 X138.650 Y76.740 E118.8289
G1 X140.550 Y76.740 E118.9063
G1 X140.550 Y77.438 E118.9347
;segType:Perimeter
G0 X140.818 Y77.585 F5400
G1 X141.623 Y77.247 E118.9703 F2100
G1 X142.450 Y77.247 E119.0040
G1 X142.450 Y123.753 E120.8988
G1 X141.550 Y123.753 E120.9355
G1 X141.550 Y77.320 E122.8273
G1 X141.884 Y76.505
;segType:Loop
G0 X142.950 Y77.684 F5400
G1 X142.950 Y124.260 E124.7251 F3000
G1 X141.050 Y124.260 E124.8025
G1 X141.050 Y76.740 E126.7386
G1 X142.950 Y76.740 E126.8160
G1 X142.950 Y77.438 E126.8445
;segType:Perimeter
G0 X143.218 Y77.585 F5400
G1 X144.023 Y77.247 E126.8800 F2100
G1 X144.796 Y77.247 E126.9116
G1 X144.850 Y123.753 E128.8064
G1 X143.950 Y123.753 E128.8431
G1 X143.950 Y77.320 E130.7349
G1 X144.284 Y76.505
;segType:HShell
G0 X147.555 Y75.980 F5400
G1 X145.623 Y74.021 E130.8470 F3000
G1 X146.307 Y74.021
G1 X148.240 Y75.980 E130.9591
G1 X148.924 Y75.980
G1 X146.992 Y74.021 E131.0712
G1 X147.676 Y74.021
G1 X149.608 Y75.980 E131.1833
;segType:Perimeter
G0 X149.317 Y76.505 F5400
G1 X149.650 Y77.320 E131.2192 F2100
G1 X149.650 Y123.753 E133.1111
G1 X148.750 Y123.753 E133.1478
G1 X148.750 Y77.247 E135.0426
G1 X149.577 Y77.247 E135.0763
G1 X150.382 Y77.585
;segType:Loop
G0 X150.150 Y78.596 F5400
G1 X150.150 Y124.260 E136.9369 F3000
G1 X148.250 Y124.260 E137.0143
G1 X148.250 Y76.740 E138.9504
G1 X150.150 Y76.740 E139.0278
G1 X150.150 Y78.351 E139.0935
G0 X149.821 Y77.073 F5400
G0 X129.379 Y77.073
G0 X128.550 Y77.684
G1 X128.550 Y124.260 E140.9912 F3000
G1 X126.650 Y124.260 E141.0686
G1 X126.650 Y76.740 E143.0047
G1 X128.550 Y76.740 E143.0821
G1 X128.550 Y77.438 E143.1106
G0 X129.379 Y77.073 F5400
G0 X130.567 Y77.073
G0 X131.218 Y77.585
;segType:Perimeter
G1 X132.023 Y77.247 E143.1461 F2100
G1 X132.796 Y77.247 E143.1776
G1 X132.850 Y123.753 E145.0725
G1 X131.950 Y123.753 E145.1092
G1 X131.950 Y77.320 E147.0010
G1 X132.284 Y76.505
G0 X144.967 Y77.073 F5400
G0 X145.297 Y77.738
;segType:Loop
G1 X145.351 Y124.260 E148.8965 F3000
G1 X143.450 Y124.260 E148.9740
G1 X143.450 Y76.740 E150.9101
G1 X145.296 Y76.740 E150.9853
G1 X145.297 Y77.492 E151.0160
G0 X144.967 Y77.073 F5400
G0 X119.779 Y77.073
G0 X119.218 Y77.585
;segType:Perimeter
G1 X120.023 Y77.247 E151.0515 F2100
G1 X120.796 Y77.247 E151.0831
G1 X120.850 Y123.753 E152.9779
G1 X119.950 Y123.753 E153.0146
G1 X119.950 Y77.320 E154.9064
G1 X120.283 Y76.505
G0 X119.779 Y77.073 F5400
G0 X118.621 Y123.927
G0 X117.379 Y123.927
G0 X117.050 Y123.317
;segType:Loop
G1 X117.050 Y76.740 E156.8041 F3000
G1 X118.896 Y76.740 E156.8793
G1 X118.950 Y117.363 E158.5345
G1 X118.950 Y124.260 E158.8155
G1 X117.050 Y124.260 E158.8929
G1 X117.050 Y123.562 E158.9214
G0 X117.379 Y123.927 F5400
G0 X118.621 Y123.927
G0 X119.182 Y123.416
;segType:Perimeter
G1 X118.377 Y123.753 E158.9569 F2100
G1 X117.550 Y123.753 E158.9906
G1 X117.550 Y77.247 E160.8855
G1 X118.396 Y77.247 E160.9200
G1 X118.450 Y117.363 E162.5545
G1 X118.450 Y123.680 E162.8118
G1 X118.116 Y124.496
G0 X128.050 Y123.999 F5400
G0 X129.050 Y123.317
;segType:Loop
G1 X129.050 Y76.740 E164.7095 F3000
G1 X130.896 Y76.740 E164.7848
G1 X130.950 Y117.363 E166.4399
G1 X130.950 Y124.260 E166.7209
G1 X129.050 Y124.260 E166.7983
G1 X129.050 Y123.562 E166.8268
G0 X129.379 Y123.927 F5400
G0 X130.621 Y123.927
G0 X131.182 Y123.416
;segType:Perimeter
G1 X130.377 Y123.753 E166.8623 F2100
G1 X129.550 Y123.753 E166.8961
G1 X129.550 Y77.247 E168.7909
G1 X130.396 Y77.247 E168.8254
G1 X130.450 Y117.363 E170.4599
G1 X130.450 Y123.680 E170.7172
G1 X130.117 Y124.496
G0 X145.022 Y123.927 F5400
G0 X145.850 Y123.317
;segType:Loop
G1 X145.850 Y76.740 E172.6150 F3000
G1 X147.696 Y76.740 E172.6901
G1 X147.750 Y117.363 E174.3453
G1 X147.750 Y124.260 E174.6263
G1 X145.850 Y124.260 E174.7037
G1 X145.850 Y123.562 E174.7322
G0 X146.179 Y123.927 F5400
G0 X147.421 Y123.927
G0 X147.982 Y123.416
;segType:Perimeter
G1 X147.177 Y123.753 E174.7677 F2100
G1 X146.350 Y123.753 E174.8014
G1 X146.350 Y77.247 E176.6963
G1 X147.196 Y77.247 E176.7308
G1 X147.250 Y117.363 E178.3653
G1 X147.250 Y123.680 E178.6226
G1 X146.917 Y124.496
G0 X110.179 Y123.927 F5400
G0 X109.100 Y112.612
;segType:HShell
G1 X97.480 Y100.832 E179.2968 F3000
G1 X97.284 Y101.327
G1 X109.100 Y113.306 E179.9824
G1 X109.100 Y114.000
G1 X97.037 Y101.770 E180.6822
G1 X96.747 Y102.170
G1 X109.100 Y114.693 E181.3990
G1 X109.100 Y115.387
G1 X96.378 Y102.490 E182.1371
G1 X95.977 Y102.777
G1 X109.100 Y116.081 E182.8985
G1 X109.100 Y116.775
G1 X95.509 Y102.996 E183.6870
G1 X94.963 Y103.137
G1 X109.100 Y117.468 E184.5072
G1 X109.100 Y118.162
G1 X94.331 Y103.189 E185.3641
G1 X93.523 Y103.064
G1 X109.100 Y118.856 E186.2679
G1 X109.100 Y119.549
G1 X91.500 Y101.707 E187.2890
G1 X91.500 Y102.401
G1 X109.100 Y120.243 E188.3101
G1 X109.100 Y120.937
G1 X91.500 Y103.095 E189.3312
G1 X91.500 Y103.788
G1 X109.100 Y121.631 E190.3523
G1 X109.100 Y122.324
G1 X91.500 Y104.482 E191.3734
G1 X91.500 Y105.176
G1 X109.100 Y123.018 E192.3946
G1 X109.100 Y123.712
G1 X91.500 Y105.870 E193.4157
G1 X91.500 Y106.563
G1 X109.100 Y124.406 E194.4368
G0 F1200 E193.4368
G0 X150.900 Y76.595 F5400
G0 F1200 E194.4368
G1 X168.500 Y94.438 E195.4579 F3000
G1 X168.500 Y95.132
G1 X150.900 Y77.289 E196.4790
G1 X150.900 Y77.983
G1 X168.500 Y95.825 E197.5002
G1 X168.500 Y96.519
G1 X150.900 Y78.677 E198.5213
G1 X150.900 Y79.370
G1 X168.500 Y97.213 E199.5424
G1 X168.500 Y97.907
G1 X150.900 Y80.064 E200.5635
G1 X150.900 Y80.758
G1 X167.111 Y97.192 E201.5041
G1 X166.088 Y96.849
G1 X150.900 Y81.452 E202.3853
G1 X150.900 Y82.145
G1 X165.376 Y96.821 E203.2251
G1 X164.785 Y96.916
G1 X150.900 Y82.839 E204.0307
G1 X150.900 Y83.533
G1 X164.267 Y97.084 E204.8063
G1 X163.843 Y97.347
G1 X150.900 Y84.227 E205.5572
G1 X150.900 Y84.920
G1 X163.453 Y97.646 E206.2855
G1 X163.119 Y98.001
G1 X150.900 Y85.614 E206.9944
G1 X150.900 Y86.308
G1 X162.849 Y98.421 E207.6876
G1 X162.617 Y98.880
G1 X150.900 Y87.002 E208.3674
G1 X150.900 Y87.695
G1 X162.476 Y99.430 E209.0390
G1 X162.433 Y100.081
G1 X150.900 Y88.389 E209.7082
G1 X150.900 Y89.083
G1 X162.562 Y100.905 E210.3848
G0 X165.194 Y102.142 F5400
G0 X168.500 Y102.069
G1 X168.224 Y101.789 E210.4008 F3000
G1 X167.933 Y102.188
G1 X168.500 Y102.763 E210.4337
G1 X168.500 Y103.457
G1 X167.560 Y102.504 E210.4882
G1 X167.155 Y102.787
G1 X168.500 Y104.150 E210.5662
G1 X168.500 Y104.844
G1 X166.688 Y103.007 E210.6714
G1 X166.137 Y103.142
G1 X168.500 Y105.538 E210.8085
G1 X168.500 Y106.231
G1 X165.497 Y103.187 E210.9827
G1 X164.677 Y103.049
G1 X168.500 Y106.925 E211.2046
G1 X168.500 Y107.619
G1 X150.900 Y89.777 E212.2257
G1 X150.900 Y90.470
G1 X168.500 Y108.313 E213.2468
G1 X168.500 Y109.006
G1 X150.900 Y91.164 E214.2679
G1 X150.900 Y91.858
G1 X168.500 Y109.700 E215.2890
G1 X168.500 Y110.394
G1 X150.900 Y92.551 E216.3101
G1 X150.900 Y93.245
G1 X168.500 Y111.088 E217.3313
G1 X168.500 Y111.781
G1 X150.900 Y93.939 E218.3524
G1 X150.900 Y94.633
G1 X168.500 Y112.475 E219.3735
G1 X168.500 Y113.169
G1 X150.900 Y95.326 E220.3946
G1 X150.900 Y96.020
G1 X168.500 Y113.863 E221.4157
G1 X168.500 Y114.556
G1 X150.900 Y96.714 E222.4369
G1 X150.900 Y97.408
G1 X168.500 Y115.250 E223.4580
G1 X168.500 Y115.944
G1 X150.900 Y98.101 E224.4791
G1 X150.900 Y98.795
G1 X168.500 Y116.638 E225.5002
G1 X168.500 Y117.331
G1 X150.900 Y99.489 E226.5213
G1 X150.900 Y100.183
G1 X168.500 Y118.025 E227.5424
G1 X168.500 Y118.719
G1 X150.900 Y100.876 E228.5636
G1 X150.900 Y101.570
G1 X168.500 Y119.412 E229.5847
G1 X168.500 Y120.106
G1 X150.900 Y102.264 E230.6058
G1 X150.900 Y102.958
G1 X168.500 Y120.800 E231.6269
G1 X168.500 Y121.494
G1 X150.900 Y103.651 E232.6480
G1 X150.900 Y104.345
G1 X168.500 Y122.187 E233.6692
G1 X168.500 Y122.881
G1 X150.900 Y105.039 E234.6903
G1 X150.900 Y105.733
G1 X168.480 Y123.554 E235.7102
G1 X168.393 Y124.160
G1 X150.900 Y106.426 E236.7251
G1 X150.900 Y107.120
G1 X168.190 Y124.648 E237.7282
G1 X167.906 Y125.054
G1 X150.900 Y107.814 E238.7149
G1 X150.900 Y108.507
G1 X167.559 Y125.395 E239.6814
G1 X167.149 Y125.674
G1 X150.900 Y109.201 E240.6241
G1 X150.900 Y109.895
G1 X166.663 Y125.875 E241.5386
G1 X166.061 Y125.959
G1 X150.900 Y110.589 E242.4183
G1 X150.900 Y111.282
G1 X165.397 Y125.979 E243.2594
G1 X164.713 Y125.979
G1 X150.900 Y111.976 E244.0608
G1 X150.900 Y112.670
G1 X164.029 Y125.979 E244.8225
G1 X163.344 Y125.979
G1 X150.900 Y113.364 E245.5445
G1 X150.900 Y114.057
G1 X162.660 Y125.979 E246.2268
G1 X161.976 Y125.979
G1 X150.900 Y114.751 E246.8694
G1 X150.900 Y115.445
G1 X161.291 Y125.979 E247.4723
G1 X160.607 Y125.979
G1 X150.900 Y116.139 E248.0355
G1 X150.900 Y116.832
G1 X159.923 Y125.979 E248.5589
G1 X159.239 Y125.979
G1 X150.900 Y117.526 E249.0427
G1 X150.900 Y118.220
G1 X158.554 Y125.979 E249.4868
G1 X157.870 Y125.979
G1 X150.900 Y118.914 E249.8912
G1 X150.900 Y119.607
G1 X157.186 Y125.979 E250.2558
G1 X156.501 Y125.979
G1 X150.900 Y120.301 E250.5808
G1 X150.900 Y120.995
G1 X155.817 Y125.979 E250.8661
G1 X155.133 Y125.979
G1 X150.900 Y121.689 E251.1116
G1 X150.900 Y122.382
G1 X154.448 Y125.979 E251.3175
G1 X153.764 Y125.979
G1 X150.900 Y123.076 E251.4837
G1 X150.900 Y123.770
G1 X153.080 Y125.979 E251.6102
G1 X152.395 Y125.979
G1 X150.900 Y124.463 E251.6969
G1 X150.765 Y125.021
G1 X151.711 Y125.979 E251.7518
G1 X151.027 Y125.979
G1 X150.081 Y125.021 E251.8067
G1 X149.397 Y125.021
G1 X150.342 Y125.979 E251.8615
G1 X149.658 Y125.979
G1 X148.712 Y125.021 E251.9164
G1 X148.028 Y125.021
G1 X148.974 Y125.979 E251.9713
G1 X148.290 Y125.979
G1 X147.344 Y125.021 E252.0261
G1 X146.659 Y125.021
G1 X147.605 Y125.979 E252.0810
G1 X146.921 Y125.979
G1 X145.975 Y125.021 E252.1359
G1 X145.291 Y125.021
G1 X146.237 Y125.979 E252.1907
G1 X145.552 Y125.979
G1 X144.607 Y125.021 E252.2456
G1 X143.922 Y125.021
G1 X144.868 Y125.979 E252.3005
G1 X144.184 Y125.979
G1 X143.238 Y125.021 E252.3554
G1 X142.554 Y125.021
G1 X143.499 Y125.979 E252.4102
G1 X142.815 Y125.979
G1 X141.869 Y125.021 E252.4651
G1 X141.185 Y125.021
G1 X142.131 Y125.979 E252.5200
G1 X141.446 Y125.979
G1 X140.501 Y125.021 E252.5748
G1 X139.816 Y125.021
G1 X140.762 Y125.979 E252.6297
G1 X140.078 Y125.979
G1 X139.132 Y125.021 E252.6846
G1 X138.448 Y125.021
G1 X139.393 Y125.979 E252.7395
G1 X138.709 Y125.979
G1 X137.763 Y125.021 E252.7943
G1 X137.079 Y125.021
G1 X138.025 Y125.979 E252.8492
G1 X137.341 Y125.979
G1 X136.395 Y125.021 E252.9041
G1 X135.710 Y125.021
G1 X136.656 Y125.979 E252.9589
G1 X135.972 Y125.979
G1 X135.026 Y125.021 E253.0138
G1 X134.342 Y125.021
G1 X135.288 Y125.979 E253.0687
G1 X134.603 Y125.979
G1 X133.658 Y125.021 E253.1235
G1 X132.973 Y125.021
G1 X133.919 Y125.979 E253.1784
G1 X133.235 Y125.979
G1 X132.289 Y125.021 E253.2333
G1 X131.605 Y125.021
G1 X132.550 Y125.979 E253.2882
G1 X131.866 Y125.979
G1 X130.920 Y125.021 E253.3430
G1 X130.236 Y125.021
G1 X131.182 Y125.979 E253.3979
G1 X130.497 Y125.979
G1 X129.552 Y125.021 E253.4528
G1 X128.867 Y125.021
G1 X129.813 Y125.979 E253.5076
G1 X129.129 Y125.979
G1 X128.183 Y125.021 E253.5625
G1 X127.499 Y125.021
G1 X128.444 Y125.979 E253.6174
G1 X127.760 Y125.979
G1 X126.814 Y125.021 E253.6723
G1 X126.130 Y125.021
G1 X127.076 Y125.979 E253.7271
G1 X126.391 Y125.979
G1 X125.446 Y125.021 E253.7820
G1 X124.761 Y125.021
G1 X125.707 Y125.979 E253.8369
G1 X125.023 Y125.979
G1 X124.077 Y125.021 E253.8917
G1 X123.393 Y125.021
G1 X124.339 Y125.979 E253.9466
G1 X123.654 Y125.979
G1 X122.709 Y125.021 E254.0015
G1 X122.024 Y125.021
G1 X122.970 Y125.979 E254.0563
G1 X122.286 Y125.979
G1 X121.340 Y125.021 E254.1112
G1 X120.656 Y125.021
G1 X121.601 Y125.979 E254.1661
G1 X120.917 Y125.979
G1 X119.971 Y125.021 E254.2210
G1 X119.287 Y125.021
G1 X120.233 Y125.979 E254.2758
G1 X119.548 Y125.979
G1 X118.603 Y125.021 E254.3307
G1 X117.918 Y125.021
G1 X118.864 Y125.979 E254.3856
G1 X118.180 Y125.979
G1 X117.234 Y125.021 E254.4404
G1 X116.550 Y125.021
G1 X117.495 Y125.979 E254.4953
G1 X116.811 Y125.979
G1 X115.865 Y125.021 E254.5502
G1 X115.181 Y125.021
G1 X116.127 Y125.979 E254.6051
G1 X115.442 Y125.979
G1 X114.497 Y125.021 E254.6599
G1 X113.812 Y125.021
G1 X114.758 Y125.979 E254.7148
G1 X114.074 Y125.979
G1 X113.128 Y125.021 E254.7697
G1 X112.444 Y125.021
G1 X113.390 Y125.979 E254.8245
G1 X112.705 Y125.979
G1 X111.760 Y125.021 E254.8794
G1 X111.075 Y125.021
G1 X112.021 Y125.979 E254.9343
G1 X111.337 Y125.979
G1 X110.391 Y125.021 E254.9891
G1 X109.707 Y125.021
G1 X110.652 Y125.979 E255.0440
G1 X109.968 Y125.979
G1 X91.500 Y107.257 E256.1155
G1 X91.500 Y107.951
G1 X109.284 Y125.979 E257.1473
G1 X108.599 Y125.979
G1 X91.500 Y108.644 E258.1394
G1 X91.500 Y109.338
G1 X107.915 Y125.979 E259.0917
G1 X107.231 Y125.979
G1 X91.500 Y110.032 E260.0044
G1 X91.500 Y110.726
G1 X106.546 Y125.979 E260.8774
G1 X105.862 Y125.979
G1 X91.500 Y111.419 E261.7107
G1 X91.500 Y112.113
G1 X105.178 Y125.979 E262.5043
G1 X104.493 Y125.979
G1 X91.500 Y112.807 E263.2582
G1 X91.500 Y113.501
G1 X103.809 Y125.979 E263.9723
G1 X103.125 Y125.979
G1 X91.500 Y114.194 E264.6468
G1 X91.500 Y114.888
G1 X102.441 Y125.979 E265.2816
G1 X101.756 Y125.979
G1 X91.500 Y115.582 E265.8766
G1 X91.500 Y116.276
G1 X101.072 Y125.979 E266.4320
G1 X100.388 Y125.979
G1 X91.500 Y116.969 E266.9476
G1 X91.500 Y117.663
G1 X99.703 Y125.979 E267.4236
G1 X99.019 Y125.979
G1 X91.500 Y118.357 E267.8598
G1 X91.500 Y119.051
G1 X98.335 Y125.979 E268.2564
G1 X97.650 Y125.979
G1 X91.500 Y119.744 E268.6132
G1 X91.500 Y120.438
G1 X96.966 Y125.979 E268.9304
G1 X96.282 Y125.979
G1 X91.500 Y121.132 E269.2078
G1 X91.500 Y121.825
G1 X95.597 Y125.979 E269.4455
G1 X94.913 Y125.979
G1 X91.500 Y122.519 E269.6436
G1 X91.500 Y123.213
G1 X94.229 Y125.979 E269.8019
G1 X93.462 Y125.896
G1 X91.577 Y123.985 E269.9113
G0 X96.574 Y100.000 F5400
G0 X95.970 Y97.220
G1 X91.500 Y92.688 E270.1706 F3000
G1 X91.500 Y91.995
G1 X109.100 Y109.837 E271.1917
G1 X109.100 Y109.143
G1 X91.500 Y91.301 E272.2128
G1 X91.500 Y90.607
G1 X109.100 Y108.450 E273.2340
G1 X109.100 Y107.756
G1 X91.500 Y89.914 E274.2551
G1 X91.500 Y89.220
G1 X109.100 Y107.062 E275.2762
G1 X109.100 Y106.368
G1 X91.500 Y88.526 E276.2973
G1 X91.500 Y87.832
G1 X109.100 Y105.675 E277.3184
G1 X109.100 Y104.981
G1 X91.500 Y87.139 E278.3396
G1 X91.500 Y86.445
G1 X109.100 Y104.287 E279.3607
G1 X109.100 Y103.593
G1 X91.500 Y85.751 E280.3818
G1 X91.500 Y85.057
G1 X109.100 Y102.900 E281.4029
G1 X109.100 Y102.206
G1 X91.500 Y84.364 E282.4240
G1 X91.500 Y83.670
G1 X109.100 Y101.512 E283.4451
G1 X109.100 Y100.819
G1 X91.500 Y82.976 E284.4663
G1 X91.500 Y82.282
G1 X109.100 Y100.125 E285.4874
G1 X109.100 Y99.431
G1 X91.500 Y81.589 E286.5085
G1 X91.500 Y80.895
G1 X109.100 Y98.737 E287.5296
G1 X109.100 Y98.044
G1 X91.500 Y80.201 E288.5507
G1 X91.500 Y79.507
G1 X109.100 Y97.350 E289.5719
G1 X109.100 Y96.656
G1 X91.500 Y78.814 E290.5930
G1 X91.500 Y78.120
G1 X109.100 Y95.962 E291.6141
G1 X109.100 Y95.269
G1 X91.500 Y77.426 E292.6352
G1 X91.500 Y76.732
G1 X109.100 Y94.575 E293.6563
G1 X109.100 Y93.881
G1 X91.565 Y76.105 E294.6737
G1 X91.720 Y75.568
G1 X109.100 Y93.187 E295.6820
G1 X109.100 Y92.494
G1 X91.962 Y75.119 E296.6763
G1 X92.269 Y74.737
G1 X109.100 Y91.800 E297.6528
G1 X109.100 Y91.106
G1 X92.658 Y74.438 E298.6067
G1 X93.122 Y74.214
G1 X109.100 Y90.412 E299.5338
G1 X109.100 Y89.719
G1 X93.670 Y74.077 E300.4290
G1 X94.299 Y74.021
G1 X109.100 Y89.025 E301.2877
G1 X109.100 Y88.331
G1 X94.984 Y74.021 E302.1067
G1 X95.668 Y74.021
G1 X109.100 Y87.638 E302.8860
G1 X109.100 Y86.944
G1 X96.352 Y74.021 E303.6256
G1 X97.037 Y74.021
G1 X109.100 Y86.250 E304.3255
G1 X109.100 Y85.556
G1 X97.721 Y74.021 E304.9856
G1 X98.405 Y74.021
G1 X109.100 Y84.863 E305.6061
G1 X109.100 Y84.169
G1 X99.090 Y74.021 E306.1869
G1 X99.774 Y74.021
G1 X109.100 Y83.475 E306.7280
G1 X109.100 Y82.781
G1 X100.458 Y74.021 E307.2294
G1 X101.143 Y74.021
G1 X109.100 Y82.088 E307.6910
G1 X109.100 Y81.394
G1 X101.827 Y74.021 E308.1130
G1 X102.511 Y74.021
G1 X109.100 Y80.700 E308.4953
G1 X109.100 Y80.006
G1 X103.196 Y74.021 E308.8378
G1 X103.880 Y74.021
G1 X109.100 Y79.313 E309.1407
G1 X109.100 Y78.619
G1 X104.564 Y74.021 E309.4038
G1 X105.248 Y74.021
G1 X109.100 Y77.925 E309.6273
G0 X91.660 Y98.401 F5400
G1 X91.500 Y98.238 E309.6365 F3000
G1 X91.500 Y97.545
G1 X91.934 Y97.985 E309.6618
G1 X92.268 Y97.630
G1 X91.500 Y96.851 E309.7063
G1 X91.500 Y96.157
G1 X92.662 Y97.335 E309.7738
G1 X93.091 Y97.076
G1 X91.500 Y95.463 E309.8660
G1 X91.500 Y94.770
G1 X93.609 Y96.908 E309.9884
G1 X94.205 Y96.819
G1 X91.500 Y94.076 E310.1454
G1 X91.500 Y93.382
G1 X94.927 Y96.857 E310.3442
G0 X97.528 Y99.494 F5400
G1 X109.100 Y111.225 E311.0156 F3000
G1 X109.100 Y110.531
G1 X97.204 Y98.471 E311.7058
G0 X107.986 Y74.021 F5400
G1 X109.918 Y75.980 E311.8179 F3000
G1 X110.602 Y75.980
G1 X108.670 Y74.021 E311.9300
G1 X109.354 Y74.021
G1 X111.287 Y75.980 E312.0422
G1 X111.971 Y75.980
G1 X110.039 Y74.021 E312.1543
G1 X110.723 Y74.021
G1 X112.655 Y75.980 E312.2664
G1 X113.340 Y75.980
G1 X111.407 Y74.021 E312.3785
G1 X112.092 Y74.021
G1 X114.024 Y75.980 E312.4906
G1 X114.708 Y75.980
G1 X112.776 Y74.021 E312.6028
G1 X113.460 Y74.021
G1 X115.393 Y75.980 E312.7149
G1 X116.077 Y75.980
G1 X114.145 Y74.021 E312.8270
G1 X114.829 Y74.021
G1 X116.761 Y75.980 E312.9391
G1 X117.445 Y75.980
G1 X115.513 Y74.021 E313.0513
G1 X116.197 Y74.021
G1 X118.130 Y75.980 E313.1634
G1 X118.814 Y75.980
G1 X116.882 Y74.021 E313.2755
G1 X117.566 Y74.021
G1 X119.498 Y75.980 E313.3876
G1 X120.183 Y75.980
G1 X118.250 Y74.021 E313.4997
G1 X118.935 Y74.021
G1 X120.867 Y75.980 E313.6119
G1 X121.551 Y75.980
G1 X119.619 Y74.021 E313.7240
G1 X120.303 Y74.021
G1 X122.236 Y75.980 E313.8361
G1 X122.920 Y75.980
G1 X120.988 Y74.021 E313.9482
G1 X121.672 Y74.021
G1 X123.604 Y75.980 E314.0603
G1 X124.289 Y75.980
G1 X122.356 Y74.021 E314.1725
G1 X123.041 Y74.021
G1 X124.973 Y75.980 E314.2846
G1 X125.657 Y75.980
G1 X123.725 Y74.021 E314.3967
G1 X124.409 Y74.021
G1 X126.342 Y75.980 E314.5088
G1 X127.026 Y75.980
G1 X125.094 Y74.021 E314.6210
G1 X125.778 Y74.021
G1 X127.710 Y75.980 E314.7331
G1 X128.394 Y75.980
G1 X126.462 Y74.021 E314.8452
G1 X127.146 Y74.021
G1 X129.079 Y75.980 E314.9573
G1 X129.763 Y75.980
G1 X127.831 Y74.021 E315.0694
G1 X128.515 Y74.021
G1 X130.447 Y75.980 E315.1816
G1 X131.132 Y75.980
G1 X129.199 Y74.021 E315.2937
G1 X129.884 Y74.021
G1 X131.816 Y75.980 E315.4058
G1 X132.500 Y75.980
G1 X130.568 Y74.021 E315.5179
G1 X131.252 Y74.021
G1 X133.185 Y75.980 E315.6300
G1 X133.869 Y75.980
G1 X131.937 Y74.021 E315.7422
G1 X132.621 Y74.021
G1 X134.553 Y75.980 E315.8543
G1 X135.238 Y75.980
G1 X133.305 Y74.021 E315.9664
G1 X133.990 Y74.021
G1 X135.922 Y75.980 E316.0785
G1 X136.606 Y75.980
G1 X134.674 Y74.021 E316.1907
G1 X135.358 Y74.021
G1 X137.291 Y75.980 E316.3028
G1 X137.975 Y75.980
G1 X136.043 Y74.021 E316.4149
G1 X136.727 Y74.021
G1 X138.659 Y75.980 E316.5270
G1 X139.343 Y75.980
G1 X137.411 Y74.021 E316.6391
G1 X138.095 Y74.021
G1 X140.028 Y75.980 E316.7513
G1 X140.712 Y75.980
G1 X138.780 Y74.021 E316.8634
G1 X139.464 Y74.021
G1 X141.396 Y75.980 E316.9755
G1 X142.081 Y75.980
G1 X140.148 Y74.021 E317.0876
G1 X140.833 Y74.021
G1 X142.765 Y75.980 E317.1998
G1 X143.449 Y75.980
G1 X141.517 Y74.021 E317.3119
G1 X142.201 Y74.021
G1 X144.134 Y75.980 E317.4240
G1 X144.818 Y75.980
G1 X142.886 Y74.021 E317.5361
G1 X143.570 Y74.021
G1 X145.502 Y75.980 E317.6482
G1 X146.187 Y75.980
G1 X144.254 Y74.021 E317.7604
G1 X144.939 Y74.021
G1 X146.871 Y75.980 E317.8725
G0 X150.293 Y75.980 F5400
G1 X148.360 Y74.021 E317.9846 F3000
G1 X149.044 Y74.021
G1 X168.500 Y93.744 E319.1134
G1 X168.500 Y93.050
G1 X149.729 Y74.021 E320.2025
G1 X150.413 Y74.021
G1 X168.500 Y92.357 E321.2518
G1 X168.500 Y91.663
G1 X151.097 Y74.021 E322.2615
G1 X151.782 Y74.021
G1 X168.500 Y90.969 E323.2315
G1 X168.500 Y90.275
G1 X152.466 Y74.021 E324.1618
G1 X153.150 Y74.021
G1 X168.500 Y89.582 E325.0523
G1 X168.500 Y88.888
G1 X153.835 Y74.021 E325.9032
G1 X154.519 Y74.021
G1 X168.500 Y88.194 E326.7143
G1 X168.500 Y87.501
G1 X155.203 Y74.021 E327.4858
G1 X155.888 Y74.021
G1 X168.500 Y86.807 E328.2175
G1 X168.500 Y86.113
G1 X156.572 Y74.021 E328.9096
G1 X157.256 Y74.021
G1 X168.500 Y85.419 E329.5619
G1 X168.500 Y84.726
G1 X157.941 Y74.021 E330.1746
G1 X158.625 Y74.021
G1 X168.500 Y84.032 E330.7475
G1 X168.500 Y83.338
G1 X159.309 Y74.021 E331.2807
G1 X159.993 Y74.021
G1 X168.500 Y82.644 E331.7743
G1 X168.500 Y81.951
G1 X160.678 Y74.021 E332.2281
G1 X161.362 Y74.021
G1 X168.500 Y81.257 E332.6422
G1 X168.500 Y80.563
G1 X162.046 Y74.021 E333.0166
G1 X162.731 Y74.021
G1 X168.500 Y79.869 E333.3514
G1 X168.500 Y79.176
G1 X163.415 Y74.021 E333.6464
G1 X164.099 Y74.021
G1 X168.500 Y78.482 E333.9017
G1 X168.500 Y77.788
G1 X164.784 Y74.021 E334.1173
G1 X165.468 Y74.021
G1 X168.500 Y77.094 E334.2932
G1 X168.470 Y76.370
G1 X166.189 Y74.058 E334.4255
G1 X167.130 Y74.318
G1 X168.219 Y75.422 E334.4886
; ------------------------------------
; Layer #2
; ------------------------------------
G21 ; mm
G90 ; abs
G92 E0 ; reset extr
M73 S14
M106 S0
;segType:Loop
G0 F1200 E-1.0000
G0 F300 Z0.600
G0 X169.250 Y76.872 F5400
G0 F1200 E0.0000
G1 X169.250 Y123.449 E1.8977 F3000
G1 X169.134 Y124.334 E1.9341
G1 X168.811 Y125.113 E1.9684
G1 X168.297 Y125.783 E2.0028
G1 X167.625 Y126.298 E2.0373
G1 X166.842 Y126.623 E2.0719
G1 X165.952 Y126.740 E2.1085
G1 X94.049 Y126.740 E5.0381
G1 X93.158 Y126.623 E5.0746
G1 X92.375 Y126.298 E5.1092
G1 X91.703 Y125.783 E5.1437
G1 X91.189 Y125.113 E5.1781
G1 X90.866 Y124.334 E5.2124
G1 X90.750 Y123.449 E5.2488
G1 X90.750 Y76.551 E7.1596
G1 X90.866 Y75.666 E7.1960
G1 X91.189 Y74.887 E7.2303
G1 X91.703 Y74.217 E7.2647
G1 X92.375 Y73.702 E7.2992
G1 X93.158 Y73.377 E7.3338
G1 X94.049 Y73.260 E7.3703
G1 X165.952 Y73.260 E10.2999
G1 X166.842 Y73.377 E10.3365
G1 X167.625 Y73.702 E10.3711
G1 X168.297 Y74.217 E10.4056
G1 X168.811 Y74.887 E10.4400
G1 X169.134 Y75.666 E10.4743
G1 X169.250 Y76.551 E10.5107
G1 X169.250 Y76.627 E10.5138
;segType:Perimeter
G0 X168.847 Y75.218 F5400
G1 X169.630 Y75.605 E10.5493 F2100
G1 X169.750 Y76.517 E10.5868
G1 X169.750 Y123.483 E12.5004
G1 X169.620 Y124.468 E12.5409
G1 X169.246 Y125.371 E12.5807
G1 X168.651 Y126.147 E12.6205
G1 X167.875 Y126.742 E12.6604
G1 X166.971 Y127.117 E12.7003
G1 X165.984 Y127.247 E12.7408
G1 X94.016 Y127.247 E15.6731
G1 X93.029 Y127.117 E15.7136
G1 X92.125 Y126.742 E15.7535
G1 X91.349 Y126.147 E15.7934
G1 X90.754 Y125.371 E15.8332
G1 X90.380 Y124.468 E15.8730
G1 X90.250 Y123.483 E15.9135
G1 X90.250 Y76.517 E17.8271
G1 X90.380 Y75.532 E17.8676
G1 X90.754 Y74.629 E17.9074
G1 X91.349 Y73.853 E17.9472
G1 X92.125 Y73.258 E17.9870
G1 X93.029 Y72.883 E18.0269
G1 X94.016 Y72.753 E18.0675
G1 X165.984 Y72.753 E20.9997
G1 X166.971 Y72.883 E21.0403
G1 X167.875 Y73.258 E21.0802
G1 X168.651 Y73.853 E21.1200
G1 X169.246 Y74.629 E21.1599
G1 X169.592 Y75.464 E21.1967
G1 X169.110 Y76.199
;segType:Loop
G0 X162.927 Y98.799 F5400
G1 X163.226 Y98.255 E21.2219 F3000
G1 X163.732 Y97.717 E21.2521
G1 X164.354 Y97.322 E21.2821
G1 X165.052 Y97.095 E21.3120
G1 X165.783 Y97.049 E21.3418
G1 X166.504 Y97.186 E21.3717
G1 X167.169 Y97.499 E21.4017
G1 X167.737 Y97.969 E21.4317
G1 X168.173 Y98.568 E21.4619
G1 X168.447 Y99.260 E21.4922
G1 X168.540 Y100.000 E21.5226
G1 X168.447 Y100.740 E21.5530
G1 X168.173 Y101.432 E21.5833
G1 X167.737 Y102.031 E21.6135
G1 X167.169 Y102.501 E21.6435
G1 X166.504 Y102.814 E21.6735
G1 X165.783 Y102.951 E21.7034
G1 X165.052 Y102.905 E21.7332
G1 X164.354 Y102.678 E21.7631
G1 X163.732 Y102.283 E21.7931
G1 X163.226 Y101.745 E21.8232
G1 X162.869 Y101.094 E21.8535
G1 X162.683 Y100.373 E21.8838
G1 X162.683 Y99.627 E21.9142
G1 X162.838 Y99.025 E21.9395
G0 X163.843 Y101.284 F5400
G0 X164.677 Y101.974
G0 X165.736 Y102.176
G0 X167.037 Y101.956
G1 X166.901 Y102.068 E21.9467 F3000
G1 X166.350 Y102.327 E21.9715
G1 X165.752 Y102.441 E21.9963
G1 X165.146 Y102.403 E22.0211
G1 X164.566 Y102.215 E22.0459
G1 X164.051 Y101.888 E22.0708
G1 X163.632 Y101.442 E22.0957
G1 X163.336 Y100.904 E22.1207
G1 X163.183 Y100.308 E22.1458
G1 X163.183 Y99.692 E22.1709
G1 X163.336 Y99.096 E22.1959
G1 X163.632 Y98.558 E22.2209
G1 X164.051 Y98.112 E22.2459
G1 X164.566 Y97.785 E22.2708
G1 X165.146 Y97.597 E22.2956
G1 X165.752 Y97.559 E22.3203
G1 X166.350 Y97.673 E22.3451
G1 X166.901 Y97.932 E22.3699
G1 X167.372 Y98.321 E22.3948
G1 X167.732 Y98.817 E22.4198
G1 X167.959 Y99.389 E22.4449
G1 X168.036 Y100.000 E22.4700
G1 X167.959 Y100.611 E22.4950
G1 X167.732 Y101.183 E22.5201
G1 X167.372 Y101.679 E22.5451
G1 X167.224 Y101.801 E22.5529
;segType:Perimeter
G0 X168.166 Y100.056 F5400
G1 X167.444 Y100.551 E22.5885 F2100
G1 X167.292 Y100.934 E22.6053
G1 X167.007 Y101.326 E22.6251
G1 X166.634 Y101.635 E22.6448
G1 X166.196 Y101.841 E22.6646
G1 X165.721 Y101.932 E22.6843
G1 X165.239 Y101.901 E22.7040
G1 X164.779 Y101.752 E22.7237
G1 X164.370 Y101.492 E22.7434
G1 X164.038 Y101.139 E22.7631
G1 X163.804 Y100.713 E22.7829
G1 X163.683 Y100.243 E22.8027
G1 X163.683 Y99.757 E22.8225
G1 X163.804 Y99.287 E22.8423
G1 X164.038 Y98.861 E22.8621
G1 X164.370 Y98.508 E22.8818
G1 X164.779 Y98.248 E22.9016
G1 X165.239 Y98.099 E22.9213
G1 X165.721 Y98.068 E22.9410
G1 X166.196 Y98.159 E22.9607
G1 X166.634 Y98.365 E22.9804
G1 X167.007 Y98.674 E23.0001
G1 X167.292 Y99.066 E23.0199
G1 X167.471 Y99.518 E23.0397
G1 X167.532 Y100.000 E23.0595
G1 X167.480 Y100.409 E23.0763
G1 X167.873 Y101.198
G0 X165.194 Y102.142 F5400
G0 X164.217 Y101.682
G0 X163.580 Y100.805
G0 X149.821 Y77.073
G0 X114.271 Y73.767
;segType:Loop
G1 X165.919 Y73.767 E25.1806 F3000
G1 X166.713 Y73.872 E25.2132
G1 X167.376 Y74.146 E25.2425
G1 X167.942 Y74.582 E25.2716
G1 X168.376 Y75.146 E25.3006
G1 X168.647 Y75.800 E25.3294
G1 X168.750 Y76.584 E25.3617
G1 X168.750 Y123.416 E27.2697
G1 X168.647 Y124.200 E27.3020
G1 X168.376 Y124.854 E27.3308
G1 X167.942 Y125.419 E27.3598
G1 X167.376 Y125.854 E27.3889
G1 X166.713 Y126.128 E27.4182
G1 X165.919 Y126.233 E27.4508
G1 X94.081 Y126.233 E30.3777
G1 X93.287 Y126.128 E30.4104
G1 X92.624 Y125.854 E30.4396
G1 X92.058 Y125.419 E30.4687
G1 X91.624 Y124.854 E30.4977
G1 X91.353 Y124.200 E30.5265
G1 X91.250 Y123.416 E30.5588
G1 X91.250 Y76.584 E32.4669
G1 X91.353 Y75.800 E32.4991
G1 X91.624 Y75.146 E32.5279
G1 X92.058 Y74.582 E32.5569
G1 X92.624 Y74.146 E32.5860
G1 X93.287 Y73.872 E32.6153
G1 X94.081 Y73.767 E32.6479
G1 X114.029 Y73.767 E33.4606
G0 X114.150 Y77.684 F5400
G1 X114.150 Y124.260 E35.3584 F3000
G1 X112.250 Y124.260 E35.4358
G1 X112.250 Y76.740 E37.3719
G1 X114.150 Y76.740 E37.4493
G1 X114.150 Y77.438 E37.4778
;segType:Perimeter
G0 X114.418 Y77.585 F5400
G1 X115.223 Y77.247 E37.5134 F2100
G1 X116.050 Y77.247 E37.5471
G1 X116.050 Y123.753 E39.4419
G1 X115.150 Y123.753 E39.4786
G1 X115.150 Y77.320 E41.3704
G1 X115.483 Y76.505
;segType:Loop
G0 X111.871 Y76.233 F5400
G1 X112.250 Y76.233 E41.3859 F3000
G1 X114.150 Y76.233 E41.4633
G1 X114.650 Y76.233 E41.4836
G1 X116.550 Y76.233 E41.5611
G1 X117.050 Y76.233 E41.5814
G1 X118.950 Y76.233 E41.6588
G1 X119.450 Y76.233 E41.6792
G1 X121.350 Y76.233 E41.7566
G1 X121.850 Y76.233 E41.7770
G1 X123.750 Y76.233 E41.8544
G1 X124.250 Y76.233 E41.8748
G1 X126.150 Y76.233 E41.9522
G1 X126.650 Y76.233 E41.9726
G1 X128.550 Y76.233 E42.0500
G1 X129.050 Y76.233 E42.0703
G1 X130.950 Y76.233 E42.1478
G1 X131.450 Y76.233 E42.1681
G1 X133.350 Y76.233 E42.2455
G1 X133.850 Y76.233 E42.2659
G1 X135.750 Y76.233 E42.3433
G1 X136.250 Y76.233 E42.3637
G1 X138.150 Y76.233 E42.4411
G1 X138.650 Y76.233 E42.4615
G1 X140.550 Y76.233 E42.5389
G1 X141.050 Y76.233 E42.5593
G1 X142.950 Y76.233 E42.6367
G1 X143.450 Y76.233 E42.6571
G1 X145.350 Y76.233 E42.7345
G1 X145.850 Y76.233 E42.7548
G1 X147.750 Y76.233 E42.8322
G1 X148.250 Y76.233 E42.8526
G1 X150.650 Y76.233 E42.9504
G1 X150.650 Y124.767 E44.9279
G1 X148.250 Y124.767 E45.0257
G1 X147.750 Y124.767 E45.0460
G1 X145.850 Y124.767 E45.1234
G1 X145.350 Y124.767 E45.1438
G1 X143.450 Y124.767 E45.2212
G1 X142.950 Y124.767 E45.2416
G1 X141.050 Y124.767 E45.3190
G1 X140.550 Y124.767 E45.3394
G1 X138.650 Y124.767 E45.4168
G1 X138.150 Y124.767 E45.4372
G1 X136.250 Y124.767 E45.5146
G1 X135.750 Y124.767 E45.5350
G1 X133.850 Y124.767 E45.6124
G1 X133.350 Y124.767 E45.6327
G1 X131.450 Y124.767 E45.7101
G1 X130.950 Y124.767 E45.7305
G1 X129.050 Y124.767 E45.8079
G1 X128.550 Y124.767 E45.8283
G1 X126.650 Y124.767 E45.9057
G1 X126.150 Y124.767 E45.9261
G1 X124.250 Y124.767 E46.0035
G1 X123.750 Y124.767 E46.0239
G1 X121.850 Y124.767 E46.1013
G1 X121.350 Y124.767 E46.1217
G1 X119.450 Y124.767 E46.1991
G1 X118.950 Y124.767 E46.2194
G1 X117.050 Y124.767 E46.2969
G1 X116.550 Y124.767 E46.3172
G1 X114.650 Y124.767 E46.3946
G1 X114.150 Y124.767 E46.4150
G1 X112.250 Y124.767 E46.4924
G1 X111.750 Y124.767 E46.5128
G1 X109.350 Y124.767 E46.6106
G1 X109.350 Y76.233 E48.5881
G1 X111.629 Y76.233 E48.6809
G0 X111.750 Y77.684 F5400
G1 X111.750 Y124.260 E50.5786 F3000
G1 X109.850 Y124.260 E50.6560
G1 X109.850 Y76.740 E52.5922
G1 X111.750 Y76.740 E52.6696
G1 X111.750 Y77.438 E52.6981
;segType:Perimeter
G0 X112.018 Y77.585 F5400
G1 X112.823 Y77.247 E52.7336 F2100
G1 X113.650 Y77.247 E52.7673
G1 X113.650 Y123.753 E54.6622
G1 X112.750 Y123.753 E54.6988
G1 X112.750 Y77.320 E56.5907
G1 X113.083 Y76.505
G0 X110.179 Y77.073 F5400
G0 X96.609 Y98.068
;segType:Loop
G1 X96.973 Y98.569 E56.6159 F3000
G1 X97.247 Y99.260 E56.6462
G1 X97.340 Y100.000 E56.6766
G1 X97.247 Y100.740 E56.7070
G1 X96.973 Y101.431 E56.7372
G1 X96.537 Y102.031 E56.7675
G1 X95.969 Y102.501 E56.7975
G1 X95.303 Y102.814 E56.8275
G1 X94.583 Y102.951 E56.8573
G1 X93.852 Y102.905 E56.8872
G1 X93.154 Y102.678 E56.9171
G1 X92.532 Y102.283 E56.9471
G1 X92.026 Y101.745 E56.9772
G1 X91.668 Y101.094 E57.0075
G1 X91.483 Y100.373 E57.0378
G1 X91.483 Y99.627 E57.0682
G1 X91.668 Y98.906 E57.0985
G1 X92.026 Y98.255 E57.1288
G1 X92.532 Y97.717 E57.1589
G1 X93.154 Y97.322 E57.1889
G1 X93.852 Y97.095 E57.2188
G1 X94.583 Y97.049 E57.2487
G1 X95.303 Y97.186 E57.2785
G1 X95.969 Y97.499 E57.3085
G1 X96.444 Y97.892 E57.3336
G0 X95.837 Y101.956 F5400
G1 X95.701 Y102.068 E57.3407 F3000
G1 X95.149 Y102.327 E57.3656
G1 X94.552 Y102.441 E57.3904
G1 X93.946 Y102.403 E57.4151
G1 X93.367 Y102.215 E57.4399
G1 X92.851 Y101.888 E57.4648
G1 X92.432 Y101.442 E57.4898
G1 X92.136 Y100.904 E57.5148
G1 X91.983 Y100.308 E57.5398
G1 X91.983 Y99.692 E57.5649
G1 X92.136 Y99.096 E57.5900
G1 X92.432 Y98.558 E57.6150
G1 X92.851 Y98.112 E57.6399
G1 X93.367 Y97.785 E57.6648
G1 X93.946 Y97.597 E57.6896
G1 X94.552 Y97.559 E57.7144
G1 X95.149 Y97.673 E57.7391
G1 X95.701 Y97.932 E57.7640
G1 X96.172 Y98.321 E57.7889
G1 X96.533 Y98.818 E57.8139
G1 X96.759 Y99.389 E57.8389
G1 X96.836 Y100.000 E57.8640
G1 X96.759 Y100.611 E57.8891
G1 X96.533 Y101.182 E57.9141
G1 X96.172 Y101.679 E57.9391
G1 X96.024 Y101.801 E57.9470
;segType:Perimeter
G0 X96.966 Y100.056 F5400
G1 X96.244 Y100.551 E57.9826 F2100
G1 X96.093 Y100.934 E57.9994
G1 X95.807 Y101.326 E58.0192
G1 X95.434 Y101.635 E58.0389
G1 X94.996 Y101.841 E58.0586
G1 X94.521 Y101.932 E58.0783
G1 X94.039 Y101.901 E58.0980
G1 X93.579 Y101.752 E58.1177
G1 X93.170 Y101.492 E58.1374
G1 X92.838 Y101.139 E58.1572
G1 X92.604 Y100.713 E58.1770
G1 X92.483 Y100.243 E58.1968
G1 X92.483 Y99.757 E58.2166
G1 X92.604 Y99.287 E58.2364
G1 X92.838 Y98.861 E58.2561
G1 X93.170 Y98.508 E58.2759
G1 X93.579 Y98.248 E58.2956
G1 X94.039 Y98.099 E58.3153
G1 X94.521 Y98.068 E58.3350
G1 X94.996 Y98.159 E58.3547
G1 X95.434 Y98.365 E58.3744
G1 X95.807 Y98.674 E58.3942
G1 X96.093 Y99.066 E58.4139
G1 X96.271 Y99.518 E58.4337
G1 X96.332 Y100.000 E58.4535
G1 X96.280 Y100.409 E58.4703
G1 X96.673 Y101.198
G0 X95.982 Y98.505 F5400
G0 X91.500 Y95.438
;segType:HShell
G1 X109.100 Y77.595 E59.4915 F3000
;segType:Perimeter
G0 X109.618 Y77.585 F5400
G1 X110.423 Y77.247 E59.5270 F2100
G1 X111.250 Y77.247 E59.5607
G1 X111.250 Y123.753 E61.4556
G1 X110.350 Y123.753 E61.4922
G1 X110.350 Y77.320 E63.3841
G1 X110.683 Y76.505
G0 X116.050 Y77.002 F5400
G0 X116.550 Y77.684
;segType:Loop
G1 X116.550 Y124.260 E65.2818 F3000
G1 X114.650 Y124.260 E65.3592
G1 X114.650 Y76.740 E67.2954
G1 X116.550 Y76.740 E67.3728
G1 X116.550 Y77.438 E67.4012
G0 X117.379 Y77.073 F5400
G0 X121.021 Y77.073
G0 X121.350 Y77.684
G1 X121.350 Y124.260 E69.2989 F3000
G1 X119.450 Y124.260 E69.3763
G1 X119.450 Y76.740 E71.3125
G1 X121.350 Y76.740 E71.3899
G1 X121.350 Y77.438 E71.4184
;segType:Perimeter
G0 X121.618 Y77.585 F5400
G1 X122.423 Y77.247 E71.4539 F2100
G1 X123.250 Y77.247 E71.4876
G1 X123.250 Y123.753 E73.3825
G1 X122.350 Y123.753 E73.4191
G1 X122.350 Y77.320 E75.3110
G1 X122.683 Y76.505
;segType:Loop
G0 X123.750 Y77.684 F5400
G1 X123.750 Y124.260 E77.2087 F3000
G1 X121.850 Y124.260 E77.2861
G1 X121.850 Y76.740 E79.2222
G1 X123.750 Y76.740 E79.2997
G1 X123.750 Y77.438 E79.3281
;segType:Perimeter
G0 X124.018 Y77.585 F5400
G1 X124.823 Y77.247 E79.3637 F2100
G1 X125.650 Y77.247 E79.3974
G1 X125.650 Y123.753 E81.2922
G1 X124.750 Y123.753 E81.3289
G1 X124.750 Y77.320 E83.2207
G1 X125.083 Y76.505
;segType:Loop
G0 X126.150 Y77.684 F5400
G1 X126.150 Y124.260 E85.1184 F3000
G1 X124.250 Y124.260 E85.1958
G1 X124.250 Y76.740 E87.1320
G1 X126.150 Y76.740 E87.2094
G1 X126.150 Y77.438 E87.2379
;segType:Perimeter
G0 X126.418 Y77.585 F5400
G1 X127.223 Y77.247 E87.2734 F2100
G1 X128.050 Y77.247 E87.3071
G1 X128.050 Y123.753 E89.2020
G1 X127.150 Y123.753 E89.2386
G1 X127.150 Y77.320 E91.1305
G1 X127.483 Y76.505
G0 X132.850 Y77.002 F5400
G0 X133.350 Y77.684
;segType:Loop
G1 X133.350 Y124.260 E93.0282 F3000
G1 X131.450 Y124.260 E93.1056
G1 X131.450 Y76.740 E95.0418
G1 X133.350 Y76.740 E95.1192
G1 X133.350 Y77.438 E95.1476
;segType:Perimeter
G0 X133.618 Y77.585 F5400
G1 X134.423 Y77.247 E95.1832 F2100
G1 X135.250 Y77.247 E95.2169
G1 X135.250 Y123.753 E97.1117
G1 X134.350 Y123.753 E97.1484
G1 X134.350 Y77.320 E99.0403
G1 X134.684 Y76.505
;segType:Loop
G0 X135.750 Y77.684 F5400
G1 X135.750 Y124.260 E100.9380 F3000
G1 X133.850 Y124.260 E101.0154
G1 X133.850 Y76.740 E102.9515
G1 X135.750 Y76.740 E103.0289
G1 X135.750 Y77.438 E103.0574
;segType:Perimeter
G0 X136.018 Y77.585 F5400
G1 X136.823 Y77.247 E103.0930 F2100
G1 X137.650 Y77.247 E103.1267
G1 X137.650 Y123.753 E105.0215
G1 X136.750 Y123.753 E105.0582
G1 X136.750 Y77.320 E106.9500
G1 X137.084 Y76.505
;segType:Loop
G0 X138.150 Y77.684 F5400
G1 X138.150 Y124.260 E108.8477 F3000
G1 X136.250 Y124.260 E108.9251
G1 X136.250 Y76.740 E110.8613
G1 X138.150 Y76.740 E110.9387
G1 X138.150 Y77.438 E110.9672
;segType:Perimeter
G0 X138.418 Y77.585 F5400
G1 X139.223 Y77.247 E111.0027 F2100
G1 X140.050 Y77.247 E111.0364
G1 X140.050 Y123.753 E112.9313
G1 X139.150 Y123.753 E112.9679
G1 X139.150 Y77.320 E114.8598
G1 X139.484 Y76.505
;segType:Loop
G0 X140.550 Y77.684 F5400
G1 X140.550 Y124.260 E116.7575 F3000
G1 X138.650 Y124.260 E116.8349
G1 X138.650 Y76.740 E118.7711
G1 X140.550 Y76.740 E118.8485
G1 X140.550 Y77.438 E118.8769
;segType:Perimeter
G0 X140.818 Y77.585 F5400
G1 X141.623 Y77.247 E118.9125 F2100
G1 X142.450 Y77.247 E118.9462
G1 X142.450 Y123.753 E120.8410
G1 X141.550 Y123.753 E120.8777
G1 X141.550 Y77.320 E122.7695
G1 X141.884 Y76.505
;segType:Loop
G0 X142.950 Y77.684 F5400
G1 X142.950 Y124.260 E124.6673 F3000
G1 X141.050 Y124.260 E124.7447
G1 X141.050 Y76.740 E126.6808
G1 X142.950 Y76.740 E126.7582
G1 X142.950 Y77.438 E126.7867
;segType:Perimeter
G0 X143.218 Y77.585 F5400
G1 X144.023 Y77.247 E126.8222 F2100
G1 X144.850 Y77.247 E126.8559
G1 X144.850 Y123.753 E128.7508
G1 X143.950 Y123.753 E128.7875
G1 X143.950 Y77.320 E130.6793
G1 X144.284 Y76.505
;segType:HShell
G0 X146.962 Y75.980 F5400
G1 X148.895 Y74.021 E130.7914 F3000
G1 X149.579 Y74.021
G1 X147.647 Y75.980 E130.9035
G1 X148.331 Y75.980
G1 X150.263 Y74.021 E131.0156
G1 X150.948 Y74.021
G1 X149.015 Y75.980 E131.1277
;segType:Perimeter
G0 X149.317 Y76.505 F5400
G1 X149.650 Y77.320 E131.1636 F2100
G1 X149.650 Y123.753 E133.0555
G1 X148.750 Y123.753 E133.0921
G1 X148.750 Y77.247 E134.9870
G1 X149.577 Y77.247 E135.0207
G1 X150.382 Y77.585
;segType:Loop
G0 X150.150 Y78.596 F5400
G1 X150.150 Y124.260 E136.8812 F3000
G1 X148.250 Y124.260 E136.9586
G1 X148.250 Y76.740 E138.8948
G1 X150.150 Y76.740 E138.9722
G1 X150.150 Y78.351 E139.0378
G0 X149.821 Y77.073 F5400
G0 X129.379 Y77.073
G0 X128.550 Y77.684
G1 X128.550 Y124.260 E140.9355 F3000
G1 X126.650 Y124.260 E141.0129
G1 X126.650 Y76.740 E142.9491
G1 X128.550 Y76.740 E143.0265
G1 X128.550 Y77.438 E143.0550
G0 X129.379 Y77.073 F5400
G0 X130.621 Y77.073
G0 X131.218 Y77.585
;segType:Perimeter
G1 X132.023 Y77.247 E143.0905 F2100
G1 X132.850 Y77.247 E143.1242
G1 X132.850 Y123.753 E145.0191
G1 X131.950 Y123.753 E145.0557
G1 X131.950 Y77.320 E146.9476
G1 X132.284 Y76.505
G0 X145.021 Y77.073 F5400
G0 X145.350 Y77.684
;segType:Loop
G1 X145.350 Y124.260 E148.8453 F3000
G1 X143.450 Y124.260 E148.9227
G1 X143.450 Y76.740 E150.8589
G1 X145.350 Y76.740 E150.9363
G1 X145.350 Y77.438 E150.9647
G0 X145.021 Y77.073 F5400
G0 X119.779 Y77.073
G0 X119.218 Y77.585
;segType:Perimeter
G1 X120.023 Y77.247 E151.0003 F2100
G1 X120.850 Y77.247 E151.0340
G1 X120.850 Y123.753 E152.9288
G1 X119.950 Y123.753 E152.9655
G1 X119.950 Y77.320 E154.8574
G1 X120.283 Y76.505
G0 X119.779 Y77.073 F5400
G0 X118.621 Y123.927
G0 X117.379 Y123.927
G0 X117.050 Y123.317
;segType:Loop
G1 X117.050 Y76.740 E156.7551 F3000
G1 X118.950 Y76.740 E156.8325
G1 X118.950 Y124.260 E158.7686
G1 X117.050 Y124.260 E158.8460
G1 X117.050 Y123.562 E158.8745
G0 X117.379 Y123.927 F5400
G0 X118.621 Y123.927
G0 X119.182 Y123.416
;segType:Perimeter
G1 X118.377 Y123.753 E158.9100 F2100
G1 X117.550 Y123.753 E158.9437
G1 X117.550 Y77.247 E160.8386
G1 X118.450 Y77.247 E160.8753
G1 X118.450 Y123.680 E162.7671
G1 X118.116 Y124.496
G0 X128.050 Y123.999 F5400
G0 X129.050 Y123.317
;segType:Loop
G1 X129.050 Y76.740 E164.6648 F3000
G1 X130.950 Y76.740 E164.7423
G1 X130.950 Y124.260 E166.6784
G1 X129.050 Y124.260 E166.7558
G1 X129.050 Y123.562 E166.7843
G0 X129.379 Y123.927 F5400
G0 X130.621 Y123.927
G0 X131.182 Y123.416
;segType:Perimeter
G1 X130.377 Y123.753 E166.8198 F2100
G1 X129.550 Y123.753 E166.8536
G1 X129.550 Y77.247 E168.7484
G1 X130.450 Y77.247 E168.7851
G1 X130.450 Y123.680 E170.6769
G1 X130.117 Y124.496
G0 X145.021 Y123.927 F5400
G0 X145.850 Y123.317
;segType:Loop
G1 X145.850 Y76.740 E172.5746 F3000
G1 X147.750 Y76.740 E172.6520
G1 X147.750 Y124.260 E174.5882
G1 X145.850 Y124.260 E174.6656
G1 X145.850 Y123.562 E174.6941
G0 X146.179 Y123.927 F5400
G0 X147.421 Y123.927
G0 X147.982 Y123.416
;segType:Perimeter
G1 X147.177 Y123.753 E174.7296 F2100
G1 X146.350 Y123.753 E174.7633
G1 X146.350 Y77.247 E176.6582
G1 X147.250 Y77.247 E176.6948
G1 X147.250 Y123.680 E178.5867
G1 X146.917 Y124.496
;segType:HShell
G0 X150.595 Y125.021 F5400
G1 X149.650 Y125.979 E178.6415 F3000
G1 X148.965 Y125.979
G1 X149.911 Y125.021 E178.6964
G1 X149.227 Y125.021
G1 X148.281 Y125.979 E178.7513
G1 X147.597 Y125.979
G1 X148.542 Y125.021 E178.8062
G1 X147.858 Y125.021
G1 X146.912 Y125.979 E178.8610
G1 X146.228 Y125.979
G1 X147.174 Y125.021 E178.9159
G1 X146.489 Y125.021
G1 X145.544 Y125.979 E178.9708
G1 X144.859 Y125.979
G1 X145.805 Y125.021 E179.0256
G1 X145.121 Y125.021
G1 X144.175 Y125.979 E179.0805
G1 X143.491 Y125.979
G1 X144.436 Y125.021 E179.1354
G1 X143.752 Y125.021
G1 X142.806 Y125.979 E179.1903
G1 X142.122 Y125.979
G1 X143.068 Y125.021 E179.2451
G1 X142.384 Y125.021
G1 X141.438 Y125.979 E179.3000
G1 X140.754 Y125.979
G1 X141.699 Y125.021 E179.3549
G1 X141.015 Y125.021
G1 X140.069 Y125.979 E179.4097
G1 X139.385 Y125.979
G1 X140.331 Y125.021 E179.4646
G1 X139.646 Y125.021
G1 X138.701 Y125.979 E179.5195
G1 X138.016 Y125.979
G1 X138.962 Y125.021 E179.5743
G1 X138.278 Y125.021
G1 X137.332 Y125.979 E179.6292
G1 X136.648 Y125.979
G1 X137.593 Y125.021 E179.6841
G1 X136.909 Y125.021
G1 X135.963 Y125.979 E179.7390
G1 X135.279 Y125.979
G1 X136.225 Y125.021 E179.7938
G1 X135.540 Y125.021
G1 X134.595 Y125.979 E179.8487
G1 X133.910 Y125.979
G1 X134.856 Y125.021 E179.9036
G1 X134.172 Y125.021
G1 X133.226 Y125.979 E179.9584
G1 X132.542 Y125.979
G1 X133.487 Y125.021 E180.0133
G1 X132.803 Y125.021
G1 X131.857 Y125.979 E180.0682
G1 X131.173 Y125.979
G1 X132.119 Y125.021 E180.1231
G1 X131.435 Y125.021
G1 X130.489 Y125.979 E180.1779
G1 X129.804 Y125.979
G1 X130.750 Y125.021 E180.2328
G1 X130.066 Y125.021
G1 X129.120 Y125.979 E180.2877
G1 X128.436 Y125.979
G1 X129.382 Y125.021 E180.3425
G1 X128.697 Y125.021
G1 X127.752 Y125.979 E180.3974
G1 X127.067 Y125.979
G1 X128.013 Y125.021 E180.4523
G1 X127.329 Y125.021
G1 X126.383 Y125.979 E180.5071
G1 X125.699 Y125.979
G1 X126.644 Y125.021 E180.5620
G1 X125.960 Y125.021
G1 X125.014 Y125.979 E180.6169
G1 X124.330 Y125.979
G1 X125.276 Y125.021 E180.6718
G1 X124.591 Y125.021
G1 X123.646 Y125.979 E180.7266
G1 X122.961 Y125.979
G1 X123.907 Y125.021 E180.7815
G1 X123.223 Y125.021
G1 X122.277 Y125.979 E180.8364
G1 X121.593 Y125.979
G1 X122.538 Y125.021 E180.8912
G1 X121.854 Y125.021
G1 X120.908 Y125.979 E180.9461
G1 X120.224 Y125.979
G1 X121.170 Y125.021 E181.0010
G1 X120.486 Y125.021
G1 X119.540 Y125.979 E181.0559
G1 X118.855 Y125.979
G1 X119.801 Y125.021 E181.1107
G1 X119.117 Y125.021
G1 X118.171 Y125.979 E181.1656
G1 X117.487 Y125.979
G1 X118.433 Y125.021 E181.2205
G1 X117.748 Y125.021
G1 X116.803 Y125.979 E181.2753
G1 X116.118 Y125.979
G1 X117.064 Y125.021 E181.3302
G1 X116.380 Y125.021
G1 X115.434 Y125.979 E181.3851
G1 X114.750 Y125.979
G1 X115.695 Y125.021 E181.4399
G1 X115.011 Y125.021
G1 X114.065 Y125.979 E181.4948
G1 X113.381 Y125.979
G1 X114.327 Y125.021 E181.5497
G1 X113.642 Y125.021
G1 X112.697 Y125.979 E181.6046
G1 X112.012 Y125.979
G1 X112.958 Y125.021 E181.6594
G1 X112.274 Y125.021
G1 X111.328 Y125.979 E181.7143
G1 X110.644 Y125.979
G1 X111.589 Y125.021 E181.7692
G1 X110.905 Y125.021
G1 X109.959 Y125.979 E181.8240
G1 X109.275 Y125.979
G1 X110.221 Y125.021 E181.8789
G1 X109.537 Y125.021
G1 X108.591 Y125.979 E181.9338
G1 X107.906 Y125.979
G1 X109.100 Y124.769 E182.0030
G1 X109.100 Y124.076
G1 X107.222 Y125.979 E182.1120
G1 X106.538 Y125.979
G1 X109.100 Y123.382 E182.2606
G1 X109.100 Y122.688
G1 X105.854 Y125.979 E182.4490
G1 X105.169 Y125.979
G1 X109.100 Y121.995 E182.6770
G1 X109.100 Y121.301
G1 X104.485 Y125.979 E182.9448
G1 X103.801 Y125.979
G1 X109.100 Y120.607 E183.2523
G1 X109.100 Y119.913
G1 X103.116 Y125.979 E183.5994
G1 X102.432 Y125.979
G1 X109.100 Y119.220 E183.9863
G1 X109.100 Y118.526
G1 X101.748 Y125.979 E184.4129
G1 X101.063 Y125.979
G1 X109.100 Y117.832 E184.8791
G1 X109.100 Y117.138
G1 X100.379 Y125.979 E185.3851
G1 X99.695 Y125.979
G1 X109.100 Y116.445 E185.9308
G1 X109.100 Y115.751
G1 X99.010 Y125.979 E186.5162
G1 X98.326 Y125.979
G1 X109.100 Y115.057 E187.1412
G1 X109.100 Y114.363
G1 X97.642 Y125.979 E187.8060
G1 X96.957 Y125.979
G1 X109.100 Y113.670 E188.5105
G1 X109.100 Y112.976
G1 X96.273 Y125.979 E189.2547
G1 X95.589 Y125.979
G1 X109.100 Y112.282 E190.0386
G1 X109.100 Y111.588
G1 X94.905 Y125.979 E190.8622
G1 X94.220 Y125.979
G1 X109.100 Y110.895 E191.7255
G1 X109.100 Y110.201
G1 X93.600 Y125.914 E192.6247
G1 X93.065 Y125.763
G1 X109.100 Y109.507 E193.5550
G1 X109.100 Y108.814
G1 X92.613 Y125.527 E194.5115
G1 X92.226 Y125.226
G1 X109.100 Y108.120 E195.4905
G1 X109.100 Y107.426
G1 X91.927 Y124.836 E196.4869
G1 X91.697 Y124.375
G1 X109.100 Y106.732 E197.4966
G1 X109.100 Y106.039
G1 X91.556 Y123.824 E198.5145
G1 X91.500 Y123.187
G1 X109.100 Y105.345 E199.5356
G1 X109.100 Y104.651
G1 X91.500 Y122.493 E200.5567
G1 X91.500 Y121.800
G1 X109.100 Y103.957 E201.5778
G1 X109.100 Y103.264
G1 X91.500 Y121.106 E202.5989
G1 X91.500 Y120.412
G1 X109.100 Y102.570 E203.6200
G1 X109.100 Y101.876
G1 X91.500 Y119.719 E204.6412
G1 X91.500 Y119.025
G1 X109.100 Y101.182 E205.6623
G1 X109.100 Y100.489
G1 X91.500 Y118.331 E206.6834
G1 X91.500 Y117.637
G1 X109.100 Y99.795 E207.7045
G1 X109.100 Y99.101
G1 X91.500 Y116.944 E208.7256
G1 X91.500 Y116.250
G1 X109.100 Y98.407 E209.7468
G1 X109.100 Y97.714
G1 X91.500 Y115.556 E210.7679
G1 X91.500 Y114.862
G1 X109.100 Y97.020 E211.7890
G1 X109.100 Y96.326
G1 X91.500 Y114.169 E212.8101
G1 X91.500 Y113.475
G1 X109.100 Y95.632 E213.8312
G1 X109.100 Y94.939
G1 X91.500 Y112.781 E214.8524
G1 X91.500 Y112.087
G1 X109.100 Y94.245 E215.8735
G1 X109.100 Y93.551
G1 X91.500 Y111.394 E216.8946
G1 X91.500 Y110.700
G1 X109.100 Y92.858 E217.9157
G1 X109.100 Y92.164
G1 X91.500 Y110.006 E218.9368
G1 X91.500 Y109.312
G1 X109.100 Y91.470 E219.9579
G1 X109.100 Y90.776
G1 X91.500 Y108.619 E220.9791
G1 X91.500 Y107.925
G1 X109.100 Y90.083 E222.0002
G1 X109.100 Y89.389
G1 X97.257 Y101.395 E222.6873
G1 X97.540 Y100.414
